data/spectral_luts/aerocolor_endura_premier.cube
TITLE "aerocolor_endura_premier"
LUT_3D_SIZE 33
0.0355726 0.0574625 0.0702543
0.0355726 0.0574625 0.0702543
0.0355289 0.0574561 0.0702527
0.0354110 0.0574387 0.0702486
0.0357650 0.0574882 0.0702605
0.0376185 0.0577554 0.0703292
0.0399568 0.0580846 0.0704135
0.0434439 0.0585743 0.0705416
0.0507410 0.0596054 0.0708007
0.0625535 0.0612743 0.0712293
0.0791299 0.0635894 0.0718249
0.1032125 0.0668533 0.0724656
0.1336207 0.0707155 0.0728734
0.1642441 0.0742245 0.0728472
0.2009224 0.0779273 0.0723222
0.2435403 0.0813745 0.0712265
0.2957963 0.0843057 0.0690699
0.3465589 0.0857739 0.0662538
0.3974608 0.0857276 0.0748629
0.4465718 0.0889585 0.0889585
0.4912992 0.1017959 0.1017959
0.5359541 0.1146125 0.1146125
0.5708858 0.1246384 0.1246384
0.6088241 0.1355273 0.1355273
0.6411534 0.1448063 0.1448063
0.6706991 0.1532863 0.1532863
0.6978212 0.1610708 0.1610708
0.7232271 0.1683626 0.1683626
0.7432153 0.1740995 0.1740995
0.7572693 0.1781332 0.1781332
0.7728903 0.1826167 0.1826167
0.7878829 0.1869198 0.1869198
0.7998620 0.1903580 0.1903580
0.0355738 0.0574574 0.0702534
0.0355738 0.0574574 0.0702534
0.0355216 0.0574484 0.0702513
0.0354087 0.0574312 0.0702472
0.0358216 0.0574924 0.0702674
0.0376183 0.0577528 0.0703343
0.0399562 0.0580819 0.0704213
0.0438404 0.0586276 0.0705697
0.0507390 0.0596002 0.0708219
0.0625454 0.0612866 0.0713000
0.0799527 0.0637774 0.0719225
0.1047159 0.0672033 0.0725429
0.1351993 0.0710566 0.0729423
0.1642870 0.0744218 0.0729122
0.2009711 0.0781086 0.0723749
0.2464418 0.0816625 0.0711132
0.2958138 0.0843555 0.0690734
0.3465589 0.0857739 0.0662538
0.3974608 0.0857276 0.0748629
0.4465718 0.0889585 0.0889585
0.4912992 0.1017959 0.1017959
0.5359696 0.1146170 0.1146170
0.5708858 0.1246384 0.1246384
0.6088241 0.1355273 0.1355273
0.6411534 0.1448063 0.1448063
0.6706991 0.1532863 0.1532863
0.6978212 0.1610708 0.1610708
0.7232271 0.1683626 0.1683626
0.7432153 0.1740995 0.1740995
0.7572693 0.1781332 0.1781332
0.7728903 0.1826167 0.1826167
0.7878829 0.1869198 0.1869198
0.7998620 0.1903580 0.1903580
0.0355742 0.0574521 0.0702580
0.0355655 0.0574508 0.0702577
0.0355132 0.0574424 0.0702558
0.0354050 0.0574245 0.0702544
0.0358222 0.0574846 0.0702744
0.0377770 0.0577655 0.0703462
0.0400376 0.0580914 0.0704382
0.0440319 0.0586854 0.0706018
0.0514377 0.0598025 0.0709142
0.0648288 0.0618336 0.0714976
0.0826841 0.0644606 0.0721238
0.1062503 0.0677913 0.0727395
0.1368596 0.0717951 0.0730990
0.1687949 0.0754660 0.0729882
0.2033147 0.0789287 0.0724692
0.2495880 0.0825554 0.0711630
0.2992575 0.0850909 0.0690545
0.3503179 0.0863429 0.0662776
0.4010985 0.0860982 0.0759070
0.4503440 0.0900412 0.0900412
0.4954576 0.1029894 0.1029894
0.5362127 0.1146868 0.1146868
0.5710501 0.1246856 0.1246856
0.6088241 0.1355273 0.1355273
0.6411963 0.1448186 0.1448186
0.6707568 0.1533029 0.1533029
0.6981323 0.1611601 0.1611601
0.7232271 0.1683626 0.1683626
0.7432153 0.1740995 0.1740995
0.7573964 0.1781697 0.1781697
0.7728903 0.1826167 0.1826167
0.7878829 0.1869198 0.1869198
0.7998620 0.1903580 0.1903580
0.0355488 0.0575192 0.0702781
0.0355377 0.0575269 0.0702821
0.0354805 0.0575383 0.0702864
0.0353696 0.0575363 0.0702878
0.0358667 0.0576664 0.0703217
0.0377740 0.0580152 0.0704156
0.0402191 0.0584362 0.0705328
0.0441646 0.0590701 0.0707131
0.0517227 0.0603489 0.0711334
0.0654368 0.0625335 0.0717547
0.0836115 0.0652763 0.0724096
0.1093700 0.0689711 0.0730222
0.1401710 0.0729564 0.0732766
0.1712061 0.0765174 0.0731257
0.2079362 0.0801066 0.0725565
0.2527784 0.0834962 0.0712991
0.3027654 0.0859196 0.0691165
0.3542202 0.0872067 0.0664054
0.4051102 0.0873953 0.0770584
0.4546334 0.0912723 0.0912723
0.4995728 0.1041705 0.1041705
0.5400385 0.1157848 0.1157848
0.5747707 0.1257535 0.1257535
0.6100557 0.1358808 0.1358808
0.6426168 0.1452263 0.1452263
0.6726031 0.1538328 0.1538328
0.6993892 0.1615208 0.1615208
0.7242222 0.1686482 0.1686482
0.7437603 0.1742560 0.1742560
0.7592753 0.1787090 0.1787090
0.7728903 0.1826167 0.1826167
0.7878829 0.1869198 0.1869198
0.7998620 0.1903580 0.1903580
0.0353886 0.0581658 0.0704137
0.0353792 0.0581651 0.0704176
0.0353192 0.0581871 0.0704250
0.0352005 0.0582306 0.0704356
0.0357971 0.0584114 0.0704849
0.0377567 0.0588183 0.0705974
0.0401239 0.0592759 0.0707330
0.0443867 0.0600512 0.0710298
0.0526724 0.0614565 0.0715190
0.0666878 0.0636741 0.0721241
0.0854887 0.0665574 0.0727853
0.1110117 0.0701241 0.0733067
0.1419451 0.0740779 0.0734837
0.1777438 0.0779990 0.0732136
0.2103969 0.0811319 0.0727417
0.2560733 0.0846603 0.0714686
0.3098871 0.0875724 0.0691472
0.3585892 0.0892539 0.0668960
0.4130639 0.0895421 0.0793412
0.4592720 0.0926036 0.0926036
0.5039898 0.1054383 0.1054383
0.5441997 0.1169791 0.1169791
0.5791178 0.1270011 0.1270011
0.6181380 0.1382005 0.1382005
0.6480320 0.1467805 0.1467805
0.6778202 0.1553302 0.1553302
0.7040825 0.1628678 0.1628678
0.7283838 0.1698427 0.1698427
0.7482951 0.1755575 0.1755575
0.7619422 0.1794744 0.1794744
0.7787642 0.1843026 0.1843026
0.7911928 0.1878698 0.1878698
0.8021766 0.1910223 0.1910223
0.0351266 0.0592308 0.0706267
0.0351170 0.0592301 0.0706310
0.0350585 0.0592232 0.0706403
0.0349460 0.0593199 0.0706671
0.0356115 0.0594947 0.0707253
0.0375575 0.0598948 0.0708756
0.0399397 0.0604303 0.0711183
0.0447713 0.0612354 0.0714628
0.0532516 0.0626157 0.0719326
0.0672794 0.0647829 0.0725496
0.0864455 0.0676486 0.0731353
0.1142538 0.0715815 0.0736223
0.1454127 0.0756321 0.0737614
0.1823113 0.0797982 0.0735097
0.2202025 0.0836088 0.0728615
0.2627755 0.0870017 0.0716464
0.3140768 0.0902463 0.0696358
0.3670239 0.0921677 0.0671751
0.4179299 0.0928588 0.0807379
0.4679696 0.0951000 0.0951000
0.5128660 0.1079859 0.1079859
0.5494516 0.1184865 0.1184865
0.5847709 0.1286237 0.1286237
0.6246007 0.1400554 0.1400554
0.6566383 0.1492507 0.1492507
0.6830853 0.1568413 0.1568413
0.7093628 0.1643834 0.1643834
0.7339614 0.1714435 0.1714435
0.7540005 0.1771951 0.1771951
0.7680858 0.1812377 0.1812377
0.7852873 0.1861748 0.1861748
0.7970855 0.1895611 0.1895611
0.8079760 0.1926868 0.1926868
0.0348622 0.0602620 0.0708632
0.0348421 0.0602613 0.0708764
0.0347678 0.0603224 0.0709270
0.0346914 0.0603506 0.0709719
0.0354310 0.0606135 0.0710983
0.0374184 0.0610648 0.0713159
0.0400121 0.0615987 0.0715824
0.0447560 0.0624680 0.0719117
0.0534076 0.0641407 0.0724509
0.0678534 0.0664264 0.0730343
0.0883978 0.0697184 0.0736090
0.1160767 0.0737938 0.0740348
0.1474771 0.0780636 0.0742172
0.1851069 0.0826444 0.0739730
0.2236630 0.0867056 0.0733543
0.2670180 0.0907960 0.0723029
0.3220288 0.0942568 0.0702894
0.3725209 0.0969695 0.0680014
0.4238123 0.0988322 0.0824262
0.4744154 0.0995933 0.0969500
0.5193172 0.1098375 0.1098375
0.5588702 0.1211898 0.1211898
0.5940195 0.1312781 0.1312781
0.6311799 0.1419437 0.1419437
0.6627424 0.1510026 0.1510026
0.6918682 0.1593622 0.1593622
0.7155517 0.1661597 0.1661597
0.7408875 0.1734314 0.1734314
0.7608839 0.1791707 0.1791707
0.7759581 0.1834972 0.1834972
0.7915090 0.1879605 0.1879605
0.8040450 0.1915586 0.1915586
0.8169655 0.1952669 0.1984529
0.0343493 0.0621289 0.0714029
0.0343133 0.0622144 0.0714527
0.0342476 0.0622136 0.0715054
0.0341789 0.0622972 0.0715715
0.0349463 0.0627072 0.0717518
0.0370045 0.0633185 0.0719867
0.0397977 0.0638366 0.0722346
0.0450117 0.0649905 0.0726397
0.0547654 0.0667702 0.0731324
0.0704264 0.0696454 0.0737106
0.0917091 0.0731797 0.0742562
0.1197333 0.0777179 0.0747408
0.1534557 0.0823029 0.0748883
0.1905101 0.0872687 0.0746632
0.2304117 0.0919838 0.0741382
0.2750907 0.0967492 0.0731075
0.3279283 0.1016385 0.0715129
0.3831381 0.1052184 0.0707521
0.4340336 0.1076952 0.0853598
0.4817230 0.1090037 0.0990474
0.5267050 0.1119579 0.1119579
0.5652613 0.1230241 0.1230241
0.6005962 0.1331658 0.1331658
0.6381267 0.1439376 0.1439376
0.6708044 0.1533166 0.1533166
0.7000211 0.1617022 0.1617022
0.7268780 0.1694105 0.1694105
0.7494065 0.1758765 0.1758765
0.7693952 0.1816135 0.1816135
0.7834150 0.1856375 0.1856375
0.8015122 0.1908316 0.1908316
0.8155394 0.1948576 0.1948576
0.8274373 0.2035193 0.2060256
0.0334568 0.0652668 0.0722667
0.0334439 0.0652685 0.0722872
0.0332915 0.0655707 0.0723974
0.0332679 0.0657356 0.0724858
0.0342273 0.0660571 0.0726488
0.0362138 0.0668871 0.0729213
0.0391996 0.0675312 0.0731441
0.0444150 0.0690837 0.0735478
0.0546123 0.0711637 0.0740189
0.0708741 0.0742734 0.0745895
0.0930220 0.0786139 0.0752383
0.1254210 0.0839121 0.0756967
0.1589845 0.0897192 0.0759984
0.1944715 0.0947037 0.0758569
0.2353670 0.1000849 0.0754512
0.2809435 0.1053409 0.0745638
0.3342523 0.1102335 0.0729237
0.3902869 0.1143070 0.0728039
0.4406767 0.1163039 0.0872665
0.4930543 0.1188064 0.1022997
0.5378916 0.1213495 0.1151686
0.5794330 0.1270916 0.1270916
0.6093929 0.1356905 0.1356905
0.6508757 0.1475967 0.1475967
0.6805477 0.1561130 0.1561130
0.7098601 0.1645261 0.1645261
0.7364491 0.1721575 0.1721575
0.7585761 0.1785083 0.1785083
0.7813006 0.1850306 0.1850306
0.7966368 0.1894323 0.1894323
0.8143091 0.2054863 0.1945045
0.8287898 0.2249861 0.1986607
0.8397961 0.2373547 0.2171696
0.0316677 0.0711519 0.0735955
0.0316606 0.0711571 0.0736298
0.0315061 0.0714471 0.0736914
0.0316064 0.0714754 0.0737635
0.0327136 0.0719691 0.0739072
0.0346250 0.0735275 0.0742367
0.0375783 0.0742890 0.0744345
0.0435940 0.0761165 0.0748447
0.0548722 0.0786092 0.0753615
0.0728134 0.0818278 0.0759260
0.0955265 0.0860177 0.0765079
0.1279690 0.0914710 0.0770067
0.1623941 0.0969285 0.0772598
0.1984060 0.1021626 0.0771956
0.2405202 0.1090410 0.0771373
0.2870100 0.1147165 0.0764059
0.3445152 0.1202301 0.0743499
0.4054732 0.1267100 0.0771626
0.4565243 0.1306366 0.0918150
0.5033188 0.1358924 0.1052457
0.5556996 0.1410024 0.1202798
0.5895811 0.1440713 0.1300043
0.6202407 0.1498125 0.1388040
0.6615236 0.1553218 0.1506528
0.6912946 0.1617953 0.1591975
0.7267578 0.1729153 0.1693760
0.7510101 0.1861498 0.1763368
0.7750403 0.1993213 0.1832338
0.7970762 0.2166655 0.1895584
0.8130289 0.2285430 0.1941371
0.8284649 0.2437117 0.1985674
0.8405249 0.2564756 0.2050700
0.8517398 0.2703878 0.2286278
0.0293372 0.0780339 0.0749174
0.0293307 0.0780385 0.0749456
0.0291869 0.0783303 0.0750023
0.0294003 0.0783728 0.0750518
0.0306237 0.0788869 0.0751764
0.0326714 0.0801676 0.0754821
0.0359116 0.0809830 0.0756909
0.0425423 0.0832452 0.0761661
0.0539868 0.0858690 0.0767081
0.0729320 0.0901360 0.0774208
0.0992642 0.0945813 0.0780407
0.1306904 0.1014401 0.0787157
0.1664703 0.1083813 0.0792144
0.2079997 0.1156735 0.0792015
0.2467581 0.1222957 0.0792905
0.3042040 0.1302392 0.0781784
0.3534348 0.1367232 0.0771624
0.4153814 0.1450883 0.0800064
0.4672262 0.1502525 0.0948866
0.5141891 0.1547626 0.1083657
0.5666645 0.1626775 0.1234269
0.6044266 0.1691259 0.1342652
0.6374968 0.1799570 0.1437568
0.6765069 0.1884520 0.1549533
0.7079462 0.2005361 0.1639768
0.7445248 0.2159305 0.1744754
0.7710317 0.2247249 0.1820833
0.7917213 0.2367854 0.1880215
0.8123426 0.2525660 0.1939401
0.8271116 0.2660534 0.1981790
0.8407509 0.2770538 0.2020937
0.8533185 0.2921817 0.2226438
0.8646898 0.3072918 0.2403414
0.0256434 0.0876389 0.0765833
0.0256380 0.0876424 0.0766037
0.0253811 0.0882516 0.0767053
0.0257599 0.0883247 0.0767672
0.0271378 0.0892146 0.0769677
0.0288274 0.0914736 0.0773721
0.0321842 0.0927107 0.0776925
0.0399620 0.0945662 0.0780635
0.0526900 0.0985860 0.0788187
0.0741203 0.1033024 0.0795150
0.1003240 0.1096570 0.0805801
0.1374785 0.1176305 0.0812949
0.1756429 0.1239787 0.0816570
0.2134452 0.1315433 0.0821087
0.2597157 0.1397182 0.0817226
0.3129055 0.1492005 0.0808315
0.3638838 0.1585847 0.0798649
0.4267416 0.1683470 0.0832669
0.4840782 0.1773513 0.0997234
0.5296392 0.1867779 0.1128000
0.5818951 0.1965397 0.1277983
0.6224077 0.2108839 0.1394260
0.6610696 0.2195321 0.1505225
0.6927598 0.2256950 0.1596181
0.7270968 0.2397718 0.1694733
0.7588499 0.2498546 0.1785869
0.7867580 0.2639407 0.1865969
0.8066562 0.2753802 0.1923080
0.8275863 0.2935924 0.1983153
0.8391041 0.3018354 0.2016210
0.8552205 0.3179284 0.2094706
0.8690361 0.3383074 0.2339069
0.8782938 0.3476158 0.2521962
0.0196984 0.1009179 0.0787450
0.0196984 0.1009179 0.0787450
0.0196770 0.1009303 0.0788129
0.0198870 0.1017291 0.0789409
0.0214263 0.1027738 0.0791834
0.0230950 0.1046212 0.0795843
0.0267449 0.1060033 0.0798818
0.0351150 0.1093539 0.0805650
0.0498475 0.1153763 0.0816790
0.0721809 0.1201356 0.0824941
0.1022770 0.1289776 0.0834894
0.1403991 0.1365474 0.0841726
0.1810748 0.1477332 0.0847547
0.2200622 0.1554368 0.0852337
0.2691419 0.1679132 0.0848573
0.3246871 0.1810441 0.0840694
0.3853684 0.1936769 0.0813223
0.4419547 0.2047062 0.0876333
0.5005929 0.2157436 0.1044634
0.5541222 0.2261250 0.1198270
0.5987155 0.2366330 0.1326260
0.6367869 0.2443187 0.1435530
0.6764763 0.2547306 0.1549445
0.7094240 0.2655061 0.1644009
0.7478184 0.2773215 0.1754207
0.7756607 0.2925119 0.1834119
0.8029186 0.3054878 0.1912352
0.8228868 0.3186651 0.1969664
0.8426841 0.3354004 0.2026485
0.8577952 0.3491372 0.2069857
0.8714853 0.3670300 0.2268243
0.8829349 0.3808927 0.2450464
0.8946295 0.3998595 0.2726220
0.0088940 0.1219208 0.0816695
0.0090901 0.1235357 0.0819759
0.0090901 0.1235357 0.0819759
0.0091074 0.1236775 0.0821479
0.0093534 0.1256727 0.0824039
0.0105983 0.1278283 0.0829084
0.0138672 0.1303264 0.0836428
0.0216060 0.1371509 0.0844697
0.0400088 0.1416087 0.0853055
0.0687116 0.1473642 0.0861232
0.1009090 0.1573248 0.0873943
0.1464438 0.1666426 0.0876984
0.1862860 0.1783349 0.0883748
0.2322151 0.1875650 0.0883837
0.2785971 0.2001699 0.0879152
0.3359892 0.2141894 0.0860526
0.3974096 0.2241611 0.0832334
0.4551667 0.2373619 0.0914254
0.5152668 0.2509072 0.1086750
0.5697907 0.2643778 0.1243241
0.6139163 0.2741962 0.1369888
0.6535078 0.2866436 0.1483522
0.6944086 0.2998511 0.1600913
0.7277992 0.3131635 0.1696749
0.7666430 0.3274772 0.1808236
0.7924404 0.3384425 0.1882279
0.8197982 0.3524919 0.1960800
0.8416615 0.3669870 0.2023550
0.8556287 0.3778225 0.2063639
0.8756399 0.4005220 0.2187162
0.8854567 0.4107744 0.2371539
0.8966085 0.4261257 0.2645181
0.9080398 0.4448815 0.2851383
0.0125724 0.1493682 0.0854896
0.0125724 0.1493682 0.0854896
0.0125760 0.1493928 0.0856037
0.0128172 0.1510166 0.0857018
0.0131349 0.1531294 0.0862215
0.0132288 0.1537483 0.0865278
0.0136385 0.1564177 0.0870785
0.0142077 0.1600507 0.0880433
0.0259365 0.1685288 0.0890913
0.0609289 0.1752293 0.0900794
0.1024741 0.1838631 0.0909232
0.1450279 0.1972637 0.0913054
0.1927441 0.2080103 0.0917009
0.2387936 0.2224788 0.0908326
0.2872373 0.2329535 0.0901513
0.3506174 0.2499631 0.0877808
0.4103519 0.2611199 0.0848310
0.4694774 0.2770770 0.0955328
0.5262203 0.2900093 0.1118188
0.5856854 0.3059450 0.1288861
0.6291326 0.3144281 0.1413561
0.6692370 0.3291150 0.1528667
0.7111266 0.3445264 0.1648896
0.7447578 0.3592543 0.1745423
0.7823584 0.3721054 0.1853342
0.8093573 0.3878410 0.1930833
0.8364840 0.4033819 0.2008690
0.8581011 0.4182516 0.2070735
0.8735477 0.4300628 0.2115069
0.8881788 0.4446965 0.2282106
0.9000141 0.4604794 0.2555034
0.9120624 0.4799053 0.2759806
0.9216077 0.4951129 0.3069048
0.0170494 0.1770250 0.0893031
0.0170494 0.1770250 0.0893031
0.0170494 0.1770250 0.0893031
0.0170550 0.1770566 0.0893033
0.0175134 0.1796355 0.0902112
0.0179803 0.1822214 0.0904818
0.0185789 0.1854810 0.0915021
0.0201788 0.1939022 0.0923705
0.0214272 0.2002064 0.0932909
0.0426120 0.2077563 0.0944316
0.0962775 0.2155391 0.0945023
0.1481874 0.2318077 0.0943920
0.1955153 0.2431753 0.0943440
0.2441713 0.2597491 0.0931078
0.3030699 0.2731607 0.0919602
0.3616960 0.2914047 0.0890475
0.4235860 0.3046018 0.0875103
0.4925594 0.3239395 0.1021576
0.5415524 0.3347097 0.1162193
0.6019487 0.3528595 0.1335540
0.6465172 0.3660095 0.1463458
0.6850797 0.3756866 0.1574138
0.7277738 0.3929598 0.1696676
0.7671074 0.4097345 0.1809569
0.7996048 0.4268604 0.1902842
0.8256520 0.4386242 0.1977601
0.8525885 0.4554010 0.2054913
0.8737655 0.4708695 0.2115694
0.8897794 0.4863111 0.2260368
0.9030598 0.4972745 0.2454426
0.9142396 0.5131006 0.2750200
0.9244688 0.5276990 0.2968908
0.9328306 0.5384714 0.3201873
0.0235467 0.2104360 0.0932707
0.0235742 0.2105652 0.0938134
0.0235742 0.2105652 0.0938134
0.0235742 0.2105652 0.0938134
0.0241411 0.2132077 0.0940853
0.0248254 0.2163494 0.0946588
0.0257016 0.2202998 0.0954983
0.0268812 0.2254956 0.0965677
0.0291193 0.2349997 0.0971287
0.0313296 0.2439762 0.0977838
0.0861216 0.2553465 0.0974062
0.1441780 0.2681991 0.0974166
0.1990610 0.2869175 0.0968236
0.2512254 0.3001184 0.0964012
0.3071899 0.3195771 0.0942682
0.3709426 0.3318932 0.0937215
0.4397103 0.3470732 0.0902355
0.5054187 0.3675463 0.1058484
0.5657731 0.3873357 0.1231710
0.6167524 0.3990666 0.1378028
0.6622037 0.4175689 0.1508480
0.6980032 0.4279710 0.1611230
0.7410372 0.4469719 0.1734744
0.7823541 0.4608622 0.1853330
0.8123125 0.4765579 0.1939315
0.8395919 0.4861887 0.2017610
0.8661488 0.5022044 0.2093833
0.8855593 0.5147136 0.2244185
0.9000152 0.5293475 0.2438049
0.9153427 0.5444768 0.2642673
0.9253517 0.5557217 0.2864085
0.9350721 0.5721568 0.3193399
0.9441750 0.5877399 0.3437474
0.0318638 0.2460898 0.0974603
0.0318638 0.2460898 0.0974603
0.0318638 0.2460898 0.0974603
0.0319083 0.2462651 0.0981756
0.0319879 0.2465778 0.0981516
0.0328768 0.2500418 0.0987268
0.0353630 0.2594495 0.0993883
0.0362763 0.2628081 0.0998641
0.0385429 0.2709362 0.1005223
0.0413614 0.2807369 0.1012925
0.0741941 0.2941646 0.1005726
0.1370654 0.3134650 0.1015104
0.1972308 0.3277675 0.0997748
0.2536237 0.3425755 0.0998526
0.3209040 0.3627689 0.0989374
0.3797170 0.3774639 0.0954403
0.4512098 0.3940664 0.0924478
0.5175229 0.4160056 0.1093225
0.5780395 0.4305609 0.1266917
0.6309118 0.4500025 0.1418668
0.6782894 0.4621414 0.1554648
0.7182692 0.4767933 0.1669396
0.7546142 0.4954942 0.1773712
0.7951996 0.5061963 0.1890198
0.8249305 0.5224671 0.1975530
0.8541512 0.5391161 0.2059398
0.8783674 0.5493811 0.2218845
0.8976393 0.5617728 0.2413950
0.9119014 0.5776647 0.2622657
0.9270427 0.5940725 0.2840785
0.9368851 0.6056757 0.3077107
0.9445989 0.6131821 0.3326090
0.9528525 0.6288285 0.3663642
0.0423762 0.2842726 0.1015594
0.0423762 0.2842726 0.1015594
0.0423762 0.2842726 0.1015594
0.0424471 0.2845194 0.1025506
0.0425037 0.2847168 0.1025276
0.0441958 0.2906122 0.1031059
0.0455429 0.2953056 0.1032200
0.0474288 0.3018765 0.1053624
0.0499345 0.3106067 0.1048838
0.0531338 0.3217536 0.1060804
0.0566483 0.3339984 0.1060651
0.1319382 0.3548664 0.1055588
0.1956683 0.3700118 0.1052800
0.2574631 0.3861648 0.1063206
0.3253672 0.4029921 0.1029232
0.3905333 0.4231964 0.1049666
0.4603288 0.4408452 0.1060775
0.5278344 0.4638383 0.1122820
0.5901487 0.4796682 0.1301672
0.6463938 0.4943722 0.1463103
0.6905614 0.5145786 0.1589871
0.7305025 0.5264395 0.1704508
0.7666921 0.5410094 0.1808377
0.8062954 0.5599000 0.1922045
0.8371903 0.5705076 0.2010718
0.8660895 0.5880114 0.2184566
0.8903648 0.5967926 0.2336797
0.9089090 0.6095638 0.2596529
0.9252031 0.6251208 0.2818204
0.9368948 0.6399705 0.3055250
0.9456002 0.6472784 0.3309204
0.9535673 0.6572611 0.3555559
0.9614189 0.6701418 0.3796440
0.0530886 0.3215961 0.1079272
0.0530886 0.3215961 0.1079272
0.0530886 0.3215961 0.1079272
0.0530886 0.3215961 0.1079272
0.0531415 0.3217803 0.1086658
0.0535012 0.3230335 0.1084806
0.0550623 0.3284728 0.1097674
0.0572610 0.3361332 0.1127265
0.0606153 0.3478203 0.1130816
0.0642864 0.3606108 0.1139920
0.0691622 0.3775986 0.1153807
0.1106160 0.3889727 0.1132253
0.1879698 0.4063005 0.1151608
0.2546445 0.4296943 0.1158391
0.3221347 0.4478512 0.1168614
0.3949245 0.4677731 0.1206987
0.4783640 0.4948339 0.1156980
0.5407723 0.5129710 0.1270860
0.5949680 0.5256482 0.1406778
0.6581893 0.5469790 0.1496958
0.7008757 0.5595855 0.1619475
0.7427714 0.5787581 0.1739721
0.7847584 0.5911934 0.1860230
0.8168805 0.6054627 0.2022418
0.8475139 0.6158047 0.2211453
0.8759798 0.6310955 0.2403315
0.8997360 0.6403999 0.2621816
0.9183449 0.6547746 0.2847578
0.9333000 0.6660249 0.3090816
0.9430594 0.6736813 0.3349025
0.9528118 0.6856601 0.3541962
0.9624594 0.6956339 0.3786095
0.9678305 0.7023430 0.4037658
0.0645522 0.3615367 0.1159820
0.0645522 0.3615367 0.1159820
0.0645522 0.3615367 0.1159820
0.0647551 0.3622439 0.1184037
0.0647551 0.3622439 0.1184037
0.0650466 0.3632593 0.1182356
0.0668175 0.3694296 0.1186211
0.0691054 0.3774008 0.1225999
0.0716760 0.3863573 0.1235540
0.0751617 0.3985020 0.1225788
0.0801326 0.4158213 0.1262218
0.0888079 0.4340867 0.1272232
0.1805719 0.4551498 0.1300092
0.2529811 0.4730321 0.1318727
0.3302481 0.4934961 0.1353013
0.4077480 0.5106756 0.1361289
0.4782724 0.5357078 0.1411115
0.5469320 0.5545524 0.1528695
0.6137468 0.5707124 0.1542960
0.6663839 0.5908394 0.1680954
0.7086679 0.6008503 0.1830100
0.7515826 0.6175568 0.1885581
0.7935931 0.6299688 0.2051020
0.8247811 0.6406236 0.2243870
0.8615368 0.6569667 0.2430417
0.8883265 0.6668731 0.2651432
0.9055443 0.6773858 0.2834145
0.9256115 0.6918600 0.3073358
0.9396598 0.7002183 0.3332186
0.9502992 0.7138219 0.3577332
0.9580467 0.7182974 0.3830141
0.9674959 0.7311727 0.4027199
0.9747427 0.7445952 0.4281820
0.0743242 0.3955838 0.1288108
0.0743242 0.3955838 0.1288108
0.0743242 0.3955838 0.1288108
0.0745744 0.3964556 0.1323557
0.0745744 0.3964556 0.1323557
0.0748196 0.3973098 0.1322178
0.0765067 0.4031880 0.1332104
0.0789269 0.4116202 0.1356526
0.0816483 0.4211020 0.1377554
0.0856911 0.4351879 0.1419483
0.0908154 0.4530415 0.1429938
0.0955494 0.4695354 0.1465330
0.1661154 0.4931909 0.1520174
0.2440868 0.5105457 0.1534517
0.3224705 0.5279752 0.1579912
0.4023066 0.5500826 0.1692982
0.4805140 0.5746635 0.1730728
0.5518382 0.5929944 0.1786179
0.6205538 0.6097616 0.1810890
0.6723141 0.6270366 0.1947280
0.7193601 0.6394798 0.2013940
0.7543918 0.6511989 0.2196701
0.7979778 0.6689146 0.2321043
0.8320115 0.6777727 0.2530244
0.8677223 0.6895880 0.2745183
0.8935348 0.7041274 0.2865708
0.9163085 0.7141310 0.3113260
0.9318638 0.7290466 0.3369727
0.9454832 0.7338298 0.3566208
0.9556336 0.7467839 0.3815330
0.9665354 0.7598189 0.4066675
0.9724651 0.7627636 0.4222429
0.9791982 0.7759640 0.4531451
0.0822790 0.4232997 0.1500768
0.0822790 0.4232997 0.1500768
0.0822790 0.4232997 0.1500768
0.0822790 0.4232997 0.1500768
0.0830316 0.4259216 0.1521977
0.0830316 0.4259216 0.1521977
0.0855821 0.4348081 0.1560056
0.0883149 0.4443296 0.1597154
0.0916045 0.4557908 0.1635319
0.0957592 0.4702664 0.1674398
0.1006213 0.4872066 0.1674366
0.1065904 0.5080041 0.1769259
0.1374764 0.5221866 0.1767459
0.2363514 0.5478808 0.1837415
0.3270728 0.5692323 0.1865115
0.4129823 0.5887953 0.1926557
0.4927493 0.6089951 0.1956030
0.5605913 0.6273609 0.2040028
0.6210986 0.6459271 0.2088692
0.6809621 0.6629436 0.2239896
0.7247264 0.6754293 0.2325575
0.7692180 0.6936131 0.2455461
0.8036152 0.7030775 0.2673529
0.8448601 0.7144208 0.2783789
0.8722847 0.7302237 0.3016532
0.8994421 0.7401423 0.3210699
0.9223388 0.7527213 0.3460679
0.9352676 0.7594979 0.3605037
0.9499049 0.7725975 0.3855368
0.9588739 0.7768160 0.4061510
0.9695374 0.7891626 0.4320707
0.9762371 0.7960083 0.4576758
0.9827833 0.8045040 0.4776683
0.0925429 0.4590603 0.1796365
0.0925429 0.4590603 0.1796365
0.0925429 0.4590603 0.1796365
0.0925429 0.4590603 0.1796365
0.0925429 0.4590603 0.1796365
0.0925429 0.4590603 0.1796365
0.0938956 0.4637735 0.1823164
0.0967506 0.4737206 0.1877750
0.1007822 0.4877673 0.1926439
0.1048176 0.5018272 0.1934234
0.1112567 0.5242618 0.1957590
0.1169014 0.5439290 0.2039510
0.1218351 0.5611185 0.2065318
0.2354645 0.5828195 0.2114569
0.3156319 0.5986935 0.2140002
0.4120875 0.6218817 0.2179420
0.4882930 0.6445211 0.2267635
0.5636763 0.6637134 0.2323398
0.6340132 0.6815672 0.2384835
0.6856671 0.6956754 0.2468037
0.7296332 0.7114678 0.2613130
0.7738094 0.7252538 0.2822779
0.8091547 0.7358035 0.2944864
0.8472594 0.7498240 0.3123175
0.8767439 0.7609647 0.3376237
0.9040549 0.7698342 0.3509381
0.9266362 0.7841936 0.3751337
0.9423987 0.7888696 0.3902204
0.9537280 0.8000956 0.4103900
0.9648424 0.8075995 0.4369299
0.9727726 0.8157992 0.4570602
0.9792692 0.8223225 0.4825190
0.9860148 0.8318072 0.4976210
0.1008283 0.4879278 0.2039868
0.1008283 0.4879278 0.2039868
0.1008283 0.4879278 0.2039868
0.1008283 0.4879278 0.2039868
0.1011848 0.4891699 0.2093198
0.1013121 0.4896137 0.2092884
