data/spectral_luts/aerocolor_high_endura_premier.cube
TITLE "aerocolor_high_endura_premier"
LUT_3D_SIZE 33
0.0362573 0.0581498 0.0707672
0.0361921 0.0581402 0.0707650
0.0361630 0.0581359 0.0707640
0.0357050 0.0580688 0.0707481
0.0352583 0.0580029 0.0707323
0.0356989 0.0580679 0.0707478
0.0375495 0.0583366 0.0708111
0.0395625 0.0586212 0.0708767
0.0426700 0.0590557 0.0709742
0.0489132 0.0599295 0.0711315
0.0602370 0.0614896 0.0712241
0.0768194 0.0637477 0.0714558
0.1004412 0.0665594 0.0716684
0.1367455 0.0706959 0.0717211
0.1728923 0.0743635 0.0713864
0.2139053 0.0777661 0.0706417
0.2638485 0.0808766 0.0689826
0.3180318 0.0827701 0.0661094
0.3713398 0.0832701 0.0673658
0.4279576 0.0836159 0.0836159
0.4859254 0.1002536 0.1002536
0.5367978 0.1148547 0.1148547
0.5817426 0.1277545 0.1277545
0.6252514 0.1402422 0.1402422
0.6641905 0.1514183 0.1514183
0.6936836 0.1598832 0.1598832
0.7213063 0.1678113 0.1678113
0.7407917 0.1734039 0.1734039
0.7561166 0.1778024 0.1778024
0.7702360 0.1818549 0.1818549
0.7806600 0.1848467 0.1848467
0.7914050 0.1879307 0.1879307
0.8005883 0.1905664 0.1905664
0.0362573 0.0581498 0.0707672
0.0361921 0.0581402 0.0707650
0.0361630 0.0581359 0.0707640
0.0356771 0.0580647 0.0707471
0.0352473 0.0580013 0.0707320
0.0357271 0.0580721 0.0707488
0.0376022 0.0583442 0.0708129
0.0396344 0.0586312 0.0708790
0.0426700 0.0590557 0.0709742
0.0492077 0.0599619 0.0710811
0.0608139 0.0615445 0.0711912
0.0776009 0.0636043 0.0714173
0.1017895 0.0665737 0.0716556
0.1383137 0.0708488 0.0717260
0.1749468 0.0745521 0.0713908
0.2139132 0.0778030 0.0707049
0.2638605 0.0809126 0.0689856
0.3180318 0.0827701 0.0661094
0.3713398 0.0832701 0.0673658
0.4279576 0.0836159 0.0836159
0.4859509 0.1002609 0.1002609
0.5367978 0.1148547 0.1148547
0.5817426 0.1277545 0.1277545
0.6252514 0.1402422 0.1402422
0.6641905 0.1514183 0.1514183
0.6957948 0.1604891 0.1604891
0.7213364 0.1678200 0.1678200
0.7407917 0.1734039 0.1734039
0.7561166 0.1778024 0.1778024
0.7702360 0.1818549 0.1818549
0.7818274 0.1851818 0.1851818
0.7914746 0.1879507 0.1879507
0.8005883 0.1905664 0.1905664
0.0362241 0.0581449 0.0707661
0.0361921 0.0581402 0.0707650
0.0361338 0.0581317 0.0707630
0.0356491 0.0580606 0.0707461
0.0352473 0.0580013 0.0707320
0.0357577 0.0580766 0.0707499
0.0376550 0.0583517 0.0708146
0.0397063 0.0586412 0.0708813
0.0429685 0.0590205 0.0709701
0.0498290 0.0597555 0.0709684
0.0619889 0.0612754 0.0711087
0.0791710 0.0635453 0.0713800
0.1047483 0.0668747 0.0716748
0.1414919 0.0711912 0.0717266
0.1791327 0.0750195 0.0714083
0.2187430 0.0783846 0.0706454
0.2701725 0.0815056 0.0687848
0.3215576 0.0833522 0.0659801
0.3752970 0.0836479 0.0685016
0.4315650 0.0846513 0.0846513
0.4899309 0.1014032 0.1014032
0.5397215 0.1156938 0.1156938
0.5818016 0.1277714 0.1277714
0.6252514 0.1402422 0.1402422
0.6642126 0.1514246 0.1514246
0.6957948 0.1604891 0.1604891
0.7213364 0.1678200 0.1678200
0.7409529 0.1734502 0.1734502
0.7561166 0.1778024 0.1778024
0.7703201 0.1818790 0.1818790
0.7818274 0.1851818 0.1851818
0.7914746 0.1879507 0.1879507
0.8006685 0.1905894 0.1905894
0.0362325 0.0581076 0.0707596
0.0361757 0.0580801 0.0707542
0.0361259 0.0580343 0.0707457
0.0356326 0.0579042 0.0707183
0.0352903 0.0577622 0.0706900
0.0359016 0.0577648 0.0706960
0.0379022 0.0579677 0.0707491
0.0399741 0.0581726 0.0708013
0.0438052 0.0586667 0.0707998
0.0504494 0.0595697 0.0708313
0.0631467 0.0613290 0.0710745
0.0809053 0.0637688 0.0713942
0.1077671 0.0673492 0.0717358
0.1447674 0.0717962 0.0717809
0.1877877 0.0761576 0.0713747
0.2294943 0.0796537 0.0704368
0.2767489 0.0824871 0.0686437
0.3286130 0.0842340 0.0655875
0.3833490 0.0844498 0.0708126
0.4353549 0.0857391 0.0857391
0.4974489 0.1035610 0.1035610
0.5429128 0.1166098 0.1166098
0.5849221 0.1286671 0.1286671
0.6285093 0.1411772 0.1411772
0.6673179 0.1523159 0.1523159
0.6984041 0.1612381 0.1612381
0.7220765 0.1680324 0.1680324
0.7427012 0.1739520 0.1739520
0.7564644 0.1779022 0.1779022
0.7708248 0.1820239 0.1820239
0.7818274 0.1851818 0.1851818
0.7914746 0.1879507 0.1879507
0.8006685 0.1905894 0.1905894
0.0362796 0.0576189 0.0706735
0.0362506 0.0576147 0.0706725
0.0361637 0.0576009 0.0706693
0.0356774 0.0575268 0.0706518
0.0353438 0.0574761 0.0706396
0.0360534 0.0575764 0.0706640
0.0380306 0.0578659 0.0707322
0.0402479 0.0581623 0.0706874
0.0442158 0.0587568 0.0706789
0.0518043 0.0598916 0.0708340
0.0642896 0.0617460 0.0711136
0.0836596 0.0645322 0.0715103
0.1139871 0.0686291 0.0718809
0.1481764 0.0728310 0.0719614
0.1924230 0.0774479 0.0715035
0.2352247 0.0809191 0.0704701
0.2832143 0.0837585 0.0685171
0.3359128 0.0854035 0.0652299
0.3904624 0.0853141 0.0728543
0.4427101 0.0878501 0.0878501
0.5011870 0.1046339 0.1046339
0.5492069 0.1184163 0.1184163
0.5913489 0.1305116 0.1305116
0.6347923 0.1429805 0.1429805
0.6731935 0.1540022 0.1540022
0.7015648 0.1621452 0.1621452
0.7266608 0.1693482 0.1693482
0.7459233 0.1748768 0.1748768
0.7598837 0.1788836 0.1788836
0.7740953 0.1829626 0.1829626
0.7851193 0.1861266 0.1861266
0.7942148 0.1887371 0.1887371
0.8028291 0.1912096 0.1912096
0.0362114 0.0577889 0.0707030
0.0361823 0.0577847 0.0707020
0.0360312 0.0577905 0.0707017
0.0355846 0.0577529 0.0706910
0.0352686 0.0577501 0.0706876
0.0360935 0.0579084 0.0706805
0.0381276 0.0582614 0.0706371
0.0403347 0.0586746 0.0706294
0.0445293 0.0593752 0.0707138
0.0524492 0.0606952 0.0709225
0.0654832 0.0627334 0.0712693
0.0855421 0.0656699 0.0717207
0.1172753 0.0700250 0.0720971
0.1540225 0.0744911 0.0722341
0.1970619 0.0789380 0.0717368
0.2411480 0.0824340 0.0705578
0.2898362 0.0851112 0.0683847
0.3433301 0.0865003 0.0648436
0.3977716 0.0863756 0.0749521
0.4575609 0.0921125 0.0921125
0.5087787 0.1068128 0.1068128
0.5561314 0.1204037 0.1204037
0.5984405 0.1325471 0.1325471
0.6416061 0.1449362 0.1449362
0.6770337 0.1551044 0.1551044
0.7054064 0.1632478 0.1632478
0.7307779 0.1705298 0.1705298
0.7517453 0.1765478 0.1765478
0.7651061 0.1803825 0.1803825
0.7783417 0.1841813 0.1841813
0.7889904 0.1872377 0.1872377
0.7989452 0.1900949 0.1900949
0.8079789 0.1926876 0.1926876
0.0359713 0.0585795 0.0708405
0.0359582 0.0586365 0.0708504
0.0357906 0.0586048 0.0708006
0.0353427 0.0585883 0.0707368
0.0350952 0.0585998 0.0706709
0.0360333 0.0588504 0.0706468
0.0380333 0.0592656 0.0706818
0.0404921 0.0597040 0.0707278
0.0449617 0.0605073 0.0708536
0.0530558 0.0618368 0.0711075
0.0680700 0.0641732 0.0715467
0.0893554 0.0672754 0.0720005
0.1206434 0.0715225 0.0724559
0.1584228 0.0760013 0.0725018
0.2016177 0.0803056 0.0719286
0.2471913 0.0839048 0.0706079
0.2966538 0.0866443 0.0682241
0.3510834 0.0882661 0.0645463
0.4090840 0.0882645 0.0781989
0.4659204 0.0945118 0.0945118
0.5168341 0.1091248 0.1091248
0.5660160 0.1232407 0.1232407
0.6090233 0.1355845 0.1355845
0.6463109 0.1462865 0.1462865
0.6837161 0.1570224 0.1570224
0.7123519 0.1652413 0.1652413
0.7379193 0.1725795 0.1725795
0.7565941 0.1779395 0.1779395
0.7714303 0.1821977 0.1821977
0.7836743 0.1857119 0.1857119
0.7954265 0.1890849 0.1890849
0.8052382 0.1919010 0.1919010
0.8158733 0.1949535 0.1949535
0.0357175 0.0596621 0.0708185
0.0357468 0.0596664 0.0708195
0.0355060 0.0596942 0.0707786
0.0350459 0.0596579 0.0707481
0.0348616 0.0597272 0.0707251
0.0359577 0.0599443 0.0707441
0.0379712 0.0603193 0.0707878
0.0403754 0.0608045 0.0708692
0.0452551 0.0616248 0.0710450
0.0544492 0.0630655 0.0713635
0.0693621 0.0653853 0.0718066
0.0916095 0.0687522 0.0724274
0.1241064 0.0732509 0.0728777
0.1630185 0.0780141 0.0729103
0.2064852 0.0825092 0.0722465
0.2537695 0.0864489 0.0706917
0.3040593 0.0894659 0.0681401
0.3593570 0.0911090 0.0642748
0.4175638 0.0915858 0.0806328
0.4749392 0.0971004 0.0971004
0.5258368 0.1117087 0.1117087
0.5736573 0.1254339 0.1254339
0.6177048 0.1380762 0.1380762
0.6551571 0.1488255 0.1488255
0.6922773 0.1594796 0.1594796
0.7208711 0.1676864 0.1676864
0.7457857 0.1748373 0.1748373
0.7634533 0.1799081 0.1799081
0.7776794 0.1839913 0.1839913
0.7919228 0.1880793 0.1880793
0.8037476 0.1914732 0.1914732
0.8147088 0.1946192 0.1946192
0.8237808 0.1972230 0.1972230
0.0354827 0.0607204 0.0708742
0.0354835 0.0607198 0.0708699
0.0351966 0.0606751 0.0708473
0.0347798 0.0606578 0.0708292
0.0346325 0.0607735 0.0708317
0.0358465 0.0611490 0.0708960
0.0378701 0.0615792 0.0709843
0.0404090 0.0621470 0.0711286
0.0457295 0.0632010 0.0713750
0.0546936 0.0647408 0.0717267
0.0706213 0.0675437 0.0723793
0.0928178 0.0709306 0.0729747
0.1277953 0.0760588 0.0734797
0.1701413 0.0811890 0.0733308
0.2117785 0.0859084 0.0726021
0.2608857 0.0902428 0.0708467
0.3121569 0.0938575 0.0681874
0.3686309 0.0962480 0.0665883
0.4268255 0.0971505 0.0832910
0.4855491 0.1001455 0.1001455
0.5364357 0.1147507 0.1147507
0.5834798 0.1282531 0.1282531
0.6288044 0.1412619 0.1412619
0.6650928 0.1516772 0.1516772
0.7013743 0.1620906 0.1620906
0.7301209 0.1703413 0.1703413
0.7538796 0.1771604 0.1771604
0.7726943 0.1825604 0.1825604
0.7874048 0.1867826 0.1867826
0.8028877 0.1912264 0.1912264
0.8130108 0.1941319 0.1941319
0.8251619 0.1976194 0.1976194
0.8364497 0.2008592 0.2008592
0.0348589 0.0627831 0.0711662
0.0348589 0.0627831 0.0711662
0.0345998 0.0627443 0.0711576
0.0342134 0.0627834 0.0711668
0.0341428 0.0630643 0.0712278
0.0355598 0.0634736 0.0713317
0.0374458 0.0641165 0.0714811
0.0401420 0.0647548 0.0716471
0.0457188 0.0659440 0.0720163
0.0560950 0.0679997 0.0725499
0.0727057 0.0710385 0.0732114
0.0975686 0.0750078 0.0738143
0.1353329 0.0810667 0.0742692
0.1756810 0.0865216 0.0740274
0.2178092 0.0916195 0.0731371
0.2691530 0.0971876 0.0712454
0.3249737 0.1023403 0.0682294
0.3795855 0.1055201 0.0697324
0.4377426 0.1078312 0.0864244
0.4973888 0.1088771 0.1035437
0.5470244 0.1177899 0.1177899
0.5936434 0.1311702 0.1311702
0.6393276 0.1442822 0.1442822
0.6761557 0.1548525 0.1548525
0.7135630 0.1655889 0.1655889
0.7422072 0.1738102 0.1738102
0.7673407 0.1810239 0.1810239
0.7854079 0.1862094 0.1862094
0.7995360 0.1902644 0.1902644
0.8164718 0.1951252 0.1951252
0.8284189 0.1985542 0.1985542
0.8444449 0.2086677 0.2031539
0.8541057 0.2255992 0.2059267
0.0337327 0.0663376 0.0718138
0.0337327 0.0663376 0.0718138
0.0335628 0.0663125 0.0718126
0.0330790 0.0668347 0.0719214
0.0331654 0.0670498 0.0719793
0.0346807 0.0676905 0.0721731
0.0365305 0.0685776 0.0724119
0.0392809 0.0695425 0.0727234
0.0454006 0.0713040 0.0731814
0.0557221 0.0739940 0.0738242
0.0740025 0.0778966 0.0745110
0.1003129 0.0829584 0.0751679
0.1397622 0.0895770 0.0754421
0.1818139 0.0954895 0.0749942
0.2278591 0.1014203 0.0738855
0.2816610 0.1071063 0.0716336
0.3352528 0.1125709 0.0685689
0.3952018 0.1164336 0.0742146
0.4494713 0.1204166 0.0897907
0.5105059 0.1225859 0.1073085
0.5654998 0.1267192 0.1230926
0.6074916 0.1351448 0.1351448
0.6545880 0.1486622 0.1486622
0.6963824 0.1606578 0.1606578
0.7287484 0.1699473 0.1699473
0.7582147 0.1784046 0.1784046
0.7831000 0.1855470 0.1855470
0.8043756 0.1916535 0.1916535
0.8206834 0.2006932 0.1963340
0.8360278 0.2176196 0.2007381
0.8496783 0.2363041 0.2046560
0.8603041 0.2525586 0.2077057
0.8719870 0.2766071 0.2110589
0.0311872 0.0740644 0.0732394
0.0311872 0.0740644 0.0732394
0.0311361 0.0740635 0.0732752
0.0307523 0.0742922 0.0733623
0.0309457 0.0746192 0.0735038
0.0325924 0.0754520 0.0737274
0.0343715 0.0765922 0.0740367
0.0374496 0.0776399 0.0743486
0.0443828 0.0795491 0.0747887
0.0564512 0.0819564 0.0753004
0.0760527 0.0858166 0.0758783
0.1048905 0.0913792 0.0764017
0.1426322 0.0985434 0.0765735
0.1906367 0.1065695 0.0760657
0.2365691 0.1140177 0.0749122
0.2923370 0.1212539 0.0724260
0.3475016 0.1283229 0.0693069
0.4087266 0.1349779 0.0780963
0.4648784 0.1427071 0.0942128
0.5230189 0.1467060 0.1108999
0.5776981 0.1511196 0.1265937
0.6239733 0.1585195 0.1398753
0.6732925 0.1701837 0.1540307
0.7152320 0.1760274 0.1660679
0.7503717 0.1930296 0.1761535
0.7813457 0.2084506 0.1850435
0.8037255 0.2193380 0.1914669
0.8249027 0.2340211 0.1975450
0.8402273 0.2497877 0.2019434
0.8552099 0.2672555 0.2062436
0.8683776 0.2859535 0.2100230
0.8793203 0.3054364 0.2131637
0.8890023 0.3256643 0.2159426
0.0279448 0.0827156 0.0749170
0.0279342 0.0827227 0.0749598
0.0279342 0.0827227 0.0749598
0.0275672 0.0831487 0.0750810
0.0279069 0.0836952 0.0752433
0.0293442 0.0855296 0.0756086
0.0311272 0.0870976 0.0759276
0.0344029 0.0882536 0.0761923
0.0420426 0.0913024 0.0766965
0.0560192 0.0946656 0.0772081
0.0756328 0.1003991 0.0778661
0.1085811 0.1068831 0.0782922
0.1497678 0.1151756 0.0783097
0.1988228 0.1249171 0.0775938
0.2471809 0.1340249 0.0761662
0.3052636 0.1435912 0.0736729
0.3624998 0.1525142 0.0702099
0.4256387 0.1634101 0.0829504
0.4833257 0.1737259 0.0995074
0.5433851 0.1831254 0.1167454
0.6020504 0.2001442 0.1335831
0.6488945 0.2088354 0.1470281
0.6972283 0.2190692 0.1609006
0.7405756 0.2322217 0.1733419
0.7713082 0.2442782 0.1821626
0.8018352 0.2597786 0.1909243
0.8250621 0.2707216 0.1975908
0.8456503 0.2894377 0.2034999
0.8616276 0.3084556 0.2080856
0.8754208 0.3226313 0.2120445
0.8881382 0.3434663 0.2156945
0.8992127 0.3648434 0.2188731
0.9064333 0.3800394 0.2236036
0.0213907 0.0979827 0.0773786
0.0213907 0.0979827 0.0773786
0.0213799 0.0979892 0.0774143
0.0209603 0.0986602 0.0775116
0.0207975 0.1008769 0.0778043
0.0226198 0.1019522 0.0780105
0.0246029 0.1030404 0.0781758
0.0280406 0.1051328 0.0785253
0.0364448 0.1091837 0.0790306
0.0532172 0.1141374 0.0796198
0.0767847 0.1216465 0.0802665
0.1137711 0.1302231 0.0805600
0.1558515 0.1412558 0.0804934
0.2065350 0.1560694 0.0795020
0.2632668 0.1658717 0.0773293
0.3186366 0.1808885 0.0744933
0.3867004 0.1956846 0.0717745
0.4433460 0.2068792 0.0880326
0.5105425 0.2205586 0.1073190
0.5674881 0.2315690 0.1236633
0.6240006 0.2448198 0.1398832
0.6685560 0.2551842 0.1526712
0.7170985 0.2665317 0.1666037
0.7613035 0.2839451 0.1792911
0.7949607 0.2992750 0.1889513
0.8235975 0.3120272 0.1971704
0.8488796 0.3318333 0.2044268
0.8668320 0.3462316 0.2095793
0.8834046 0.3649195 0.2143359
0.8946380 0.3803456 0.2175601
0.9064822 0.3986790 0.2209595
0.9147981 0.4134529 0.2233463
0.9240324 0.4371409 0.2371952
0.0090431 0.1231504 0.0802974
0.0090434 0.1231535 0.0803128
0.0090434 0.1231535 0.0803128
0.0092402 0.1247588 0.0804829
0.0094668 0.1265821 0.0806747
0.0097274 0.1286485 0.0809257
0.0104426 0.1341582 0.0814807
0.0121406 0.1366616 0.0817245
0.0211398 0.1411453 0.0822092
0.0396022 0.1483589 0.0827136
0.0732373 0.1548304 0.0829798
0.1134033 0.1661799 0.0828886
0.1639324 0.1782625 0.0823950
0.2190403 0.1947415 0.0807269
0.2740639 0.2053697 0.0782041
0.3389129 0.2228682 0.0740295
0.4019860 0.2380029 0.0761617
0.4722335 0.2537334 0.0963238
0.5283189 0.2648846 0.1124211
0.5941554 0.2794611 0.1313171
0.6427594 0.2927727 0.1452672
0.6920713 0.3062011 0.1594205
0.7410808 0.3204069 0.1734869
0.7828591 0.3347553 0.1854779
0.8158873 0.3556451 0.1949575
0.8447385 0.3709308 0.2032382
0.8672531 0.3860279 0.2097002
0.8850206 0.4012375 0.2147998
0.9013582 0.4215663 0.2194889
0.9129771 0.4365174 0.2228237
0.9224665 0.4518141 0.2255473
0.9315584 0.4720582 0.2281568
0.9378346 0.4872192 0.2557852
0.0133974 0.1548528 0.0829362
0.0133994 0.1548655 0.0829935
0.0133994 0.1548655 0.0829935
0.0136478 0.1564782 0.0831302
0.0136972 0.1567962 0.0832079
0.0140299 0.1589250 0.0834404
0.0149163 0.1644562 0.0838034
0.0153744 0.1672394 0.0840646
0.0163331 0.1729119 0.0844106
0.0233249 0.1784925 0.0847746
0.0651588 0.1903248 0.0849084
0.1152587 0.2006503 0.0844981
0.1663795 0.2163587 0.0834336
0.2248407 0.2314883 0.0811483
0.2840327 0.2490123 0.0777420
0.3506491 0.2624209 0.0724736
0.4166923 0.2830086 0.0803826
0.4889676 0.3016055 0.1011267
0.5474637 0.3181938 0.1179160
0.6129517 0.3293528 0.1367120
0.6616941 0.3451480 0.1507018
0.7190728 0.3617793 0.1671703
0.7614889 0.3776725 0.1793443
0.8036588 0.3934929 0.1914477
0.8367225 0.4096469 0.2009375
0.8674581 0.4256554 0.2097591
0.8874855 0.4425821 0.2155072
0.9024988 0.4588557 0.2198163
0.9171630 0.4740191 0.2240251
0.9292398 0.4931566 0.2274913
0.9380810 0.5085074 0.2300289
0.9456027 0.5237129 0.2441776
0.9509163 0.5387968 0.2755418
0.0192765 0.1892026 0.0848934
0.0192765 0.1892026 0.0848934
0.0192765 0.1892026 0.0848934
0.0196632 0.1912320 0.0850233
0.0197249 0.1915537 0.0850675
0.0202306 0.1941680 0.0852417
0.0207879 0.1970056 0.0855829
0.0214912 0.2005237 0.0858789
0.0229457 0.2075918 0.0864090
0.0247686 0.2160906 0.0864676
0.0444681 0.2275558 0.0863838
0.1142565 0.2406060 0.0852852
0.1724252 0.2592224 0.0836218
0.2350725 0.2738191 0.0801151
0.3002295 0.2971496 0.0745551
0.3626954 0.3113068 0.0690210
0.4352103 0.3322428 0.0856976
0.5033337 0.3461637 0.1052500
0.5676204 0.3653513 0.1237012
0.6317061 0.3842836 0.1420947
0.6895729 0.4026233 0.1587034
0.7379671 0.4165047 0.1725932
0.7858020 0.4344194 0.1863226
0.8224483 0.4508345 0.1968406
0.8592666 0.4679869 0.2074080
0.8851639 0.4844251 0.2148409
0.9058843 0.5020226 0.2207879
0.9199110 0.5169691 0.2248138
0.9339268 0.5324697 0.2288365
0.9427862 0.5437427 0.2313793
0.9516833 0.5595911 0.2339329
0.9582253 0.5756863 0.2629673
0.9634800 0.5927337 0.3012122
0.0265718 0.2241457 0.0864468
0.0265805 0.2241838 0.0864437
0.0265805 0.2241838 0.0864437
0.0271270 0.2265614 0.0866364
0.0282729 0.2314573 0.0864587
0.0289850 0.2344417 0.0868847
0.0292037 0.2353497 0.0871282
0.0307813 0.2417849 0.0874047
0.0321761 0.2473159 0.0873972
0.0343213 0.2555563 0.0878650
0.0383833 0.2703731 0.0869010
0.1015729 0.2851820 0.0854490
0.1772283 0.3017757 0.0823380
0.2378762 0.3222349 0.0775829
0.3073338 0.3420483 0.0712829
0.3820238 0.3654028 0.0704323
0.4527318 0.3818338 0.0907265
0.5188881 0.4026855 0.1097143
0.5888072 0.4204015 0.1297821
0.6485441 0.4400460 0.1469275
0.7068987 0.4595084 0.1636762
0.7549437 0.4713660 0.1774658
0.8025311 0.4893931 0.1911241
0.8388893 0.5074051 0.2015594
0.8753282 0.5257878 0.2120179
0.8988512 0.5360281 0.2187693
0.9196382 0.5516688 0.2247355
0.9333785 0.5685766 0.2286792
0.9472329 0.5855494 0.2326556
0.9572779 0.6014296 0.2355387
0.9645767 0.6168491 0.2585719
0.9704124 0.6318616 0.2875723
0.9748952 0.6472870 0.3233936
0.0382221 0.2698030 0.0871343
0.0382221 0.2698030 0.0871343
0.0382398 0.2698657 0.0873826
0.0382398 0.2698657 0.0873826
0.0390086 0.2725713 0.0876660
0.0399562 0.2758638 0.0878548
0.0402685 0.2769386 0.0882075
0.0416876 0.2818733 0.0888449
0.0448456 0.2928762 0.0887412
0.0474875 0.3020810 0.0884039
0.0507145 0.3133244 0.0873867
0.0878819 0.3325738 0.0844653
0.1700838 0.3551495 0.0794271
0.2446566 0.3731835 0.0735750
0.3214196 0.3920369 0.0733062
0.3908304 0.4146309 0.0797910
0.4645346 0.4323019 0.0941141
0.5401317 0.4562719 0.1158116
0.6035680 0.4744748 0.1340187
0.6701151 0.4965127 0.1531187
0.7207612 0.5096536 0.1676549
0.7711021 0.5300662 0.1821035
0.8219103 0.5517499 0.1966862
0.8588306 0.5633870 0.2072828
0.8896312 0.5812683 0.2161231
0.9161432 0.5982155 0.2237324
0.9347605 0.6141254 0.2290758
0.9483625 0.6234736 0.2329798
0.9588495 0.6377500 0.2359897
0.9680889 0.6513309 0.2487704
0.9756507 0.6657037 0.2838575
0.9799262 0.6796275 0.3207120
0.9832150 0.6922721 0.3517439
0.0500374 0.3109652 0.0880267
0.0500374 0.3109652 0.0880267
0.0507345 0.3133940 0.0884591
0.0507345 0.3133940 0.0884591
0.0507345 0.3133940 0.0884591
0.0509857 0.3142694 0.0890548
0.0521012 0.3181557 0.0899974
0.0535739 0.3232869 0.0898651
0.0569931 0.3351999 0.0894388
0.0598087 0.3450100 0.0888943
0.0635855 0.3581685 0.0870683
0.0688078 0.3763639 0.0829361
0.1642919 0.4010935 0.0766625
0.2427210 0.4196782 0.0812396
0.3254737 0.4408194 0.0873075
0.4072121 0.4681767 0.0951594
0.4846880 0.4908445 0.1016654
0.5514377 0.5082638 0.1190566
0.6218898 0.5316523 0.1392773
0.6821767 0.5473268 0.1565806
0.7345066 0.5686467 0.1716000
0.7838920 0.5822102 0.1857743
0.8343604 0.6016738 0.2002595
0.8742098 0.6197414 0.2116969
0.9031612 0.6292955 0.2200064
0.9275067 0.6479395 0.2269939
0.9448837 0.6631368 0.2319813
0.9590125 0.6709622 0.2360365
0.9688753 0.6850832 0.2491715
0.9780405 0.6987216 0.2797409
0.9837053 0.7133108 0.3173937
0.9876980 0.7240456 0.3492225
0.9896820 0.7351132 0.3854908
0.0630074 0.3561544 0.0888157
0.0630074 0.3561544 0.0888157
0.0630074 0.3561544 0.0888157
0.0630717 0.3563786 0.0897242
0.0630717 0.3563786 0.0897242
0.0639287 0.3593644 0.0901937
0.0650922 0.3634183 0.0905537
0.0660607 0.3667927 0.0908739
0.0681888 0.3742072 0.0908653
0.0713123 0.3850901 0.0889067
0.0769139 0.4046067 0.0861767
0.0828617 0.4253297 0.0832911
0.1584155 0.4463667 0.0888996
0.2465313 0.4667987 0.0947639
0.3310946 0.4930803 0.1023071
0.4118964 0.5138511 0.1082686
0.4915472 0.5337264 0.1139731
0.5651143 0.5579541 0.1229819
0.6353588 0.5758531 0.1431431
0.6923988 0.6001967 0.1595145
0.7513518 0.6159655 0.1764348
0.8037029 0.6303559 0.1914604
0.8444764 0.6477492 0.2031630
0.8839964 0.6656536 0.2145058
0.9127609 0.6758429 0.2227616
0.9361420 0.6915874 0.2294723
0.9521517 0.7015624 0.2340674
0.9671728 0.7159669 0.2440836
0.9764014 0.7276045 0.2758709
0.9843023 0.7393957 0.3145493
0.9897027 0.7491739 0.3416027
0.9934865 0.7661362 0.3832864
0.9959530 0.7761844 0.4148806
0.0728248 0.3903598 0.0916773
0.0728248 0.3903598 0.0916773
0.0734790 0.3926391 0.0930327
0.0734790 0.3926391 0.0930327
0.0734790 0.3926391 0.0930327
0.0737149 0.3934608 0.0946500
0.0749110 0.3976282 0.0954679
0.0765864 0.4034657 0.0957758
0.0784409 0.4099270 0.0958975
0.0831651 0.4263869 0.0959890
0.0877927 0.4425101 0.0952771
0.0936395 0.4628812 0.0936395
0.1511022 0.4851917 0.1000430
0.2447978 0.5056318 0.1059096
0.3402047 0.5336120 0.1139403
0.4196125 0.5549813 0.1200736
0.5050213 0.5781803 0.1267321
0.5712103 0.6008856 0.1332488
0.6423865 0.6202651 0.1451602
0.7064170 0.6381134 0.1635379
0.7594892 0.6592917 0.1787704
0.8125525 0.6739014 0.1940003
0.8589182 0.6926841 0.2073080
0.8918573 0.7043781 0.2167620
0.9209411 0.7213091 0.2251094
0.9457495 0.7312095 0.2322298
0.9606372 0.7457662 0.2509650
0.9735223 0.7567101 0.2775186
0.9817197 0.7650211 0.3116156
0.9895734 0.7786109 0.3495503
0.9947503 0.7910142 0.3812978
0.9971808 0.7982001 0.4135252
0.9998708 0.8092743 0.4406235
0.0817819 0.4215676 0.1008199
0.0817819 0.4215676 0.1008199
0.0824587 0.4239256 0.1028156
0.0824587 0.4239256 0.1028156
0.0824587 0.4239256 0.1028156
0.0824926 0.4240437 0.1027803
0.0833255 0.4269458 0.1044634
0.0854061 0.4341947 0.1085121
0.0880614 0.4434464 0.1089827
0.0916055 0.4557944 0.1082955
0.0981989 0.4787665 0.1080124
0.1043013 0.5000282 0.1062598
0.1146074 0.5226753 0.1108013
0.2442599 0.5459560 0.1174832
0.3353342 0.5740315 0.1255413
0.4198016 0.5957246 0.1317675
0.5023146 0.6196699 0.1386402
0.5750096 0.6388098 0.1441336
0.6475253 0.6640353 0.1513737
0.7124697 0.6816317 0.1652751
0.7663579 0.6987503 0.1807418
0.8196557 0.7137651 0.1960390
0.8645378 0.7269508 0.2089209
0.8982307 0.7435287 0.2185912
0.9306814 0.7547115 0.2282583
0.9514594 0.7687986 0.2534128
0.9672669 0.7784081 0.2866871
0.9777820 0.7905806 0.3145474
0.9874516 0.7988288 0.3475249
0.9936432 0.8098463 0.3740579
0.9977694 0.8228961 0.4174091
0.9999419 0.8298007 0.4498588
1.0000000 0.8381944 0.4809381
0.0914804 0.4553585 0.1157187
0.0914804 0.4553585 0.1157187
0.0914804 0.4553585 0.1157187
0.0914804 0.4553585 0.1157187
0.0917555 0.4563170 0.1197226
0.0917555 0.4563170 0.1197226
0.0931719 0.4612520 0.1228198
0.0952626 0.4685361 0.1253457
0.0976157 0.4767347 0.1275069
0.1014966 0.4902565 0.1282325
0.1071812 0.5100623 0.1307027
0.1136122 0.5324689 0.1285460
0.1211449 0.5587140 0.1310444
0.2287157 0.5836630 0.1354661
0.3349329 0.6085435 0.1356785
0.4226436 0.6320323 0.1421884
0.5135497 0.6603827 0.1503254
0.5879970 0.6801205 0.1559904
0.6613637 0.6963623 0.1606520
0.7170596 0.7177210 0.1707964
0.7787837 0.7344704 0.1865464
0.8315874 0.7478116 0.1994636
0.8698750 0.7648087 0.2205606
0.9080691 0.7771054 0.2440438
0.9350982 0.7924766 0.2749106
0.9547545 0.8018728 0.3024695
0.9705021 0.8104843 0.3305514
0.9806755 0.8189495 0.3513131
0.9901577 0.8270317 0.3839906
0.9956420 0.8382942 0.4163962
1.0000000 0.8486863 0.4435301
1.0000000 0.8551313 0.4748509
1.0000000 0.8627961 0.5060263
0.0998859 0.4846444 0.1449163
0.0998859 0.4846444 0.1449163
0.0998859 0.4846444 0.1449163
0.0998859 0.4846444 0.1449163
0.0998859 0.4846444 0.1449163
0.0998859 0.4846444 0.1449163
