data/spectral_luts/aerocolor_endura_premier.cube
TITLE "aerocolor_endura_premier"
LUT_3D_SIZE 9
0.0355726 0.0574625 0.0702543
0.0357650 0.0574882 0.0702605
0.0507410 0.0596054 0.0708007
0.1336207 0.0707155 0.0728734
0.2957963 0.0843057 0.0690699
0.4912992 0.1017959 0.1017959
0.6411534 0.1448063 0.1448063
0.7432153 0.1740995 0.1740995
0.7998620 0.1903580 0.1903580
0.0353886 0.0581658 0.0704137
0.0357971 0.0584114 0.0704849
0.0526724 0.0614565 0.0715190
0.1419451 0.0740779 0.0734837
0.3098871 0.0875724 0.0691472
0.5039898 0.1054383 0.1054383
0.6480320 0.1467805 0.1467805
0.7482951 0.1755575 0.1755575
0.8021766 0.1910223 0.1910223
0.0334568 0.0652668 0.0722667
0.0342273 0.0660571 0.0726488
0.0546123 0.0711637 0.0740189
0.1589845 0.0897192 0.0759984
0.3342523 0.1102335 0.0729237
0.5378916 0.1213495 0.1151686
0.6805477 0.1561130 0.1561130
0.7813006 0.1850306 0.1850306
0.8397961 0.2373547 0.2171696
0.0196984 0.1009179 0.0787450
0.0214263 0.1027738 0.0791834
0.0498475 0.1153763 0.0816790
0.1810748 0.1477332 0.0847547
0.3853684 0.1936769 0.0813223
0.5987155 0.2366330 0.1326260
0.7478184 0.2773215 0.1754207
0.8426841 0.3354004 0.2026485
0.8946295 0.3998595 0.2726220
0.0235467 0.2104360 0.0932707
0.0241411 0.2132077 0.0940853
0.0291193 0.2349997 0.0971287
0.1990610 0.2869175 0.0968236
0.4397103 0.3470732 0.0902355
0.6622037 0.4175689 0.1508480
0.8123125 0.4765579 0.1939315
0.9000152 0.5293475 0.2438049
0.9441750 0.5877399 0.3437474
0.0645522 0.3615367 0.1159820
0.0647551 0.3622439 0.1184037
0.0716760 0.3863573 0.1235540
0.1805719 0.4551498 0.1300092
0.4782724 0.5357078 0.1411115
0.7086679 0.6008503 0.1830100
0.8615368 0.6569667 0.2430417
0.9396598 0.7002183 0.3332186
0.9747427 0.7445952 0.4281820
0.1008283 0.4879278 0.2039868
0.1011848 0.4891699 0.2093198
0.1095044 0.5181566 0.2182312
0.1306048 0.5916733 0.2343019
0.4997677 0.6769037 0.2518558
0.7289737 0.7421383 0.2990184
0.8806425 0.7880584 0.3667246
0.9565051 0.8258147 0.4419810
0.9869595 0.8511890 0.5224267
0.1317408 0.5956314 0.3328787
0.1317408 0.5956314 0.3328787
0.1373431 0.6151507 0.3415500
0.1590720 0.6908571 0.3709559
0.5043225 0.7741414 0.3987306
0.7435664 0.8329936 0.4396706
0.8895285 0.8719378 0.4950155
0.9617168 0.8964436 0.5533105
0.9895556 0.9149303 0.6210819
0.1550438 0.6768222 0.4729164
0.1550438 0.6768222 0.4729164
0.1570637 0.6838600 0.4820405
0.1772952 0.7543493 0.5039077
0.5133196 0.8326036 0.5299044
0.7485315 0.8830097 0.5693493
0.8942837 0.9165911 0.6096824
0.9637149 0.9373833 0.6620523
0.9897048 0.9490210 0.7042398
0.0354024 0.0575894 0.0712831
0.0362092 0.0577278 0.0714694
0.0537940 0.0603120 0.0723435
0.1415403 0.0723039 0.0742833
0.3024981 0.0855541 0.0729601
0.5058018 0.1059584 0.1059584
0.6451674 0.1459583 0.1459583
0.7467771 0.1751218 0.1751218
0.8029802 0.1912529 0.2083675
0.0349507 0.0591965 0.0719178
0.0360559 0.0596403 0.0721304
0.0551311 0.0629276 0.0732423
0.1485664 0.0759087 0.0756679
0.3170990 0.0901547 0.0752772
0.5192791 0.1098266 0.1098266
0.6562135 0.1491287 0.1491287
0.7535151 0.1770557 0.1770557
0.8075467 0.1925636 0.2188090
0.0321650 0.0688340 0.0744437
0.0339193 0.0697344 0.0749140
0.0569468 0.0762493 0.0772812
0.1659879 0.0948440 0.0814003
0.3496420 0.1156200 0.0816821
0.5513330 0.1301681 0.1190265
0.6915828 0.1592803 0.1592803
0.7884949 0.1933363 0.1870954
0.8458979 0.2539913 0.2526170
0.0128302 0.1120832 0.0851899
0.0153058 0.1139781 0.0859719
0.0474900 0.1263213 0.0900202
0.1867792 0.1653058 0.0954522
0.3915105 0.2056624 0.0973271
0.6050726 0.2502747 0.1344506
0.7531922 0.2984437 0.1769631
0.8462116 0.3504453 0.2214859
0.8987162 0.4153506 0.3113352
0.0277607 0.2292833 0.1055732
0.0285262 0.2325240 0.1068131
0.0339442 0.2541302 0.1122084
0.2027363 0.3071549 0.1191922
0.4447021 0.3694095 0.1253828
0.6705897 0.4412225 0.1638664
0.8156015 0.4901549 0.2086362
0.9057186 0.5463174 0.2883676
0.9440550 0.5966767 0.3866685
0.0690581 0.3772360 0.1491821
0.0693577 0.3782799 0.1535042
0.0784585 0.4099883 0.1646397
0.1661160 0.4749152 0.1792361
0.4860030 0.5533394 0.2015413
0.7139328 0.6209519 0.2373084
0.8598218 0.6663939 0.2934687
0.9396197 0.7144207 0.3738923
0.9744338 0.7527696 0.4689304
0.1062898 0.5069566 0.2500727
0.1062898 0.5069566 0.2500727
0.1139452 0.5336290 0.2591893
0.1362622 0.6113845 0.2861215
0.4912376 0.6902610 0.3064778
0.7320653 0.7533265 0.3519911
0.8836470 0.7988951 0.4087895
0.9542013 0.8337288 0.4885147
0.9862601 0.8595952 0.5579396
0.1347767 0.6062090 0.3753028
0.1347767 0.6062090 0.3753028
0.1411647 0.6284657 0.3887209
0.1624011 0.7024562 0.4113079
0.4970541 0.7826361 0.4384454
0.7438186 0.8407173 0.4803773
0.8870841 0.8776389 0.5305824
0.9609069 0.9020168 0.5884334
0.9891346 0.9196855 0.6532006
0.1580822 0.6874086 0.5125245
0.1580822 0.6874086 0.5125245
0.1602152 0.6948404 0.5218028
0.1798120 0.7631184 0.5403947
0.5201014 0.8402349 0.5636491
0.7539608 0.8908834 0.6037365
0.8919523 0.9211390 0.6425731
0.9622556 0.9407821 0.6866179
0.9885040 0.9517992 0.7259259
0.0336395 0.0597310 0.0799584
0.0365622 0.0605421 0.0810573
0.0603814 0.0647534 0.0842452
0.1599001 0.0782165 0.0901418
0.3302788 0.0915318 0.0980181
0.5262929 0.1118396 0.1118396
0.6615583 0.1506628 0.1535428
0.7547069 0.1773978 0.2080132
0.8088134 0.1929272 0.2881392
0.0325162 0.0625439 0.0833037
0.0357489 0.0635952 0.0846140
0.0621135 0.0682895 0.0880259
0.1671585 0.0838016 0.0958319
0.3434364 0.0999602 0.1051750
0.5421931 0.1164032 0.1233174
0.6733887 0.1540583 0.1673831
0.7657924 0.1805795 0.2226607
0.8208228 0.1963740 0.3074051
0.0258665 0.0791546 0.0938759
0.0292834 0.0812446 0.0963031
0.0615302 0.0882969 0.1018421
0.1818739 0.1088398 0.1125123
0.3691688 0.1360249 0.1273117
0.5716444 0.1572194 0.1564382
0.7074957 0.1827202 0.2032241
0.8079594 0.2360347 0.2678159
0.8568389 0.2871747 0.3424922
0.0113086 0.1405431 0.1198534
0.0123314 0.1477263 0.1225728
0.0356283 0.1632213 0.1329056
0.2007832 0.2006055 0.1489799
0.4166652 0.2461162 0.1771341
0.6232878 0.2928835 0.2104248
0.7722110 0.3391396 0.2555308
0.8594858 0.3906304 0.3211753
0.9093809 0.4568022 0.4108028
0.0387835 0.2717823 0.1780141
0.0400135 0.2760611 0.1808093
0.0469182 0.3000975 0.1928511
0.1976327 0.3547582 0.2146206
0.4635114 0.4234872 0.2361948
0.6814160 0.4809965 0.2707267
0.8274324 0.5387465 0.3315763
0.9104349 0.5867649 0.4026691
0.9492832 0.6299805 0.4736794
0.0828227 0.4251940 0.2559113
0.0830425 0.4259597 0.2559637
0.0910808 0.4539661 0.2697499
0.1308931 0.5206960 0.2934230
0.4819577 0.5948363 0.3179037
0.7181134 0.6564391 0.3635085
0.8598747 0.7021745 0.4142900
0.9384887 0.7399299 0.4805780
0.9725150 0.7740381 0.5579648
0.1165008 0.5425331 0.3604704
0.1165008 0.5425331 0.3604704
0.1260149 0.5756817 0.3751821
0.1466888 0.6477124 0.3979844
0.4993618 0.7243682 0.4254003
0.7342750 0.7819206 0.4675654
0.8806568 0.8211987 0.5118328
0.9542416 0.8526309 0.5737881
0.9844241 0.8758507 0.6350137
0.1424793 0.6330457 0.4735053
0.1430032 0.6348714 0.4737523
0.1503167 0.6603525 0.4852354
0.1707382 0.7315040 0.5125412
0.5097427 0.8079188 0.5348050
0.7434129 0.8600430 0.5743926
0.8896244 0.8936977 0.6143965
0.9593661 0.9150897 0.6618797
0.9872474 0.9280474 0.7038116
0.1636886 0.7069422 0.5870224
0.1640443 0.7081815 0.5958468
0.1661854 0.7156414 0.5970352
0.1857140 0.7836817 0.6171411
0.5190319 0.8557253 0.6463463
0.7518159 0.9012541 0.6734001
0.8958318 0.9313980 0.6986719
0.9595327 0.9476013 0.7339098
0.9876623 0.9585253 0.7750638
0.0265331 0.0696253 0.1447208
0.0312295 0.0710724 0.1493196
0.0710024 0.0776760 0.1627459
0.1877540 0.0937590 0.1836496
0.3750266 0.1096745 0.2117356
0.5549899 0.1200761 0.2443078
0.6884037 0.1583678 0.2905999
0.7787281 0.1842923 0.3503609
0.8328913 0.2040031 0.4257701
0.0220190 0.0766244 0.1648739
0.0273598 0.0781559 0.1654684
0.0727288 0.0865390 0.1761929
0.1937822 0.1056006 0.1989132
0.3829960 0.1236803 0.2270930
0.5669252 0.1332794 0.2625411
0.7005076 0.1618418 0.3057466
0.7922664 0.1881779 0.3751833
0.8476080 0.2475520 0.4482371
0.0207875 0.1052359 0.1970033
0.0214085 0.1079725 0.2001133
0.0654957 0.1198758 0.2135888
0.2063874 0.1446373 0.2362457
0.4088782 0.1763957 0.2677666
0.6060923 0.2101377 0.3080589
0.7386206 0.2485530 0.3529934
0.8284953 0.2930408 0.4139538
0.8784842 0.3505996 0.4871111
0.0341248 0.1952126 0.2548141
0.0344198 0.1992684 0.2559276
0.0392197 0.2212701 0.2733087
0.2130689 0.2627932 0.2978652
0.4535580 0.3121356 0.3356805
0.6506426 0.3610188 0.3725138
0.7938092 0.4094400 0.4196168
0.8776886 0.4554282 0.4782629
0.9193624 0.5084434 0.5478342
0.0568306 0.3346337 0.3306110
0.0596231 0.3443633 0.3396702
0.0674262 0.3715501 0.3529544
0.1889132 0.4246631 0.3793932
0.4847996 0.4940966 0.4118207
0.6980680 0.5504863 0.4511753
0.8372086 0.5912541 0.4898371
0.9175810 0.6373109 0.5496180
0.9545883 0.6821423 0.6097698
0.0973253 0.4757228 0.4219461
0.0989483 0.4813778 0.4229549
0.1094792 0.5180690 0.4374486
0.1273695 0.5804011 0.4660363
0.4957789 0.6485114 0.4946666
0.7198518 0.7076355 0.5343813
0.8680254 0.7469104 0.5743355
0.9398633 0.7794176 0.6241348
0.9733744 0.8105031 0.6701529
0.1296135 0.5882196 0.5144929
0.1296135 0.5882196 0.5144929
0.1419293 0.6311296 0.5345284
0.1598462 0.6935545 0.5596483
0.4958216 0.7676165 0.5853427
0.7345403 0.8184338 0.6162245
0.8786832 0.8540164 0.6504899
0.9530435 0.8808998 0.6926124
0.9813251 0.8940139 0.7278271
0.1522301 0.6670190 0.6056729
0.1522301 0.6670190 0.6056729
0.1620796 0.7013362 0.6199399
0.1805682 0.7657531 0.6457404
0.5127239 0.8354288 0.6691526
0.7502240 0.8823559 0.6924753
0.8913001 0.9122984 0.7157546
0.9558584 0.9303412 0.7523587
0.9846545 0.9410369 0.7848775
0.1702679 0.7298653 0.6956956
0.1708110 0.7317576 0.6960976
0.1747313 0.7454165 0.6988750
0.1924761 0.8072417 0.7184126
0.5518928 0.8780262 0.7385628
0.7604933 0.9168921 0.7617579
0.8970738 0.9442879 0.7862350
0.9587528 0.9583967 0.8128729
0.9845035 0.9668899 0.8376087
0.0523064 0.0835234 0.3188708
0.0547641 0.0860570 0.3274336
0.1055418 0.0962111 0.3412135
0.2317425 0.1143657 0.3694690
0.4285782 0.1367888 0.4024866
0.5995775 0.1516038 0.4352551
0.7319784 0.1779808 0.4849744
0.8185066 0.2313903 0.5424663
0.8656788 0.2908096 0.5943972
0.0581266 0.0957825 0.3391491
0.0587790 0.0997992 0.3414220
0.1031363 0.1131696 0.3562569
0.2359922 0.1360522 0.3861755
0.4379703 0.1625107 0.4191781
0.6119239 0.1865674 0.4610878
0.7479748 0.2292645 0.5056756
0.8310280 0.2746570 0.5536197
0.8774839 0.3342973 0.6084470
0.0705097 0.1503071 0.3822935
0.0735275 0.1598321 0.3928080
0.0795190 0.1791117 0.4092265
0.2488214 0.2109681 0.4371271
0.4623937 0.2526344 0.4647604
0.6458629 0.2912371 0.5044268
0.7799940 0.3361495 0.5479501
0.8600633 0.3794005 0.5940080
0.9036242 0.4378141 0.6420062
0.0906958 0.2660097 0.4526248
0.0914678 0.2712302 0.4553145
0.0966286 0.2996063 0.4732955
0.2461265 0.3443116 0.5023296
0.4949334 0.4045854 0.5386786
0.6877790 0.4473964 0.5693571
0.8239117 0.4993526 0.6071497
0.8987436 0.5437874 0.6491450
0.9353368 0.5847060 0.6870200
0.1113737 0.4063511 0.5246694
0.1145985 0.4179068 0.5359052
0.1200363 0.4556479 0.5548513
0.1915189 0.5092442 0.5836691
0.5200264 0.5698679 0.6049680
0.7144677 0.6221438 0.6343671
0.8551842 0.6614038 0.6657498
0.9254214 0.6983092 0.7020766
0.9587259 0.7263149 0.7390717
0.1334516 0.5328238 0.6015919
0.1346261 0.5470029 0.6056842
0.1400403 0.5909914 0.6245480
0.1473123 0.6474164 0.6498847
0.5289037 0.7129792 0.6723484
0.7351981 0.7590418 0.6958530
0.8723314 0.7987285 0.7243045
0.9441745 0.8243728 0.7543501
0.9740887 0.8464189 0.7899116
0.1540903 0.6332908 0.6735003
0.1546429 0.6400573 0.6754255
0.1595913 0.6871665 0.6926666
0.1745557 0.7448047 0.7097667
0.5294148 0.8113187 0.7307386
0.7497830 0.8553360 0.7546659
0.8881527 0.8863745 0.7763731
0.9510360 0.9031552 0.8007421
0.9796751 0.9185003 0.8321398
0.1722182 0.7036970 0.7366605
0.1722182 0.7036970 0.7366605
0.1766012 0.7415659 0.7519315
0.1915853 0.8041381 0.7697906
0.5541574 0.8656796 0.7901645
0.7613047 0.9045412 0.8055107
0.8964390 0.9319838 0.8245097
0.9561545 0.9456917 0.8447921
0.9825670 0.9541634 0.8663268
0.1896050 0.7569943 0.7972385
0.1896050 0.7569943 0.7972385
0.1910709 0.7789096 0.8023458
0.2015385 0.8388165 0.8193657
0.5745003 0.8968583 0.8376235
0.7816821 0.9340759 0.8506715
0.9039776 0.9560357 0.8671482
0.9574576 0.9673233 0.8797371
0.9829302 0.9739478 0.8981701
0.1125852 0.1136547 0.5288907
0.1139960 0.1227067 0.5338061
0.1600980 0.1417876 0.5516822
0.3013170 0.1807974 0.5789577
0.5015419 0.2210752 0.6105098
0.6580912 0.2554695 0.6329507
0.7846303 0.3007335 0.6684642
0.8595557 0.3553599 0.7021332
0.9006052 0.4099819 0.7365029
0.1173018 0.1533216 0.5453241
0.1188829 0.1635414 0.5508326
0.1557709 0.1849191 0.5695055
0.3042309 0.2167806 0.5943635
0.5108507 0.2601022 0.6250457
0.6766761 0.3013678 0.6483954
0.8007185 0.3454697 0.6802225
0.8695363 0.3951606 0.7183324
0.9099819 0.4512618 0.7524105
0.1286180 0.2321995 0.5847510
0.1301301 0.2417304 0.5900195
0.1362383 0.2684218 0.6113014
0.3093278 0.3078433 0.6332150
0.5250025 0.3524852 0.6593205
0.6968181 0.3971498 0.6855714
0.8220376 0.4410792 0.7137432
0.8906211 0.4952827 0.7505565
0.9285092 0.5417339 0.7749650
0.1453996 0.3583867 0.6432206
0.1469934 0.3709764 0.6487738
0.1526189 0.4058872 0.6683735
0.2948197 0.4501983 0.6894135
0.5507323 0.5020471 0.7087953
0.7230142 0.5478258 0.7364719
0.8505294 0.5912515 0.7646315
0.9161545 0.6245366 0.7864758
0.9508318 0.6700528 0.8144460
0.1610845 0.4899343 0.6978692
0.1639088 0.5113857 0.7077094
0.1690830 0.5464049 0.7257370
0.2590816 0.5974811 0.7454909
0.5672711 0.6529501 0.7689638
0.7480106 0.6957031 0.7870223
0.8727183 0.7285610 0.8076911
0.9354199 0.7562210 0.8267982
0.9654757 0.7839122 0.8449798
0.1770842 0.6032519 0.7536142
0.1786862 0.6194712 0.7591959
0.1833556 0.6565444 0.7754648
0.2115349 0.7128088 0.7939839
0.5708593 0.7723839 0.8152376
0.7565335 0.8104853 0.8303126
0.8886786 0.8406352 0.8429096
0.9462931 0.8616183 0.8597753
0.9750511 0.8780017 0.8778662
0.1905487 0.6803812 0.8005264
0.1921950 0.6996385 0.8062624
0.1964202 0.7357337 0.8209838
0.2005431 0.7902239 0.8353483
0.5808331 0.8488689 0.8517472
0.7697510 0.8858418 0.8626299
0.8951167 0.9106552 0.8737378
0.9537269 0.9248393 0.8886297
0.9790132 0.9358963 0.9059916
0.2017598 0.7371756 0.8395876
0.2023886 0.7448050 0.8417783
0.2063605 0.7811251 0.8556170
0.2562751 0.8392261 0.8699558
0.6013514 0.8918587 0.8821324
0.7829933 0.9234385 0.8934043
0.9039955 0.9460462 0.9030445
0.9562150 0.9575273 0.9147816
0.9816270 0.9649324 0.9233560
0.2121610 0.7821367 0.8758268
0.2121610 0.7821367 0.8758268
0.2152916 0.8105883 0.8867341
0.2926180 0.8661836 0.8979515
0.6252639 0.9162667 0.9102119
0.7989436 0.9456297 0.9161120
0.9088197 0.9649513 0.9237894
0.9603189 0.9748263 0.9331641
0.9824264 0.9797310 0.9403622
0.1628551 0.2403871 0.7040382
0.1646349 0.2537101 0.7102391
0.2121805 0.2760012 0.7215883
0.3823721 0.3106934 0.7420849
0.5803263 0.3614589 0.7657157
0.7292466 0.4008983 0.7857429
0.8363562 0.4492931 0.8074456
0.8977960 0.4998925 0.8300600
0.9320436 0.5466537 0.8480282
0.1663618 0.2783735 0.7162559
0.1676460 0.2852657 0.7207302
0.1971839 0.3122638 0.7374266
0.3838939 0.3544794 0.7567241
0.5834028 0.3995200 0.7806563
0.7353613 0.4454457 0.7966625
0.8430254 0.4907825 0.8170000
0.9058118 0.5356383 0.8382768
0.9375303 0.5811628 0.8592461
0.1753158 0.3591583 0.7474529
0.1768872 0.3711377 0.7529277
0.1801506 0.3978667 0.7642982
0.3835636 0.4404307 0.7844532
0.5918877 0.4851920 0.8044845
0.7478043 0.5240415 0.8219540
0.8616360 0.5651986 0.8382768
0.9178765 0.6091596 0.8556545
0.9483764 0.6483281 0.8730093
0.1861295 0.4677441 0.7851295
0.1875181 0.4782996 0.7899675
0.1915060 0.5125563 0.8038619
0.3831597 0.5584627 0.8226669
0.6108969 0.6048424 0.8381641
0.7643784 0.6449285 0.8543605
0.8775750 0.6858377 0.8682376
0.9324892 0.7090803 0.8791046
0.9611424 0.7444642 0.8956331
0.1965252 0.5771554 0.8213496
0.1988601 0.5957250 0.8294847
0.2021755 0.6244118 0.8410359
0.3668239 0.6781383 0.8609772
0.6195351 0.7264113 0.8744155
0.7797456 0.7604896 0.8833572
0.8901232 0.7916657 0.8949820
0.9442794 0.8144390 0.9067491
0.9712057 0.8401613 0.9157016
0.2070094 0.6749097 0.8578780
0.2089057 0.6905186 0.8644848
0.2114612 0.7206975 0.8733886
0.3553125 0.7760844 0.8914105
0.6280876 0.8203985 0.9006841
0.7868215 0.8520865 0.9076821
0.9045936 0.8810214 0.9167179
0.9514435 0.8946669 0.9238250
0.9773908 0.9078739 0.9330991
0.2146479 0.7376461 0.8844914
0.2159138 0.7526741 0.8889022
0.2191967 0.7845559 0.9003401
0.3677869 0.8366510 0.9112513
0.6391636 0.8800337 0.9209991
0.7990130 0.9099359 0.9296399
0.9073761 0.9308747 0.9354178
0.9574447 0.9422250 0.9413674
0.9801595 0.9489306 0.9463549
0.2203756 0.7745315 0.9044477
0.2213361 0.7866010 0.9077941
0.2246235 0.8225700 0.9192480
0.4014983 0.8712042 0.9289877
0.6481428 0.9121585 0.9375605
0.8120240 0.9400049 0.9438097
0.9148253 0.9579901 0.9473988
0.9601544 0.9675321 0.9525552
0.9817306 0.9729156 0.9577955
0.2257226 0.8049067 0.9230772
0.2263032 0.8126623 0.9251003
0.2285721 0.8459590 0.9330053
0.4329022 0.8915160 0.9439194
0.6677176 0.9292297 0.9504166
0.8209548 0.9554597 0.9549270
0.9217381 0.9721678 0.9598872
0.9630392 0.9797248 0.9641181
0.9830719 0.9835511 0.9668238
0.1974209 0.4046446 0.8244703
0.1995461 0.4159209 0.8318747
0.2942751 0.4426463 0.8424982
0.4824133 0.4815869 0.8558108
0.6533608 0.5208335 0.8707913
0.7798813 0.5563455 0.8810732
0.8794353 0.5967814 0.8935030
0.9267721 0.6374643 0.9060853
0.9543045 0.6776105 0.9162191
0.2004815 0.4337555 0.8351337
0.2016547 0.4422054 0.8392213
0.2884715 0.4739787 0.8506061
0.4799805 0.5093583 0.8654093
0.6544704 0.5531833 0.8778124
0.7828936 0.5900879 0.8905013
0.8831022 0.6280326 0.8996363
0.9298477 0.6627366 0.9108493
0.9574019 0.7003129 0.9204299
0.2055552 0.4969201 0.8528112
0.2068663 0.5095187 0.8573792
0.2621487 0.5301746 0.8655930
0.4773710 0.5736358 0.8809490
0.6592655 0.6166523 0.8935395
0.7968476 0.6543375 0.9031332
0.8907010 0.6856750 0.9129328
0.9365265 0.7142942 0.9201248
0.9617236 0.7396792 0.9277821
0.2122169 0.5841925 0.8760215
0.2133354 0.5946519 0.8799185
0.2285276 0.6209924 0.8884230
0.4787781 0.6645279 0.9024299
0.6692819 0.7023419 0.9129171
0.8075130 0.7374833 0.9207283
0.8990774 0.7664205 0.9278452
0.9454493 0.7895036 0.9349986
0.9694868 0.8137681 0.9415883
0.2185678 0.6699755 0.8981490
0.2197043 0.6835768 0.9021087
0.2225110 0.7158489 0.9118877
0.4769538 0.7559713 0.9224693
0.6684109 0.7938241 0.9313952
0.8127941 0.8240748 0.9389131
0.9109303 0.8508376 0.9439093
0.9540901 0.8688841 0.9493774
0.9753948 0.8833011 0.9544730
0.2240608 0.7428111 0.9172873
0.2256783 0.7567314 0.9229231
0.2278692 0.7863706 0.9305564
0.4843853 0.8299510 0.9393834
0.6790915 0.8646339 0.9466965
0.8251414 0.8897759 0.9516050
0.9167039 0.9122129 0.9574380
0.9588994 0.9228680 0.9600961
0.9798974 0.9332691 0.9641995
0.2281588 0.7884029 0.9315655
0.2293253 0.8040122 0.9356297
0.2317763 0.8333821 0.9441693
0.4939402 0.8715516 0.9515170
0.6879278 0.9048233 0.9581758
0.8366975 0.9319111 0.9627489
0.9240153 0.9466540 0.9647743
0.9619570 0.9570108 0.9688070
0.9818993 0.9627609 0.9722201
0.2316932 0.8183069 0.9438797
0.2326638 0.8326620 0.9472613
0.2465402 0.8619078 0.9537139
0.5234785 0.8996414 0.9620925
0.6992234 0.9286771 0.9661611
0.8455116 0.9536635 0.9703825
0.9256541 0.9681203 0.9741120
0.9651231 0.9748155 0.9751617
0.9827499 0.9797950 0.9779804
0.2342998 0.8401784 0.9529614
0.2350918 0.8521240 0.9557210
0.3254161 0.8813538 0.9629176
0.5520631 0.9143713 0.9685783
0.7214242 0.9424093 0.9735398
0.8537059 0.9646140 0.9769999
0.9303457 0.9770910 0.9785667
0.9689006 0.9838595 0.9808446
0.9842693 0.9867060 0.9818327
0.2194262 0.5652238 0.9011398
0.2902734 0.5746976 0.9045895
0.4252504 0.6053143 0.9131062
0.5786786 0.6360318 0.9218440
0.7115356 0.6657480 0.9297143
0.8339654 0.6985491 0.9370012
0.9087015 0.7244403 0.9424137
0.9463904 0.7477201 0.9478916
0.9667680 0.7730240 0.9536058
0.2209626 0.5884053 0.9064929
0.2787369 0.5962123 0.9092242
0.4201572 0.6256363 0.9173400
0.5825379 0.6501031 0.9241745
0.7156489 0.6855451 0.9334879
0.8351067 0.7178214 0.9404770
0.9102538 0.7430462 0.9456710
0.9478728 0.7638736 0.9499578
0.9687492 0.7901018 0.9556972
0.2233973 0.6285248 0.9149756
0.2618399 0.6378026 0.9180071
0.4101975 0.6609628 0.9246024
0.5782532 0.6954236 0.9341570
0.7154982 0.7220746 0.9395112
0.8398658 0.7559137 0.9471546
0.9146682 0.7828244 0.9522991
0.9520430 0.8032853 0.9572848
0.9718211 0.8269485 0.9612041
0.2275069 0.6906412 0.9292940
0.2356545 0.6995194 0.9319006
0.4082030 0.7304633 0.9392281
0.5869363 0.7579065 0.9454967
0.7266529 0.7884272 0.9522903
0.8449703 0.8194467 0.9578987
0.9195115 0.8382207 0.9613199
0.9566635 0.8562243 0.9644641
0.9761186 0.8755371 0.9694999
0.2312346 0.7565528 0.9422820
0.2322101 0.7674401 0.9456809
0.4145547 0.7934082 0.9516163
0.5828537 0.8235205 0.9579574
0.7281399 0.8530062 0.9636934
0.8541124 0.8790393 0.9681311
0.9250492 0.8957194 0.9710531
0.9632080 0.9103113 0.9734339
0.9798685 0.9200552 0.9759369
0.2346452 0.8093683 0.9541650
0.2401601 0.8209161 0.9568664
0.4175872 0.8429630 0.9615636
0.5921301 0.8739855 0.9675195
0.7426989 0.8984067 0.9716805
0.8569246 0.9201458 0.9749140
0.9308842 0.9351930 0.9770891
0.9655745 0.9441003 0.9786276
0.9820071 0.9507543 0.9807982
0.2368751 0.8431926 0.9619343
0.2536665 0.8519423 0.9637657
0.4287713 0.8739607 0.9681568
0.6169111 0.9050136 0.9740520
0.7529603 0.9280446 0.9770989
0.8680359 0.9490018 0.9800587
0.9329730 0.9599152 0.9813581
0.9681948 0.9668121 0.9826100
0.9832247 0.9727718 0.9843256
0.2386099 0.8662097 0.9679784
0.3167214 0.8764008 0.9700270
0.4605665 0.8959841 0.9736755
0.6291084 0.9226384 0.9778904
0.7642215 0.9451901 0.9813492
0.8762844 0.9643741 0.9838470
0.9387803 0.9749647 0.9852937
0.9709998 0.9803284 0.9859623
0.9849754 0.9835138 0.9868071
0.3016180 0.8814154 0.9725997
0.3604334 0.8886322 0.9739982
0.5112244 0.9106511 0.9778740
0.6511770 0.9331762 0.9812403
0.7760614 0.9539266 0.9840634
0.8856680 0.9723081 0.9863949
0.9426961 0.9813458 0.9875378
0.9717850 0.9864824 0.9883505
0.9854482 0.9889580 0.9889792
