data/spectral_luts/aerocolor_high_endura_premier.cube
TITLE "aerocolor_high_endura_premier"
LUT_3D_SIZE 5
0.0362573 0.0581498 0.0707672
0.0426700 0.0590557 0.0709742
0.2638485 0.0808766 0.0689826
0.6641905 0.1514183 0.1514183
0.8005883 0.1905664 0.1905664
0.0354827 0.0607204 0.0708742
0.0457295 0.0632010 0.0713750
0.3121569 0.0938575 0.0681874
0.7013743 0.1620906 0.1620906
0.8364497 0.2008592 0.2008592
0.0192765 0.1892026 0.0848934
0.0229457 0.2075918 0.0864090
0.4352103 0.3322428 0.0856976
0.8592666 0.4679869 0.2074080
0.9634800 0.5927337 0.3012122
0.0998859 0.4846444 0.1449163
0.1059676 0.5058340 0.1543513
0.5143947 0.6885363 0.1793208
0.9382288 0.8189748 0.3073309
1.0000000 0.8834421 0.5419140
0.1517816 0.6654563 0.4589359
0.1534887 0.6714041 0.4677701
0.5247514 0.8434346 0.5296478
0.9419776 0.9381087 0.6414559
1.0000000 0.9628043 0.7450215
0.0353128 0.0578530 0.0730883
0.0492775 0.0602890 0.0750576
0.3156215 0.0864882 0.0806838
0.6859512 0.1576639 0.1576639
0.8090485 0.1929946 0.2430865
0.0318311 0.0670110 0.0804176
0.0507521 0.0724728 0.0842725
0.3547769 0.1112926 0.0955466
0.7290894 0.1700452 0.1700452
0.8606250 0.2452250 0.3131221
0.0338726 0.2538583 0.1318640
0.0408082 0.2788093 0.1454917
0.4669167 0.4131024 0.1886053
0.8782743 0.5452877 0.2766099
0.9703920 0.6630253 0.4882768
0.1179495 0.5475806 0.3238460
0.1256119 0.5742776 0.3370298
0.5113921 0.7512791 0.4048121
0.9321826 0.8597060 0.5192080
0.9991930 0.9074464 0.6688214
0.1612567 0.6984689 0.6050292
0.1650047 0.7115275 0.6152936
0.5399355 0.8722595 0.6744029
0.9434928 0.9512748 0.7380924
0.9971781 0.9709054 0.8160701
0.0463417 0.0686240 0.2980888
0.0790114 0.0762051 0.3169022
0.4149483 0.1075190 0.3888320
0.7531422 0.1769487 0.4863862
0.8691705 0.2412420 0.6060839
0.0674179 0.1126203 0.3715214
0.0739403 0.1285487 0.3942464
0.4633777 0.2110672 0.4677398
0.8155097 0.3032340 0.5621982
0.9188577 0.4388622 0.6737220
0.1194616 0.4194101 0.5528491
0.1260539 0.4556833 0.5758175
0.5169755 0.5939374 0.6427327
0.9034054 0.6953138 0.6987896
0.9764932 0.7648269 0.7799116
0.1628232 0.6465316 0.7039269
0.1696555 0.6985698 0.7277316
0.5463923 0.8443083 0.7751977
0.9350422 0.9191051 0.8171607
0.9925341 0.9439440 0.8631166
0.1976995 0.7531487 0.8254410
0.2010894 0.7796646 0.8372519
0.5992931 0.9110770 0.8717722
0.9445394 0.9710966 0.8961896
0.9929625 0.9824513 0.9228911
0.1621636 0.1939334 0.7016289
0.2054601 0.2390037 0.7295501
0.5982999 0.3328061 0.7763335
0.8769075 0.4469426 0.8250228
0.9448274 0.5521203 0.8640029
0.1774890 0.3416224 0.7550247
0.1848541 0.3863200 0.7806859
0.6185751 0.4883731 0.8229961
0.9010355 0.5817814 0.8553801
0.9628322 0.6699557 0.8907156
0.2026108 0.5943720 0.8425527
0.2085878 0.6483003 0.8633775
0.6375785 0.7657283 0.8959324
0.9360240 0.8325230 0.9134519
0.9844800 0.8743790 0.9313221
0.2183295 0.7409008 0.8973188
0.2235731 0.8025189 0.9155882
0.6669466 0.9044953 0.9380130
0.9501973 0.9552886 0.9481717
0.9906989 0.9676834 0.9582692
0.2281493 0.8042477 0.9315325
0.2314412 0.8507177 0.9430019
0.7126752 0.9418851 0.9610098
0.9577063 0.9826674 0.9693301
0.9918475 0.9891926 0.9749768
0.2212277 0.5793582 0.9074166
0.4223688 0.6165260 0.9195072
0.7544537 0.6911229 0.9384747
0.9449463 0.7538517 0.9505842
0.9794990 0.8101112 0.9622588
0.2260422 0.6516448 0.9241909
0.4071693 0.6911131 0.9353742
0.7701346 0.7625161 0.9511263
0.9511948 0.8182742 0.9614358
0.9836336 0.8602022 0.9686626
0.2337182 0.7849752 0.9509351
0.4028792 0.8213205 0.9598313
0.7865973 0.8904321 0.9717976
0.9603527 0.9284577 0.9771963
0.9892607 0.9441950 0.9808367
0.2381222 0.8548240 0.9662791
0.4543742 0.8907170 0.9736283
0.8095538 0.9493689 0.9824570
0.9693602 0.9767773 0.9856670
0.9917395 0.9825509 0.9872258
0.3095236 0.8855861 0.9751848
0.5240601 0.9159498 0.9805933
0.8379123 0.9672434 0.9876114
0.9731577 0.9892814 0.9901870
0.9926553 0.9929844 0.9911280
