data/spectral_luts/aerocolor_endura_premier.cube
TITLE "aerocolor_endura_premier"
LUT_3D_SIZE 5
0.0355726 0.0574625 0.0702543
0.0507410 0.0596054 0.0708007
0.2957963 0.0843057 0.0690699
0.6411534 0.1448063 0.1448063
0.7998620 0.1903580 0.1903580
0.0334568 0.0652668 0.0722667
0.0546123 0.0711637 0.0740189
0.3342523 0.1102335 0.0729237
0.6805477 0.1561130 0.1561130
0.8397961 0.2373547 0.2171696
0.0235467 0.2104360 0.0932707
0.0291193 0.2349997 0.0971287
0.4397103 0.3470732 0.0902355
0.8123125 0.4765579 0.1939315
0.9441750 0.5877399 0.3437474
0.1008283 0.4879278 0.2039868
0.1095044 0.5181566 0.2182312
0.4997677 0.6769037 0.2518558
0.8806425 0.7880584 0.3667246
0.9869595 0.8511890 0.5224267
0.1550438 0.6768222 0.4729164
0.1570637 0.6838600 0.4820405
0.5133196 0.8326036 0.5299044
0.8942837 0.9165911 0.6096824
0.9897048 0.9490210 0.7042398
0.0336395 0.0597310 0.0799584
0.0603814 0.0647534 0.0842452
0.3302788 0.0915318 0.0980181
0.6615583 0.1506628 0.1535428
0.8088134 0.1929272 0.2881392
0.0258665 0.0791546 0.0938759
0.0615302 0.0882969 0.1018421
0.3691688 0.1360249 0.1273117
0.7074957 0.1827202 0.2032241
0.8568389 0.2871747 0.3424922
0.0387835 0.2717823 0.1780141
0.0469182 0.3000975 0.1928511
0.4635114 0.4234872 0.2361948
0.8274324 0.5387465 0.3315763
0.9492832 0.6299805 0.4736794
0.1165008 0.5425331 0.3604704
0.1260149 0.5756817 0.3751821
0.4993618 0.7243682 0.4254003
0.8806568 0.8211987 0.5118328
0.9844241 0.8758507 0.6350137
0.1636886 0.7069422 0.5870224
0.1661854 0.7156414 0.5970352
0.5190319 0.8557253 0.6463463
0.8958318 0.9313980 0.6986719
0.9876623 0.9585253 0.7750638
0.0523064 0.0835234 0.3188708
0.1055418 0.0962111 0.3412135
0.4285782 0.1367888 0.4024866
0.7319784 0.1779808 0.4849744
0.8656788 0.2908096 0.5943972
0.0705097 0.1503071 0.3822935
0.0795190 0.1791117 0.4092265
0.4623937 0.2526344 0.4647604
0.7799940 0.3361495 0.5479501
0.9036242 0.4378141 0.6420062
0.1113737 0.4063511 0.5246694
0.1200363 0.4556479 0.5548513
0.5200264 0.5698679 0.6049680
0.8551842 0.6614038 0.6657498
0.9587259 0.7263149 0.7390717
0.1540903 0.6332908 0.6735003
0.1595913 0.6871665 0.6926666
0.5294148 0.8113187 0.7307386
0.8881527 0.8863745 0.7763731
0.9796751 0.9185003 0.8321398
0.1896050 0.7569943 0.7972385
0.1910709 0.7789096 0.8023458
0.5745003 0.8968583 0.8376235
0.9039776 0.9560357 0.8671482
0.9829302 0.9739478 0.8981701
0.1628551 0.2403871 0.7040382
0.2121805 0.2760012 0.7215883
0.5803263 0.3614589 0.7657157
0.8363562 0.4492931 0.8074456
0.9320436 0.5466537 0.8480282
0.1753158 0.3591583 0.7474529
0.1801506 0.3978667 0.7642982
0.5918877 0.4851920 0.8044845
0.8616360 0.5651986 0.8382768
0.9483764 0.6483281 0.8730093
0.1965252 0.5771554 0.8213496
0.2021755 0.6244118 0.8410359
0.6195351 0.7264113 0.8744155
0.8901232 0.7916657 0.8949820
0.9712057 0.8401613 0.9157016
0.2146479 0.7376461 0.8844914
0.2191967 0.7845559 0.9003401
0.6391636 0.8800337 0.9209991
0.9073761 0.9308747 0.9354178
0.9801595 0.9489306 0.9463549
0.2257226 0.8049067 0.9230772
0.2285721 0.8459590 0.9330053
0.6677176 0.9292297 0.9504166
0.9217381 0.9721678 0.9598872
0.9830719 0.9835511 0.9668238
0.2194262 0.5652238 0.9011398
0.4252504 0.6053143 0.9131062
0.7115356 0.6657480 0.9297143
0.9087015 0.7244403 0.9424137
0.9667680 0.7730240 0.9536058
0.2233973 0.6285248 0.9149756
0.4101975 0.6609628 0.9246024
0.7154982 0.7220746 0.9395112
0.9146682 0.7828244 0.9522991
0.9718211 0.8269485 0.9612041
0.2312346 0.7565528 0.9422820
0.4145547 0.7934082 0.9516163
0.7281399 0.8530062 0.9636934
0.9250492 0.8957194 0.9710531
0.9798685 0.9200552 0.9759369
0.2368751 0.8431926 0.9619343
0.4287713 0.8739607 0.9681568
0.7529603 0.9280446 0.9770989
0.9329730 0.9599152 0.9813581
0.9832247 0.9727718 0.9843256
0.3016180 0.8814154 0.9725997
0.5112244 0.9106511 0.9778740
0.7760614 0.9539266 0.9840634
0.9426961 0.9813458 0.9875378
0.9854482 0.9889580 0.9889792
