data/spectral_luts/aerocolor_high_endura_premier.cube
TITLE "aerocolor_high_endura_premier"
LUT_3D_SIZE 9
0.0362573 0.0581498 0.0707672
0.0352583 0.0580029 0.0707323
0.0426700 0.0590557 0.0709742
0.1004412 0.0665594 0.0716684
0.2638485 0.0808766 0.0689826
0.4859254 0.1002536 0.1002536
0.6641905 0.1514183 0.1514183
0.7561166 0.1778024 0.1778024
0.8005883 0.1905664 0.1905664
0.0362796 0.0576189 0.0706735
0.0353438 0.0574761 0.0706396
0.0442158 0.0587568 0.0706789
0.1139871 0.0686291 0.0718809
0.2832143 0.0837585 0.0685171
0.5011870 0.1046339 0.1046339
0.6731935 0.1540022 0.1540022
0.7598837 0.1788836 0.1788836
0.8028291 0.1912096 0.1912096
0.0354827 0.0607204 0.0708742
0.0346325 0.0607735 0.0708317
0.0457295 0.0632010 0.0713750
0.1277953 0.0760588 0.0734797
0.3121569 0.0938575 0.0681874
0.5364357 0.1147507 0.1147507
0.7013743 0.1620906 0.1620906
0.7874048 0.1867826 0.1867826
0.8364497 0.2008592 0.2008592
0.0279448 0.0827156 0.0749170
0.0279069 0.0836952 0.0752433
0.0420426 0.0913024 0.0766965
0.1497678 0.1151756 0.0783097
0.3624998 0.1525142 0.0702099
0.6020504 0.2001442 0.1335831
0.7713082 0.2442782 0.1821626
0.8616276 0.3084556 0.2080856
0.9064333 0.3800394 0.2236036
0.0192765 0.1892026 0.0848934
0.0197249 0.1915537 0.0850675
0.0229457 0.2075918 0.0864090
0.1724252 0.2592224 0.0836218
0.4352103 0.3322428 0.0856976
0.6895729 0.4026233 0.1587034
0.8592666 0.4679869 0.2074080
0.9339268 0.5324697 0.2288365
0.9634800 0.5927337 0.3012122
0.0630074 0.3561544 0.0888157
0.0630717 0.3563786 0.0897242
0.0681888 0.3742072 0.0908653
0.1584155 0.4463667 0.0888996
0.4915472 0.5337264 0.1139731
0.7513518 0.6159655 0.1764348
0.9127609 0.6758429 0.2227616
0.9764014 0.7276045 0.2758709
0.9959530 0.7761844 0.4148806
0.0998859 0.4846444 0.1449163
0.0998859 0.4846444 0.1449163
0.1059676 0.5058340 0.1543513
0.1307629 0.5922243 0.1720970
0.5143947 0.6885363 0.1793208
0.7789711 0.7637424 0.2246041
0.9382288 0.8189748 0.3073309
0.9920676 0.8526603 0.4211846
1.0000000 0.8834421 0.5419140
0.1287191 0.5851034 0.2819858
0.1294170 0.5875350 0.2893807
0.1338674 0.6030408 0.2927783
0.1584150 0.6885682 0.3195880
0.5164858 0.7830424 0.3527568
0.7886510 0.8502606 0.4039316
0.9418799 0.8945965 0.4863799
0.9928379 0.9190315 0.5718379
1.0000000 0.9356615 0.6529556
0.1517816 0.6654563 0.4589359
0.1517816 0.6654563 0.4589359
0.1534887 0.6714041 0.4677701
0.1790626 0.7605072 0.4993201
0.5247514 0.8434346 0.5296478
0.7965770 0.9022313 0.5778527
0.9419776 0.9381087 0.6414559
0.9903333 0.9529105 0.6901051
1.0000000 0.9628043 0.7450215
0.0362269 0.0580818 0.0703667
0.0352979 0.0579470 0.0703458
0.0447437 0.0592518 0.0707861
0.1138521 0.0681343 0.0727115
0.2825845 0.0820255 0.0691856
0.5039545 0.1054282 0.1054282
0.6696976 0.1529989 0.1529989
0.7583997 0.1784577 0.1784577
0.8030147 0.1912628 0.1912628
0.0362192 0.0576698 0.0703720
0.0354556 0.0576700 0.0704550
0.0460161 0.0595769 0.0713260
0.1236796 0.0707797 0.0733197
0.2993340 0.0852940 0.0689311
0.5188776 0.1097113 0.1097113
0.6788648 0.1556300 0.1556300
0.7652013 0.1804098 0.1804098
0.8068725 0.1923701 0.1923701
0.0348481 0.0622085 0.0719441
0.0344681 0.0625228 0.0721773
0.0473493 0.0652793 0.0730223
0.1397114 0.0795404 0.0749033
0.3265753 0.0977166 0.0706078
0.5504720 0.1187794 0.1187794
0.7089247 0.1642576 0.1642576
0.7944917 0.1888166 0.1888166
0.8443484 0.2031262 0.2076211
0.0243882 0.0907794 0.0773558
0.0249671 0.0923053 0.0777214
0.0414222 0.1006876 0.0795209
0.1576798 0.1254696 0.0826390
0.3784094 0.1696911 0.0783392
0.6094899 0.2137846 0.1357184
0.7820030 0.2651909 0.1852322
0.8692858 0.3282801 0.2102836
0.9116605 0.4011648 0.2755644
0.0233491 0.2095053 0.0911459
0.0239780 0.2124512 0.0921835
0.0280483 0.2305068 0.0951817
0.1775165 0.2820351 0.0944277
0.4459783 0.3527474 0.0887882
0.6934076 0.4263878 0.1598040
0.8642461 0.4912210 0.2088372
0.9358611 0.5505406 0.2339154
0.9661204 0.6151955 0.3561411
0.0676344 0.3722757 0.1071154
0.0677836 0.3727955 0.1092083
0.0751534 0.3984729 0.1143129
0.1501613 0.4704096 0.1153800
0.4949313 0.5593753 0.1232739
0.7496122 0.6359195 0.1759355
0.9186041 0.6975204 0.2301208
0.9764364 0.7420815 0.3432448
0.9947445 0.7872138 0.4621713
0.1060324 0.5060596 0.1973112
0.1063993 0.5073382 0.2026977
0.1126746 0.5292019 0.2089601
0.1373208 0.6150729 0.2242604
0.5156639 0.7072186 0.2459745
0.7782719 0.7802444 0.2957987
0.9344662 0.8325083 0.3813204
0.9897469 0.8670251 0.4802405
1.0000000 0.8928272 0.5871821
0.1329670 0.5999038 0.3367215
0.1329670 0.5999038 0.3367215
0.1388884 0.6205347 0.3542610
0.1637898 0.7072947 0.3748209
0.5166873 0.7975535 0.4171111
0.7908795 0.8616989 0.4624726
0.9421335 0.9037347 0.5383725
0.9903620 0.9258982 0.6163167
1.0000000 0.9412869 0.6896533
0.1545133 0.6749740 0.4977488
0.1553535 0.6779016 0.5066448
0.1574912 0.6853496 0.5158740
0.1817697 0.7699391 0.5405759
0.5284905 0.8538491 0.5823898
0.8039753 0.9111521 0.6256081
0.9431182 0.9422721 0.6706893
0.9893757 0.9567542 0.7187793
0.9991252 0.9658034 0.7716469
0.0353128 0.0578530 0.0730883
0.0362034 0.0580787 0.0734975
0.0492775 0.0602890 0.0750576
0.1350085 0.0724283 0.0793669
0.3156215 0.0864882 0.0806838
0.5295889 0.1127856 0.1127856
0.6859512 0.1576639 0.1576639
0.7690944 0.1815272 0.1815272
0.8090485 0.1929946 0.2430865
0.0346022 0.0596025 0.0748138
0.0357392 0.0601182 0.0754622
0.0503220 0.0627965 0.0773822
0.1448815 0.0759505 0.0825202
0.3267275 0.0899913 0.0841905
0.5407916 0.1160009 0.1160009
0.6974080 0.1609522 0.1609522
0.7789800 0.1843645 0.1843645
0.8203817 0.1962474 0.2635017
0.0318311 0.0670110 0.0804176
0.0336786 0.0678812 0.0810188
0.0507521 0.0724728 0.0842725
0.1537070 0.0897424 0.0907591
0.3547769 0.1112926 0.0955466
0.5703073 0.1244724 0.1244724
0.7290894 0.1700452 0.1700452
0.8121604 0.1938878 0.2142524
0.8606250 0.2452250 0.3131221
0.0107310 0.1105308 0.0964602
0.0111655 0.1161425 0.0979570
0.0332475 0.1258993 0.1033904
0.1819269 0.1641330 0.1145855
0.4120954 0.2157770 0.1271255
0.6431452 0.2630302 0.1536628
0.8042349 0.3157932 0.2072375
0.8842955 0.3813887 0.2893142
0.9228790 0.4481443 0.3918405
0.0338726 0.2538583 0.1318640
0.0348871 0.2576796 0.1347928
0.0408082 0.2788093 0.1454917
0.1860567 0.3374085 0.1601302
0.4669167 0.4131024 0.1886053
0.7094990 0.4777546 0.2192456
0.8782743 0.5452877 0.2766099
0.9437200 0.5989411 0.3721898
0.9703920 0.6630253 0.4882768
0.0823019 0.4233794 0.2115595
0.0824137 0.4237688 0.2115594
0.0901338 0.4506667 0.2243360
0.1112431 0.5242145 0.2472590
0.5032749 0.6126637 0.2725587
0.7576634 0.6807564 0.3197240
0.9171202 0.7434118 0.3997443
0.9744455 0.7791709 0.4837610
0.9921535 0.8156237 0.5772505
0.1179495 0.5475806 0.3238460
0.1179495 0.5475806 0.3238460
0.1256119 0.5742776 0.3370298
0.1504427 0.6607914 0.3718496
0.5113921 0.7512791 0.4048121
0.7856935 0.8168192 0.4498834
0.9321826 0.8597060 0.5192080
0.9862901 0.8877409 0.5979417
0.9991930 0.9074464 0.6688214
0.1420793 0.6316522 0.4602034
0.1424847 0.6330647 0.4684562
0.1487622 0.6549363 0.4795103
0.1742928 0.7438889 0.5128639
0.5185848 0.8258213 0.5443828
0.7912384 0.8847761 0.5880054
0.9372148 0.9210499 0.6462893
0.9866385 0.9381787 0.6969883
0.9989531 0.9502128 0.7484998
0.1612567 0.6984689 0.6050292
0.1615754 0.6995794 0.6130525
0.1650047 0.7115275 0.6152936
0.1890080 0.7951586 0.6475916
0.5399355 0.8722595 0.6744029
0.8039953 0.9237984 0.7069114
0.9434928 0.9512748 0.7380924
0.9862394 0.9634984 0.7752795
0.9971781 0.9709054 0.8160701
0.0295116 0.0644884 0.1117971
0.0325793 0.0654401 0.1155186
0.0551473 0.0691624 0.1215437
0.1653041 0.0839834 0.1391400
0.3561287 0.0973816 0.1675873
0.5651187 0.1229832 0.1991968
0.7139740 0.1657069 0.2545074
0.7896941 0.1874397 0.3320056
0.8293622 0.1988250 0.4157041
0.0274449 0.0676674 0.1229989
0.0305757 0.0688641 0.1263455
0.0559291 0.0733939 0.1341378
0.1746350 0.0899310 0.1537146
0.3658646 0.1049111 0.1832475
0.5758356 0.1260591 0.2167777
0.7245086 0.1687305 0.2772941
0.8013574 0.1907872 0.3513021
0.8445593 0.2031868 0.4387918
0.0172623 0.0850404 0.1523357
0.0201497 0.0868343 0.1570779
0.0502627 0.0934828 0.1680409
0.1835978 0.1161854 0.1922149
0.4002178 0.1426340 0.2247732
0.6052853 0.1616877 0.2660315
0.7631161 0.1921001 0.3298885
0.8444231 0.2539926 0.4041862
0.8882390 0.3277165 0.5005755
0.0249518 0.1693217 0.2169245
0.0250900 0.1718850 0.2175510
0.0296942 0.1939715 0.2373718
0.2028369 0.2376460 0.2628679
0.4471436 0.2877795 0.2959956
0.6782334 0.3444063 0.3504481
0.8376859 0.4044338 0.4134535
0.9048204 0.4581576 0.4908395
0.9367008 0.5192187 0.5749190
0.0560511 0.3319179 0.3023650
0.0574781 0.3368895 0.3064964
0.0653810 0.3644245 0.3250847
0.1525473 0.4256449 0.3563013
0.4958380 0.5042065 0.3995305
0.7319380 0.5612991 0.4414445
0.8906692 0.6221319 0.4990452
0.9507831 0.6653662 0.5730484
0.9731473 0.7124750 0.6491727
0.1006963 0.4874681 0.4069372
0.1022812 0.4929901 0.4155308
0.1111661 0.5239463 0.4285840
0.1337756 0.6027211 0.4631270
0.5036842 0.6839488 0.5004647
0.7650113 0.7472256 0.5489329
0.9188311 0.7930923 0.6029086
0.9739881 0.8270608 0.6591385
0.9902596 0.8526859 0.7115201
0.1334111 0.6014512 0.5228518
0.1337685 0.6026963 0.5312698
0.1438599 0.6378560 0.5464722
0.1674043 0.7198883 0.5783807
0.5128933 0.8019547 0.6094183
0.7890561 0.8594421 0.6481664
0.9339527 0.8921707 0.6820301
0.9823864 0.9128146 0.7285531
0.9949352 0.9263052 0.7735604
0.1531263 0.6701415 0.6315570
0.1533789 0.6710215 0.6383435
0.1628945 0.7041752 0.6524652
0.1852948 0.7822210 0.6796762
0.5314625 0.8594277 0.7030857
0.7986823 0.9095114 0.7275454
0.9381860 0.9392001 0.7606666
0.9849326 0.9537074 0.7960593
0.9955799 0.9606110 0.8281251
0.1691644 0.7260206 0.7258175
0.1691644 0.7260206 0.7258175
0.1740059 0.7428890 0.7297887
0.1967108 0.8219960 0.7580867
0.5626411 0.8926184 0.7819147
0.8143061 0.9380451 0.8007699
0.9414792 0.9626026 0.8257586
0.9841875 0.9720927 0.8487249
0.9949461 0.9773138 0.8725573
0.0463417 0.0686240 0.2980888
0.0484649 0.0699304 0.3054863
0.0790114 0.0762051 0.3169022
0.2167526 0.0942904 0.3460102
0.4149483 0.1075190 0.3888320
0.6115298 0.1363039 0.4311365
0.7531422 0.1769487 0.4863862
0.8242739 0.1973646 0.5439880
0.8691705 0.2412420 0.6060839
0.0526125 0.0767745 0.3199373
0.0548746 0.0783963 0.3278187
0.0795057 0.0869795 0.3404332
0.2208524 0.1061438 0.3706977
0.4264800 0.1218840 0.4140176
0.6229316 0.1395764 0.4555290
0.7673190 0.1810177 0.5048744
0.8452486 0.2247025 0.5682962
0.8840517 0.2968081 0.6289096
0.0674179 0.1126203 0.3715214
0.0680199 0.1172738 0.3736187
0.0739403 0.1285487 0.3942464
0.2373496 0.1636198 0.4293167
0.4633777 0.2110672 0.4677398
0.6653141 0.2517289 0.5130239
0.8155097 0.3032340 0.5621982
0.8841944 0.3675908 0.6172867
0.9188577 0.4388622 0.6737220
0.0925897 0.2505803 0.4592234
0.0946348 0.2618086 0.4663490
0.1008199 0.2889710 0.4878985
0.2329008 0.3362314 0.5199701
0.4983509 0.3983812 0.5579331
0.7229699 0.4520410 0.5975597
0.8673906 0.5045432 0.6374388
0.9269861 0.5518417 0.6799460
0.9521034 0.6002370 0.7223495
0.1194616 0.4194101 0.5528491
0.1212575 0.4280514 0.5591061
0.1260539 0.4556833 0.5758175
0.1546140 0.5270790 0.6089796
0.5169755 0.5939374 0.6427327
0.7670194 0.6541084 0.6734415
0.9034054 0.6953138 0.6987896
0.9577398 0.7291333 0.7393368
0.9764932 0.7648269 0.7799116
0.1438460 0.5569797 0.6378078
0.1446880 0.5669346 0.6407415
0.1498004 0.6051039 0.6585535
0.1570045 0.6776336 0.6836539
0.5392442 0.7523767 0.7125034
0.7848543 0.8061568 0.7329128
0.9249053 0.8439605 0.7664985
0.9745837 0.8670656 0.7948051
0.9885531 0.8865641 0.8298803
0.1628232 0.6465316 0.7039269
0.1642265 0.6521774 0.7088161
0.1696555 0.6985698 0.7277316
0.1822670 0.7716720 0.7497277
0.5463923 0.8443083 0.7751977
0.8039747 0.8927408 0.7947214
0.9350422 0.9191051 0.8171607
0.9797568 0.9351268 0.8411948
0.9925341 0.9439440 0.8631166
0.1818362 0.7031718 0.7701709
0.1818362 0.7031718 0.7701709
0.1868681 0.7480265 0.7877027
0.1958513 0.8190016 0.8109334
0.5648423 0.8863809 0.8285888
0.8147661 0.9314508 0.8450081
0.9406878 0.9550344 0.8590721
0.9821267 0.9658684 0.8794150
0.9928377 0.9706749 0.8978624
0.1976995 0.7531487 0.8254410
0.1976995 0.7531487 0.8254410
0.2010894 0.7796646 0.8372519
0.2059207 0.8491590 0.8540848
0.5992931 0.9110770 0.8717722
0.8316865 0.9511756 0.8844055
0.9445394 0.9710966 0.8961896
0.9830730 0.9790274 0.9090968
0.9929625 0.9824513 0.9228911
0.1116875 0.1116875 0.5257628
0.1135253 0.1135253 0.5321662
0.1503546 0.1189573 0.5510920
0.2920157 0.1265144 0.5774218
0.4927733 0.1495056 0.6089831
0.6852424 0.1946987 0.6426818
0.8156374 0.2526329 0.6824839
0.8778833 0.3153313 0.7192970
0.9122899 0.3955213 0.7593322
0.1171885 0.1171885 0.5449291
0.1185348 0.1185348 0.5496199
0.1443526 0.1238083 0.5679935
0.3030651 0.1602927 0.5974650
0.5054498 0.2090421 0.6341816
0.7001278 0.2538621 0.6611167
0.8293335 0.3076075 0.6989961
0.8911462 0.3681273 0.7351532
0.9242564 0.4516232 0.7775449
0.1315811 0.1974359 0.5950749
0.1328972 0.2050961 0.5996606
0.1391178 0.2370109 0.6213338
0.3042338 0.2845664 0.6543111
0.5373410 0.3372944 0.6848183
0.7375854 0.3870017 0.7098830
0.8620912 0.4436542 0.7421043
0.9181893 0.4927989 0.7730589
0.9426965 0.5475164 0.8002232
0.1511431 0.3515332 0.6632319
0.1523616 0.3589240 0.6674773
0.1585419 0.3948211 0.6890102
0.2869376 0.4534874 0.7151912
0.5552093 0.5074119 0.7413758
0.7710066 0.5542563 0.7656704
0.8966449 0.6053280 0.7868705
0.9462231 0.6502247 0.8145044
0.9649814 0.6885105 0.8393962
0.1703298 0.5034215 0.7300811
0.1715831 0.5134020 0.7344476
0.1774250 0.5558074 0.7548018
0.2424643 0.6188657 0.7782897
0.5749769 0.6792622 0.7987561
0.8003226 0.7282181 0.8192576
0.9196082 0.7709259 0.8387356
0.9655147 0.7995886 0.8563335
0.9808400 0.8232892 0.8753001
0.1853578 0.6200826 0.7824408
0.1881046 0.6338625 0.7920109
0.1921981 0.6786478 0.8062732
0.1990608 0.7477295 0.8301840
0.5922982 0.8101382 0.8454431
0.8098229 0.8541839 0.8621981
0.9344530 0.8845208 0.8762644
0.9762675 0.9010731 0.8907186
0.9886412 0.9162419 0.9043626
0.1976887 0.6844026 0.8254032
0.1994532 0.7027140 0.8315511
0.2041441 0.7523655 0.8478950
0.2096211 0.8168200 0.8669776
0.6033713 0.8776463 0.8831218
0.8312857 0.9186624 0.8929081
0.9415212 0.9397374 0.9044421
0.9799794 0.9512159 0.9141421
0.9909605 0.9561690 0.9226286
0.2079661 0.7352278 0.8612111
0.2086938 0.7433738 0.8637465
0.2134399 0.7892003 0.8802827
0.2514339 0.8543243 0.8963535
0.6211999 0.9099279 0.9096271
0.8422051 0.9482498 0.9178509
0.9454447 0.9666079 0.9237173
0.9820913 0.9745778 0.9330058
0.9920631 0.9778899 0.9401603
0.2171885 0.7795786 0.8933432
0.2171885 0.7795786 0.8933432
0.2203274 0.8156150 0.9042797
0.3146644 0.8761541 0.9195279
0.6469982 0.9265006 0.9281288
0.8503693 0.9610639 0.9353271
0.9512647 0.9779075 0.9431205
0.9836079 0.9839229 0.9479671
0.9921240 0.9863226 0.9538515
0.1621636 0.1939334 0.7016289
0.1646056 0.2115205 0.7101370
0.2054601 0.2390037 0.7295501
0.3846585 0.2821490 0.7536883
0.5982999 0.3328061 0.7763335
0.7662156 0.3892744 0.7997224
0.8769075 0.4469426 0.8250228
0.9225408 0.4968488 0.8416788
0.9448274 0.5521203 0.8640029
0.1672183 0.2442385 0.7192400
0.1690556 0.2530407 0.7256415
0.1918234 0.2821659 0.7450027
0.3911476 0.3296458 0.7695972
0.6035501 0.3884008 0.7923931
0.7760699 0.4348910 0.8129679
0.8841634 0.4892522 0.8344411
0.9300835 0.5376422 0.8542789
0.9511957 0.5910520 0.8716267
0.1774890 0.3416224 0.7550247
0.1796279 0.3560850 0.7624769
0.1848541 0.3863200 0.7806859
0.3836398 0.4400816 0.8042807
0.6185751 0.4883731 0.8229961
0.7924819 0.5373589 0.8400866
0.9010355 0.5817814 0.8553801
0.9433774 0.6208057 0.8710603
0.9628322 0.6699557 0.8907156
0.1900134 0.4675588 0.7986613
0.1920050 0.4839680 0.8056005
0.1971321 0.5198162 0.8234638
0.3782224 0.5744717 0.8443849
0.6358503 0.6312728 0.8612648
0.8167431 0.6751889 0.8745833
0.9198195 0.7144628 0.8888935
0.9613863 0.7415583 0.8984108
0.9751648 0.7722863 0.9110615
0.2026108 0.5943720 0.8425527
0.2043861 0.6116558 0.8487381
0.2085878 0.6483003 0.8633775
0.3545341 0.7052543 0.8816910
0.6375785 0.7657283 0.8959324
0.8315420 0.8042208 0.9058164
0.9360240 0.8325230 0.9134519
0.9731388 0.8560609 0.9227730
0.9844800 0.8743790 0.9313221
0.2119814 0.6903362 0.8752010
0.2136571 0.7087047 0.8810395
0.2170262 0.7483378 0.8927779
0.3555116 0.8071906 0.9091482
0.6465216 0.8574750 0.9213908
0.8446527 0.8945852 0.9281986
0.9426624 0.9145157 0.9352317
0.9783100 0.9270933 0.9399722
0.9891356 0.9369777 0.9464379
0.2183295 0.7409008 0.8973188
0.2199408 0.7591959 0.9029328
0.2235731 0.8025189 0.9155882
0.3743082 0.8567448 0.9271182
0.6669466 0.9044953 0.9380130
0.8556879 0.9377642 0.9435745
0.9501973 0.9552886 0.9481717
0.9818817 0.9630494 0.9541690
0.9906989 0.9676834 0.9582692
0.2234238 0.7740504 0.9150679
0.2249318 0.7927921 0.9203220
0.2278583 0.8332400 0.9305186
0.4027812 0.8834867 0.9427814
0.6859745 0.9292088 0.9504870
0.8663887 0.9592416 0.9561368
0.9546356 0.9744190 0.9599398
0.9838064 0.9801839 0.9631022
0.9916214 0.9830525 0.9675585
0.2281493 0.8042477 0.9315325
0.2287396 0.8118855 0.9335892
0.2314412 0.8507177 0.9430019
0.4533004 0.8998858 0.9533556
0.7126752 0.9418851 0.9610098
0.8819635 0.9703104 0.9660962
0.9577063 0.9826674 0.9693301
0.9840465 0.9874387 0.9720560
0.9918475 0.9891926 0.9749768
0.1993488 0.3997162 0.8311874
0.2009563 0.4080918 0.8367882
0.2832586 0.4408589 0.8495078
0.4875008 0.4780426 0.8655772
0.6783210 0.5321295 0.8819625
0.8303643 0.5660291 0.8920525
0.9157242 0.6094070 0.9039154
0.9516658 0.6533686 0.9149104
0.9669387 0.6982935 0.9262955
0.2016683 0.4251239 0.8392689
0.2034978 0.4420075 0.8456431
0.2900138 0.4699578 0.8573460
0.4844446 0.5138044 0.8737676
0.6830857 0.5609578 0.8883709
0.8369141 0.6051010 0.8996526
0.9202856 0.6459399 0.9105267
0.9556984 0.6859811 0.9206344
0.9692813 0.7185127 0.9299125
0.2073801 0.4991075 0.8591695
0.2086350 0.5089964 0.8635417
0.2527727 0.5459960 0.8783894
0.4906561 0.5922276 0.8919892
0.6885802 0.6360350 0.9043062
0.8460653 0.6801773 0.9152279
0.9288452 0.7134895 0.9243587
0.9631670 0.7461789 0.9326017
0.9757581 0.7769416 0.9400151
0.2148938 0.5992775 0.8853484
0.2162594 0.6120456 0.8901061
0.2200588 0.6495057 0.9033440
0.4802277 0.6855617 0.9134265
0.6953129 0.7341765 0.9250198
0.8625116 0.7782332 0.9347339
0.9390886 0.8036636 0.9395774
0.9723501 0.8289191 0.9469359
0.9823463 0.8491512 0.9527066
0.2221824 0.6936138 0.9107429
0.2235757 0.7088696 0.9155973
0.2263399 0.7456405 0.9252282
0.4813875 0.7888832 0.9359940
0.7074842 0.8361439 0.9455097
0.8710559 0.8678899 0.9512353
0.9499460 0.8903737 0.9561825
0.9782527 0.9027539 0.9597489
0.9875595 0.9168199 0.9642788
0.2268522 0.7605838 0.9270130
0.2280614 0.7755090 0.9312260
0.2310984 0.8123182 0.9418073
0.4983917 0.8554514 0.9514496
0.7167540 0.8943880 0.9580365
0.8817406 0.9243503 0.9636350
0.9541553 0.9415314 0.9666632
0.9813158 0.9478437 0.9687468
0.9898348 0.9542773 0.9726866
0.2307570 0.7995056 0.9406180
0.2319471 0.8153782 0.9447643
0.2342391 0.8501672 0.9527500
0.5106335 0.8903275 0.9617663
0.7326349 0.9270640 0.9677355
0.8911021 0.9547971 0.9717996
0.9591261 0.9676633 0.9745818
0.9836137 0.9741521 0.9768860
0.9909520 0.9764507 0.9789073
0.2335484 0.8261170 0.9503435
0.2348175 0.8394796 0.9547652
0.2635227 0.8717996 0.9618293
0.5399888 0.9096909 0.9691921
0.7561900 0.9459960 0.9739833
0.9004612 0.9700022 0.9780325
0.9632389 0.9801779 0.9797438
0.9852669 0.9844700 0.9812347
0.9916832 0.9866225 0.9826121
0.2360956 0.8440130 0.9592184
0.2369047 0.8562961 0.9620374
0.3220467 0.8852215 0.9680642
0.5823489 0.9232255 0.9749097
0.7762454 0.9552658 0.9797449
0.9077759 0.9770202 0.9820867
0.9660642 0.9865552 0.9835356
0.9860133 0.9898620 0.9844828
0.9920452 0.9912813 0.9855203
0.2212277 0.5793582 0.9074166
0.2750695 0.5880600 0.9105347
0.4223688 0.6165260 0.9195072
0.5973003 0.6524165 0.9292734
0.7544537 0.6911229 0.9384747
0.8818823 0.7241225 0.9453449
0.9449463 0.7538517 0.9505842
0.9694340 0.7801307 0.9562703
0.9794990 0.8101112 0.9622588
0.2230202 0.6050037 0.9136618
0.2679434 0.6140059 0.9167475
0.4219832 0.6417588 0.9253419
0.6004680 0.6783000 0.9341288
0.7584570 0.7103424 0.9420478
0.8832166 0.7426958 0.9484294
0.9466982 0.7737718 0.9537002
0.9711995 0.7999924 0.9592721
0.9810250 0.8283571 0.9647572
0.2260422 0.6516448 0.9241909
0.2548012 0.6611939 0.9272062
0.4071693 0.6911131 0.9353742
0.5959613 0.7263768 0.9440159
0.7701346 0.7625161 0.9511263
0.8885752 0.7946384 0.9568101
0.9511948 0.8182742 0.9614358
0.9751512 0.8408201 0.9651653
0.9836336 0.8602022 0.9686626
0.2297424 0.7172871 0.9370828
0.2310637 0.7370995 0.9416865
0.4046959 0.7596323 0.9485371
0.6088976 0.7989148 0.9563075
0.7734738 0.8292691 0.9623768
0.8999636 0.8598415 0.9673163
0.9570919 0.8795226 0.9699556
0.9790351 0.8934717 0.9729310
0.9870760 0.9085782 0.9756135
0.2337182 0.7849752 0.9509351
0.2345788 0.7977836 0.9539337
0.4028792 0.8213205 0.9598313
0.6144415 0.8592594 0.9670167
0.7865973 0.8904321 0.9717976
0.9050961 0.9130533 0.9750122
0.9603527 0.9284577 0.9771963
0.9820679 0.9370653 0.9791462
0.9892607 0.9441950 0.9808367
0.2363772 0.8284978 0.9601995
0.2371448 0.8402925 0.9628741
0.4243964 0.8645560 0.9677792
0.6232642 0.8966039 0.9739931
0.7995434 0.9271659 0.9779375
0.9130012 0.9479309 0.9807270
0.9651110 0.9584721 0.9822038
0.9846701 0.9648213 0.9833184
0.9909469 0.9689823 0.9845986
0.2381222 0.8548240 0.9662791
0.2786373 0.8666652 0.9690911
0.4543742 0.8907170 0.9736283
0.6394622 0.9204884 0.9783494
0.8095538 0.9493689 0.9824570
0.9187673 0.9673175 0.9843621
0.9693602 0.9767773 0.9856670
0.9858032 0.9809310 0.9868767
0.9917395 0.9825509 0.9872258
0.2396325 0.8725950 0.9715414
0.3230601 0.8823548 0.9735094
0.4889767 0.9056965 0.9777479
0.6603455 0.9331589 0.9819073
0.8222448 0.9604761 0.9853404
0.9251848 0.9771587 0.9872243
0.9710624 0.9847366 0.9879686
0.9867788 0.9878320 0.9888799
0.9923219 0.9891152 0.9892013
0.3095236 0.8855861 0.9751848
0.3924514 0.8961555 0.9771960
0.5240601 0.9159498 0.9805933
0.6821499 0.9417318 0.9847816
0.8379123 0.9672434 0.9876114
0.9315159 0.9826016 0.9890999
0.9731577 0.9892814 0.9901870
0.9879106 0.9918435 0.9905191
0.9926553 0.9929844 0.9911280
