data/spectral_luts/agfa_vista_100_ca_dpii.cube
TITLE "agfa_vista_100_ca_dpii"
LUT_3D_SIZE 9
0.0277742 0.0814135 0.0910834
0.0407967 0.0827890 0.0914105
0.1001154 0.0894182 0.0925158
0.2082292 0.1008413 0.0924316
0.3549501 0.1106120 0.0877931
0.4980130 0.1147111 0.1037229
0.6100869 0.1358897 0.1358897
0.6823537 0.1566314 0.1566314
0.7331845 0.1712205 0.1712205
0.0263960 0.0842252 0.0916563
0.0438909 0.0863089 0.0921311
0.1064912 0.0941756 0.0934448
0.2159321 0.1069059 0.0934812
0.3637314 0.1180779 0.0891306
0.5076970 0.1245288 0.1065023
0.6191995 0.1385052 0.1385052
0.6912340 0.1591801 0.1591801
0.7423974 0.1836157 0.1738648
0.0201018 0.1052863 0.0955196
0.0468690 0.1096113 0.0963571
0.1168462 0.1192733 0.0976828
0.2382831 0.1371621 0.0975581
0.3868263 0.1589803 0.0937131
0.5389522 0.1792597 0.1154730
0.6469399 0.2001887 0.1464671
0.7195336 0.2257843 0.1673025
0.7721577 0.2657847 0.1824064
0.0172672 0.1782552 0.1054151
0.0262647 0.1850199 0.1060249
0.1303767 0.2042744 0.1066831
0.2703718 0.2331473 0.1044806
0.4379173 0.2681031 0.0951614
0.5904958 0.3030463 0.1302668
0.6943362 0.3352643 0.1600705
0.7687009 0.3743173 0.1814143
0.8150495 0.4162303 0.1947170
0.0514204 0.3157837 0.1112564
0.0543818 0.3261018 0.1103962
0.1282646 0.3557521 0.1058060
0.3025752 0.3944413 0.0950120
0.4824271 0.4357086 0.0992495
0.6376055 0.4733889 0.1437880
0.7410525 0.5059627 0.1734788
0.8070999 0.5355501 0.1924354
0.8491157 0.5708845 0.2044945
0.0887422 0.4458182 0.1076486
0.0918136 0.4565195 0.1046910
0.1365243 0.4827788 0.0993504
0.3434507 0.5181603 0.1095054
0.5225297 0.5607913 0.1217411
0.6661366 0.5954912 0.1519768
0.7685087 0.6265516 0.1813591
0.8283836 0.6549296 0.1985441
0.8668224 0.6749948 0.2167681
0.1183916 0.5491210 0.1193054
0.1216330 0.5604145 0.1216330
0.1992375 0.5851490 0.1287322
0.3909633 0.6218556 0.1392675
0.5624868 0.6572332 0.1494214
0.6972681 0.6916739 0.1609120
0.7849073 0.7169307 0.1860657
0.8427704 0.7393249 0.2131981
0.8784211 0.7571028 0.2783680
0.1428311 0.6342716 0.1711027
0.1571009 0.6427624 0.1671423
0.2904735 0.6625092 0.1702906
0.4575800 0.6966770 0.1747892
0.6018023 0.7266128 0.1862282
0.7181489 0.7508824 0.2023596
0.8006201 0.7728467 0.2418309
0.8517157 0.7901460 0.2909331
0.8829116 0.8054360 0.3566938
0.2391652 0.7029358 0.2569965
0.2818002 0.7083995 0.2552729
0.4007736 0.7276069 0.2533727
0.5162986 0.7492895 0.2598052
0.6454577 0.7769058 0.2726625
0.7460808 0.7987105 0.2997867
0.8134763 0.8153211 0.3453857
0.8568096 0.8299820 0.3883450
0.8885376 0.8422141 0.4303724
0.0270957 0.0817520 0.0936380
0.0424538 0.0834593 0.0942837
0.1032901 0.0905398 0.0964310
0.2121707 0.1022023 0.0980575
0.3553660 0.1120745 0.0960003
0.5007957 0.1163511 0.1045216
0.6113269 0.1362456 0.1362456
0.6860664 0.1576970 0.1576970
0.7366841 0.1722250 0.1722250
0.0261010 0.0851556 0.0955420
0.0456338 0.0876684 0.0964617
0.1080187 0.0955551 0.0987523
0.2213648 0.1085915 0.1001641
0.3642399 0.1199052 0.0980747
0.5087234 0.1270512 0.1067969
0.6201710 0.1387840 0.1387840
0.6924296 0.1595233 0.1595233
0.7437145 0.1859106 0.1742428
0.0182307 0.1094634 0.1023618
0.0479283 0.1128574 0.1031144
0.1182555 0.1237847 0.1055440
0.2386081 0.1416790 0.1068888
0.3945571 0.1631251 0.1051974
0.5399222 0.1821611 0.1157514
0.6528958 0.2035785 0.1481765
0.7206743 0.2283426 0.1676299
0.7734947 0.2689449 0.1827902
0.0195745 0.1907689 0.1152359
0.0215005 0.2005697 0.1162034
0.1257886 0.2153385 0.1176768
0.2700436 0.2467868 0.1179619
0.4395393 0.2804103 0.1138764
0.5917649 0.3095858 0.1306311
0.6956449 0.3409882 0.1604461
0.7701136 0.3802734 0.1818198
0.8182645 0.4227132 0.1956398
0.0565182 0.3335451 0.1255480
0.0590751 0.3424539 0.1252584
0.1133284 0.3706633 0.1234196
0.2987515 0.4081013 0.1179206
0.4818595 0.4480793 0.1072278
0.6379110 0.4819507 0.1438757
0.7418514 0.5148088 0.1737081
0.8077377 0.5431433 0.1926184
0.8492700 0.5744962 0.2079266
0.0924803 0.4588425 0.1310660
0.0956780 0.4699836 0.1298224
0.1343313 0.4954137 0.1245949
0.3376245 0.5331643 0.1157376
0.5207528 0.5708570 0.1246302
0.6655375 0.6039622 0.1518049
0.7681706 0.6341022 0.1812621
0.8283058 0.6611177 0.1985217
0.8668556 0.6801888 0.2482324
0.1205194 0.5565345 0.1470842
0.1236591 0.5674735 0.1427496
0.2027441 0.5963816 0.1388702
0.3859134 0.6297889 0.1415445
0.5600632 0.6652938 0.1517349
0.6959509 0.6982409 0.1611912
0.7841257 0.7228643 0.1977608
0.8423696 0.7419020 0.2389978
0.8781500 0.7589916 0.2972609
0.1441592 0.6388988 0.1962718
0.1468472 0.6482644 0.1991254
0.2841115 0.6672264 0.1980556
0.4544886 0.7012091 0.2034499
0.6004162 0.7302469 0.2096853
0.7172805 0.7545043 0.2271787
0.8002110 0.7756890 0.2594284
0.8513388 0.7932068 0.3111719
0.8827157 0.8064259 0.3669519
0.2371279 0.7038355 0.2637918
0.2801379 0.7092996 0.2621531
0.3983389 0.7297148 0.2702464
0.5148528 0.7511446 0.2754587
0.6449693 0.7778563 0.2812098
0.7456897 0.7997648 0.3097819
0.8134763 0.8153211 0.3453857
0.8568096 0.8299820 0.3883450
0.8885376 0.8422141 0.4303724
0.0249799 0.0848728 0.1134178
0.0454845 0.0872246 0.1151203
0.1079305 0.0945986 0.1195124
0.2174818 0.1065288 0.1248135
0.3654803 0.1173581 0.1303901
0.5097427 0.1221047 0.1369160
0.6173111 0.1379632 0.1514553
0.6915009 0.1592567 0.1851933
0.7427291 0.1764586 0.2214888
0.0231224 0.0893873 0.1213329
0.0470282 0.0923373 0.1237290
0.1121743 0.1004871 0.1272778
0.2255043 0.1137930 0.1335976
0.3721808 0.1252241 0.1390418
0.5180542 0.1339314 0.1445582
0.6244447 0.1437707 0.1629255
0.6978387 0.1617575 0.1923762
0.7494181 0.1940044 0.2280325
0.0123431 0.1175373 0.1400442
0.0450683 0.1209971 0.1410127
0.1200202 0.1327557 0.1464439
0.2427194 0.1520462 0.1540575
0.3991755 0.1747099 0.1600404
0.5505868 0.1956505 0.1741541
0.6573568 0.2146824 0.1928036
0.7277278 0.2469458 0.2228805
0.7786331 0.2822187 0.2562573
0.0234189 0.2098346 0.1699276
0.0248266 0.2163547 0.1735515
0.1221224 0.2360160 0.1782877
0.2729786 0.2636823 0.1852250
0.4470405 0.2971798 0.1976901
0.5953978 0.3327138 0.2103856
0.7053779 0.3641724 0.2294516
0.7748736 0.4023203 0.2613142
0.8234012 0.4432467 0.2976757
0.0660344 0.3667011 0.2093028
0.0687611 0.3762010 0.2122010
0.0761274 0.3976205 0.2159592
0.2909308 0.4351604 0.2215638
0.4848704 0.4742496 0.2337399
0.6372780 0.5117012 0.2465783
0.7421106 0.5353234 0.2636089
0.8095224 0.5683746 0.2998959
0.8501296 0.5915196 0.3385321
0.1014615 0.4901342 0.2493483
0.1048086 0.5017959 0.2488669
0.1118675 0.5263901 0.2503144
0.3244658 0.5649576 0.2555912
0.5201191 0.5994918 0.2644905
0.6680647 0.6321185 0.2815061
0.7665801 0.6604946 0.3045044
0.8270620 0.6803799 0.3417404
0.8664932 0.7011235 0.3822876
0.1301095 0.5899478 0.2890851
0.1336990 0.6024542 0.2881472
0.1530683 0.6267712 0.2916342
0.3732539 0.6600451 0.2994186
0.5480334 0.6952491 0.3142151
0.6899049 0.7226533 0.3292428
0.7803933 0.7437889 0.3582918
0.8398781 0.7612470 0.3889007
0.8762865 0.7742392 0.4292706
0.1519284 0.6659679 0.3457449
0.1544014 0.6745842 0.3450098
0.2564364 0.6958562 0.3513674
0.4361814 0.7235910 0.3558837
0.5987192 0.7541559 0.3740852
0.7173623 0.7774882 0.3866708
0.7959268 0.7942481 0.4129412
0.8484383 0.8078227 0.4434789
0.8807591 0.8181490 0.4746480
0.2038458 0.7268292 0.4101872
0.2558357 0.7324024 0.4097727
0.3752225 0.7501230 0.4166916
0.5139259 0.7748396 0.4220129
0.6358134 0.7964901 0.4328986
0.7401650 0.8161312 0.4466482
0.8098788 0.8314607 0.4675722
0.8542511 0.8413540 0.4951680
0.8866504 0.8520284 0.5253429
0.0241127 0.0919005 0.1801872
0.0491770 0.0947318 0.1870729
0.1165874 0.1022965 0.1938425
0.2321487 0.1145221 0.2075697
0.3776983 0.1252786 0.2255075
0.5240213 0.1304010 0.2474394
0.6317641 0.1421114 0.2714860
0.7009442 0.1619671 0.3045606
0.7519949 0.1913439 0.3472249
0.0216053 0.0971750 0.2010878
0.0504067 0.1002282 0.2063532
0.1190808 0.1081578 0.2124979
0.2361746 0.1211195 0.2289311
0.3845596 0.1326968 0.2443670
0.5320391 0.1414616 0.2590463
0.6376472 0.1523862 0.2831858
0.7056304 0.1729199 0.3137149
0.7576844 0.2065906 0.3563895
0.0318720 0.1289181 0.2461220
0.0421975 0.1327324 0.2524762
0.1286775 0.1458226 0.2591453
0.2584987 0.1668792 0.2751203
0.4161273 0.1866440 0.2858361
0.5621811 0.2082955 0.3078409
0.6637862 0.2278808 0.3252308
0.7375051 0.2575595 0.3620604
0.7865896 0.3015290 0.3933708
0.0496889 0.2354282 0.3097508
0.0502926 0.2415943 0.3118543
0.1087497 0.2620287 0.3237211
0.2765477 0.2883842 0.3360038
0.4546485 0.3234401 0.3540819
0.6044401 0.3517235 0.3699483
0.7091589 0.3829297 0.3928283
0.7831970 0.4234865 0.4197490
0.8272431 0.4608622 0.4524162
0.0755552 0.3998728 0.3763943
0.0777677 0.4075815 0.3804993
0.0843692 0.4305820 0.3891806
0.2837460 0.4649398 0.4002554
0.4855462 0.5042605 0.4143179
0.6411718 0.5317963 0.4284302
0.7472785 0.5606961 0.4429714
0.8135057 0.5850613 0.4712888
0.8540636 0.6102231 0.4950896
0.1105472 0.5217898 0.4301718
0.1145327 0.5356761 0.4319668
0.1218384 0.5611301 0.4424843
0.3056728 0.5914998 0.4495926
0.5166311 0.6301511 0.4573726
0.6695309 0.6611029 0.4717059
0.7686276 0.6819419 0.4913493
0.8294634 0.6992763 0.5115379
0.8674151 0.7171910 0.5322447
0.1399665 0.6242909 0.4766541
0.1424246 0.6328552 0.4751969
0.1489665 0.6556482 0.4845366
0.3579578 0.6852792 0.4934528
0.5444463 0.7191515 0.4982411
0.6924180 0.7437279 0.5094797
0.7815873 0.7639213 0.5293876
0.8410043 0.7776175 0.5442111
0.8744866 0.7874577 0.5649642
0.1594403 0.6921405 0.5205560
0.1619568 0.7009084 0.5213097
0.2441690 0.7201218 0.5276299
0.4280662 0.7451164 0.5281354
0.5883740 0.7714530 0.5402566
0.7107803 0.7952795 0.5548252
0.7917656 0.8090468 0.5667375
0.8456870 0.8205677 0.5792996
0.8816928 0.8300070 0.6004273
0.1747022 0.7453151 0.5607606
0.2529450 0.7528888 0.5612261
0.3798872 0.7720876 0.5695450
0.5112680 0.7928283 0.5775465
0.6388682 0.8136221 0.5822719
0.7348730 0.8296269 0.5892357
0.8062309 0.8437196 0.6018428
0.8552186 0.8529521 0.6205975
0.8846560 0.8620732 0.6428343
0.0469823 0.0934344 0.3003209
0.0695154 0.0957279 0.3084240
0.1352272 0.1033237 0.3200456
0.2532842 0.1150002 0.3416765
0.3997785 0.1242379 0.3642960
0.5410690 0.1330356 0.3884525
0.6479409 0.1467544 0.4167681
0.7153330 0.1670855 0.4443730
0.7672613 0.2083662 0.4769741
0.0542794 0.0960144 0.3257450
0.0719125 0.0987916 0.3299311
0.1422901 0.1069727 0.3397969
0.2592281 0.1192693 0.3576728
0.4042552 0.1318351 0.3769973
0.5456007 0.1413871 0.3968203
0.6504256 0.1525379 0.4228534
0.7186479 0.1788180 0.4509823
0.7684175 0.2123258 0.4799212
0.0714041 0.1324326 0.3854097
0.0729927 0.1386460 0.3909447
0.1469246 0.1500812 0.4040710
0.2777402 0.1730435 0.4165524
0.4293332 0.1943657 0.4331994
0.5752489 0.2135662 0.4543441
0.6765329 0.2373907 0.4707436
0.7460387 0.2719628 0.4950916
0.7958546 0.3108344 0.5244548
0.0927836 0.2506342 0.4598990
0.0942871 0.2570342 0.4651374
0.1260481 0.2784366 0.4735360
0.2926183 0.3047583 0.4891836
0.4720095 0.3406432 0.5067871
0.6149796 0.3694157 0.5186711
0.7192318 0.4018075 0.5368093
0.7870485 0.4351371 0.5550113
0.8307812 0.4723714 0.5760991
0.1126536 0.4195145 0.5291291
0.1141744 0.4290006 0.5344276
0.1173090 0.4494981 0.5453491
0.2967835 0.4858347 0.5558903
0.4895397 0.5203437 0.5662750
0.6475347 0.5495470 0.5763420
0.7477314 0.5751593 0.5928867
0.8146693 0.5986592 0.6069991
0.8556202 0.6252522 0.6244713
0.1284478 0.5446691 0.5841582
0.1292084 0.5540439 0.5868080
0.1308555 0.5813597 0.5925470
0.3221747 0.6141411 0.6057723
0.5183529 0.6476631 0.6148234
0.6735563 0.6776800 0.6245787
0.7672417 0.6986161 0.6332173
0.8289210 0.7130879 0.6467019
0.8672850 0.7303421 0.6607795
0.1452625 0.6427431 0.6285254
0.1483302 0.6534311 0.6306801
0.1545827 0.6752157 0.6344284
0.3664855 0.7049617 0.6438721
0.5560332 0.7340338 0.6544999
0.6952735 0.7604456 0.6611149
0.7790662 0.7770409 0.6691980
0.8394068 0.7898018 0.6823344
0.8734518 0.7988740 0.6952127
0.1644179 0.7094833 0.6638636
0.1669711 0.7183789 0.6654683
0.2518407 0.7354032 0.6680781
0.4395286 0.7606354 0.6761243
0.5992676 0.7877194 0.6859054
0.7136010 0.8058807 0.6918724
0.7943395 0.8208140 0.6992784
0.8475736 0.8297396 0.7089992
0.8803878 0.8378295 0.7211826
0.2018111 0.7634022 0.6987736
0.2686620 0.7698818 0.6997365
0.3795990 0.7842853 0.7015640
0.5131696 0.8045919 0.7107238
0.6420484 0.8246335 0.7096464
0.7375441 0.8418393 0.7175708
0.8085562 0.8536358 0.7294061
0.8535328 0.8629044 0.7341946
0.8853016 0.8687981 0.7459699
0.0893151 0.0847333 0.4318506
0.1065066 0.0859213 0.4359899
0.1712320 0.0922018 0.4473399
0.2829367 0.1063363 0.4673691
0.4250119 0.1215835 0.4850780
0.5613386 0.1338766 0.5073615
0.6633923 0.1511892 0.5293691
0.7318278 0.1839052 0.5608227
0.7785485 0.2245587 0.5885044
0.0889051 0.0873030 0.4408037
0.1085373 0.0886158 0.4453778
0.1745832 0.0965861 0.4549358
0.2887332 0.1103404 0.4749585
0.4330297 0.1259165 0.4907004
0.5686463 0.1369449 0.5126503
0.6642995 0.1540435 0.5323246
0.7318278 0.1839052 0.5608227
0.7785485 0.2245587 0.5885044
0.1039744 0.1351809 0.4988894
0.1049125 0.1396251 0.5021577
0.1814694 0.1521343 0.5170580
0.3079480 0.1739713 0.5309480
0.4585397 0.1991242 0.5532444
0.5921706 0.2240142 0.5664465
0.6904188 0.2483588 0.5895633
0.7577739 0.2812931 0.6086829
0.8038433 0.3253059 0.6313605
0.1263431 0.2601652 0.5768253
0.1285305 0.2729111 0.5844464
0.1657287 0.2876488 0.5924502
0.3227454 0.3228431 0.6076207
0.4910077 0.3506443 0.6236835
0.6328424 0.3830920 0.6384076
0.7293457 0.4166867 0.6540176
0.7960266 0.4510550 0.6683670
0.8376352 0.4885231 0.6872998
0.1465948 0.4341042 0.6473848
0.1489524 0.4443836 0.6555991
0.1519303 0.4695866 0.6659746
0.3226506 0.5030287 0.6757789
0.5145689 0.5398731 0.6907236
0.6553267 0.5645572 0.7015092
0.7549540 0.5921280 0.7116060
0.8209674 0.6149954 0.7207613
0.8590578 0.6323879 0.7290968
0.1608777 0.5621576 0.6971486
0.1629965 0.5715596 0.7045309
0.1655271 0.5973597 0.7133477
0.3509935 0.6270546 0.7208244
0.5340225 0.6605607 0.7331693
0.6795460 0.6890203 0.7412069
0.7722737 0.7076263 0.7495804
0.8330281 0.7234249 0.7552729
0.8707537 0.7404047 0.7629487
0.1729712 0.6595569 0.7392842
0.1736196 0.6684975 0.7415432
0.1749737 0.6871214 0.7462611
0.3971450 0.7191388 0.7523659
0.5615964 0.7442396 0.7605311
0.7004222 0.7704181 0.7696049
0.7834995 0.7821760 0.7747973
0.8415548 0.7954894 0.7820774
0.8762681 0.8042017 0.7867677
0.1802502 0.7206537 0.7646452
0.1807716 0.7290343 0.7664619
0.2946430 0.7494442 0.7765727
0.4563889 0.7715861 0.7804790
0.6054440 0.7943324 0.7836216
0.7186499 0.8140432 0.7895169
0.7985398 0.8266605 0.7963905
0.8493435 0.8368906 0.8009903
0.8800259 0.8444210 0.8112559
0.2564399 0.7748362 0.7919229
0.3100639 0.7807015 0.7930613
0.4137086 0.7948483 0.7954941
0.5306624 0.8127000 0.8040458
0.6558138 0.8339056 0.8065137
0.7421070 0.8476577 0.8115053
0.8124778 0.8588314 0.8159253
0.8564793 0.8679245 0.8219618
0.8848416 0.8728967 0.8259137
0.1341156 0.1167641 0.5434505
0.1483284 0.1180903 0.5480711
0.2163465 0.1219140 0.5613934
0.3206705 0.1262891 0.5766369
0.4636499 0.1312989 0.5940919
0.5882149 0.1469450 0.6165007
0.6833182 0.1713345 0.6368048
0.7504585 0.2115415 0.6610388
0.7957734 0.2568384 0.6852515
0.1341156 0.1167641 0.5434505
0.1507631 0.1181855 0.5484030
0.2163465 0.1219140 0.5613934
0.3260811 0.1264034 0.5770353
0.4636499 0.1312989 0.5940919
0.5941882 0.1468845 0.6167014
0.6833182 0.1713345 0.6368048
0.7504585 0.2115415 0.6610388
0.7957734 0.2568384 0.6852515
0.1325218 0.1397438 0.5983526
0.1474692 0.1432776 0.6013818
0.2246242 0.1594568 0.6131116
0.3384075 0.1811439 0.6287400
0.4879147 0.2084814 0.6491551
0.6123729 0.2323075 0.6600927
0.7111638 0.2697781 0.6802493
0.7706895 0.3020988 0.6979121
0.8139441 0.3401811 0.7156336
0.1528914 0.2843831 0.6693233
0.1546714 0.2922461 0.6755250
0.2084737 0.3138288 0.6872022
0.3542718 0.3413056 0.7026007
0.5185610 0.3727206 0.7155221
0.6447666 0.4033351 0.7294965
0.7401084 0.4386438 0.7409194
0.8056422 0.4735025 0.7546453
0.8449470 0.5036452 0.7670688
0.1727630 0.4546041 0.7385587
0.1738695 0.4639692 0.7424139
0.1768443 0.4886564 0.7527785
0.3619703 0.5145744 0.7620379
0.5355923 0.5470075 0.7706199
0.6708065 0.5799170 0.7826462
0.7669163 0.6003544 0.7912492
0.8263489 0.6202843 0.7992643
0.8613853 0.6456509 0.8094972
0.1844126 0.5793172 0.7791476
0.1860026 0.5932801 0.7846872
0.1876449 0.6112632 0.7904093
0.3837063 0.6389469 0.8016510
0.5611950 0.6718969 0.8103411
0.6937336 0.6965143 0.8194281
0.7780854 0.7156833 0.8219606
0.8362151 0.7292202 0.8268458
0.8714619 0.7456741 0.8335603
0.1941187 0.6749984 0.8129649
0.1948051 0.6829538 0.8153564
0.2285981 0.6999127 0.8198651
0.4316752 0.7262962 0.8310063
0.5913556 0.7552036 0.8361740
0.7135838 0.7742658 0.8422158
0.7937416 0.7893553 0.8439623
0.8455600 0.8004446 0.8497708
0.8785599 0.8089127 0.8536901
0.2009539 0.7347535 0.8367798
0.2013899 0.7412282 0.8382989
0.3381341 0.7569774 0.8420798
0.4885170 0.7784728 0.8495598
0.6215245 0.8018965 0.8533195
0.7307135 0.8189373 0.8603570
0.8031292 0.8322711 0.8617796
0.8529089 0.8402643 0.8653825
0.8819125 0.8462895 0.8687512
0.3037453 0.7851703 0.8563371
0.3523826 0.7909862 0.8576107
0.4436395 0.8040747 0.8629761
0.5598576 0.8217242 0.8660978
0.6631559 0.8379210 0.8685146
0.7537963 0.8521968 0.8731433
0.8153613 0.8637403 0.8742690
0.8586400 0.8708207 0.8777909
0.8866677 0.8765367 0.8822035
0.1837625 0.1437127 0.6373434
0.1938194 0.1444022 0.6397455
0.2578210 0.1474588 0.6503952
0.3669161 0.1522138 0.6669623
0.4976990 0.1564569 0.6817460
0.6190357 0.1788196 0.7030957
0.7076241 0.2093361 0.7174470
0.7675716 0.2526397 0.7379928
0.8134963 0.3103181 0.7603743
0.1837625 0.1437127 0.6373434
0.1971713 0.1445297 0.6401898
0.2622984 0.1475946 0.6508682
0.3669161 0.1522138 0.6669623
0.4976990 0.1564569 0.6817460
0.6190357 0.1788196 0.7030957
0.7076241 0.2093361 0.7174470
0.7675716 0.2526397 0.7379928
0.8134963 0.3103181 0.7603743
0.1757270 0.1595426 0.6772233
0.1972849 0.1626597 0.6797373
0.2689909 0.1787102 0.6904520
0.3787754 0.2004078 0.7034269
0.5165985 0.2317406 0.7196543
0.6404359 0.2624860 0.7368999
0.7252448 0.2983255 0.7499731
0.7834309 0.3310004 0.7656047
0.8266779 0.3768689 0.7832395
0.1736963 0.3159174 0.7418102
0.1747590 0.3217388 0.7455130
0.2645153 0.3370825 0.7536928
0.3955995 0.3667577 0.7669206
0.5454401 0.4028907 0.7802382
0.6715536 0.4347118 0.7934973
0.7550338 0.4639902 0.8028919
0.8141953 0.4963538 0.8134739
0.8513799 0.5259225 0.8245640
0.1897738 0.4825509 0.7978265
0.1912497 0.4917710 0.8029690
0.2392286 0.5093578 0.8100299
0.4105324 0.5401875 0.8239286
0.5615765 0.5697542 0.8319160
0.6880834 0.5947129 0.8388832
0.7740678 0.6183509 0.8471628
0.8307218 0.6334146 0.8495746
0.8659799 0.6565671 0.8582841
0.2010709 0.5997687 0.8371873
0.2019631 0.6092680 0.8402960
0.2505679 0.6246957 0.8456404
0.4276106 0.6553968 0.8548435
0.5882192 0.6800964 0.8608962
0.7076055 0.7046679 0.8677448
0.7889513 0.7214904 0.8715490
0.8409410 0.7403189 0.8775541
0.8741570 0.7502857 0.8811985
0.2080691 0.6892577 0.8615701
0.2087002 0.6963959 0.8637689
0.3066568 0.7137694 0.8685240
0.4644766 0.7361484 0.8763360
0.6088848 0.7612585 0.8824085
0.7203504 0.7785456 0.8854008
0.7991256 0.7935024 0.8896942
0.8494047 0.8043416 0.8920903
0.8788977 0.8121939 0.8951959
0.2239270 0.7476465 0.8814679
0.2864019 0.7539890 0.8831422
0.4018952 0.7692699 0.8867794
0.5236451 0.7874157 0.8906529
0.6496471 0.8069268 0.8965001
0.7431645 0.8235357 0.8989307
0.8080664 0.8337883 0.9024339
0.8554621 0.8434105 0.9045289
0.8848811 0.8504195 0.9073281
0.3660752 0.7937475 0.8962737
0.4083365 0.8001670 0.8976246
0.4826626 0.8105227 0.9008732
0.5793318 0.8255087 0.9036993
0.6783536 0.8428890 0.9085258
0.7597102 0.8557022 0.9103310
0.8198376 0.8652320 0.9114804
0.8620285 0.8738474 0.9144833
0.8895339 0.8785219 0.9169423
0.2376582 0.1647254 0.7105544
0.2420167 0.1648723 0.7110662
0.3085201 0.1688074 0.7247767
0.4148977 0.1790870 0.7392683
0.5381443 0.2020112 0.7514327
0.6518691 0.2378530 0.7675774
0.7317757 0.2735595 0.7841199
0.7871120 0.3166370 0.7984471
0.8281233 0.3622970 0.8143976
0.2376582 0.1647254 0.7105544
0.2464272 0.1650191 0.7115777
0.3085201 0.1688074 0.7247767
0.4148977 0.1790870 0.7392683
0.5381443 0.2020112 0.7514327
0.6518691 0.2378530 0.7675774
0.7317757 0.2735595 0.7841199
0.7871120 0.3166370 0.7984471
0.8281233 0.3622970 0.8143976
0.2314057 0.1994206 0.7389055
0.2481723 0.2017822 0.7406674
0.3166046 0.2106603 0.7484401
0.4266731 0.2408319 0.7626478
0.5519770 0.2678035 0.7763107
0.6627953 0.3007962 0.7895550
0.7422717 0.3291891 0.8025774
0.7992364 0.3692618 0.8141496
0.8361220 0.4112311 0.8286654
0.1929658 0.3553817 0.7957423
0.2269589 0.3595003 0.7981492
0.3112126 0.3810658 0.8077418
0.4383583 0.4003842 0.8165371
0.5791759 0.4356817 0.8287328
0.6881663 0.4688984 0.8383323
0.7695310 0.4958628 0.8487372
0.8204530 0.5190459 0.8543291
0.8578484 0.5478675 0.8636844
0.2022142 0.5083600 0.8411708
0.2029098 0.5138073 0.8435941
0.3109711 0.5373690 0.8523515
0.4603304 0.5574532 0.8597559
0.5960001 0.5844046 0.8680655
0.7088157 0.6076157 0.8763919
0.7854167 0.6318888 0.8817288
0.8363134 0.6506501 0.8877646
0.8694637 0.6694969 0.8914686
0.2113777 0.6229821 0.8730978
0.2120476 0.6294893 0.8754317
0.3270834 0.6460547 0.8806275
0.4809890 0.6689301 0.8891909
0.6164899 0.6940686 0.8958183
0.7208986 0.7165675 0.8999750
0.7979059 0.7329132 0.9035193
0.8452919 0.7467094 0.9072183
0.8778848 0.7606167 0.9098141
0.2178954 0.7045807 0.8958064
0.2729487 0.7117681 0.8979729
0.3768515 0.7259187 0.9017536
0.5069315 0.7480639 0.9068592
0.6344018 0.7678564 0.9119904
0.7390004 0.7881305 0.9170836
0.8073295 0.7989458 0.9187516
0.8520570 0.8089035 0.9200013
0.8819905 0.8165219 0.9231640
0.3171034 0.7609565 0.9098305
0.3631637 0.7666210 0.9113035
0.4513460 0.7784905 0.9149616
0.5645228 0.7958220 0.9201971
0.6659693 0.8117193 0.9232054
0.7552773 0.8277037 0.9256787
0.8162622 0.8373474 0.9270354
0.8591141 0.8462666 0.9303939
0.8869095 0.8530377 0.9311098
0.4287235 0.8051915 0.9225621
0.4580469 0.8092596 0.9234836
0.5268014 0.8200094 0.9256961
0.6072783 0.8327553 0.9281167
0.7008796 0.8465976 0.9305325
0.7711717 0.8604974 0.9342829
0.8288881 0.8687553 0.9353938
0.8643697 0.8745782 0.9373240
0.8896299 0.8805525 0.9379193
