data/spectral_luts/agfa_vista_100_ca_dpii.cube
TITLE "agfa_vista_100_ca_dpii"
LUT_3D_SIZE 33
0.0277742 0.0814135 0.0910834
0.0277742 0.0814135 0.0910834
0.0292015 0.0815732 0.0911233
0.0329155 0.0819784 0.0912257
0.0407967 0.0827890 0.0914105
0.0526123 0.0840164 0.0916676
0.0662659 0.0855230 0.0919465
0.0823431 0.0873496 0.0922396
0.1001154 0.0894182 0.0925158
0.1221270 0.0919675 0.0927520
0.1484920 0.0948940 0.0928542
0.1779274 0.0979362 0.0927508
0.2082292 0.1008413 0.0924316
0.2416894 0.1037033 0.0918218
0.2762937 0.1062677 0.0908819
0.3127738 0.1085818 0.0896433
0.3549501 0.1106120 0.0877931
0.3923530 0.1120247 0.0860454
0.4262190 0.1131799 0.0845353
0.4654911 0.1141327 0.0943886
0.4980130 0.1147111 0.1037229
0.5311723 0.1148980 0.1132401
0.5608223 0.1217501 0.1217501
0.5833687 0.1282212 0.1282212
0.6100869 0.1358897 0.1358897
0.6300780 0.1416275 0.1416275
0.6493251 0.1471517 0.1471517
0.6665223 0.1520875 0.1520875
0.6823537 0.1566314 0.1566314
0.6957877 0.1604871 0.1604871
0.7096587 0.1644683 0.1644683
0.7205384 0.1675909 0.1675909
0.7331845 0.1712205 0.1712205
0.0274779 0.0814395 0.0910893
0.0278749 0.0814993 0.0911033
0.0294459 0.0817051 0.0911560
0.0334363 0.0821678 0.0912666
0.0412165 0.0830100 0.0914550
0.0534211 0.0843449 0.0917336
0.0677181 0.0859603 0.0920308
0.0836366 0.0878316 0.0923410
0.1018178 0.0899808 0.0926232
0.1229238 0.0924255 0.0928445
0.1495000 0.0953918 0.0929469
0.1779910 0.0983619 0.0928574
0.2122562 0.1016168 0.0924666
0.2432955 0.1042905 0.0919168
0.2764440 0.1068268 0.0910427
0.3129304 0.1091073 0.0897251
0.3551196 0.1111432 0.0880365
0.3948222 0.1127720 0.0861591
0.4263783 0.1136414 0.0846308
0.4656036 0.1144536 0.0944209
0.4981014 0.1149576 0.1037482
0.5311723 0.1148980 0.1132401
0.5608223 0.1217501 0.1217501
0.5833687 0.1282212 0.1282212
0.6100869 0.1358897 0.1358897
0.6300780 0.1416275 0.1416275
0.6493251 0.1471517 0.1471517
0.6665223 0.1520875 0.1520875
0.6831684 0.1568652 0.1568652
0.6957877 0.1604871 0.1604871
0.7096587 0.1644683 0.1644683
0.7205384 0.1675909 0.1675909
0.7331845 0.1712205 0.1712205
0.0271345 0.0818558 0.0911776
0.0279431 0.0819664 0.0912099
0.0295520 0.0821846 0.0912613
0.0338268 0.0826847 0.0913733
0.0422615 0.0836046 0.0915749
0.0541914 0.0849328 0.0918524
0.0676099 0.0864802 0.0921484
0.0840167 0.0884371 0.0924685
0.1023865 0.0906539 0.0927734
0.1253209 0.0933383 0.0930061
0.1495619 0.0960645 0.0931105
0.1792454 0.0992392 0.0930506
0.2137593 0.1026093 0.0926562
0.2435241 0.1052520 0.0921380
0.2834029 0.1083247 0.0910168
0.3151535 0.1104414 0.0899463
0.3577555 0.1127566 0.0883326
0.3975887 0.1143664 0.0862749
0.4293073 0.1155540 0.0849017
0.4683843 0.1162144 0.0952190
0.5007692 0.1166720 0.1045140
0.5318651 0.1168507 0.1134389
0.5633097 0.1224640 0.1224640
0.5860854 0.1290010 0.1290010
0.6127371 0.1366504 0.1366504
0.6308795 0.1418575 0.1418575
0.6502155 0.1474072 0.1474072
0.6682942 0.1525961 0.1525961
0.6831684 0.1568652 0.1568652
0.6963927 0.1606607 0.1606607
0.7096587 0.1644683 0.1644683
0.7205384 0.1675909 0.1675909
0.7331845 0.1712205 0.1712205
0.0270102 0.0826895 0.0913625
0.0279974 0.0827998 0.0913838
0.0298221 0.0830545 0.0914426
0.0344628 0.0836043 0.0915640
0.0432251 0.0845598 0.0917806
0.0548623 0.0859039 0.0920556
0.0686119 0.0875623 0.0923710
0.0852621 0.0895651 0.0927068
0.1041421 0.0918947 0.0930137
0.1261562 0.0945967 0.0932650
0.1536227 0.0978240 0.0933824
0.1840952 0.1011097 0.0932910
0.2153918 0.1041976 0.0929281
0.2500001 0.1074432 0.0923098
0.2855744 0.1102570 0.0913183
0.3234256 0.1130278 0.0900829
0.3606203 0.1150459 0.0886438
0.3984560 0.1169595 0.0868206
0.4388126 0.1180227 0.0867315
0.4715419 0.1190188 0.0961253
0.5038202 0.1194355 0.1053896
0.5351496 0.1203805 0.1143816
0.5649148 0.1229247 0.1229247
0.5878045 0.1294944 0.1294944
0.6147271 0.1372215 0.1372215
0.6346138 0.1429293 0.1429293
0.6536425 0.1483908 0.1483908
0.6706333 0.1532674 0.1532674
0.6865897 0.1578472 0.1578472
0.6983080 0.1612105 0.1612105
0.7132254 0.1654920 0.1654920
0.7244310 0.1687082 0.1687082
0.7377321 0.1725258 0.1725258
0.0263960 0.0842252 0.0916563
0.0276920 0.0843716 0.0916918
0.0300604 0.0847756 0.0917794
0.0352574 0.0853316 0.0919155
0.0438909 0.0863089 0.0921311
0.0559362 0.0877274 0.0924215
0.0710765 0.0896540 0.0927918
0.0864732 0.0915620 0.0930991
0.1064912 0.0941756 0.0934448
0.1286439 0.0969671 0.0937026
0.1538304 0.0999792 0.0938191
0.1856330 0.1035670 0.0937478
0.2159321 0.1069059 0.0934812
0.2521812 0.1102215 0.0927798
0.2880660 0.1133408 0.0918506
0.3262793 0.1161160 0.0905785
0.3637314 0.1180779 0.0891306
0.4016834 0.1199092 0.0874943
0.4421614 0.1215194 0.0876926
0.4750848 0.1229044 0.0971422
0.5076970 0.1245288 0.1065023
0.5393894 0.1266091 0.1155985
0.5692571 0.1284779 0.1241710
0.5976613 0.1323234 0.1323234
0.6191995 0.1385052 0.1385052
0.6387076 0.1441043 0.1441043
0.6565440 0.1492236 0.1492236
0.6747841 0.1544588 0.1544588
0.6912340 0.1591801 0.1591801
0.7038122 0.1627903 0.1627903
0.7170997 0.1666040 0.1666040
0.7291075 0.1731156 0.1700504
0.7423974 0.1836157 0.1738648
0.0257117 0.0867597 0.0921442
0.0271087 0.0871517 0.0922299
0.0302814 0.0875023 0.0923105
0.0360848 0.0881973 0.0924759
0.0447146 0.0893116 0.0927239
0.0570907 0.0908596 0.0930351
0.0717590 0.0927214 0.0933882
0.0895125 0.0949719 0.0937423
0.1083744 0.0973545 0.0940286
0.1320944 0.1005660 0.0943210
0.1581562 0.1035954 0.0944260
0.1897152 0.1072523 0.0943300
0.2220577 0.1108058 0.0940087
0.2546162 0.1140589 0.0934337
0.2890824 0.1171392 0.0925729
0.3294954 0.1204177 0.0913073
0.3674641 0.1231591 0.0899014
0.4057980 0.1255255 0.0881883
0.4468132 0.1288379 0.0890278
0.4799887 0.1307184 0.0985496
0.5104537 0.1324056 0.1072935
0.5445900 0.1355795 0.1170912
0.5742080 0.1372471 0.1255919
0.6028253 0.1402764 0.1338055
0.6241441 0.1429772 0.1399243
0.6427518 0.1471560 0.1452650
0.6616459 0.1506879 0.1506879
0.6796021 0.1577414 0.1558416
0.6958716 0.1629908 0.1605112
0.7092150 0.1729250 0.1643410
0.7238433 0.1791984 0.1685395
0.7347672 0.1867169 0.1716748
0.7477701 0.1967258 0.1754068
0.0247541 0.0903860 0.0928394
0.0268507 0.0907302 0.0929292
0.0301708 0.0910969 0.0930188
0.0364382 0.0917590 0.0931762
0.0462235 0.0931711 0.0934715
0.0593123 0.0945717 0.0937594
0.0736390 0.0965055 0.0941201
0.0906213 0.0989837 0.0945056
0.1102749 0.1016502 0.0948403
0.1356849 0.1051329 0.0951403
0.1628365 0.1086332 0.0952496
0.1916634 0.1123225 0.0951930
0.2245850 0.1166901 0.0949063
0.2623912 0.1207484 0.0942525
0.2978464 0.1247873 0.0934596
0.3315670 0.1275936 0.0924008
0.3766234 0.1317516 0.0906669
0.4179247 0.1350436 0.0886818
0.4498678 0.1379538 0.0899045
0.4899225 0.1410473 0.1014008
0.5226784 0.1433963 0.1108022
0.5542554 0.1461697 0.1198653
0.5800289 0.1485362 0.1272626
0.6069564 0.1520801 0.1349912
0.6286809 0.1559552 0.1412265
0.6491431 0.1612594 0.1470994
0.6696150 0.1694054 0.1529752
0.6872561 0.1760737 0.1580384
0.7037064 0.1821668 0.1627599
0.7193843 0.1894404 0.1672597
0.7306217 0.1961793 0.1704850
0.7408212 0.2045909 0.1734124
0.7530178 0.2122871 0.1769130
0.0229926 0.0964167 0.0939546
0.0258152 0.0967397 0.0940443
0.0299942 0.0972006 0.0941606
0.0365976 0.0988206 0.0944674
0.0471056 0.0998902 0.0947112
0.0604053 0.1015505 0.0950091
0.0762547 0.1040469 0.0954381
0.0928599 0.1069644 0.0958610
0.1127387 0.1093041 0.0961463
0.1385514 0.1133788 0.0964455
0.1668721 0.1173840 0.0965934
0.1966310 0.1217142 0.0965880
0.2305242 0.1259582 0.0962069
0.2645277 0.1302494 0.0956874
0.3019575 0.1341409 0.0947534
0.3428149 0.1392321 0.0934547
0.3821696 0.1428268 0.0919127
0.4216777 0.1468574 0.0901251
0.4559148 0.1497627 0.0916401
0.4963000 0.1536831 0.1032312
0.5292500 0.1564121 0.1126884
0.5612296 0.1608866 0.1218670
0.5863062 0.1667339 0.1290643
0.6159489 0.1728714 0.1375722
0.6371422 0.1756107 0.1436550
0.6574727 0.1811923 0.1494902
0.6760421 0.1881620 0.1548198
0.6952252 0.1955535 0.1603257
0.7117189 0.2022403 0.1650596
0.7266719 0.2110274 0.1693513
0.7382407 0.2189090 0.1726718
0.7517588 0.2287733 0.1765516
0.7625230 0.2384146 0.1796411
0.0201018 0.1052863 0.0955196
0.0236636 0.1059967 0.0956741
0.0284379 0.1065223 0.0958010
0.0358800 0.1072975 0.0959646
0.0468690 0.1096113 0.0963571
0.0611473 0.1114516 0.0966950
0.0771268 0.1132702 0.0969839
0.0950413 0.1166542 0.0974341
0.1168462 0.1192733 0.0976828
0.1414568 0.1235416 0.0980140
0.1722067 0.1284655 0.0981437
0.2031898 0.1331428 0.0980720
0.2382831 0.1371621 0.0975581
0.2735332 0.1422085 0.0969686
0.3102951 0.1467277 0.0960277
0.3461941 0.1518132 0.0950072
0.3868263 0.1589803 0.0937131
0.4291782 0.1641642 0.0914789
0.4706469 0.1682320 0.0958684
0.5024111 0.1724714 0.1049852
0.5389522 0.1792597 0.1154730
0.5703912 0.1824910 0.1244965
0.6014873 0.1894086 0.1334215
0.6244534 0.1927204 0.1400131
0.6469399 0.2001887 0.1464671
0.6698833 0.2048813 0.1530522
0.6896822 0.2120361 0.1587348
0.7038288 0.2213912 0.1627950
0.7195336 0.2257843 0.1673025
0.7357531 0.2352007 0.1719578
0.7482995 0.2466790 0.1755588
0.7603945 0.2526021 0.1790302
0.7721577 0.2657847 0.1824064
0.0157243 0.1173129 0.0975257
0.0200649 0.1178056 0.0976226
0.0256236 0.1184150 0.0977533
0.0343935 0.1198682 0.0980148
0.0470275 0.1216580 0.0982828
0.0606927 0.1247601 0.0987510
0.0783340 0.1273448 0.0991024
0.0972902 0.1302277 0.0994146
0.1180055 0.1346464 0.0999115
0.1482685 0.1390233 0.1000792
0.1767295 0.1450376 0.1002455
0.2089724 0.1494841 0.1000422
0.2457416 0.1555145 0.0994652
0.2824184 0.1620350 0.0988932
0.3169710 0.1681681 0.0981098
0.3603316 0.1748515 0.0964908
0.4019140 0.1811170 0.0947450
0.4423451 0.1862296 0.0925262
0.4777175 0.1917149 0.0978978
0.5121852 0.1970858 0.1077905
0.5462743 0.2024835 0.1175746
0.5781973 0.2068155 0.1267369
0.6088624 0.2121926 0.1355383
0.6351347 0.2201810 0.1430788
0.6599383 0.2259979 0.1501978
0.6798419 0.2309349 0.1559104
0.7007973 0.2420232 0.1619249
0.7176712 0.2478440 0.1667680
0.7302113 0.2553133 0.1703672
0.7469159 0.2669366 0.1751617
0.7571686 0.2750811 0.1781043
0.7720391 0.2872443 0.1823724
0.7812759 0.2957363 0.1850235
0.0105761 0.1351625 0.1001547
0.0130080 0.1357965 0.1002584
0.0190571 0.1364539 0.1003600
0.0291414 0.1381750 0.1006264
0.0421150 0.1401007 0.1008930
0.0601629 0.1419499 0.1011245
0.0778186 0.1466851 0.1016636
0.0975818 0.1497803 0.1019583
0.1222502 0.1529160 0.1021933
0.1507748 0.1594921 0.1024997
0.1810278 0.1641122 0.1023931
0.2164301 0.1715465 0.1021636
0.2549805 0.1769059 0.1014142
0.2859881 0.1829267 0.1008274
0.3266846 0.1880475 0.0994663
0.3650146 0.1953464 0.0983764
0.4073663 0.2028712 0.0962680
0.4511759 0.2104634 0.0935739
0.4938273 0.2177816 0.1025215
0.5291376 0.2250292 0.1126561
0.5631105 0.2310139 0.1224068
0.5956402 0.2383477 0.1317433
0.6206304 0.2442930 0.1389159
0.6499814 0.2521691 0.1473400
0.6719872 0.2600124 0.1536560
0.6922581 0.2662720 0.1594741
0.7108118 0.2746365 0.1647993
0.7278838 0.2812264 0.1696992
0.7421575 0.2948798 0.1737960
0.7573845 0.3019486 0.1781663
0.7719281 0.3107983 0.1823405
0.7832135 0.3257137 0.1855796
0.7929601 0.3333638 0.1883770
0.0133610 0.1546146 0.1027569
0.0134533 0.1552166 0.1028438
0.0137162 0.1569187 0.1030688
0.0211270 0.1579730 0.1031796
0.0376367 0.1604577 0.1035137
0.0576637 0.1623975 0.1037068
0.0779568 0.1655434 0.1039364
0.0996178 0.1718341 0.1044374
0.1247981 0.1750775 0.1045062
0.1576379 0.1803862 0.1045317
0.1903654 0.1886930 0.1043952
0.2221400 0.1940053 0.1041130
0.2628791 0.2036130 0.1030708
0.2968237 0.2089379 0.1022457
0.3380094 0.2185166 0.1008094
0.3775534 0.2241218 0.0990303
0.4214409 0.2339400 0.0964745
0.4664711 0.2437735 0.0946699
0.5013751 0.2467978 0.1046878
0.5373999 0.2557434 0.1150275
0.5724578 0.2648617 0.1250896
0.6056610 0.2740090 0.1346194
0.6330085 0.2809246 0.1424686
0.6607985 0.2899021 0.1504447
0.6830378 0.2985381 0.1568277
0.7036228 0.3058030 0.1627359
0.7237870 0.3149143 0.1685233
0.7409737 0.3222937 0.1734561
0.7577027 0.3321070 0.1782576
0.7696487 0.3417298 0.1816863
0.7827489 0.3498748 0.1854463
0.7935945 0.3604214 0.1885591
0.8025868 0.3692612 0.1911400
0.0172672 0.1782552 0.1054151
0.0174027 0.1790163 0.1055477
0.0177510 0.1809565 0.1057018
0.0179932 0.1822927 0.1058342
0.0262647 0.1850199 0.1060249
0.0506798 0.1884424 0.1062350
0.0722234 0.1944578 0.1065599
0.0968045 0.1986442 0.1067808
0.1303767 0.2042744 0.1066831
0.1624700 0.2100038 0.1065264
0.1935159 0.2197112 0.1062276
0.2323915 0.2265730 0.1056428
0.2703718 0.2331473 0.1044806
0.3063364 0.2435663 0.1031120
0.3510765 0.2506710 0.1010656
0.3934325 0.2616379 0.0986393
0.4379173 0.2681031 0.0951614
0.4739593 0.2782432 0.0968191
0.5177209 0.2874542 0.1093793
0.5531688 0.2926555 0.1195534
0.5904958 0.3030463 0.1302668
0.6176071 0.3127470 0.1380481
0.6490375 0.3211340 0.1470691
0.6718647 0.3253616 0.1536209
0.6943362 0.3352643 0.1600705
0.7136165 0.3435605 0.1656042
0.7342407 0.3545761 0.1715237
0.7523004 0.3654688 0.1767071
0.7687009 0.3743173 0.1814143
0.7809008 0.3855144 0.1849158
0.7952445 0.3946952 0.1890327
0.8051084 0.4064066 0.1918638
0.8150495 0.4162303 0.1947170
0.0233878 0.2096882 0.1080704
0.0235925 0.2106511 0.1081221
0.0237674 0.2114697 0.1081080
0.0243656 0.2142438 0.1082362
0.0250705 0.2174624 0.1084472
0.0359496 0.2198831 0.1085018
0.0640379 0.2238555 0.1086832
0.0967402 0.2289151 0.1085936
0.1290986 0.2388493 0.1083764
0.1657236 0.2454595 0.1080265
0.2018335 0.2522093 0.1073883
0.2388472 0.2591622 0.1064874
0.2793404 0.2712296 0.1047937
0.3148523 0.2778965 0.1031862
0.3625163 0.2910085 0.0999061
0.4060942 0.2983997 0.0966112
0.4451350 0.3105003 0.0935451
0.4905864 0.3159639 0.1015913
0.5283439 0.3280647 0.1124283
0.5644137 0.3342962 0.1227808
0.6002415 0.3463652 0.1330639
0.6327878 0.3519227 0.1424052
0.6585217 0.3613964 0.1497912
0.6886371 0.3735431 0.1584348
0.7111937 0.3853116 0.1649089
0.7305014 0.3877100 0.1704504
0.7493685 0.3993627 0.1758656
0.7645648 0.4110395 0.1802272
0.7808790 0.4203343 0.1849096
0.7953467 0.4320158 0.1890620
0.8044419 0.4341422 0.1916725
0.8146791 0.4439525 0.1946107
0.8267265 0.4561297 0.1980685
0.0306955 0.2414399 0.1099159
0.0308969 0.2422490 0.1100224
0.0311723 0.2433501 0.1099513
0.0319992 0.2466223 0.1099849
0.0328929 0.2501042 0.1100558
0.0336003 0.2528214 0.1101017
0.0554139 0.2575297 0.1099492
0.0897109 0.2680985 0.1097233
0.1257360 0.2743109 0.1092458
0.1696147 0.2822017 0.1082306
0.2076529 0.2896991 0.1072066
0.2480716 0.2976359 0.1054006
0.2853341 0.3108896 0.1032779
0.3313299 0.3197267 0.1003394
0.3726838 0.3277739 0.0974963
0.4187259 0.3423968 0.0928139
0.4580574 0.3478437 0.0922550
0.5053614 0.3624634 0.1058320
0.5428659 0.3695176 0.1165963
0.5804405 0.3831515 0.1273808
0.6154597 0.3897636 0.1374318
0.6450935 0.4022900 0.1459371
0.6756025 0.4060466 0.1546937
0.6999444 0.4181784 0.1616802
0.7224928 0.4304653 0.1681519
0.7403899 0.4330590 0.1732886
0.7606729 0.4450161 0.1791101
0.7778950 0.4546863 0.1840531
0.7892678 0.4593772 0.1873173
0.8043342 0.4691968 0.1916416
0.8154314 0.4810800 0.1948266
0.8273498 0.4902980 0.1982474
0.8361408 0.5022641 0.2007705
0.0410111 0.2795163 0.1110507
0.0413958 0.2808568 0.1111843
0.0421815 0.2835940 0.1110024
0.0426987 0.2853962 0.1109632
0.0438063 0.2892551 0.1108862
0.0447196 0.2924371 0.1106709
0.0462388 0.2977304 0.1102334
0.0846712 0.3042097 0.1096410
0.1284286 0.3113602 0.1088012
0.1689927 0.3249853 0.1069485
0.2117103 0.3334425 0.1051597
0.2502088 0.3394437 0.1032718
0.2966039 0.3507737 0.1001750
0.3386832 0.3633323 0.0962190
0.3824550 0.3722544 0.0928881
0.4218628 0.3804144 0.0897623
0.4712309 0.3962435 0.0960360
0.5107753 0.4041851 0.1073858
0.5491226 0.4115653 0.1183921
0.5868836 0.4232704 0.1292300
0.6224881 0.4303812 0.1394491
0.6587514 0.4442836 0.1498572
0.6838423 0.4500810 0.1570586
0.7078794 0.4601167 0.1639576
0.7292081 0.4655055 0.1700793
0.7505658 0.4776850 0.1762092
0.7688809 0.4872857 0.1814660
0.7852344 0.4923921 0.1861596
0.8011467 0.5018039 0.1907267
0.8127838 0.5129402 0.1940667
0.8220715 0.5158607 0.1967324
0.8339594 0.5256642 0.2001444
0.8433991 0.5365342 0.2028538
0.0514204 0.3157837 0.1112564
0.0517455 0.3169164 0.1110648
0.0526052 0.3199117 0.1107215
0.0531522 0.3218174 0.1106989
0.0543818 0.3261018 0.1103962
0.0551850 0.3289002 0.1101272
0.0586276 0.3408945 0.1085911
0.0691390 0.3474002 0.1074166
0.1282646 0.3557521 0.1058060
0.1712552 0.3616275 0.1046074
0.2185099 0.3707678 0.1020788
0.2601491 0.3794487 0.0993465
0.3025752 0.3944413 0.0950120
0.3448586 0.4035481 0.0924072
0.3911067 0.4130309 0.0875865
0.4433225 0.4235106 0.0880259
0.4824271 0.4357086 0.0992495
0.5226672 0.4441304 0.1107990
0.5613766 0.4522211 0.1219091
0.5998753 0.4657158 0.1329589
0.6376055 0.4733889 0.1437880
0.6648908 0.4838774 0.1516192
0.6964728 0.4907305 0.1606838
0.7193572 0.4966056 0.1672519
0.7410525 0.5059627 0.1734788
0.7621303 0.5178494 0.1795284
0.7791162 0.5211270 0.1844036
0.7936552 0.5329115 0.1885765
0.8070999 0.5355501 0.1924354
0.8186413 0.5470665 0.1957479
0.8312603 0.5507085 0.1993697
0.8397438 0.5592857 0.2018046
0.8491157 0.5708845 0.2044945
0.0618509 0.3521250 0.1102220
0.0621100 0.3530279 0.1100180
0.0625650 0.3546132 0.1096475
0.0636924 0.3585411 0.1093449
0.0643874 0.3609627 0.1091619
0.0659174 0.3662934 0.1079367
0.0688245 0.3764222 0.1066319
0.0708552 0.3834972 0.1051975
0.1221757 0.3911687 0.1030762
0.1702639 0.3993773 0.1011761
0.2226711 0.4091384 0.0981220
0.2680243 0.4166123 0.0959297
0.3135869 0.4261525 0.0922795
0.3503224 0.4401987 0.0878821
0.4018088 0.4506776 0.0901369
0.4530079 0.4610170 0.0931045
0.4926508 0.4695629 0.1021838
0.5335496 0.4819596 0.1139224
0.5727874 0.4904007 0.1251842
0.6132726 0.4985675 0.1368041
0.6421633 0.5095437 0.1450961
0.6757650 0.5168945 0.1547403
0.7019812 0.5289583 0.1622647
0.7248241 0.5330098 0.1688210
0.7460448 0.5387967 0.1749116
0.7668684 0.5484629 0.1808883
0.7858347 0.5542111 0.1863319
0.8025823 0.5634029 0.1911387
0.8135774 0.5687122 0.1942945
0.8269010 0.5785808 0.1981186
0.8360816 0.5810535 0.2007535
0.8458621 0.5923163 0.2035607
0.8536211 0.6003534 0.2057876
0.0715328 0.3858584 0.1082952
0.0718795 0.3870662 0.1085000
0.0726918 0.3898962 0.1079011
0.0734295 0.3924667 0.1071112
0.0743623 0.3957167 0.1067568
0.0758521 0.4009074 0.1059686
0.0779132 0.4080885 0.1043112
0.0793171 0.4129798 0.1034538
0.1313821 0.4216119 0.1008649
0.1805759 0.4357812 0.0975286
0.2304362 0.4433177 0.0944936
0.2760985 0.4527099 0.0912040
0.3165248 0.4615033 0.0932441
0.3668380 0.4720753 0.0962784
0.4094563 0.4813072 0.0989281
0.4620764 0.4959689 0.1031362
0.5053391 0.5051573 0.1058256
0.5459417 0.5141767 0.1174791
0.5856791 0.5206712 0.1288843
0.6166134 0.5332912 0.1377629
0.6523099 0.5412279 0.1480084
0.6814446 0.5460156 0.1563704
0.7133589 0.5591985 0.1655303
0.7357592 0.5629225 0.1719595
0.7559134 0.5744068 0.1777441
0.7757502 0.5778949 0.1834375
0.7899554 0.5835809 0.1875146
0.8067231 0.5926935 0.1923272
0.8215988 0.5985703 0.1965967
0.8321731 0.6072587 0.1996318
0.8405054 0.6123841 0.2020232
0.8528724 0.6210837 0.2055727
0.8597257 0.6241832 0.2075397
0.0797269 0.4144078 0.1082896
0.0801226 0.4157862 0.1078316
0.0806037 0.4174624 0.1072575
0.0817915 0.4216010 0.1070208
0.0841811 0.4299268 0.1046953
0.0852564 0.4336733 0.1046393
0.0872243 0.4405298 0.1031070
0.0893338 0.4478793 0.1011262
0.1368480 0.4550024 0.0985398
0.1846945 0.4630342 0.0955333
0.2371257 0.4729756 0.0965368
0.2805111 0.4800073 0.0985550
0.3281732 0.4900394 0.1014343
0.3722552 0.5050509 0.1057428
0.4256386 0.5161154 0.1089185
0.4707290 0.5241403 0.1112218
0.5139995 0.5334229 0.1138860
0.5553119 0.5422650 0.1201685
0.5954702 0.5544805 0.1316945
0.6260088 0.5615146 0.1404596
0.6641819 0.5700661 0.1514158
0.6907933 0.5745556 0.1590537
0.7164011 0.5863430 0.1664035
0.7392088 0.5928384 0.1729496
0.7609742 0.6024057 0.1791966
0.7794588 0.6089250 0.1845020
0.7981516 0.6128240 0.1898670
0.8103667 0.6215882 0.1933730
0.8253090 0.6276172 0.1976617
0.8358608 0.6364494 0.2006902
0.8471856 0.6394089 0.2039405
0.8557989 0.6447502 0.2064127
0.8634586 0.6531253 0.2086111
0.0887422 0.4458182 0.1076486
0.0892078 0.4474405 0.1070196
0.0896932 0.4491315 0.1063442
0.0910230 0.4537648 0.1058917
0.0918136 0.4565195 0.1046910
0.0935550 0.4625866 0.1039230
0.0949347 0.4673939 0.1029156
0.0971555 0.4751315 0.1005885
0.1365243 0.4827788 0.0993504
0.1987202 0.4908578 0.1016692
0.2453985 0.4996896 0.1042041
0.2899743 0.5090976 0.1069043
0.3434507 0.5181603 0.1095054
0.3870580 0.5330480 0.1137784
0.4329716 0.5431584 0.1166803
0.4789450 0.5510932 0.1189577
0.5225297 0.5607913 0.1217411
0.5642651 0.5699266 0.1243631
0.5966907 0.5812504 0.1320448
0.6350836 0.5900469 0.1430641
0.6661366 0.5954912 0.1519768
0.6996067 0.6031883 0.1615832
0.7247285 0.6134495 0.1687936
0.7473336 0.6196900 0.1752816
0.7685087 0.6265516 0.1813591
0.7839811 0.6361653 0.1857999
0.8011709 0.6399731 0.1907337
0.8172538 0.6454769 0.1953497
0.8283836 0.6549296 0.1985441
0.8418332 0.6582509 0.2024043
0.8503098 0.6669533 0.2048372
0.8589624 0.6715995 0.2073207
0.8668224 0.6749948 0.2167681
0.0964108 0.4725367 0.1081683
0.0970274 0.4746850 0.1072353
0.0975700 0.4765757 0.1063856
0.0986447 0.4803199 0.1065028
0.0996342 0.4837674 0.1048402
0.1015474 0.4904332 0.1039260
0.1028487 0.4949673 0.1028487
0.1048852 0.5020626 0.1048852
0.1546190 0.5090175 0.1068813
0.2079967 0.5179548 0.1094465
0.2564107 0.5275597 0.1122032
0.3004191 0.5350251 0.1143459
0.3473986 0.5448602 0.1171687
0.3933430 0.5551131 0.1201114
0.4403797 0.5687138 0.1240150
0.4866639 0.5791584 0.1270128
0.5308132 0.5871933 0.1293189
0.5727012 0.5965535 0.1320054
0.6051233 0.6044329 0.1344651
0.6462182 0.6171970 0.1462599
0.6746332 0.6243311 0.1544155
0.7014832 0.6294620 0.1621218
0.7264140 0.6364724 0.1692773
0.7495389 0.6469048 0.1759145
0.7709455 0.6533695 0.1820585
0.7908167 0.6576654 0.1877618
0.8082727 0.6673383 0.1927720
0.8198692 0.6731529 0.1961003
0.8346266 0.6785873 0.2003359
0.8445730 0.6852480 0.2031907
0.8536957 0.6899620 0.2058090
0.8610467 0.6925545 0.2081223
0.8714648 0.7014457 0.2246626
0.1036602 0.4977947 0.1104687
0.1039487 0.4987997 0.1100000
0.1046587 0.5012736 0.1088132
0.1052854 0.5034571 0.1077253
0.1069170 0.5091419 0.1073801
0.1079373 0.5126965 0.1079373
0.1109047 0.5230355 0.1109047
0.1126260 0.5290328 0.1126260
0.1719100 0.5381516 0.1152432
0.2236244 0.5471805 0.1178347
0.2653710 0.5537999 0.1197345
0.3140504 0.5636911 0.1225735
0.3610570 0.5718761 0.1249227
0.4088169 0.5826701 0.1280207
0.4570986 0.5930097 0.1309883
0.5037228 0.6034585 0.1339873
0.5386494 0.6132775 0.1368055
0.5810459 0.6228190 0.1395440
0.6136716 0.6308066 0.1418366
0.6540828 0.6401939 0.1485172
0.6825015 0.6451992 0.1566738
0.7095889 0.6559993 0.1644483
0.7341986 0.6633171 0.1715116
0.7564520 0.6681420 0.1778987
0.7775471 0.6745724 0.1839533
0.7976779 0.6842281 0.1897311
0.8099989 0.6904274 0.1932674
0.8256265 0.6942388 0.1977528
0.8367083 0.7026538 0.2009334
0.8462847 0.7056245 0.2036820
0.8576365 0.7105755 0.2099476
0.8663834 0.7187704 0.2243251
0.8741385 0.7214903 0.2401524
0.1111838 0.5240081 0.1126223
0.1118479 0.5263216 0.1118479
0.1124085 0.5282751 0.1130343
0.1131002 0.5306849 0.1131002
0.1145963 0.5358974 0.1145963
0.1159502 0.5406146 0.1159502
0.1175427 0.5461633 0.1175427
0.1253874 0.5523142 0.1193081
0.1911207 0.5618241 0.1220376
0.2372693 0.5685588 0.1239706
0.2857257 0.5780222 0.1266867
0.3271640 0.5851191 0.1287236
0.3753293 0.5988688 0.1326700
0.4251219 0.6094316 0.1357016
0.4641855 0.6186562 0.1383492
0.5111048 0.6270343 0.1407539
0.5549769 0.6372530 0.1436868
0.5891914 0.6433843 0.1454466
0.6214554 0.6516122 0.1478081
0.6617429 0.6647030 0.1515653
0.6903153 0.6716185 0.1589165
0.7168050 0.6772862 0.1665194
0.7408108 0.6842055 0.1734094
0.7629478 0.6908249 0.1797631
0.7790216 0.6999663 0.1843765
0.7988179 0.7044898 0.1900583
0.8157325 0.7101526 0.1949131
0.8270332 0.7134315 0.1981565
0.8380765 0.7214577 0.2013261
0.8514732 0.7266068 0.2095857
0.8590655 0.7293530 0.2256106
0.8677499 0.7371440 0.2404712
0.8755215 0.7399671 0.2570612
0.1183916 0.5491210 0.1193054
0.1187520 0.5503766 0.1187520
0.1191142 0.5516385 0.1191142
0.1199700 0.5546204 0.1199700
0.1216330 0.5604145 0.1216330
0.1229255 0.5649176 0.1229255
