data/spectral_luts/agfa_vista_100_ca_dpii.cube
TITLE "agfa_vista_100_ca_dpii"
LUT_3D_SIZE 5
0.0277742 0.0814135 0.0910834
0.1001154 0.0894182 0.0925158
0.3549501 0.1106120 0.0877931
0.6100869 0.1358897 0.1358897
0.7331845 0.1712205 0.1712205
0.0201018 0.1052863 0.0955196
0.1168462 0.1192733 0.0976828
0.3868263 0.1589803 0.0937131
0.6469399 0.2001887 0.1464671
0.7721577 0.2657847 0.1824064
0.0514204 0.3157837 0.1112564
0.1282646 0.3557521 0.1058060
0.4824271 0.4357086 0.0992495
0.7410525 0.5059627 0.1734788
0.8491157 0.5708845 0.2044945
0.1183916 0.5491210 0.1193054
0.1992375 0.5851490 0.1287322
0.5624868 0.6572332 0.1494214
0.7849073 0.7169307 0.1860657
0.8784211 0.7571028 0.2783680
0.2391652 0.7029358 0.2569965
0.4007736 0.7276069 0.2533727
0.6454577 0.7769058 0.2726625
0.8134763 0.8153211 0.3453857
0.8885376 0.8422141 0.4303724
0.0249799 0.0848728 0.1134178
0.1079305 0.0945986 0.1195124
0.3654803 0.1173581 0.1303901
0.6173111 0.1379632 0.1514553
0.7427291 0.1764586 0.2214888
0.0123431 0.1175373 0.1400442
0.1200202 0.1327557 0.1464439
0.3991755 0.1747099 0.1600404
0.6573568 0.2146824 0.1928036
0.7786331 0.2822187 0.2562573
0.0660344 0.3667011 0.2093028
0.0761274 0.3976205 0.2159592
0.4848704 0.4742496 0.2337399
0.7421106 0.5353234 0.2636089
0.8501296 0.5915196 0.3385321
0.1301095 0.5899478 0.2890851
0.1530683 0.6267712 0.2916342
0.5480334 0.6952491 0.3142151
0.7803933 0.7437889 0.3582918
0.8762865 0.7742392 0.4292706
0.2038458 0.7268292 0.4101872
0.3752225 0.7501230 0.4166916
0.6358134 0.7964901 0.4328986
0.8098788 0.8314607 0.4675722
0.8866504 0.8520284 0.5253429
0.0469823 0.0934344 0.3003209
0.1352272 0.1033237 0.3200456
0.3997785 0.1242379 0.3642960
0.6479409 0.1467544 0.4167681
0.7672613 0.2083662 0.4769741
0.0714041 0.1324326 0.3854097
0.1469246 0.1500812 0.4040710
0.4293332 0.1943657 0.4331994
0.6765329 0.2373907 0.4707436
0.7958546 0.3108344 0.5244548
0.1126536 0.4195145 0.5291291
0.1173090 0.4494981 0.5453491
0.4895397 0.5203437 0.5662750
0.7477314 0.5751593 0.5928867
0.8556202 0.6252522 0.6244713
0.1452625 0.6427431 0.6285254
0.1545827 0.6752157 0.6344284
0.5560332 0.7340338 0.6544999
0.7790662 0.7770409 0.6691980
0.8734518 0.7988740 0.6952127
0.2018111 0.7634022 0.6987736
0.3795990 0.7842853 0.7015640
0.6420484 0.8246335 0.7096464
0.8085562 0.8536358 0.7294061
0.8853016 0.8687981 0.7459699
0.1341156 0.1167641 0.5434505
0.2163465 0.1219140 0.5613934
0.4636499 0.1312989 0.5940919
0.6833182 0.1713345 0.6368048
0.7957734 0.2568384 0.6852515
0.1325218 0.1397438 0.5983526
0.2246242 0.1594568 0.6131116
0.4879147 0.2084814 0.6491551
0.7111638 0.2697781 0.6802493
0.8139441 0.3401811 0.7156336
0.1727630 0.4546041 0.7385587
0.1768443 0.4886564 0.7527785
0.5355923 0.5470075 0.7706199
0.7669163 0.6003544 0.7912492
0.8613853 0.6456509 0.8094972
0.1941187 0.6749984 0.8129649
0.2285981 0.6999127 0.8198651
0.5913556 0.7552036 0.8361740
0.7937416 0.7893553 0.8439623
0.8785599 0.8089127 0.8536901
0.3037453 0.7851703 0.8563371
0.4436395 0.8040747 0.8629761
0.6631559 0.8379210 0.8685146
0.8153613 0.8637403 0.8742690
0.8866677 0.8765367 0.8822035
0.2376582 0.1647254 0.7105544
0.3085201 0.1688074 0.7247767
0.5381443 0.2020112 0.7514327
0.7317757 0.2735595 0.7841199
0.8281233 0.3622970 0.8143976
0.2314057 0.1994206 0.7389055
0.3166046 0.2106603 0.7484401
0.5519770 0.2678035 0.7763107
0.7422717 0.3291891 0.8025774
0.8361220 0.4112311 0.8286654
0.2022142 0.5083600 0.8411708
0.3109711 0.5373690 0.8523515
0.5960001 0.5844046 0.8680655
0.7854167 0.6318888 0.8817288
0.8694637 0.6694969 0.8914686
0.2178954 0.7045807 0.8958064
0.3768515 0.7259187 0.9017536
0.6344018 0.7678564 0.9119904
0.8073295 0.7989458 0.9187516
0.8819905 0.8165219 0.9231640
0.4287235 0.8051915 0.9225621
0.5268014 0.8200094 0.9256961
0.7008796 0.8465976 0.9305325
0.8288881 0.8687553 0.9353938
0.8896299 0.8805525 0.9379193
