data/spectral_luts/ektachrome_100d_radiance_iii.cube
TITLE "ektachrome_100d_radiance_iii"
LUT_3D_SIZE 5
0.0461947 0.0638736 0.0619166
0.0639798 0.0673925 0.0623890
0.2730806 0.1000508 0.0577890
0.5057040 0.1575200 0.1059303
0.7648082 0.3667674 0.2644337
0.0458141 0.0674497 0.0624065
0.0733316 0.0794236 0.0637538
0.3055165 0.1570359 0.0564603
0.5792034 0.3050505 0.1270257
0.8067744 0.4673438 0.2748872
0.0220684 0.2033610 0.0689733
0.1119332 0.2494760 0.0648607
0.4138423 0.3820714 0.0795646
0.6711538 0.5190540 0.1534168
0.8717105 0.6452057 0.2819603
0.0739374 0.3718219 0.1037916
0.1478234 0.4033259 0.1063187
0.4856440 0.5707201 0.1403997
0.7451591 0.7054207 0.2366086
0.9224745 0.8007180 0.3388830
0.1928011 0.5570351 0.2721962
0.1928011 0.5570351 0.2721962
0.5274671 0.6945171 0.3062937
0.7839465 0.7978690 0.3559128
0.9420043 0.8672480 0.4372466
0.0423671 0.0668896 0.0814588
0.0976495 0.0798230 0.1013891
0.3297712 0.1164526 0.1679946
0.5539213 0.1799654 0.2682990
0.7883307 0.3902573 0.3841565
0.0366295 0.0777200 0.1066265
0.1050981 0.1057401 0.1398159
0.3718567 0.2067541 0.2130038
0.6259326 0.3504808 0.3027167
0.8278039 0.4938272 0.4036894
0.0310545 0.2428797 0.1654813
0.1027240 0.3034044 0.1943451
0.4488571 0.4497376 0.2588053
0.7065380 0.5720792 0.3355227
0.8886250 0.6790026 0.4298970
0.0770606 0.4051179 0.2002308
0.1201449 0.4428034 0.2139730
0.4958198 0.6063882 0.2696334
0.7589586 0.7308931 0.3431529
0.9283830 0.8215630 0.4431980
0.1903535 0.5559376 0.2705389
0.1928011 0.5570351 0.2721962
0.5301368 0.6940321 0.3061931
0.7839465 0.7978690 0.3559128
0.9432868 0.8693570 0.4475043
0.0528023 0.0800653 0.2946305
0.1615065 0.0951583 0.3307505
0.3968758 0.1221700 0.3967103
0.6165435 0.2108877 0.4759215
0.8182892 0.4248349 0.5747705
0.0590542 0.1085110 0.3423810
0.1689836 0.1426381 0.3814500
0.4393221 0.2582117 0.4605613
0.6823855 0.3965928 0.5340450
0.8535556 0.5322420 0.6050688
0.0905439 0.3318825 0.4520957
0.1360747 0.3999022 0.4893368
0.5013774 0.5259179 0.5453002
0.7556224 0.6328050 0.5965595
0.9048671 0.7208197 0.6482696
0.1103024 0.5149476 0.5209368
0.1222300 0.5624945 0.5381486
0.5348204 0.6985418 0.5861700
0.7989546 0.8033196 0.6297202
0.9374558 0.8671041 0.6780193
0.1470155 0.6488506 0.5608283
0.1510882 0.6532735 0.5634663
0.5610701 0.7760268 0.6031281
0.8177770 0.8640268 0.6427703
0.9483087 0.9128194 0.6914050
0.1829623 0.1156873 0.4945167
0.2878466 0.1408764 0.5255449
0.4952271 0.2271820 0.5885406
0.7068239 0.3468545 0.6518521
0.8434261 0.4645679 0.7092235
0.1761118 0.1513904 0.5148026
0.2896717 0.1984432 0.5506979
0.5157314 0.3070352 0.6201349
0.7328076 0.4359516 0.6836918
0.8718563 0.5625381 0.7384648
0.1454178 0.4229361 0.6432841
0.2915049 0.4752121 0.6705293
0.5654564 0.5745826 0.7186587
0.7958937 0.6705636 0.7586051
0.9153215 0.7503006 0.7897266
0.1647113 0.5963021 0.7105055
0.2811342 0.6500880 0.7343301
0.5937229 0.7548656 0.7725148
0.8318778 0.8423285 0.8007890
0.9423309 0.8934768 0.8244593
0.2294298 0.7187970 0.7550594
0.3081776 0.7373529 0.7606725
0.6190279 0.8300412 0.7942722
0.8513917 0.9022806 0.8198995
0.9510924 0.9362292 0.8390729
0.3537097 0.3031061 0.6558600
0.4343688 0.3310697 0.6762445
0.6021073 0.3961532 0.7140047
0.7809613 0.4801220 0.7537805
0.8798129 0.5656360 0.7860358
0.3464513 0.2990349 0.6545654
0.4280740 0.3286518 0.6728816
0.5993599 0.3942162 0.7135776
0.7809613 0.4801220 0.7537805
0.8850681 0.5880494 0.7942365
0.3483131 0.5073848 0.7407905
0.4494730 0.5431843 0.7600852
0.6455208 0.6168975 0.7886398
0.8354205 0.6997107 0.8176790
0.9246032 0.7679514 0.8408222
0.3501924 0.6834196 0.8019146
0.4655392 0.7216650 0.8166477
0.6765542 0.7948300 0.8399875
0.8690346 0.8648581 0.8573665
0.9484395 0.9036195 0.8726000
0.3813694 0.7703593 0.8303574
0.4903483 0.8006389 0.8396302
0.6963791 0.8628987 0.8595488
0.8827916 0.9187466 0.8740200
0.9551201 0.9442736 0.8822736
