data/spectral_luts/ektar_100_endura_premier.cube
TITLE "ektar_100_endura_premier"
LUT_3D_SIZE 33
0.0369588 0.0602626 0.0714839
0.0369588 0.0602626 0.0714839
0.0371716 0.0602933 0.0714909
0.0374886 0.0603389 0.0715013
0.0382739 0.0604511 0.0715267
0.0398333 0.0606670 0.0715549
0.0432978 0.0611530 0.0716606
0.0494452 0.0620307 0.0719021
0.0588516 0.0633722 0.0722349
0.0736082 0.0654381 0.0725799
0.0926223 0.0680483 0.0728965
0.1255581 0.0722302 0.0731081
0.1542014 0.0755530 0.0730367
0.1929002 0.0793813 0.0724232
0.2357775 0.0827713 0.0711384
0.2776874 0.0852846 0.0692641
0.3262448 0.0870634 0.0663524
0.3806107 0.0875585 0.0700267
0.4230187 0.0870517 0.0821984
0.4657320 0.0944577 0.0944577
0.5064585 0.1061468 0.1061468
0.5459740 0.1174884 0.1174884
0.5751592 0.1258650 0.1258650
0.6014673 0.1334158 0.1334158
0.6294395 0.1414442 0.1414442
0.6582575 0.1497154 0.1497154
0.6825500 0.1566877 0.1566877
0.6999105 0.1616704 0.1616704
0.7202846 0.1675181 0.1675181
0.7365922 0.1721986 0.1721986
0.7519025 0.1765929 0.1765929
0.7680191 0.1812186 0.1812186
0.7793549 0.1844722 0.1844722
0.0369588 0.0602626 0.0714839
0.0369588 0.0602626 0.0714839
0.0371716 0.0602933 0.0714909
0.0374886 0.0603389 0.0715013
0.0382739 0.0604511 0.0715267
0.0398333 0.0606670 0.0715549
0.0432978 0.0611530 0.0716606
0.0494410 0.0620600 0.0719070
0.0588491 0.0634019 0.0722397
0.0736074 0.0654985 0.0725894
0.0926260 0.0681102 0.0729058
0.1255715 0.0723295 0.0731434
0.1542238 0.0756602 0.0730501
0.1929307 0.0794959 0.0724357
0.2358148 0.0828938 0.0711641
0.2807781 0.0855314 0.0690999
0.3262685 0.0871286 0.0663559
0.3767750 0.0876143 0.0689258
0.4230187 0.0870517 0.0821984
0.4620333 0.0933962 0.0933962
0.5064536 0.1061455 0.1061455
0.5459740 0.1174884 0.1174884
0.5751492 0.1258621 0.1258621
0.6014673 0.1334158 0.1334158
0.6294395 0.1414442 0.1414442
0.6582575 0.1497154 0.1497154
0.6825500 0.1566877 0.1566877
0.6999105 0.1616704 0.1616704
0.7202324 0.1675031 0.1675031
0.7365922 0.1721986 0.1721986
0.7519025 0.1765929 0.1765929
0.7680191 0.1812186 0.1812186
0.7793549 0.1844722 0.1844722
0.0369455 0.0603203 0.0714937
0.0369455 0.0603203 0.0714937
0.0371583 0.0603510 0.0715008
0.0375277 0.0604042 0.0715129
0.0383211 0.0605174 0.0715385
0.0399865 0.0607513 0.0715907
0.0432780 0.0612431 0.0716961
0.0500078 0.0622331 0.0719588
0.0599874 0.0636857 0.0723084
0.0736052 0.0656534 0.0726138
0.0926360 0.0683083 0.0729566
0.1256021 0.0725417 0.0731940
0.1542764 0.0759182 0.0731030
0.1995219 0.0804051 0.0723159
0.2359521 0.0833375 0.0712048
0.2809607 0.0860680 0.0691560
0.3265625 0.0879396 0.0664002
0.3810742 0.0887925 0.0701597
0.4235344 0.0884185 0.0823464
0.4662328 0.0946015 0.0946015
0.5103174 0.1072544 0.1072544
0.5463620 0.1175997 0.1175997
0.5756146 0.1259957 0.1259957
0.6017660 0.1335015 0.1335015
0.6298819 0.1415712 0.1415712
0.6558383 0.1490210 0.1490210
0.6825500 0.1566877 0.1566877
0.6999105 0.1616704 0.1616704
0.7202324 0.1675031 0.1675031
0.7365922 0.1721986 0.1721986
0.7519025 0.1765929 0.1765929
0.7680191 0.1812186 0.1812186
0.7793549 0.1844722 0.1844722
0.0369036 0.0604999 0.0715245
0.0369495 0.0605392 0.0715317
0.0371628 0.0605700 0.0715387
0.0374718 0.0606472 0.0715545
0.0382662 0.0607607 0.0715800
0.0399265 0.0610268 0.0716376
0.0436258 0.0615857 0.0717970
0.0499537 0.0625585 0.0720742
0.0599555 0.0640448 0.0723874
0.0751637 0.0662659 0.0727258
0.0960453 0.0691904 0.0730785
0.1256808 0.0730742 0.0732880
0.1564799 0.0767001 0.0731641
0.1997330 0.0811878 0.0724361
0.2362613 0.0843451 0.0713400
0.2813852 0.0873193 0.0692969
0.3305049 0.0894649 0.0662687
0.3816845 0.0904202 0.0703349
0.4244118 0.0907394 0.0825982
0.4671539 0.0948659 0.0948659
0.5115663 0.1076129 0.1076129
0.5505506 0.1188019 0.1188019
0.5772669 0.1264699 0.1264699
0.6038536 0.1341007 0.1341007
0.6346081 0.1429277 0.1429277
0.6604617 0.1503480 0.1503480
0.6840968 0.1571317 0.1571317
0.7008746 0.1619471 0.1619471
0.7216436 0.1679081 0.1679081
0.7377009 0.1725168 0.1725168
0.7519025 0.1765929 0.1765929
0.7680191 0.1812186 0.1812186
0.7793549 0.1844722 0.1844722
0.0367663 0.0610728 0.0716426
0.0368196 0.0610805 0.0716444
0.0370335 0.0611115 0.0716514
0.0373926 0.0612102 0.0716711
0.0381260 0.0613622 0.0717026
0.0398694 0.0616580 0.0717857
0.0434683 0.0623711 0.0719900
0.0498334 0.0633499 0.0722463
0.0598794 0.0649136 0.0725484
0.0751498 0.0671976 0.0729124
0.0961148 0.0702672 0.0732791
0.1258754 0.0744019 0.0735102
0.1610373 0.0786527 0.0733415
0.2001947 0.0829003 0.0726521
0.2368980 0.0864205 0.0715397
0.2914981 0.0899397 0.0689081
0.3314794 0.0921634 0.0664789
0.3829232 0.0937277 0.0706904
0.4256942 0.0941330 0.0829663
0.4687481 0.0953234 0.0953234
0.5135071 0.1081699 0.1081699
0.5530817 0.1195284 0.1195284
0.5800331 0.1272638 0.1272638
0.6095285 0.1357295 0.1357295
0.6373270 0.1437080 0.1437080
0.6630816 0.1511000 0.1511000
0.6864646 0.1578113 0.1578113
0.7037014 0.1627585 0.1627585
0.7249801 0.1688658 0.1688658
0.7409170 0.1734399 0.1734399
0.7595116 0.1787768 0.1787768
0.7717857 0.1822997 0.1822997
0.7843336 0.1859011 0.1859011
0.0363951 0.0625926 0.0719405
0.0364488 0.0626005 0.0719422
0.0366241 0.0627960 0.0719767
0.0370498 0.0628578 0.0719903
0.0377815 0.0630627 0.0720505
0.0396870 0.0633428 0.0721716
0.0435460 0.0640853 0.0723592
0.0502374 0.0651382 0.0726033
0.0596969 0.0668725 0.0729023
0.0751143 0.0692506 0.0732688
0.0962612 0.0726614 0.0736887
0.1262170 0.0767829 0.0738805
0.1637836 0.0816376 0.0737039
0.2010105 0.0859618 0.0730194
0.2406824 0.0898719 0.0717441
0.2927917 0.0937266 0.0692200
0.3435236 0.0967130 0.0659154
0.3885177 0.0982514 0.0722961
0.4316227 0.1007202 0.0846679
0.4753784 0.1016515 0.0972264
0.5199165 0.1100095 0.1100095
0.5564513 0.1204955 0.1204955
0.5857148 0.1288946 0.1288946
0.6124780 0.1365760 0.1365760
0.6404370 0.1446007 0.1446007
0.6662732 0.1520160 0.1520160
0.6931484 0.1597296 0.1597296
0.7108033 0.1647968 0.1647968
0.7318862 0.1708479 0.1708479
0.7487913 0.1756999 0.1756999
0.7643887 0.1801766 0.1801766
0.7767314 0.1837192 0.1837192
0.7882449 0.1870237 0.1870237
0.0356238 0.0656170 0.0724833
0.0357327 0.0656331 0.0724867
0.0359475 0.0656683 0.0725144
0.0362956 0.0660377 0.0725984
0.0372004 0.0661802 0.0726893
0.0390768 0.0667712 0.0728386
0.0432893 0.0673691 0.0729776
0.0496787 0.0685969 0.0731975
0.0605512 0.0703578 0.0735073
0.0750202 0.0728277 0.0738661
0.0964555 0.0762322 0.0742446
0.1268330 0.0812786 0.0745253
0.1647785 0.0863740 0.0742993
0.2046554 0.0917371 0.0735586
0.2482370 0.0964180 0.0720657
0.2952133 0.1009121 0.0697568
0.3462459 0.1042736 0.0663202
0.3919155 0.1073772 0.0732713
0.4347605 0.1090159 0.0855685
0.4786702 0.1103114 0.0981712
0.5235688 0.1110578 0.1110578
0.5627990 0.1223174 0.1223174
0.5896773 0.1300319 0.1300319
0.6168225 0.1378229 0.1378229
0.6479438 0.1467552 0.1467552
0.6743693 0.1543397 0.1543397
0.6988895 0.1613774 0.1613774
0.7163532 0.1663897 0.1663897
0.7376820 0.1725114 0.1725114
0.7536353 0.1770902 0.1770902
0.7706566 0.1819756 0.1819756
0.7845535 0.1859642 0.1859642
0.7985857 0.1899917 0.1899917
0.0341447 0.0709137 0.0734338
0.0342521 0.0709338 0.0734583
0.0342758 0.0718428 0.0736222
0.0347130 0.0719122 0.0736562
0.0357512 0.0717634 0.0736801
0.0375458 0.0729597 0.0738746
0.0416940 0.0732354 0.0739335
0.0493115 0.0749563 0.0742321
0.0598426 0.0764876 0.0744760
0.0772535 0.0796634 0.0749115
0.1003578 0.0839362 0.0752925
0.1329827 0.0889829 0.0754211
0.1662467 0.0936925 0.0751204
0.2065081 0.0990080 0.0742746
0.2535355 0.1045802 0.0725619
0.3010799 0.1090676 0.0700872
0.3492313 0.1126848 0.0667196
0.3950083 0.1157634 0.0741590
0.4416476 0.1180916 0.0875452
0.4828548 0.1213311 0.0993722
0.5287184 0.1245479 0.1125358
0.5679834 0.1250787 0.1238054
0.5957360 0.1317708 0.1317708
0.6270798 0.1407669 0.1407669
0.6544659 0.1486272 0.1486272
0.6812840 0.1563243 0.1563243
0.7060689 0.1634380 0.1634380
0.7281386 0.1697723 0.1697723
0.7465323 0.1750516 0.1750516
0.7617469 0.1794184 0.1794184
0.7813853 0.1850549 0.1850549
0.7957332 0.1899135 0.1891730
0.8102691 0.2066090 0.1933450
0.0319555 0.0780736 0.0746404
0.0320669 0.0780942 0.0746609
0.0321586 0.0787307 0.0747551
0.0326141 0.0788005 0.0747673
0.0337042 0.0789660 0.0747961
0.0358889 0.0792910 0.0748515
0.0401678 0.0805326 0.0750589
0.0487120 0.0817610 0.0752598
0.0607251 0.0841569 0.0756063
0.0768896 0.0865569 0.0758754
0.1005936 0.0907302 0.0762078
0.1339518 0.0968517 0.0763566
0.1678486 0.1022455 0.0760324
0.2088316 0.1085566 0.0751126
0.2563734 0.1143618 0.0732474
0.3047903 0.1205393 0.0706738
0.3572250 0.1253769 0.0668425
0.4035653 0.1299190 0.0766150
0.4542544 0.1330050 0.0911635
0.5008562 0.1385052 0.1045389
0.5387641 0.1416032 0.1154190
0.5749049 0.1433039 0.1257920
0.6058579 0.1485760 0.1346759
0.6332923 0.1502658 0.1425500
0.6626617 0.1565380 0.1509795
0.6913236 0.1598483 0.1592059
0.7177352 0.1703866 0.1667864
0.7395095 0.1744704 0.1730359
0.7594864 0.1891891 0.1787696
0.7783906 0.2048283 0.1841954
0.7937955 0.2106885 0.1886168
0.8083825 0.2242458 0.1928035
0.8209901 0.2358978 0.1964221
0.0285127 0.0879779 0.0760725
0.0285775 0.0879844 0.0760564
0.0291089 0.0874260 0.0759831
0.0290069 0.0893504 0.0762561
0.0301945 0.0895397 0.0763012
0.0328238 0.0892933 0.0762744
0.0386014 0.0901407 0.0764087
0.0468499 0.0926243 0.0767713
0.0603472 0.0946201 0.0770110
0.0776685 0.0992462 0.0774642
0.1007296 0.1027570 0.0776117
0.1352430 0.1092956 0.0776163
0.1772894 0.1173331 0.0770827
0.2187983 0.1224923 0.0758242
0.2603177 0.1286436 0.0740911
0.3095293 0.1357984 0.0712554
0.3630356 0.1425580 0.0670198
0.4167961 0.1475795 0.0804124
0.4650493 0.1526030 0.0942618
0.5073760 0.1558993 0.1064102
0.5457641 0.1601371 0.1174281
0.5866007 0.1661060 0.1291488
0.6163942 0.1763534 0.1377000
0.6451257 0.1815260 0.1459464
0.6769090 0.1867557 0.1550687
0.7067978 0.2008885 0.1636472
0.7313743 0.2065897 0.1707010
0.7543747 0.2141525 0.1773025
0.7727199 0.2245970 0.1825678
0.7888683 0.2330279 0.1872026
0.8057874 0.2393648 0.1920587
0.8195207 0.2546002 0.1960003
0.8304367 0.2619031 0.1991334
0.0232621 0.1005128 0.0776645
0.0233889 0.1005335 0.0776671
0.0236951 0.1005877 0.0776913
0.0237095 0.1020910 0.0778646
0.0251742 0.1023312 0.0779106
0.0276494 0.1027299 0.0779916
0.0340642 0.1036998 0.0781137
0.0423434 0.1063874 0.0784269
0.0572869 0.1085665 0.0786149
0.0762074 0.1114649 0.0788001
0.1033632 0.1180222 0.0790583
0.1419656 0.1239734 0.0787220
0.1796232 0.1320802 0.0781140
0.2224201 0.1392083 0.0767265
0.2682551 0.1475985 0.0745602
0.3192272 0.1575520 0.0712043
0.3704125 0.1654759 0.0670997
0.4287042 0.1718577 0.0838302
0.4744889 0.1790740 0.0969711
0.5232075 0.1885266 0.1109541
0.5696819 0.1953567 0.1242929
0.6007462 0.2040932 0.1332088
0.6286901 0.2093313 0.1412291
0.6670022 0.2148178 0.1522253
0.6959479 0.2224174 0.1605331
0.7186904 0.2327778 0.1670605
0.7443230 0.2414336 0.1744175
0.7668322 0.2477020 0.1808779
0.7846776 0.2569227 0.1859998
0.8002644 0.2642383 0.1904735
0.8209077 0.2810631 0.1963984
0.8332335 0.2889742 0.1999361
0.8429870 0.2973762 0.2027355
0.0130561 0.1205411 0.0798192
0.0130561 0.1205411 0.0798192
0.0134577 0.1206097 0.0798248
0.0142502 0.1207516 0.0798637
0.0159165 0.1210308 0.0798859
0.0190109 0.1215443 0.0799523
0.0258107 0.1226121 0.0800534
0.0361045 0.1275449 0.0804377
0.0519592 0.1315014 0.0806894
0.0756014 0.1350987 0.0807514
0.1036587 0.1431767 0.0808476
0.1433567 0.1496912 0.0802583
0.1833313 0.1616605 0.0792479
0.2279113 0.1684247 0.0773612
0.2824553 0.1810662 0.0740183
0.3342606 0.1875405 0.0698756
0.3839962 0.1983272 0.0709984
0.4402918 0.2076100 0.0871560
0.4861453 0.2135399 0.1003167
0.5346131 0.2212243 0.1142276
0.5824314 0.2311605 0.1279522
0.6128346 0.2377876 0.1366784
0.6442844 0.2445787 0.1457049
0.6813096 0.2540957 0.1563317
0.7130079 0.2613609 0.1654296
0.7352162 0.2712102 0.1718037
0.7600668 0.2785811 0.1789362
0.7839742 0.2893560 0.1857979
0.8012716 0.2972953 0.1907625
0.8204150 0.3055395 0.1962570
0.8337502 0.3172827 0.2000844
0.8462699 0.3261003 0.2036777
0.8573919 0.3353870 0.2068699
0.0117110 0.1434131 0.0816372
0.0117133 0.1434291 0.0816521
0.0117243 0.1435066 0.0816551
0.0119548 0.1451236 0.0817780
0.0124154 0.1483012 0.0819695
0.0125143 0.1489741 0.0820161
0.0127151 0.1503317 0.0820716
0.0235331 0.1522571 0.0821288
0.0449313 0.1551338 0.0821523
0.0713042 0.1622908 0.0821732
0.1048845 0.1677522 0.0817957
0.1495529 0.1771179 0.0808054
0.1933199 0.1880889 0.0790969
0.2400704 0.1975266 0.0765823
0.2916322 0.2091622 0.0726177
0.3456055 0.2186962 0.0674885
0.4003811 0.2298437 0.0757011
0.4486715 0.2353881 0.0895611
0.5007716 0.2479465 0.1045146
0.5465013 0.2572889 0.1176397
0.5935742 0.2640596 0.1311503
0.6277754 0.2723076 0.1409666
0.6636314 0.2836242 0.1512578
0.6977538 0.2921299 0.1610514
0.7245483 0.2941240 0.1687419
0.7524329 0.3054816 0.1767451
0.7723590 0.3136843 0.1824642
0.7966640 0.3258708 0.1894401
0.8142136 0.3348509 0.1944771
0.8336129 0.3439006 0.2000450
0.8486008 0.3568470 0.2043467
0.8598452 0.3666722 0.2075740
0.8722461 0.3797532 0.2111333
0.0156398 0.1688299 0.0829592
0.0156398 0.1688299 0.0829592
0.0162739 0.1725678 0.0830835
0.0163115 0.1727867 0.0830806
0.0163800 0.1731848 0.0831247
0.0165338 0.1740750 0.0831245
0.0167811 0.1754963 0.0831393
0.0171768 0.1777458 0.0831466
0.0314486 0.1810867 0.0830226
0.0661011 0.1898551 0.0827546
0.1065014 0.1984302 0.0819514
0.1486505 0.2058321 0.0806418
0.1952019 0.2206268 0.0780887
0.2441470 0.2291942 0.0748840
0.2968822 0.2379454 0.0705871
0.3534475 0.2538337 0.0636316
0.4126856 0.2622760 0.0792327
0.4639777 0.2768805 0.0939542
0.5110700 0.2826406 0.1074704
0.5628096 0.2970574 0.1223205
0.6095058 0.3020136 0.1357230
0.6404251 0.3111730 0.1445972
0.6800392 0.3243372 0.1559671
0.7094931 0.3272584 0.1644208
0.7399979 0.3401040 0.1731761
0.7672605 0.3497564 0.1810009
0.7875279 0.3592841 0.1868179
0.8142688 0.3728181 0.1944929
0.8274409 0.3746999 0.1982735
0.8469744 0.3846484 0.2038799
0.8619820 0.3980576 0.2081874
0.8745339 0.4086035 0.2117899
0.8855428 0.4222117 0.2149496
0.0209595 0.1978703 0.0835494
0.0209595 0.1978703 0.0835494
0.0209842 0.1979941 0.0835918
0.0210410 0.1982795 0.0836005
0.0211452 0.1988011 0.0836196
0.0213554 0.1998495 0.0835785
0.0225672 0.2057783 0.0834836
0.0230805 0.2082337 0.0833898
0.0239127 0.2121471 0.0830872
0.0544159 0.2200265 0.0823857
0.0994159 0.2267639 0.0812646
0.1527620 0.2410742 0.0786998
0.2041579 0.2531329 0.0752969
0.2500088 0.2616263 0.0717545
0.3143767 0.2809345 0.0636929
0.3681185 0.2899888 0.0664412
0.4210927 0.2983417 0.0816456
0.4817087 0.3159466 0.0990433
0.5298141 0.3226139 0.1128503
0.5832673 0.3388170 0.1281921
0.6220559 0.3436690 0.1393250
0.6630049 0.3547820 0.1510780
0.6915618 0.3614714 0.1592742
0.7235593 0.3717302 0.1684580
0.7575033 0.3859219 0.1782004
0.7824772 0.3891999 0.1853683
0.8025265 0.3992744 0.1911227
0.8270435 0.4132712 0.1981595
0.8448868 0.4235556 0.2032808
0.8618776 0.4262508 0.2081574
0.8749908 0.4406682 0.2119211
0.8875424 0.4514813 0.2155235
0.8994555 0.4649103 0.2189428
0.0271437 0.2266334 0.0832867
0.0271437 0.2266334 0.0832867
0.0271650 0.2267258 0.0832771
0.0272477 0.2270824 0.0833065
0.0284757 0.2323118 0.0831121
0.0287953 0.2336509 0.0830189
0.0293236 0.2358458 0.0828525
0.0300569 0.2388543 0.0825055
0.0316865 0.2453906 0.0818284
0.0332000 0.2512878 0.0808429
0.0972511 0.2599691 0.0790394
0.1557226 0.2781677 0.0747899
0.2035705 0.2873852 0.0713816
0.2588920 0.2981502 0.0662492
0.3190193 0.3178996 0.0563861
0.3786893 0.3286719 0.0694752
0.4424736 0.3394396 0.0877822
0.4953824 0.3570975 0.1029678
0.5445562 0.3646431 0.1170814
0.5968046 0.3753250 0.1320775
0.6341852 0.3869500 0.1428063
0.6738494 0.3922909 0.1541905
0.7047781 0.4065552 0.1630675
0.7385727 0.4109985 0.1727671
0.7693719 0.4258254 0.1816069
0.7967359 0.4368510 0.1894608
0.8196015 0.4401949 0.1960235
0.8391271 0.4538001 0.2016276
0.8588237 0.4573236 0.2072809
0.8739946 0.4677603 0.2116351
0.8883325 0.4814417 0.2157503
0.8991120 0.4920058 0.2188442
0.9078707 0.4951662 0.2213581
0.0347619 0.2572114 0.0818811
0.0347619 0.2572114 0.0818811
0.0347826 0.2572886 0.0819616
0.0348990 0.2577237 0.0818925
0.0351145 0.2585270 0.0818554
0.0368210 0.2647880 0.0812845
0.0381553 0.2695661 0.0808471
0.0391558 0.2730856 0.0802528
0.0405501 0.2779100 0.0794132
0.0424899 0.2846687 0.0779807
0.0927961 0.2950937 0.0750363
0.1500444 0.3076844 0.0709116
0.2110138 0.3253078 0.0643675
0.2637248 0.3358518 0.0575985
0.3345481 0.3528346 0.0620545
0.3836056 0.3622777 0.0708863
0.4502293 0.3804616 0.0900082
0.5028521 0.3924585 0.1051118
0.5529666 0.4008011 0.1194954
0.6075489 0.4183779 0.1351613
0.6540232 0.4252631 0.1485001
0.6857752 0.4364250 0.1576134
0.7184231 0.4444906 0.1669838
0.7511619 0.4560097 0.1763803
0.7800450 0.4641845 0.1846702
0.8075253 0.4747479 0.1925575
0.8330367 0.4795057 0.1998796
0.8500519 0.4930510 0.2047632
0.8699905 0.4963911 0.2104859
0.8850923 0.5073403 0.2148203
0.8993025 0.5212328 0.2188988
0.9092655 0.5252049 0.2217584
0.9187565 0.5359393 0.2244824
0.0435742 0.2884466 0.0794640
0.0435742 0.2884466 0.0794640
0.0435842 0.2884814 0.0794565
0.0437423 0.2890323 0.0794782
0.0440260 0.2900206 0.0792585
0.0452726 0.2943638 0.0788213
0.0460089 0.2969292 0.0784301
0.0472328 0.3011934 0.0775435
0.0488528 0.3068379 0.0763852
0.0525272 0.3196401 0.0730662
0.0814480 0.3300833 0.0695993
0.1483673 0.3436932 0.0639505
0.2186290 0.3574813 0.0633882
0.2713270 0.3683459 0.0665065
0.3375155 0.3902706 0.0727992
0.4013170 0.4030901 0.0764786
0.4556453 0.4134741 0.0915627
0.5092849 0.4262192 0.1069581
0.5616173 0.4412128 0.1219782
0.6149340 0.4502577 0.1372809
0.6627764 0.4610847 0.1510124
0.6948694 0.4724384 0.1602236
0.7278342 0.4811589 0.1696849
0.7608061 0.4932553 0.1791484
0.7890733 0.4981084 0.1872615
0.8186415 0.5068834 0.1957480
0.8434523 0.5186372 0.2028690
0.8600356 0.5221147 0.2076287
0.8825792 0.5379845 0.2140990
0.8960110 0.5484204 0.2179542
0.9070990 0.5531627 0.2211366
0.9202757 0.5679104 0.2249185
0.9276856 0.5719039 0.2270452
0.0509541 0.3141590 0.0768612
0.0509541 0.3141590 0.0768612
0.0509541 0.3141590 0.0768612
0.0511481 0.3148350 0.0769315
0.0522114 0.3185396 0.0764116
0.0521247 0.3182378 0.0762301
0.0536526 0.3235610 0.0752482
0.0550126 0.3282996 0.0744260
0.0581902 0.3393707 0.0716935
0.0607837 0.3484067 0.0687495
0.0756209 0.3599931 0.0641091
0.1518464 0.3747097 0.0683330
0.2149486 0.3871194 0.0718948
0.2828280 0.4012754 0.0759578
0.3474768 0.4235827 0.0823603
0.4047092 0.4354326 0.0857614
0.4749793 0.4492733 0.0971118
0.5284339 0.4626465 0.1124541
0.5817977 0.4786887 0.1277703
0.6348734 0.4881744 0.1430038
0.6712198 0.4976588 0.1534358
0.7068750 0.5107839 0.1636693
0.7431749 0.5172333 0.1740879
0.7782336 0.5270783 0.1841503
0.8081874 0.5397986 0.1927475
0.8287410 0.5475688 0.1986467
0.8535881 0.5586311 0.2057782
0.8702210 0.5630453 0.2105521
0.8900137 0.5677035 0.2162329
0.9058622 0.5823044 0.2207816
0.9151298 0.5861345 0.2234415
0.9269736 0.5966862 0.2268409
0.9379500 0.6123894 0.2299913
0.0586508 0.3409754 0.0735735
0.0586508 0.3409754 0.0735735
0.0586508 0.3409754 0.0735735
0.0595986 0.3442779 0.0733365
0.0593439 0.3433905 0.0733250
0.0607040 0.3481293 0.0724336
0.0617326 0.3517128 0.0715900
0.0632255 0.3569143 0.0700186
0.0665441 0.3684768 0.0668445
0.0694374 0.3785574 0.0694374
0.0732875 0.3919718 0.0732875
0.1543654 0.4079996 0.0778877
0.2207235 0.4209991 0.0816188
0.2812309 0.4338696 0.0853128
0.3525878 0.4491757 0.0897058
0.4168265 0.4712138 0.0960311
0.4795784 0.4841148 0.0997339
0.5335429 0.4951711 0.1139205
0.5870882 0.5081838 0.1292888
0.6421989 0.5240600 0.1451063
0.6781502 0.5311315 0.1554249
0.7198442 0.5417793 0.1673917
0.7550131 0.5546115 0.1774857
0.7867240 0.5643499 0.1865872
0.8151537 0.5699235 0.1947469
0.8365195 0.5811958 0.2008792
0.8605192 0.5890552 0.2077675
0.8820494 0.5937964 0.2139470
0.8984308 0.6046961 0.2186487
0.9118856 0.6087060 0.2225104
0.9247663 0.6215203 0.2262073
0.9370213 0.6272640 0.2297247
0.9457635 0.6371377 0.2322339
0.0663776 0.3678966 0.0698934
0.0663776 0.3678966 0.0698934
0.0663776 0.3678966 0.0698934
0.0665854 0.3686208 0.0696039
0.0678016 0.3728582 0.0687091
0.0685633 0.3755122 0.0685633
0.0696734 0.3793799 0.0696734
0.0714619 0.3856112 0.0714619
0.0735419 0.3928584 0.0735419
0.0765172 0.4032245 0.0765172
0.0817328 0.4213966 0.0817328
0.1427758 0.4342055 0.0854092
0.2226037 0.4521824 0.0905688
0.2924702 0.4668891 0.0947899
0.3621841 0.4821657 0.0991745
0.4230798 0.4953768 0.1029662
0.4830057 0.5150934 0.1086252
0.5468835 0.5282454 0.1177494
0.5918558 0.5376035 0.1306572
0.6468990 0.5507141 0.1464553
0.6939140 0.5598623 0.1599493
0.7257810 0.5712183 0.1690956
0.7603885 0.5806896 0.1790285
0.7914726 0.5878933 0.1879501
0.8248691 0.6024991 0.1975354
0.8506436 0.6077442 0.2049331
0.8679907 0.6134470 0.2099119
0.8906766 0.6236956 0.2164231
0.9041103 0.6309006 0.2202788
0.9176182 0.6350865 0.2241557
0.9324783 0.6470630 0.2284208
0.9418553 0.6511638 0.2311121
0.9512582 0.6625156 0.2338109
0.0733077 0.3920422 0.0733077
0.0733077 0.3920422 0.0733077
0.0733077 0.3920422 0.0733077
0.0733832 0.3923054 0.0733832
0.0740076 0.3944808 0.0740076
0.0748453 0.3973995 0.0748453
0.0766838 0.4038051 0.0766838
0.0784792 0.4100605 0.0784792
0.0807374 0.4179284 0.0807374
0.0840929 0.4296195 0.0840929
0.0880401 0.4433720 0.0880401
0.1484274 0.4573028 0.0920384
0.2307483 0.4728138 0.0964903
0.3045300 0.4910140 0.1017140
0.3617994 0.5083980 0.1067035
0.4343224 0.5240812 0.1112048
0.4989071 0.5381280 0.1152365
0.5541217 0.5519454 0.1198269
0.6094984 0.5631883 0.1357208
0.6511273 0.5766709 0.1476689
0.6991236 0.5886449 0.1614446
0.7332158 0.5968114 0.1712295
0.7641355 0.6035528 0.1801039
0.8006172 0.6180432 0.1905747
0.8290697 0.6244419 0.1987410
0.8549119 0.6302949 0.2061581
0.8731207 0.6378837 0.2113843
0.8954272 0.6503341 0.2177866
0.9103846 0.6549755 0.2220796
0.9237565 0.6679180 0.2259175
0.9376704 0.6736107 0.2299110
0.9471489 0.6774462 0.2326315
0.9570903 0.6868364 0.2354848
0.0785117 0.4101737 0.0785117
0.0785117 0.4101737 0.0785117
0.0785117 0.4101737 0.0785117
0.0786040 0.4104953 0.0786040
0.0792063 0.4125938 0.0792063
0.0802422 0.4162031 0.0802422
0.0815742 0.4208438 0.0815742
0.0834346 0.4273258 0.0834346
0.0861145 0.4366631 0.0861145
0.0897375 0.4492860 0.0897375
0.0940174 0.4641979 0.0940174
0.1542381 0.4789154 0.0982416
0.2244717 0.4966912 0.1033435
0.3021489 0.5130599 0.1080415
0.3757282 0.5295632 0.1127782
0.4396940 0.5463713 0.1176024
0.5005173 0.5594423 0.1213540
0.5559818 0.5717451 0.1248851
0.6129513 0.5911568 0.1367119
0.6674002 0.6027673 0.1523395
0.7058330 0.6112213 0.1633703
0.7372812 0.6209181 0.1723964
0.7794712 0.6298960 0.1845055
0.8111373 0.6424036 0.1935942
0.8337517 0.6506504 0.2000848
0.8597800 0.6567435 0.2075553
0.8826479 0.6632904 0.2141187
0.9002048 0.6738487 0.2191579
0.9156169 0.6824876 0.2235813
0.9319456 0.6894494 0.2282679
0.9436291 0.6997488 0.2316213
0.9515262 0.7033968 0.2338878
0.9607074 0.7098207 0.2365230
0.0838689 0.4288391 0.0838689
0.0838689 0.4288391 0.0838689
0.0838689 0.4288391 0.0838689
0.0838689 0.4288391 0.0838689
0.0846351 0.4315085 0.0846351
0.0856255 0.4349593 0.0856255
0.0870959 0.4400822 0.0870959
0.0894180 0.4481727 0.0894180
0.0918972 0.4568106 0.0918972
0.0959002 0.4707576 0.0959002
0.1006797 0.4874102 0.1006797
0.1516785 0.5050579 0.1057449
0.2325086 0.5200642 0.1100519
0.3142668 0.5378760 0.1151641
0.3898956 0.5546548 0.1199799
0.4499621 0.5690506 0.1241117
0.5111136 0.5848771 0.1286542
0.5718540 0.5986060 0.1325945
0.6299269 0.6166288 0.1415841
0.6703056 0.6252677 0.1531734
0.7169102 0.6379937 0.1665496
0.7475249 0.6453276 0.1753365
0.7832108 0.6533192 0.1855788
0.8153266 0.6682562 0.1947965
0.8434511 0.6750640 0.2028687
0.8633846 0.6814049 0.2085899
0.8870637 0.6901001 0.2153861
0.9043897 0.7007316 0.2203590
0.9232219 0.7075323 0.2257641
0.9359809 0.7122526 0.2294261
0.9482893 0.7242352 0.2329588
0.9560055 0.7286717 0.2351735
0.9646087 0.7327444 0.2376427
0.0895214 0.4485329 0.0895214
0.0895214 0.4485329 0.0895214
0.0895214 0.4485329 0.0895214
0.0895214 0.4485329 0.0895214
0.0902297 0.4510008 0.0902297
0.0912993 0.4547274 0.0912993
