data/spectral_luts/ektar_100_endura_premier.cube
TITLE "ektar_100_endura_premier"
LUT_3D_SIZE 5
0.0369588 0.0602626 0.0714839
0.0588516 0.0633722 0.0722349
0.3262448 0.0870634 0.0663524
0.6294395 0.1414442 0.1414442
0.7793549 0.1844722 0.1844722
0.0319555 0.0780736 0.0746404
0.0607251 0.0841569 0.0756063
0.3572250 0.1253769 0.0668425
0.6626617 0.1565380 0.1509795
0.8209901 0.2358978 0.1964221
0.0347619 0.2572114 0.0818811
0.0405501 0.2779100 0.0794132
0.4502293 0.3804616 0.0900082
0.7800450 0.4641845 0.1846702
0.9187565 0.5359393 0.2244824
0.0895214 0.4485329 0.0895214
0.0983222 0.4791963 0.0983222
0.5163336 0.6062618 0.1347919
0.8495525 0.6980922 0.2046199
0.9679456 0.7574295 0.2386004
0.1290928 0.5864056 0.1469580
0.1390764 0.6211898 0.1412824
0.5655472 0.7452524 0.1746842
0.8727707 0.8232605 0.2112838
0.9790657 0.8668522 0.3083524
0.0340861 0.0633061 0.0929795
0.0679841 0.0686773 0.0984110
0.3629400 0.0939800 0.1085001
0.6541595 0.1485392 0.1485392
0.7901040 0.1875573 0.2260384
0.0206663 0.0938111 0.1096262
0.0647527 0.1031746 0.1150044
0.3968119 0.1511471 0.1304089
0.6929755 0.1996471 0.1730839
0.8336903 0.2754915 0.2549982
0.0489156 0.3070566 0.1441368
0.0566305 0.3339364 0.1523628
0.4675836 0.4300641 0.1606735
0.7959034 0.5176585 0.1998499
0.9229634 0.5799117 0.3000144
0.1029788 0.4954206 0.1894430
0.1136020 0.5324332 0.1897224
0.5244614 0.6610335 0.1860212
0.8432316 0.7384787 0.2240904
0.9626293 0.7882032 0.3449971
0.1366377 0.6126930 0.2430950
0.1477833 0.6515259 0.2440139
0.5653492 0.7723520 0.2557390
0.8644162 0.8436019 0.3090177
0.9770761 0.8819785 0.4078621
0.0738690 0.0738690 0.3939979
0.1157848 0.0787381 0.4109627
0.4345360 0.1075283 0.4564972
0.7019553 0.1622573 0.5008740
0.8287703 0.2257869 0.5643926
0.0896610 0.1492198 0.4490194
0.0931761 0.1694596 0.4612667
0.4676122 0.2307591 0.5065820
0.7424929 0.2909731 0.5486414
0.8676058 0.3712575 0.6111010
0.1187294 0.4175601 0.5502979
0.1219919 0.4474727 0.5616651
0.5007151 0.5474654 0.5984432
0.8117767 0.6166429 0.6328325
0.9286480 0.6668737 0.6689320
0.1367516 0.6024533 0.6130898
0.1492821 0.6567476 0.6334767
0.5201342 0.7582848 0.6500789
0.8384455 0.8219648 0.6770867
0.9537545 0.8522539 0.7156711
0.1660468 0.7151583 0.6691368
0.1781555 0.7573470 0.6730058
0.5658487 0.8554648 0.6994378
0.8547763 0.9086450 0.7197142
0.9617475 0.9312562 0.7522976
0.1603497 0.1603497 0.6953090
0.2462524 0.1734285 0.7126486
0.5527253 0.2364105 0.7492878
0.7781132 0.2975695 0.7794747
0.8833972 0.3956872 0.8156424
0.1724696 0.2759004 0.7375365
0.2177548 0.3091279 0.7597178
0.5740909 0.3766554 0.7872000
0.8036323 0.4462789 0.8176067
0.9056473 0.5141549 0.8406972
0.1945806 0.5299748 0.8145743
0.1988377 0.5679458 0.8294064
0.5897605 0.6427683 0.8548534
0.8408573 0.7003179 0.8681325
0.9380503 0.7319062 0.8819126
0.2070313 0.6983846 0.8579541
0.2114722 0.7400116 0.8734270
0.5998962 0.8170809 0.8890096
0.8566678 0.8665447 0.9027095
0.9537067 0.8900676 0.9125022
0.2162281 0.7895899 0.8899971
0.2188416 0.8292040 0.8991029
0.6379879 0.8971779 0.9085233
0.8711101 0.9374701 0.9201462
0.9596927 0.9534477 0.9273838
0.2832835 0.3966371 0.8664587
0.4246724 0.4257095 0.8780832
0.6657064 0.4795097 0.8952116
0.8457284 0.5332606 0.9099742
0.9248092 0.5927625 0.9229258
0.2550933 0.4884876 0.8881541
0.4208476 0.5200362 0.8992095
0.6797791 0.5645537 0.9127072
0.8575760 0.6164008 0.9255358
0.9375359 0.6720579 0.9366958
0.2259858 0.6584516 0.9239944
0.4083022 0.6880128 0.9326987
0.6867229 0.7369715 0.9451831
0.8745996 0.7773439 0.9515566
0.9513668 0.8061457 0.9570255
0.2329995 0.7909383 0.9484310
0.4113255 0.8205229 0.9563119
0.7002447 0.8640946 0.9641855
0.8855871 0.8967399 0.9693618
0.9607985 0.9152325 0.9722886
0.2972769 0.8588573 0.9623016
0.4661942 0.8816959 0.9666648
0.7324392 0.9252315 0.9731382
0.8979375 0.9518952 0.9770580
0.9645495 0.9638519 0.9787585
