data/spectral_luts/ektachrome_100d_radiance_iii.cube
TITLE "ektachrome_100d_radiance_iii"
LUT_3D_SIZE 33
0.0461947 0.0638736 0.0619166
0.0461947 0.0638736 0.0619166
0.0461947 0.0638736 0.0619166
0.0461947 0.0638736 0.0619166
0.0458822 0.0638122 0.0619074
0.0458691 0.0638097 0.0619071
0.0471509 0.0640614 0.0619446
0.0541343 0.0654397 0.0621403
0.0639798 0.0673925 0.0623890
0.0810472 0.0707637 0.0627361
0.1006817 0.0745595 0.0629941
0.1220715 0.0785370 0.0630975
0.1465796 0.0828469 0.0629878
0.1761901 0.0876454 0.0624037
0.2114870 0.0927707 0.0611641
0.2435141 0.0967766 0.0596182
0.2730806 0.1000508 0.0577890
0.3025304 0.1038821 0.0574601
0.3306860 0.1075985 0.0578374
0.3600250 0.1116812 0.0641183
0.3878272 0.1151055 0.0720979
0.4141450 0.1196057 0.0796515
0.4437047 0.1289536 0.0881356
0.4742603 0.1418196 0.0969055
0.5057040 0.1575200 0.1059303
0.5364689 0.1731506 0.1147603
0.5725008 0.1973310 0.1326158
0.6080852 0.2281928 0.1556389
0.6462610 0.2589597 0.1786669
0.6778350 0.2847123 0.1989056
0.7096301 0.3129964 0.2215221
0.7381908 0.3402735 0.2437200
0.7648082 0.3667674 0.2644337
0.0461947 0.0638736 0.0619166
0.0461947 0.0638736 0.0619166
0.0461947 0.0638736 0.0619166
0.0461947 0.0638736 0.0619166
0.0458822 0.0638122 0.0619074
0.0458691 0.0638097 0.0619071
0.0471509 0.0640614 0.0619446
0.0542944 0.0654714 0.0621447
0.0642758 0.0674512 0.0623960
0.0810472 0.0707637 0.0627361
0.1006817 0.0745595 0.0629941
0.1227268 0.0786558 0.0630978
0.1465796 0.0828469 0.0629878
0.1772293 0.0878025 0.0623544
0.2114565 0.0926902 0.0611423
0.2446764 0.0968974 0.0595410
0.2744485 0.1005126 0.0577067
0.3042109 0.1047725 0.0575501
0.3326792 0.1088675 0.0577634
0.3604932 0.1126450 0.0642527
0.3883811 0.1162502 0.0722569
0.4157949 0.1229580 0.0801251
0.4474194 0.1330357 0.0892018
0.4768853 0.1471981 0.0976589
0.5080692 0.1624477 0.1066091
0.5402196 0.1811363 0.1158368
0.5770157 0.2070500 0.1334862
0.6147400 0.2379592 0.1565283
0.6495220 0.2664314 0.1798629
0.6819701 0.2943950 0.2001929
0.7132296 0.3216783 0.2229988
0.7434574 0.3474331 0.2434613
0.7670490 0.3723329 0.2643523
0.0461947 0.0638736 0.0619166
0.0461947 0.0638736 0.0619166
0.0461947 0.0638736 0.0619166
0.0461947 0.0638736 0.0619166
0.0458735 0.0638105 0.0619072
0.0458691 0.0638097 0.0619071
0.0473689 0.0641043 0.0619509
0.0542944 0.0654714 0.0621447
0.0642758 0.0674512 0.0623960
0.0810472 0.0707637 0.0627361
0.1006817 0.0745595 0.0629941
0.1227268 0.0786558 0.0630978
0.1473944 0.0829853 0.0629800
0.1772045 0.0877260 0.0623242
0.2114477 0.0926644 0.0611218
0.2447529 0.0970724 0.0595214
0.2748762 0.1014665 0.0577569
0.3045644 0.1055503 0.0577373
0.3332799 0.1101231 0.0577506
0.3609127 0.1135212 0.0643731
0.3896224 0.1187840 0.0726132
0.4195974 0.1273131 0.0812164
0.4502797 0.1388901 0.0900227
0.4797238 0.1529816 0.0984736
0.5107292 0.1680151 0.1073726
0.5460904 0.1892110 0.1175218
0.5818007 0.2174468 0.1342891
0.6193148 0.2482105 0.1575270
0.6533844 0.2752008 0.1795471
0.6879108 0.3031061 0.2013505
0.7161654 0.3286804 0.2228176
0.7468544 0.3559092 0.2450066
0.7697611 0.3793066 0.2659457
0.0461947 0.0638736 0.0619166
0.0461947 0.0638736 0.0619166
0.0461947 0.0638736 0.0619166
0.0461947 0.0638736 0.0619166
0.0458562 0.0638071 0.0619067
0.0458849 0.0638128 0.0619075
0.0474912 0.0641283 0.0619545
0.0544680 0.0655058 0.0621493
0.0645720 0.0675100 0.0624029
0.0815349 0.0708593 0.0627444
0.1012493 0.0746673 0.0629992
0.1233749 0.0787386 0.0630948
0.1481868 0.0830411 0.0629664
0.1782374 0.0878506 0.0622579
0.2128006 0.0931899 0.0610544
0.2464467 0.0984179 0.0594357
0.2766086 0.1027310 0.0577242
0.3054687 0.1075337 0.0580937
0.3338717 0.1113732 0.0578403
0.3637165 0.1161923 0.0651778
0.3938380 0.1241250 0.0738231
0.4230840 0.1344572 0.0822171
0.4546610 0.1478795 0.0912802
0.4839692 0.1618066 0.0996921
0.5161864 0.1795345 0.1089389
0.5537134 0.2054797 0.1197097
0.5895403 0.2345673 0.1360183
0.6252405 0.2617753 0.1598055
0.6590781 0.2885766 0.1819373
0.6932270 0.3157755 0.2024880
0.7213131 0.3412717 0.2241421
0.7512785 0.3670189 0.2464770
0.7735631 0.3891046 0.2674831
0.0461947 0.0638736 0.0619166
0.0461947 0.0638736 0.0619166
0.0461947 0.0638736 0.0619166
0.0461947 0.0638736 0.0619166
0.0458216 0.0638003 0.0619056
0.0459093 0.0638175 0.0619082
0.0478583 0.0642005 0.0619651
0.0550098 0.0656130 0.0621638
0.0651654 0.0676277 0.0624167
0.0820161 0.0708978 0.0627461
0.1018084 0.0746964 0.0629964
0.1240190 0.0787991 0.0630898
0.1490703 0.0833750 0.0629258
0.1807464 0.0892228 0.0622138
0.2145525 0.0947054 0.0610088
0.2472126 0.1002034 0.0594055
0.2775638 0.1048757 0.0578614
0.3075676 0.1093225 0.0582530
0.3370507 0.1151135 0.0576967
0.3670478 0.1230716 0.0661339
0.3982718 0.1332538 0.0750957
0.4302824 0.1458505 0.0842832
0.4614322 0.1583536 0.0932237
0.4920042 0.1748789 0.1019983
0.5271803 0.1987051 0.1120943
0.5636001 0.2272335 0.1225473
0.5994423 0.2519369 0.1374688
0.6322840 0.2778211 0.1588887
0.6660135 0.3049418 0.1826528
0.6995499 0.3310628 0.2035051
0.7291999 0.3554378 0.2269727
0.7555792 0.3779685 0.2479298
0.7795307 0.3992657 0.2688389
0.0461947 0.0638736 0.0619166
0.0461947 0.0638736 0.0619166
0.0461947 0.0638736 0.0619166
0.0461458 0.0638639 0.0619152
0.0457940 0.0637666 0.0619009
0.0459562 0.0637689 0.0619016
0.0483503 0.0642272 0.0619696
0.0557324 0.0656786 0.0621727
0.0660523 0.0677189 0.0624264
0.0839906 0.0713617 0.0627871
0.1036653 0.0756530 0.0630720
0.1249824 0.0801140 0.0631875
0.1503722 0.0850299 0.0629598
0.1825267 0.0913388 0.0622225
0.2178950 0.0974189 0.0609224
0.2492630 0.1023740 0.0593001
0.2800939 0.1079381 0.0579344
0.3118735 0.1158958 0.0583752
0.3429866 0.1246966 0.0592280
0.3743952 0.1352584 0.0682428
0.4064009 0.1468374 0.0774289
0.4365771 0.1590088 0.0860899
0.4701282 0.1766660 0.0957195
0.5027255 0.1977143 0.1050754
0.5384247 0.2232453 0.1153216
0.5753076 0.2488064 0.1259076
0.6083738 0.2725292 0.1387425
0.6431823 0.2981325 0.1603439
0.6758971 0.3229848 0.1829708
0.7060788 0.3473558 0.2061106
0.7350892 0.3702801 0.2281345
0.7614554 0.3933190 0.2510143
0.7849848 0.4135641 0.2701457
0.0461986 0.0637909 0.0619051
0.0461986 0.0637908 0.0619051
0.0461986 0.0637907 0.0619051
0.0460215 0.0637557 0.0618999
0.0457649 0.0637861 0.0619036
0.0460067 0.0640394 0.0619393
0.0491441 0.0650528 0.0620838
0.0566961 0.0668715 0.0623291
0.0678793 0.0693833 0.0626273
0.0862177 0.0735284 0.0630116
0.1058376 0.0780978 0.0632841
0.1275692 0.0827746 0.0633649
0.1528661 0.0877963 0.0630280
0.1844950 0.0939781 0.0622442
0.2206663 0.1015789 0.0608940
0.2534630 0.1096402 0.0591135
0.2857938 0.1182321 0.0579707
0.3191592 0.1291137 0.0579401
0.3512060 0.1393646 0.0615871
0.3829783 0.1503245 0.0707062
0.4156566 0.1630625 0.0800854
0.4492635 0.1825776 0.0897310
0.4850456 0.2050482 0.1000010
0.5179698 0.2272512 0.1094508
0.5520927 0.2497030 0.1192445
0.5856531 0.2727435 0.1288769
0.6217391 0.2988465 0.1392341
0.6525370 0.3208202 0.1615994
0.6844189 0.3441266 0.1846828
0.7163979 0.3676761 0.2082827
0.7424436 0.3893867 0.2308308
0.7704156 0.4105572 0.2519122
0.7910385 0.4296941 0.2713349
0.0461350 0.0650821 0.0620838
0.0461350 0.0650821 0.0620838
0.0460975 0.0651621 0.0620948
0.0458036 0.0653168 0.0621157
0.0456780 0.0656099 0.0621558
0.0459947 0.0661753 0.0622336
0.0501730 0.0674438 0.0624061
0.0579372 0.0693737 0.0626494
0.0698675 0.0721385 0.0629505
0.0885789 0.0764422 0.0633037
0.1094384 0.0816681 0.0635677
0.1315273 0.0879968 0.0635742
0.1584845 0.0952799 0.0632256
0.1898355 0.1033358 0.0623952
0.2264116 0.1135372 0.0608262
0.2617560 0.1242292 0.0585652
0.2937674 0.1341552 0.0577353
0.3274747 0.1450273 0.0570153
0.3610212 0.1579790 0.0644042
0.3970715 0.1744994 0.0747512
0.4298093 0.1942626 0.0841474
0.4653560 0.2146514 0.0943498
0.5000483 0.2348479 0.1043070
0.5319607 0.2552714 0.1134664
0.5659939 0.2776696 0.1232344
0.5990449 0.2998183 0.1327205
0.6316570 0.3234168 0.1420807
0.6642830 0.3445154 0.1639806
0.6961687 0.3678872 0.1858732
0.7241295 0.3878474 0.2105449
0.7517661 0.4077961 0.2314965
0.7774846 0.4296681 0.2545300
0.7999836 0.4482445 0.2722183
0.0458141 0.0674497 0.0624065
0.0457953 0.0675341 0.0624179
0.0457267 0.0675668 0.0624223
0.0455444 0.0678086 0.0624549
0.0455801 0.0682625 0.0625159
0.0461939 0.0691469 0.0626338
0.0513936 0.0716264 0.0629490
0.0597616 0.0749928 0.0633359
0.0733316 0.0794236 0.0637538
0.0928509 0.0856105 0.0641656
0.1139700 0.0926786 0.0642948
0.1380640 0.1009371 0.0641503
0.1652596 0.1097754 0.0636072
0.2008188 0.1199884 0.0622830
0.2362076 0.1305344 0.0602678
0.2712761 0.1426289 0.0576539
0.3055165 0.1570359 0.0564603
0.3406423 0.1732086 0.0585552
0.3767197 0.1912590 0.0689099
0.4116852 0.2083938 0.0789455
0.4466822 0.2255462 0.0889902
0.4801608 0.2452607 0.0985990
0.5123613 0.2641727 0.1078410
0.5464430 0.2855101 0.1176230
0.5792034 0.3050505 0.1270257
0.6098832 0.3270572 0.1358313
0.6438841 0.3486189 0.1455900
0.6761905 0.3690574 0.1644388
0.7068716 0.3895569 0.1870756
0.7349692 0.4105098 0.2123466
0.7592669 0.4281967 0.2338755
0.7846866 0.4493359 0.2552553
0.8067744 0.4673438 0.2748872
0.0450619 0.0739856 0.0632655
0.0450449 0.0741561 0.0632872
0.0450061 0.0743225 0.0633085
0.0449190 0.0750381 0.0633994
0.0449919 0.0764176 0.0635720
0.0465674 0.0787128 0.0638467
0.0523043 0.0823028 0.0642344
0.0619169 0.0868014 0.0646459
0.0773092 0.0927908 0.0650325
0.0983631 0.1000692 0.0651513
0.1204565 0.1080690 0.0650482
0.1445865 0.1170408 0.0646406
0.1750963 0.1291138 0.0636631
0.2118435 0.1443169 0.0616462
0.2516066 0.1610538 0.0583020
0.2871630 0.1767105 0.0555076
0.3226278 0.1922277 0.0533848
0.3550979 0.2066621 0.0627041
0.3905506 0.2220999 0.0728796
0.4276854 0.2399077 0.0835378
0.4611681 0.2569924 0.0931479
0.4944314 0.2760980 0.1026949
0.5259387 0.2933354 0.1117380
0.5596510 0.3138886 0.1214139
0.5898337 0.3323454 0.1300768
0.6216043 0.3514238 0.1391954
0.6529511 0.3728105 0.1481924
0.6851102 0.3928602 0.1649585
0.7156026 0.4131664 0.1881267
0.7429171 0.4324300 0.2142390
0.7699527 0.4514197 0.2357465
0.7941856 0.4703773 0.2574570
0.8165257 0.4888965 0.2753868
0.0435029 0.0856646 0.0646800
0.0434640 0.0859209 0.0647093
0.0434275 0.0861782 0.0647386
0.0433879 0.0872346 0.0648572
0.0434557 0.0889686 0.0650477
0.0469724 0.0918525 0.0653227
0.0531971 0.0963540 0.0657049
0.0639257 0.1025886 0.0660413
0.0825767 0.1120029 0.0662900
0.1045035 0.1223403 0.0662235
0.1283084 0.1344264 0.0657934
0.1551246 0.1475107 0.0647612
0.1876411 0.1609861 0.0627778
0.2270078 0.1765331 0.0593508
0.2661066 0.1921938 0.0557407
0.3023125 0.2078091 0.0526147
0.3374729 0.2235204 0.0576455
0.3723387 0.2382522 0.0676525
0.4054830 0.2537124 0.0771654
0.4411910 0.2709713 0.0874141
0.4742247 0.2864006 0.0968953
0.5064459 0.3025900 0.1061433
0.5382137 0.3206118 0.1152611
0.5714180 0.3397074 0.1247912
0.6015701 0.3581256 0.1334453
0.6333635 0.3772357 0.1425705
0.6642535 0.3968836 0.1514363
0.6963218 0.4170030 0.1648111
0.7261395 0.4355784 0.1889013
0.7535855 0.4558211 0.2156096
0.7777030 0.4737046 0.2377439
0.8015358 0.4918057 0.2596894
0.8240111 0.5109873 0.2777039
0.0403815 0.1016417 0.0663632
0.0402225 0.1022472 0.0664214
0.0402342 0.1022496 0.0664215
0.0398875 0.1041098 0.0665959
0.0404769 0.1082223 0.0669475
0.0450022 0.1133780 0.0672159
0.0521129 0.1213797 0.0675585
0.0654388 0.1293329 0.0676391
0.0872276 0.1399944 0.0673897
0.1104062 0.1509539 0.0667490
0.1364406 0.1623047 0.0655502
0.1647946 0.1753256 0.0636531
0.2004043 0.1905287 0.0604014
0.2410649 0.2072676 0.0565093
0.2811233 0.2231964 0.0526916
0.3170847 0.2397074 0.0517938
0.3514098 0.2538468 0.0616456
0.3873268 0.2691432 0.0719543
0.4223575 0.2836047 0.0820086
0.4541008 0.2977249 0.0911194
0.4857686 0.3133803 0.1002086
0.5181128 0.3294579 0.1094918
0.5496039 0.3460753 0.1185302
0.5802202 0.3638598 0.1273175
0.6125939 0.3829423 0.1366093
0.6419606 0.4012869 0.1450379
0.6757865 0.4226315 0.1547465
0.7072058 0.4412581 0.1661839
0.7346544 0.4600926 0.1894512
0.7618030 0.4794843 0.2149921
0.7880628 0.4972422 0.2393243
0.8117312 0.5159492 0.2614550
0.8338076 0.5340706 0.2796806
0.0327672 0.1260643 0.0682531
0.0327672 0.1260643 0.0682531
0.0327672 0.1260643 0.0682531
0.0326375 0.1281525 0.0683552
0.0357043 0.1320989 0.0684587
0.0408384 0.1371964 0.0685427
0.0501272 0.1447396 0.0685575
0.0673439 0.1537225 0.0682565
0.0913920 0.1647532 0.0674666
0.1173056 0.1766808 0.0661393
0.1440480 0.1890491 0.0642004
0.1751792 0.2027296 0.0613307
0.2125215 0.2182924 0.0578723
0.2538669 0.2350195 0.0538245
0.2934683 0.2511230 0.0481576
0.3296323 0.2652599 0.0553951
0.3653756 0.2810484 0.0656540
0.4001904 0.2950950 0.0756463
0.4340352 0.3094253 0.0853603
0.4684680 0.3252686 0.0952430
0.5000544 0.3401904 0.1043088
0.5307333 0.3555747 0.1131141
0.5624257 0.3719093 0.1222103
0.5910302 0.3887570 0.1304202
0.6234616 0.4074968 0.1397285
0.6557175 0.4279952 0.1489864
0.6838166 0.4466150 0.1570512
0.7160742 0.4674020 0.1663097
0.7459404 0.4864390 0.1913628
0.7726445 0.5047162 0.2157388
0.7990156 0.5231632 0.2404983
0.8196888 0.5396755 0.2592738
0.8412129 0.5567817 0.2796995
0.0265479 0.1468579 0.0691686
0.0265479 0.1468579 0.0691686
0.0265479 0.1468579 0.0691686
0.0267973 0.1476884 0.0691825
0.0299549 0.1529897 0.0692106
0.0360003 0.1589138 0.0691344
0.0475799 0.1666231 0.0688589
0.0701623 0.1768749 0.0680460
0.0956407 0.1875517 0.0667028
0.1234402 0.1999520 0.0646680
0.1512911 0.2120172 0.0623012
0.1839352 0.2258100 0.0597663
0.2225970 0.2423205 0.0561020
0.2643616 0.2596596 0.0501671
0.3059752 0.2750501 0.0486052
0.3419358 0.2907425 0.0589264
0.3764176 0.3044804 0.0688232
0.4140329 0.3203426 0.0796193
0.4470643 0.3355931 0.0890999
0.4815815 0.3506842 0.0990068
0.5134616 0.3656893 0.1081569
0.5447865 0.3821199 0.1171475
0.5749109 0.3992601 0.1257937
0.6041611 0.4168433 0.1341889
0.6344309 0.4339095 0.1428768
0.6666676 0.4538108 0.1521292
0.6972688 0.4723614 0.1609122
0.7272133 0.4932298 0.1695067
0.7567258 0.5116799 0.1912306
0.7834609 0.5305979 0.2161771
0.8072906 0.5487732 0.2395825
0.8297904 0.5648387 0.2603943
0.8506068 0.5805804 0.2812207
0.0207658 0.1668593 0.0695192
0.0207658 0.1668593 0.0695192
0.0207658 0.1668593 0.0695192
0.0207658 0.1668593 0.0695192
0.0244157 0.1715062 0.0693945
0.0318664 0.1768077 0.0691164
0.0476545 0.1851797 0.0684810
0.0736484 0.1960270 0.0671627
0.1005316 0.2071575 0.0654397
0.1296041 0.2204215 0.0634755
0.1582952 0.2334525 0.0616492
0.1925359 0.2483648 0.0586401
0.2324028 0.2639933 0.0531468
0.2772712 0.2818555 0.0442293
0.3169896 0.2993721 0.0517665
0.3534290 0.3143514 0.0622251
0.3907469 0.3299025 0.0729359
0.4260675 0.3462922 0.0830735
0.4615422 0.3623474 0.0932552
0.4929395 0.3774976 0.1022667
0.5258263 0.3951177 0.1117057
0.5567841 0.4102740 0.1205910
0.5869626 0.4272953 0.1292527
0.6167674 0.4458007 0.1378071
0.6446744 0.4613955 0.1458169
0.6775122 0.4811255 0.1552418
0.7058326 0.4993168 0.1633702
0.7377203 0.5183038 0.1725224
0.7646619 0.5366014 0.1889347
0.7936610 0.5553051 0.2165676
0.8169934 0.5722597 0.2403612
0.8392646 0.5886994 0.2614658
0.8578231 0.6044927 0.2827491
0.0185389 0.1852650 0.0693084
0.0185389 0.1852650 0.0693084
0.0185389 0.1852650 0.0693084
0.0185389 0.1852650 0.0693084
0.0195707 0.1883880 0.0690972
0.0284826 0.1948358 0.0685819
0.0491453 0.2034938 0.0677394
0.0779321 0.2155359 0.0665127
0.1051734 0.2274884 0.0652196
0.1355039 0.2410226 0.0633985
0.1667075 0.2552376 0.0603990
0.2029059 0.2710965 0.0551636
0.2443520 0.2877433 0.0474180
0.2889642 0.3064551 0.0487429
0.3288987 0.3230542 0.0551846
0.3650855 0.3400739 0.0655707
0.4016192 0.3552806 0.0760564
0.4393896 0.3726025 0.0868971
0.4742520 0.3904682 0.0969031
0.5080375 0.4061813 0.1066001
0.5390269 0.4228982 0.1154945
0.5704069 0.4396156 0.1245010
0.5989063 0.4567034 0.1326807
0.6287262 0.4748341 0.1412395
0.6597630 0.4912469 0.1501475
0.6874105 0.5091673 0.1580827
0.7184526 0.5261139 0.1669923
0.7452618 0.5436643 0.1746869
0.7747810 0.5612729 0.1883063
0.8005859 0.5779547 0.2150339
0.8267703 0.5960645 0.2387904
0.8482346 0.6115400 0.2625207
0.8660424 0.6256793 0.2822629
0.0220684 0.2033610 0.0689733
0.0220684 0.2033610 0.0689733
0.0222191 0.2040945 0.0689519
0.0222191 0.2040945 0.0689519
0.0226617 0.2062326 0.0690226
0.0253545 0.2130313 0.0688556
0.0523277 0.2234420 0.0681850
0.0816627 0.2363108 0.0670031
0.1119332 0.2494760 0.0648607
0.1417864 0.2622581 0.0617491
0.1747410 0.2773802 0.0570329
0.2125645 0.2933406 0.0502710
0.2580407 0.3119000 0.0503057
0.3017594 0.3314235 0.0559092
0.3406028 0.3476846 0.0605764
0.3779456 0.3659005 0.0692618
0.4138423 0.3820714 0.0795646
0.4508134 0.4001185 0.0901759
0.4857939 0.4163740 0.1002158
0.5205321 0.4346023 0.1101862
0.5515561 0.4511886 0.1190905
0.5808917 0.4663214 0.1275103
0.6121584 0.4849208 0.1364843
0.6397500 0.5012586 0.1444035
0.6711538 0.5190540 0.1534168
0.6988696 0.5353960 0.1613717
0.7275308 0.5522989 0.1695978
0.7564554 0.5675350 0.1778996
0.7835053 0.5842578 0.1950237
0.8097382 0.6005605 0.2152051
0.8327342 0.6168675 0.2398599
0.8543867 0.6325470 0.2617567
0.8717105 0.6452057 0.2819603
0.0263557 0.2231976 0.0703784
0.0263557 0.2231976 0.0703784
0.0263557 0.2231976 0.0703784
0.0263557 0.2231976 0.0703784
0.0265377 0.2239966 0.0703377
0.0283488 0.2317775 0.0699291
0.0552855 0.2433571 0.0685034
0.0858445 0.2557420 0.0661698
0.1169140 0.2683779 0.0630023
0.1486325 0.2830401 0.0586459
0.1847926 0.2986422 0.0528116
0.2238986 0.3157335 0.0514060
0.2697543 0.3353998 0.0570505
0.3122637 0.3542259 0.0624539
0.3519980 0.3726830 0.0677513
0.3881208 0.3893991 0.0725491
0.4272892 0.4083330 0.0834241
0.4631261 0.4254120 0.0937098
0.4967401 0.4424423 0.1033575
0.5294333 0.4596914 0.1127409
0.5628469 0.4760497 0.1223312
0.5930948 0.4931624 0.1310128
0.6221446 0.5102807 0.1393505
0.6497073 0.5258183 0.1472614
0.6791279 0.5430534 0.1557055
0.7094011 0.5593050 0.1643943
0.7384881 0.5765932 0.1727428
0.7677208 0.5925635 0.1857308
0.7948076 0.6094949 0.2059535
0.8179522 0.6238570 0.2270016
0.8408519 0.6373938 0.2428986
0.8623694 0.6531696 0.2628600
0.8794896 0.6658329 0.2812016
0.0309464 0.2424471 0.0704851
0.0309464 0.2424471 0.0704851
0.0309464 0.2424471 0.0704851
0.0309464 0.2424471 0.0704851
0.0309464 0.2424471 0.0704851
0.0326822 0.2492882 0.0695393
0.0593757 0.2614191 0.0672241
0.0918005 0.2735399 0.0642836
0.1236068 0.2868635 0.0607671
0.1561271 0.3023563 0.0561797
0.1935666 0.3191249 0.0523794
0.2336068 0.3371280 0.0575465
0.2793453 0.3573622 0.0633540
0.3219765 0.3761349 0.0687421
0.3605768 0.3938603 0.0738295
0.3978445 0.4128529 0.0792807
0.4358158 0.4311202 0.0858713
0.4724622 0.4491108 0.0963894
0.5088140 0.4677095 0.1068229
0.5418435 0.4841813 0.1163029
0.5712306 0.5001698 0.1247374
0.6018170 0.5182161 0.1335162
0.6311191 0.5339766 0.1419263
0.6621693 0.5524881 0.1508381
0.6891469 0.5677406 0.1585811
0.7199938 0.5842698 0.1674346
0.7489938 0.6001898 0.1765959
0.7762085 0.6176055 0.1968511
0.8024063 0.6309428 0.2156460
0.8256431 0.6456591 0.2364225
0.8493348 0.6615954 0.2519432
0.8701500 0.6753965 0.2701201
0.8851346 0.6869194 0.2825690
0.0361066 0.2621880 0.0692029
0.0361066 0.2621880 0.0692029
0.0361066 0.2621880 0.0692029
0.0361066 0.2621880 0.0692029
0.0361066 0.2621880 0.0692029
0.0369268 0.2651705 0.0685991
0.0647186 0.2788140 0.0661991
0.0966414 0.2913798 0.0634319
0.1301050 0.3057018 0.0601887
0.1637090 0.3221661 0.0558690
0.2024258 0.3387277 0.0580056
0.2450179 0.3582194 0.0636000
0.2899096 0.3778860 0.0692447
0.3310822 0.3981605 0.0750637
0.3706589 0.4166475 0.0803698
0.4088672 0.4353493 0.0857375
0.4459566 0.4540746 0.0911119
0.4830542 0.4719453 0.0994295
0.5179433 0.4908481 0.1094431
0.5495649 0.5091026 0.1185190
0.5813337 0.5247152 0.1276371
0.6126658 0.5429723 0.1366299
0.6425964 0.5594160 0.1452204
0.6712812 0.5758855 0.1534534
0.7015101 0.5923455 0.1621295
0.7301158 0.6085805 0.1720936
0.7595459 0.6248234 0.1899684
0.7865265 0.6408710 0.2108007
0.8131924 0.6564377 0.2291268
0.8366605 0.6708186 0.2451339
0.8590323 0.6833552 0.2635633
0.8774164 0.6957594 0.2755275
0.8945583 0.7106423 0.2919687
0.0416629 0.2817872 0.0695448
0.0416629 0.2817872 0.0695448
0.0416629 0.2817872 0.0695448
0.0416629 0.2817872 0.0695448
0.0416629 0.2817872 0.0695448
0.0417400 0.2820558 0.0694476
0.0675053 0.2950307 0.0673941
0.1029407 0.3088171 0.0647529
0.1349955 0.3244750 0.0620732
0.1700664 0.3397484 0.0591856
0.2096942 0.3582456 0.0636076
0.2523441 0.3786242 0.0694565
0.2996524 0.3996472 0.0754904
0.3396821 0.4185570 0.0809178
0.3799680 0.4385397 0.0866532
0.4175881 0.4592247 0.0925901
0.4554154 0.4776861 0.0978888
0.4934767 0.4963462 0.1032445
0.5265983 0.5137485 0.1119273
0.5588537 0.5322197 0.1211850
0.5890861 0.5495455 0.1298622
0.6206405 0.5665129 0.1389187
0.6511082 0.5835369 0.1476634
0.6804060 0.6001813 0.1560724
0.7083837 0.6162713 0.1679913
0.7401934 0.6339313 0.1878349
0.7669945 0.6499590 0.2063817
0.7939326 0.6637006 0.2228232
0.8206503 0.6794864 0.2407236
0.8437541 0.6917244 0.2547241
0.8670022 0.7085579 0.2724834
0.8849689 0.7191790 0.2850367
0.9012910 0.7318047 0.2999575
0.0477707 0.3030676 0.0719527
0.0477707 0.3030676 0.0719527
0.0477707 0.3030676 0.0719527
0.0477707 0.3030676 0.0719527
0.0477707 0.3030676 0.0719527
0.0477707 0.3030676 0.0719527
0.0723303 0.3131874 0.0707212
0.1065553 0.3273768 0.0694374
0.1396890 0.3417125 0.0687094
0.1759230 0.3587654 0.0660787
0.2184006 0.3786367 0.0694601
0.2628941 0.3990904 0.0753306
0.3071409 0.4210191 0.0816245
0.3492410 0.4416962 0.0875591
0.3870698 0.4615192 0.0932486
0.4255480 0.4818340 0.0990793
0.4647815 0.5025270 0.1050185
0.4993737 0.5205980 0.1102051
0.5354550 0.5391986 0.1155438
0.5701391 0.5578426 0.1244241
0.6012259 0.5751107 0.1333465
0.6283893 0.5912870 0.1411428
0.6591593 0.6066508 0.1524401
0.6890221 0.6235672 0.1686582
0.7171943 0.6406229 0.1890766
0.7491768 0.6560248 0.2046584
0.7764179 0.6719929 0.2206775
0.8042073 0.6879608 0.2362313
0.8274755 0.7008415 0.2525632
0.8540419 0.7160441 0.2658549
0.8733156 0.7275376 0.2804416
0.8917944 0.7406372 0.2950906
0.9072511 0.7506633 0.3084905
0.0558610 0.3243777 0.0787415
0.0558610 0.3243777 0.0787415
0.0558610 0.3243777 0.0787415
0.0558610 0.3243777 0.0787415
0.0570265 0.3257469 0.0784419
0.0570265 0.3257469 0.0784419
0.0715233 0.3315180 0.0791926
0.1071436 0.3461307 0.0784321
0.1432593 0.3625726 0.0776644
0.1829761 0.3799925 0.0763898
0.2248095 0.4001811 0.0756437
0.2710618 0.4217316 0.0818290
0.3154270 0.4447028 0.0884221
0.3546902 0.4652704 0.0943253
0.3937502 0.4859697 0.1002663
0.4333736 0.5055410 0.1058835
0.4711425 0.5250466 0.1114819
0.5092205 0.5458775 0.1174607
0.5437691 0.5641726 0.1227116
0.5769875 0.5820478 0.1278421
0.6080138 0.5983238 0.1426012
0.6382441 0.6155987 0.1576483
0.6703094 0.6326832 0.1687098
0.6974449 0.6476306 0.1872928
0.7292628 0.6651064 0.2024525
0.7585629 0.6804582 0.2209426
0.7857676 0.6942965 0.2346075
0.8135421 0.7104098 0.2500296
0.8370942 0.7229217 0.2641179
0.8606713 0.7372495 0.2779084
0.8796078 0.7486109 0.2927732
0.8975955 0.7590378 0.3036090
0.9128456 0.7694797 0.3196225
0.0661398 0.3490388 0.0892626
0.0661398 0.3490388 0.0892626
0.0661398 0.3490388 0.0892626
0.0661398 0.3490388 0.0892626
0.0661398 0.3490388 0.0892626
0.0661398 0.3490388 0.0892626
0.0726647 0.3501434 0.0888269
0.1090507 0.3654079 0.0891973
0.1468416 0.3829163 0.0899995
0.1876757 0.4025757 0.0903624
0.2325389 0.4230911 0.0903183
0.2783649 0.4447373 0.0902403
0.3194572 0.4657586 0.0944654
0.3614486 0.4877316 0.1007719
0.4019520 0.5090920 0.1069027
0.4408865 0.5286021 0.1125024
0.4796458 0.5489075 0.1183304
0.5161321 0.5676460 0.1260385
0.5537536 0.5870689 0.1364812
0.5850948 0.6046341 0.1485168
0.6173134 0.6223686 0.1609022
0.6452392 0.6372921 0.1756486
0.6770131 0.6537730 0.1932077
0.7082202 0.6710001 0.2060383
0.7371436 0.6859074 0.2221095
0.7644079 0.7015322 0.2354297
0.7949045 0.7161396 0.2485452
0.8192351 0.7290900 0.2625415
0.8458296 0.7425055 0.2761607
0.8662182 0.7538251 0.2886185
0.8849297 0.7647610 0.3015931
0.9045968 0.7759705 0.3147873
0.9178518 0.7856655 0.3290527
0.0739374 0.3718219 0.1037916
0.0739374 0.3718219 0.1037916
0.0739374 0.3718219 0.1037916
0.0739374 0.3718219 0.1037916
0.0739374 0.3718219 0.1037916
0.0739374 0.3718219 0.1037916
