data/spectral_luts/ektachrome_100d_radiance_iii.cube
TITLE "ektachrome_100d_radiance_iii"
LUT_3D_SIZE 9
0.0461947 0.0638736 0.0619166
0.0458822 0.0638122 0.0619074
0.0639798 0.0673925 0.0623890
0.1465796 0.0828469 0.0629878
0.2730806 0.1000508 0.0577890
0.3878272 0.1151055 0.0720979
0.5057040 0.1575200 0.1059303
0.6462610 0.2589597 0.1786669
0.7648082 0.3667674 0.2644337
0.0461947 0.0638736 0.0619166
0.0458216 0.0638003 0.0619056
0.0651654 0.0676277 0.0624167
0.1490703 0.0833750 0.0629258
0.2775638 0.1048757 0.0578614
0.3982718 0.1332538 0.0750957
0.5271803 0.1987051 0.1120943
0.6660135 0.3049418 0.1826528
0.7795307 0.3992657 0.2688389
0.0458141 0.0674497 0.0624065
0.0455801 0.0682625 0.0625159
0.0733316 0.0794236 0.0637538
0.1652596 0.1097754 0.0636072
0.3055165 0.1570359 0.0564603
0.4466822 0.2255462 0.0889902
0.5792034 0.3050505 0.1270257
0.7068716 0.3895569 0.1870756
0.8067744 0.4673438 0.2748872
0.0327672 0.1260643 0.0682531
0.0357043 0.1320989 0.0684587
0.0913920 0.1647532 0.0674666
0.2125215 0.2182924 0.0578723
0.3653756 0.2810484 0.0656540
0.5000544 0.3401904 0.1043088
0.6234616 0.4074968 0.1397285
0.7459404 0.4864390 0.1913628
0.8412129 0.5567817 0.2796995
0.0220684 0.2033610 0.0689733
0.0226617 0.2062326 0.0690226
0.1119332 0.2494760 0.0648607
0.2580407 0.3119000 0.0503057
0.4138423 0.3820714 0.0795646
0.5515561 0.4511886 0.1190905
0.6711538 0.5190540 0.1534168
0.7835053 0.5842578 0.1950237
0.8717105 0.6452057 0.2819603
0.0416629 0.2817872 0.0695448
0.0416629 0.2817872 0.0695448
0.1349955 0.3244750 0.0620732
0.2996524 0.3996472 0.0754904
0.4554154 0.4776861 0.0978888
0.5890861 0.5495455 0.1298622
0.7083837 0.6162713 0.1679913
0.8206503 0.6794864 0.2407236
0.9012910 0.7318047 0.2999575
0.0739374 0.3718219 0.1037916
0.0739374 0.3718219 0.1037916
0.1478234 0.4033259 0.1063187
0.3261754 0.4879223 0.1159539
0.4856440 0.5707201 0.1403997
0.6257617 0.6433331 0.1813968
0.7451591 0.7054207 0.2366086
0.8510758 0.7587198 0.2869308
0.9224745 0.8007180 0.3388830
0.1155692 0.4701108 0.1863057
0.1155692 0.4701108 0.1863057
0.1462018 0.4813132 0.1905915
0.3410856 0.5645333 0.2042246
0.5115251 0.6449626 0.2304441
0.6457979 0.7080211 0.2627067
0.7693564 0.7621313 0.2976920
0.8701690 0.8074746 0.3372180
0.9361820 0.8414585 0.3855862
0.1928011 0.5570351 0.2721962
0.1928011 0.5570351 0.2721962
0.1928011 0.5570351 0.2721962
0.3546100 0.6209632 0.2863188
0.5274671 0.6945171 0.3062937
0.6644650 0.7505923 0.3278724
0.7839465 0.7978690 0.3559128
0.8841110 0.8392848 0.3941375
0.9420043 0.8672480 0.4372466
0.0462184 0.0638502 0.0617788
0.0458646 0.0637527 0.0616307
0.0767480 0.0698180 0.0621107
0.1699636 0.0870300 0.0649927
0.2970189 0.1037981 0.0665800
0.4102057 0.1207396 0.0931544
0.5242070 0.1672993 0.1592855
0.6599985 0.2680612 0.2360739
0.7745426 0.3746653 0.3036776
0.0462338 0.0638349 0.0616892
0.0459320 0.0637477 0.0615427
0.0781958 0.0700308 0.0620488
0.1732323 0.0883213 0.0657958
0.3019452 0.1094214 0.0693501
0.4223856 0.1434054 0.1007896
0.5472378 0.2140973 0.1673654
0.6828883 0.3173923 0.2412134
0.7875509 0.4088298 0.3088922
0.0456599 0.0677373 0.0620141
0.0459189 0.0692242 0.0621140
0.0863968 0.0839492 0.0647576
0.1896907 0.1175983 0.0677057
0.3329475 0.1711587 0.0739418
0.4722481 0.2437253 0.1102294
0.5960734 0.3239706 0.1796618
0.7202809 0.4028949 0.2532833
0.8138868 0.4768457 0.3168709
0.0328831 0.1286865 0.0678605
0.0378104 0.1358110 0.0682603
0.1013798 0.1713755 0.0704594
0.2304734 0.2280201 0.0635818
0.3842400 0.2940996 0.0710683
0.5210181 0.3618208 0.1104243
0.6417813 0.4305976 0.1860814
0.7587004 0.5024402 0.2621007
0.8471786 0.5679407 0.3265130
0.0222749 0.2043653 0.0695603
0.0228028 0.2069090 0.0699497
0.1148642 0.2505333 0.0654666
0.2641549 0.3159948 0.0514810
0.4219358 0.3915887 0.0818876
0.5602329 0.4648533 0.1215809
0.6791819 0.5341609 0.1854162
0.7950821 0.5998420 0.2659779
0.8786383 0.6564379 0.3324625
0.0412864 0.2804756 0.0693702
0.0415563 0.2814158 0.0692462
0.1366562 0.3237909 0.0621207
0.2996524 0.3996472 0.0754904
0.4551496 0.4762297 0.0974707
0.5914884 0.5501893 0.1305517
0.7101214 0.6169369 0.1801528
0.8223649 0.6838851 0.2645901
0.9040176 0.7378652 0.3329475
0.0739374 0.3718219 0.1037916
0.0739374 0.3718219 0.1037916
0.1499245 0.4038326 0.1061046
0.3281505 0.4900118 0.1152181
0.4880004 0.5714087 0.1399403
0.6257617 0.6433331 0.1813968
0.7451591 0.7054207 0.2366086
0.8510758 0.7587198 0.2869308
0.9224745 0.8007180 0.3388830
0.1155692 0.4701108 0.1863057
0.1155692 0.4701108 0.1863057
0.1512652 0.4812291 0.1873510
0.3433452 0.5651774 0.2040087
0.5115251 0.6449626 0.2304441
0.6484080 0.7091808 0.2644792
0.7693564 0.7621313 0.2976920
0.8701690 0.8074746 0.3372180
0.9361820 0.8414585 0.3855862
0.1928011 0.5570351 0.2721962
0.1928011 0.5570351 0.2721962
0.1928011 0.5570351 0.2721962
0.3571509 0.6216542 0.2861731
0.5274671 0.6945171 0.3062937
0.6644650 0.7505923 0.3278724
0.7839465 0.7978690 0.3559128
0.8841110 0.8392848 0.3941375
0.9420043 0.8672480 0.4372466
0.0423671 0.0668896 0.0814588
0.0454273 0.0683005 0.0864755
0.0976495 0.0798230 0.1013891
0.2054840 0.0993727 0.1274385
0.3297712 0.1164526 0.1679946
0.4407769 0.1315549 0.2139468
0.5539213 0.1799654 0.2682990
0.6836395 0.2855413 0.3256903
0.7883307 0.3902573 0.3841565
0.0415208 0.0675884 0.0862975
0.0450142 0.0692066 0.0926775
0.0980580 0.0811085 0.1118261
0.2082796 0.1027526 0.1426956
0.3367082 0.1235425 0.1832363
0.4568721 0.1618643 0.2303598
0.5796161 0.2375308 0.2828897
0.7052976 0.3353587 0.3350728
0.8024581 0.4243513 0.3895060
0.0366295 0.0777200 0.1066265
0.0430535 0.0826055 0.1147445
0.1050981 0.1057401 0.1398159
0.2270499 0.1442356 0.1728628
0.3718567 0.2067541 0.2130038
0.5057413 0.2781969 0.2593234
0.6259326 0.3504808 0.3027167
0.7419111 0.4244960 0.3523290
0.8278039 0.4938272 0.4036894
0.0136854 0.1567208 0.1389274
0.0154895 0.1679316 0.1478658
0.1078562 0.2127772 0.1733832
0.2632323 0.2767963 0.2058094
0.4169248 0.3415831 0.2421234
0.5506454 0.4027103 0.2820225
0.6707537 0.4634276 0.3211719
0.7788273 0.5256315 0.3666475
0.8599070 0.5860525 0.4174895
0.0310545 0.2428797 0.1654813
0.0329890 0.2504751 0.1703424
0.1027240 0.3034044 0.1943451
0.2865655 0.3757869 0.2242736
0.4488571 0.4497376 0.2588053
0.5871077 0.5138587 0.2959451
0.7065380 0.5720792 0.3355227
0.8145736 0.6289674 0.3788796
0.8886250 0.6790026 0.4298970
0.0543936 0.3261428 0.1862437
0.0544783 0.3264381 0.1874674
0.1042306 0.3779390 0.2066115
0.3061376 0.4581255 0.2344143
0.4736215 0.5353336 0.2677389
0.6119917 0.5983982 0.3025600
0.7338068 0.6589940 0.3408648
0.8431021 0.7153410 0.3855812
0.9116887 0.7610222 0.4390075
0.0770606 0.4051179 0.2002308
0.0771537 0.4054421 0.2015634
0.1201449 0.4428034 0.2139730
0.3233771 0.5274348 0.2394083
0.4958198 0.6063882 0.2696334
0.6360874 0.6747617 0.3057283
0.7589586 0.7308931 0.3431529
0.8660219 0.7844527 0.3896430
0.9283830 0.8215630 0.4431980
0.1032202 0.4753583 0.2055206
0.1005464 0.4760679 0.2084953
0.1488809 0.4927584 0.2156131
0.3433513 0.5771518 0.2403371
0.5132952 0.6569358 0.2718513
0.6528700 0.7203866 0.3044776
0.7752087 0.7741654 0.3450036
0.8784151 0.8207577 0.3910548
0.9384383 0.8536947 0.4460907
0.1903535 0.5559376 0.2705389
0.1903535 0.5559376 0.2705389
0.1928011 0.5570351 0.2721962
0.3616274 0.6247825 0.2875808
0.5301368 0.6940321 0.3061931
0.6673020 0.7502702 0.3277327
0.7839465 0.7978690 0.3559128
0.8841110 0.8392848 0.3941375
0.9432868 0.8693570 0.4475043
0.0301552 0.0770563 0.1885681
0.0478525 0.0799702 0.1992642
0.1208363 0.0914693 0.2237881
0.2411494 0.1080055 0.2563908
0.3631009 0.1211229 0.2905340
0.4712640 0.1365899 0.3289787
0.5856193 0.1930764 0.3773462
0.7115908 0.3064502 0.4315439
0.8040617 0.4070631 0.4798128
0.0294126 0.0772491 0.1964201
0.0468604 0.0800684 0.2084685
0.1222353 0.0929253 0.2360791
0.2435545 0.1120259 0.2696331
0.3685015 0.1312217 0.3071193
0.4866168 0.1733051 0.3477854
0.6129760 0.2611341 0.3959441
0.7318777 0.3567668 0.4443562
0.8155156 0.4411573 0.4890116
0.0294875 0.0945386 0.2365220
0.0420748 0.1027381 0.2492042
0.1277096 0.1265880 0.2751136
0.2641237 0.1704108 0.3106242
0.4054489 0.2345259 0.3492163
0.5377344 0.3055211 0.3877041
0.6563995 0.3772782 0.4265685
0.7639331 0.4469805 0.4663335
0.8394791 0.5120690 0.5051360
0.0432529 0.1956528 0.2873271
0.0468091 0.2133434 0.2997173
0.1128877 0.2556471 0.3263033
0.2905928 0.3165979 0.3572765
0.4462651 0.3773037 0.3899076
0.5770687 0.4336179 0.4203199
0.6959190 0.4922467 0.4556643
0.8014500 0.5512780 0.4903161
0.8715790 0.6082815 0.5264704
0.0546255 0.2920408 0.3269507
0.0569964 0.3057074 0.3352114
0.0891158 0.3554977 0.3600840
0.3041328 0.4255770 0.3882215
0.4727975 0.4923778 0.4182441
0.6112325 0.5516131 0.4481074
0.7296801 0.6053806 0.4787746
0.8324782 0.6567500 0.5082812
0.8978477 0.7006340 0.5442701
0.0707467 0.3831193 0.3592023
0.0709239 0.3837367 0.3608113
0.0862850 0.4372571 0.3816672
0.3143549 0.5108543 0.4099965
0.4947487 0.5815850 0.4372620
0.6345504 0.6421021 0.4623354
0.7581966 0.6962057 0.4925801
0.8586063 0.7466928 0.5218843
0.9178981 0.7844710 0.5558021
0.0949273 0.4673679 0.3837103
0.0950198 0.4676903 0.3854123
0.1072015 0.5101329 0.3989531
0.3306238 0.5856347 0.4241337
0.5119876 0.6590858 0.4482929
0.6537778 0.7200122 0.4749177
0.7791664 0.7721926 0.5025029
0.8784351 0.8155413 0.5343464
0.9343222 0.8463337 0.5663052
0.1164520 0.5423632 0.4018363
0.1164520 0.5423632 0.4018363
0.1223504 0.5629141 0.4099012
0.3446860 0.6376377 0.4321960
0.5281917 0.7097072 0.4554872
0.6692078 0.7656978 0.4818011
0.7941338 0.8138988 0.5093737
0.8896140 0.8518867 0.5390353
0.9411585 0.8759580 0.5687605
0.1553809 0.6022667 0.4135818
0.1553809 0.6022667 0.4135818
0.1540089 0.6026409 0.4155116
0.3640940 0.6714619 0.4369783
0.5419062 0.7377751 0.4598617
0.6834232 0.7901778 0.4836954
0.8033028 0.8347296 0.5114040
0.8975200 0.8705413 0.5412149
0.9468334 0.8934368 0.5738602
0.0528023 0.0800653 0.2946305
0.0880320 0.0845971 0.3071915
0.1615065 0.0951583 0.3307505
0.2809942 0.1095637 0.3633033
0.3968758 0.1221700 0.3967103
0.5044353 0.1492951 0.4319742
0.6165435 0.2108877 0.4759215
0.7376612 0.3272971 0.5289405
0.8182892 0.4248349 0.5747705
0.0508962 0.0797742 0.2943817
0.0860530 0.0844083 0.3055825
0.1594863 0.0951674 0.3305748
0.2801021 0.1103453 0.3666314
0.4022722 0.1344174 0.4059255
0.5176428 0.1835797 0.4505717
0.6421998 0.2805910 0.4978278
0.7537420 0.3760532 0.5436025
0.8311431 0.4610014 0.5857928
0.0590542 0.1085110 0.3423810
0.0841403 0.1186608 0.3544735
0.1689836 0.1426381 0.3814500
0.3028547 0.1932475 0.4211218
0.4393221 0.2582117 0.4605613
0.5658514 0.3277413 0.4980906
0.6823855 0.3965928 0.5340450
0.7854255 0.4663585 0.5695055
0.8535556 0.5322420 0.6050688
0.0773250 0.2330934 0.4060391
0.0815893 0.2512423 0.4208966
0.1584593 0.2919677 0.4480267
0.3233426 0.3473906 0.4794921
0.4765987 0.4039483 0.5109315
0.6050525 0.4603037 0.5384716
0.7203931 0.5154130 0.5672538
0.8182893 0.5733289 0.5963520
0.8810170 0.6275796 0.6285067
0.0905439 0.3318825 0.4520957
0.0941551 0.3520028 0.4646775
0.1360747 0.3999022 0.4893368
0.3353952 0.4616657 0.5192345
0.5013774 0.5259179 0.5453002
0.6347161 0.5792170 0.5687155
0.7556224 0.6328050 0.5965595
0.8491914 0.6799150 0.6220862
0.9048671 0.7208197 0.6482696
0.1013995 0.4252009 0.4899180
0.1030921 0.4351003 0.4958152
0.1208787 0.4866388 0.5173197
0.3430057 0.5526499 0.5435960
0.5193492 0.6183391 0.5680205
0.6565549 0.6729671 0.5905010
0.7766082 0.7244257 0.6153207
0.8708829 0.7703446 0.6405973
0.9244173 0.8073602 0.6668976
0.1103024 0.5149476 0.5209368
0.1109052 0.5152709 0.5230372
0.1222300 0.5624945 0.5381486
0.3531540 0.6322638 0.5653464
0.5348204 0.6985418 0.5861700
0.6747337 0.7540405 0.6080447
0.7989546 0.8033196 0.6297202
0.8886614 0.8415153 0.6546859
0.9374558 0.8671041 0.6780193
0.1304243 0.5910445 0.5437707
0.1305248 0.5913946 0.5459543
0.1377508 0.6165712 0.5530617
0.3649500 0.6841002 0.5768451
0.5470127 0.7478859 0.5991349
0.6864763 0.7993422 0.6180264
0.8092132 0.8423423 0.6393719
0.8979293 0.8758076 0.6615103
0.9431928 0.8971635 0.6879610
0.1470155 0.6488506 0.5608283
0.1470155 0.6488506 0.5608283
0.1510882 0.6532735 0.5634663
0.3831129 0.7163385 0.5839710
0.5610701 0.7760268 0.6031281
0.7004727 0.8241343 0.6242249
0.8177770 0.8640268 0.6427703
0.9047037 0.8946352 0.6678227
0.9483087 0.9128194 0.6914050
0.1141245 0.0816859 0.4000385
0.1442061 0.0860104 0.4117715
0.2212663 0.0996562 0.4342333
0.3271915 0.1199482 0.4668474
0.4439502 0.1506953 0.5006101
0.5511634 0.1967802 0.5350094
0.6614372 0.2723951 0.5732396
0.7599674 0.3468380 0.6102727
0.8312976 0.4408675 0.6516681
0.1127098 0.0812990 0.3997633
0.1423177 0.0859155 0.4097589
0.2199572 0.0991423 0.4339931
0.3256693 0.1192327 0.4665931
0.4421637 0.1505722 0.5004670
0.5512595 0.2044223 0.5383030
0.6735683 0.3040218 0.5850607
0.7751864 0.3963968 0.6244516
0.8412854 0.4750153 0.6611658
0.1066481 0.1235496 0.4389524
0.1403214 0.1344097 0.4524636
0.2276969 0.1667574 0.4793121
0.3472008 0.2203149 0.5167117
0.4777364 0.2825260 0.5537207
0.5964997 0.3505190 0.5892277
0.7107409 0.4179485 0.6233253
0.8043196 0.4845186 0.6537690
0.8622960 0.5472363 0.6831242
0.1081083 0.2710959 0.5132923
0.1109751 0.2867793 0.5232808
0.2258747 0.3254705 0.5492859
0.3683509 0.3756966 0.5792484
0.5112105 0.4297320 0.6082897
0.6305959 0.4811122 0.6351782
0.7465063 0.5370900 0.6591921
0.8347607 0.5923223 0.6849079
0.8882490 0.6433704 0.7098957
0.1218243 0.3764335 0.5610811
0.1253287 0.3957301 0.5732908
0.2121083 0.4402148 0.5963996
0.3785457 0.4957583 0.6229997
0.5324078 0.5524582 0.6482769
0.6591681 0.6041952 0.6714637
0.7737395 0.6543067 0.6937265
0.8630421 0.7005229 0.7151150
0.9105111 0.7376157 0.7357526
0.1323842 0.4661011 0.5978733
0.1350681 0.4858882 0.6072240
0.1970530 0.5306368 0.6286971
0.3881082 0.5902754 0.6544298
0.5467832 0.6497511 0.6786906
0.6800632 0.7006588 0.6981349
0.7963608 0.7501773 0.7166317
0.8827148 0.7914554 0.7371025
0.9283813 0.8231691 0.7541224
0.1420778 0.5571727 0.6316471
0.1430230 0.5617657 0.6349403
0.1887319 0.6091961 0.6532460
0.3950390 0.6715230 0.6779425
0.5614666 0.7311684 0.7011229
0.6973355 0.7820854 0.7196757
0.8140872 0.8257806 0.7340705
0.8965443 0.8586391 0.7537268
0.9398534 0.8827176 0.7671027
0.1498482 0.6326032 0.6587201
0.1498482 0.6326032 0.6587201
0.1932075 0.6628171 0.6709833
0.4054572 0.7227353 0.6919065
0.5743164 0.7805941 0.7113981
0.7121774 0.8281417 0.7320015
0.8266930 0.8654169 0.7457026
0.9050421 0.8944093 0.7619723
0.9448016 0.9126739 0.7782283
0.1613036 0.6873167 0.6767246
0.1613036 0.6873167 0.6767246
0.2166169 0.6993324 0.6836054
0.4208747 0.7554727 0.7036569
0.5849257 0.8067564 0.7222230
0.7230973 0.8518190 0.7366173
0.8345060 0.8869370 0.7530786
0.9108298 0.9128429 0.7691922
0.9492134 0.9275073 0.7821863
0.1829623 0.1156873 0.4945167
0.2152972 0.1232768 0.5039654
0.2878466 0.1408764 0.5255449
0.3856702 0.1742658 0.5556477
0.4952271 0.2271820 0.5885406
0.5998316 0.2834673 0.6202073
0.7068239 0.3468545 0.6518521
0.7903844 0.4074921 0.6813436
0.8434261 0.4645679 0.7092235
0.1806949 0.1140946 0.4938796
0.2139882 0.1224684 0.5036432
0.2851989 0.1405321 0.5252216
0.3837921 0.1727585 0.5552272
0.4952271 0.2271820 0.5885406
0.5994381 0.2818821 0.6199420
0.7068239 0.3468545 0.6518521
0.7922762 0.4140451 0.6849613
0.8516783 0.4898208 0.7180904
0.1761118 0.1513904 0.5148026
0.2118506 0.1644401 0.5256056
0.2896717 0.1984432 0.5506979
0.3963906 0.2481306 0.5862917
0.5157314 0.3070352 0.6201349
0.6256557 0.3706481 0.6525416
0.7328076 0.4359516 0.6836918
0.8173588 0.5004271 0.7132210
0.8718563 0.5625381 0.7384648
0.1407305 0.3100367 0.5912400
0.1955832 0.3240591 0.6013781
0.2959794 0.3558852 0.6220236
0.4189229 0.4010846 0.6503152
0.5439091 0.4512519 0.6756147
0.6588451 0.5011871 0.6991380
0.7673288 0.5553392 0.7248096
0.8458589 0.6057938 0.7460068
0.8945757 0.6564590 0.7662897
0.1454178 0.4229361 0.6432841
0.1704481 0.4402553 0.6533884
0.2915049 0.4752121 0.6705293
0.4314024 0.5254201 0.6952728
0.5654564 0.5745826 0.7186587
0.6872339 0.6252583 0.7380143
0.7958937 0.6705636 0.7586051
0.8726808 0.7120934 0.7746354
0.9153215 0.7503006 0.7897266
0.1558353 0.5138494 0.6795802
0.1585814 0.5323138 0.6891478
0.2854620 0.5694069 0.7053443
0.4396738 0.6205319 0.7288519
0.5809090 0.6739531 0.7486324
0.7048330 0.7204305 0.7664228
0.8147497 0.7660566 0.7825466
0.8911216 0.8045313 0.7974550
0.9315491 0.8346201 0.8114268
0.1647113 0.5963021 0.7105055
0.1663142 0.6103430 0.7160901
0.2811342 0.6500880 0.7343301
0.4470189 0.7029357 0.7541000
0.5937229 0.7548656 0.7725148
0.7220526 0.8011001 0.7886515
0.8318778 0.8423285 0.8007890
0.9039067 0.8734070 0.8145883
0.9423309 0.8934768 0.8244593
0.1720176 0.6667862 0.7359616
0.1720176 0.6667862 0.7359616
0.2917682 0.7047382 0.7505752
0.4592531 0.7562427 0.7693724
0.6072438 0.8048996 0.7861357
0.7338141 0.8458068 0.7984434
0.8444688 0.8814380 0.8126672
0.9115745 0.9065454 0.8227105
0.9467830 0.9214644 0.8351499
0.2294298 0.7187970 0.7550594
0.2294298 0.7187970 0.7550594
0.3081776 0.7373529 0.7606725
0.4738723 0.7844917 0.7781880
0.6190279 0.8300412 0.7942722
0.7445895 0.8685028 0.8061753
0.8513917 0.9022806 0.8198995
0.9171224 0.9234220 0.8296544
0.9510924 0.9362292 0.8390729
0.2676292 0.2034286 0.5840246
0.2970980 0.2148038 0.5936627
0.3599084 0.2378220 0.6104211
0.4511987 0.2719898 0.6353804
0.5502082 0.3166892 0.6613690
0.6500587 0.3659255 0.6868911
0.7458731 0.4173349 0.7140936
0.8179451 0.4664192 0.7340189
0.8630187 0.5153734 0.7549657
0.2647359 0.2015567 0.5833543
0.2941391 0.2114630 0.5926900
0.3581197 0.2361835 0.6099589
0.4492493 0.2717060 0.6352109
0.5502082 0.3166892 0.6613690
0.6474944 0.3655768 0.6867369
0.7458731 0.4173349 0.7140936
0.8179451 0.4664192 0.7340189
0.8630187 0.5153734 0.7549657
0.2603276 0.2008469 0.5828205
0.2896150 0.2109720 0.5898603
0.3546526 0.2342894 0.6093228
0.4502856 0.2794955 0.6367289
0.5535445 0.3342920 0.6671088
0.6560464 0.3925353 0.6965877
0.7553129 0.4557542 0.7253348
0.8321885 0.5161569 0.7517520
0.8788084 0.5746167 0.7735020
0.2561405 0.3481176 0.6506726
0.2898115 0.3600032 0.6597940
0.3665016 0.3890395 0.6767373
0.4746128 0.4281728 0.6986313
0.5814147 0.4712358 0.7227271
0.6885856 0.5206364 0.7439398
0.7882958 0.5720933 0.7635108
0.8590367 0.6197670 0.7813742
0.9009701 0.6699406 0.8011957
0.2389024 0.4673117 0.7040397
0.2829855 0.4806055 0.7104177
0.3702625 0.5105338 0.7262451
0.4871122 0.5517040 0.7466476
0.6052800 0.5973791 0.7637398
0.7139871 0.6419865 0.7822274
0.8163819 0.6859320 0.7967963
0.8825980 0.7256492 0.8097395
0.9201517 0.7585844 0.8215780
0.2198181 0.5612322 0.7406462
0.2700144 0.5738540 0.7462168
0.3743950 0.6068649 0.7612295
0.5000408 0.6491309 0.7775205
0.6198066 0.6937282 0.7931517
0.7355418 0.7380053 0.8074371
0.8374370 0.7816806 0.8207837
0.9000303 0.8147290 0.8325189
0.9360253 0.8433352 0.8428769
0.2097254 0.6400080 0.7673290
0.2693727 0.6562396 0.7731514
0.3765736 0.6886452 0.7872068
0.5084813 0.7332934 0.8024731
0.6347330 0.7762627 0.8165984
0.7499877 0.8167343 0.8296666
0.8504462 0.8548068 0.8390043
0.9143748 0.8816667 0.8486483
0.9448593 0.8992125 0.8550130
0.2239601 0.6984619 0.7874581
0.2736256 0.7107736 0.7922994
0.3881038 0.7412027 0.8026168
0.5174954 0.7816265 0.8165999
0.6464853 0.8232905 0.8300814
0.7618898 0.8613139 0.8421081
0.8590151 0.8921929 0.8496716
0.9194825 0.9138902 0.8562621
0.9501308 0.9269140 0.8648087
0.3070562 0.7460229 0.8027785
0.3070562 0.7460229 0.8027785
0.4041944 0.7720277 0.8121008
0.5332609 0.8107558 0.8255550
0.6556708 0.8476944 0.8382545
0.7732317 0.8829117 0.8465412
0.8688139 0.9121810 0.8563273
0.9241054 0.9301544 0.8626056
0.9527134 0.9411407 0.8684416
0.3537097 0.3031061 0.6558600
0.3781026 0.3101136 0.6612759
0.4343688 0.3310697 0.6762445
0.5148919 0.3616471 0.6936856
0.6021073 0.3961532 0.7140047
0.6947359 0.4385413 0.7346891
0.7809613 0.4801220 0.7537805
0.8421704 0.5236245 0.7719534
0.8798129 0.5656360 0.7860358
0.3518924 0.3013863 0.6553888
0.3761928 0.3097810 0.6610985
0.4323044 0.3307169 0.6760678
0.5148919 0.3616471 0.6936856
0.6021073 0.3961532 0.7140047
0.6943882 0.4368803 0.7344273
0.7809613 0.4801220 0.7537805
0.8421704 0.5236245 0.7719534
0.8798129 0.5656360 0.7860358
0.3464513 0.2990349 0.6545654
0.3723750 0.3076986 0.6604488
0.4280740 0.3286518 0.6728816
0.5101467 0.3580042 0.6928147
0.5993599 0.3942162 0.7135776
0.6916683 0.4364625 0.7342759
0.7809613 0.4801220 0.7537805
0.8444926 0.5332554 0.7732524
0.8850681 0.5880494 0.7942365
0.3492074 0.3861669 0.6935424
0.3761543 0.3973394 0.6995694
0.4399667 0.4188632 0.7116030
0.5264936 0.4530860 0.7314115
0.6219869 0.4930254 0.7486668
0.7194095 0.5397349 0.7687048
0.8086743 0.5881190 0.7876350
0.8685349 0.6343312 0.8022570
0.9072581 0.6803928 0.8189617
0.3483131 0.5073848 0.7407905
0.3804147 0.5195381 0.7489983
0.4494730 0.5431843 0.7600852
0.5465024 0.5767305 0.7730214
0.6455208 0.6168975 0.7886398
0.7454078 0.6579065 0.8035238
0.8354205 0.6997107 0.8176790
0.8927001 0.7359031 0.8300502
0.9246032 0.7679514 0.8408222
0.3485541 0.6014792 0.7757957
0.3832549 0.6128665 0.7808197
0.4578657 0.6395361 0.7914038
0.5556082 0.6742916 0.8031282
0.6625123 0.7142640 0.8177099
0.7648518 0.7556608 0.8313472
0.8535461 0.7939554 0.8406850
0.9092467 0.8251740 0.8512526
0.9395392 0.8501374 0.8585588
0.3501924 0.6834196 0.8019146
0.3859755 0.6954166 0.8067382
0.4655392 0.7216650 0.8166477
0.5652351 0.7554622 0.8274244
0.6765542 0.7948300 0.8399875
0.7797219 0.8321498 0.8492030
0.8690346 0.8648581 0.8573665
0.9202015 0.8886407 0.8669998
0.9484395 0.9036195 0.8726000
0.3581957 0.7381192 0.8206952
0.3943713 0.7472119 0.8222429
0.4752286 0.7725829 0.8312734
0.5771099 0.8039281 0.8404900
0.6863306 0.8386036 0.8520769
0.7913585 0.8721436 0.8605522
0.8767915 0.9012944 0.8681541
0.9266711 0.9190390 0.8739113
0.9535956 0.9304768 0.8790419
0.3813694 0.7703593 0.8303574
0.4102813 0.7782341 0.8339396
0.4903483 0.8006389 0.8396302
0.5879701 0.8305724 0.8484159
0.6963791 0.8628987 0.8595488
0.8021794 0.8946313 0.8676708
0.8827916 0.9187466 0.8740200
0.9296749 0.9344024 0.8794427
0.9551201 0.9442736 0.8822736
