data/spectral_luts/ektar_100_endura_premier.cube
TITLE "ektar_100_endura_premier"
LUT_3D_SIZE 9
0.0369588 0.0602626 0.0714839
0.0382739 0.0604511 0.0715267
0.0588516 0.0633722 0.0722349
0.1542014 0.0755530 0.0730367
0.3262448 0.0870634 0.0663524
0.5064585 0.1061468 0.1061468
0.6294395 0.1414442 0.1414442
0.7202846 0.1675181 0.1675181
0.7793549 0.1844722 0.1844722
0.0367663 0.0610728 0.0716426
0.0381260 0.0613622 0.0717026
0.0598794 0.0649136 0.0725484
0.1610373 0.0786527 0.0733415
0.3314794 0.0921634 0.0664789
0.5135071 0.1081699 0.1081699
0.6373270 0.1437080 0.1437080
0.7249801 0.1688658 0.1688658
0.7843336 0.1859011 0.1859011
0.0319555 0.0780736 0.0746404
0.0337042 0.0789660 0.0747961
0.0607251 0.0841569 0.0756063
0.1678486 0.1022455 0.0760324
0.3572250 0.1253769 0.0668425
0.5387641 0.1416032 0.1154190
0.6626617 0.1565380 0.1509795
0.7594864 0.1891891 0.1787696
0.8209901 0.2358978 0.1964221
0.0117110 0.1434131 0.0816372
0.0124154 0.1483012 0.0819695
0.0449313 0.1551338 0.0821523
0.1933199 0.1880889 0.0790969
0.4003811 0.2298437 0.0757011
0.5935742 0.2640596 0.1311503
0.7245483 0.2941240 0.1687419
0.8142136 0.3348509 0.1944771
0.8722461 0.3797532 0.2111333
0.0347619 0.2572114 0.0818811
0.0351145 0.2585270 0.0818554
0.0405501 0.2779100 0.0794132
0.2110138 0.3253078 0.0643675
0.4502293 0.3804616 0.0900082
0.6540232 0.4252631 0.1485001
0.7800450 0.4641845 0.1846702
0.8699905 0.4963911 0.2104859
0.9187565 0.5359393 0.2244824
0.0663776 0.3678966 0.0698934
0.0678016 0.3728582 0.0687091
0.0735419 0.3928584 0.0735419
0.2226037 0.4521824 0.0905688
0.4830057 0.5150934 0.1086252
0.6939140 0.5598623 0.1599493
0.8248691 0.6024991 0.1975354
0.9041103 0.6309006 0.2202788
0.9512582 0.6625156 0.2338109
0.0895214 0.4485329 0.0895214
0.0902297 0.4510008 0.0902297
0.0983222 0.4791963 0.0983222
0.2427769 0.5412682 0.1161377
0.5163336 0.6062618 0.1347919
0.7191154 0.6599104 0.1671825
0.8495525 0.6980922 0.2046199
0.9288449 0.7328113 0.2273780
0.9679456 0.7574295 0.2386004
0.1094196 0.5178611 0.1094196
0.1094196 0.5178611 0.1094196
0.1203418 0.5559156 0.1203418
0.2762792 0.6195999 0.1386201
0.5475976 0.6863700 0.1577841
0.7328586 0.7356011 0.1719141
0.8649023 0.7736223 0.2090255
0.9353186 0.7983192 0.2292360
0.9780686 0.8203931 0.2415059
0.1290928 0.5864056 0.1469580
0.1290928 0.5864056 0.1469580
0.1390764 0.6211898 0.1412824
0.3040626 0.6838790 0.1570691
0.5655472 0.7452524 0.1746842
0.7509656 0.7924818 0.1882398
0.8727707 0.8232605 0.2112838
0.9423759 0.8479143 0.2312616
0.9790657 0.8668522 0.3083524
0.0368224 0.0604502 0.0725912
0.0386013 0.0607201 0.0727499
0.0621466 0.0641076 0.0737358
0.1647596 0.0770799 0.0753368
0.3437809 0.0881656 0.0701876
0.5173985 0.1092868 0.1092868
0.6363460 0.1434265 0.1434265
0.7237992 0.1685268 0.1685268
0.7826853 0.1854280 0.1854280
0.0364894 0.0617727 0.0729402
0.0384463 0.0622792 0.0731656
0.0631435 0.0663896 0.0743083
0.1677270 0.0809484 0.0762996
0.3497684 0.0949027 0.0710390
0.5219803 0.1106018 0.1106018
0.6447417 0.1458361 0.1458361
0.7322254 0.1709453 0.1709453
0.7877091 0.1868699 0.1868699
0.0309830 0.0807537 0.0763747
0.0332614 0.0820746 0.0768026
0.0640493 0.0885470 0.0783655
0.1800034 0.1089536 0.0804030
0.3666258 0.1327914 0.0743749
0.5559397 0.1497161 0.1203487
0.6767465 0.1651152 0.1550220
0.7656488 0.2021307 0.1805383
0.8259911 0.2494943 0.1978574
0.0133311 0.1544192 0.0846794
0.0134602 0.1552620 0.0851195
0.0454720 0.1666341 0.0863134
0.2037690 0.2023340 0.0846399
0.4112861 0.2444255 0.0788310
0.6043175 0.2778674 0.1342338
0.7319092 0.3106078 0.1708545
0.8200996 0.3511217 0.1961665
0.8758337 0.3951137 0.2121630
0.0390838 0.2728340 0.0851378
0.0396258 0.2747208 0.0855605
0.0437012 0.2888890 0.0847152
0.2217370 0.3385705 0.0713490
0.4554770 0.3922887 0.0915144
0.6600086 0.4420851 0.1502180
0.7852520 0.4794677 0.1861647
0.8739910 0.5143546 0.2116341
0.9199602 0.5480462 0.2248279
0.0681397 0.3740360 0.0743993
0.0689446 0.3768406 0.0741982
0.0763725 0.4027203 0.0763725
0.2244596 0.4565839 0.0918321
0.4964889 0.5220161 0.1106121
0.6945412 0.5706556 0.1601294
0.8238330 0.6068934 0.1972380
0.9045964 0.6381299 0.2204183
0.9511710 0.6679654 0.2337859
0.0895214 0.4485329 0.0895214
0.0904556 0.4517880 0.0904556
0.0993680 0.4828399 0.0993680
0.2417692 0.5419149 0.1163234
0.5260944 0.6083064 0.1353787
0.7191154 0.6599104 0.1671825
0.8494169 0.7021322 0.2045810
0.9284803 0.7340594 0.2272733
0.9675196 0.7588533 0.2384782
0.1094196 0.5178611 0.1094196
0.1094196 0.5178611 0.1094196
0.1208843 0.5578058 0.1208843
0.2762792 0.6195999 0.1386201
0.5475976 0.6863700 0.1577841
0.7328586 0.7356011 0.1719141
0.8643918 0.7749502 0.2088790
0.9416831 0.7993683 0.2310627
0.9775007 0.8219927 0.2413429
0.1290928 0.5864056 0.1469580
0.1290928 0.5864056 0.1469580
0.1390764 0.6211898 0.1412824
0.3040626 0.6838790 0.1570691
0.5762175 0.7474515 0.1753154
0.7509656 0.7924818 0.1882398
0.8727707 0.8232605 0.2112838
0.9423759 0.8479143 0.2312616
0.9790657 0.8668522 0.3083524
0.0340861 0.0633061 0.0929795
0.0370222 0.0639822 0.0946595
0.0679841 0.0686773 0.0984110
0.1813619 0.0830253 0.1060991
0.3629400 0.0939800 0.1085001
0.5340597 0.1140688 0.1166305
0.6541595 0.1485392 0.1485392
0.7328522 0.1711252 0.1785825
0.7901040 0.1875573 0.2260384
0.0324835 0.0671074 0.0976557
0.0357271 0.0676956 0.0978270
0.0687091 0.0736057 0.1026944
0.1892635 0.0904719 0.1106329
0.3705247 0.1056589 0.1181724
0.5436803 0.1168301 0.1297559
0.6612482 0.1505738 0.1526899
0.7437837 0.1742627 0.1855851
0.7983457 0.1899228 0.2312061
0.0206663 0.0938111 0.1096262
0.0255277 0.0937238 0.1088462
0.0647527 0.1031746 0.1150044
0.1950388 0.1247780 0.1247642
0.3968119 0.1511471 0.1304089
0.5666764 0.1679637 0.1439775
0.6929755 0.1996471 0.1730839
0.7818800 0.2325272 0.2082907
0.8336903 0.2754915 0.2549982
0.0179834 0.1822387 0.1280375
0.0183370 0.1841712 0.1308393
0.0212177 0.1984117 0.1347265
0.2165064 0.2332731 0.1429748
0.4294326 0.2767165 0.1532506
0.6211585 0.3112880 0.1655326
0.7436929 0.3477572 0.1932133
0.8342733 0.3905336 0.2227190
0.8799365 0.4215525 0.2699488
0.0489156 0.3070566 0.1441368
0.0501238 0.3112664 0.1492135
0.0566305 0.3339364 0.1523628
0.2206004 0.3763577 0.1595080
0.4675836 0.4300641 0.1606735
0.6718685 0.4828089 0.1754589
0.7959034 0.5176585 0.1998499
0.8778182 0.5521393 0.2441520
0.9229634 0.5799117 0.3000144
0.0799061 0.4150320 0.1602224
0.0814582 0.4204398 0.1644607
0.0879286 0.4429836 0.1672612
0.2071221 0.5028006 0.1708683
0.4996402 0.5714062 0.1723192
0.6929436 0.6114689 0.1824103
0.8304039 0.6495476 0.2071907
0.9067754 0.6732894 0.2519489
0.9485949 0.7020637 0.3156329
0.1029788 0.4954206 0.1894430
0.1043097 0.5000576 0.1888587
0.1136020 0.5324332 0.1897224
0.2144731 0.5933869 0.1927482
0.5244614 0.6610335 0.1860212
0.7202180 0.7047149 0.2013504
0.8432316 0.7384787 0.2240904
0.9230356 0.7645293 0.2750058
0.9626293 0.7882032 0.3449971
0.1209705 0.5581060 0.2150831
0.1217252 0.5607357 0.2147273
0.1326823 0.5989117 0.2149525
0.2532628 0.6651323 0.2118136
0.5456719 0.7266466 0.2107093
0.7338490 0.7706304 0.2328328
0.8580945 0.8041541 0.2613808
0.9356428 0.8299216 0.3183436
0.9716352 0.8495361 0.3771515
0.1366377 0.6126930 0.2430950
0.1366377 0.6126930 0.2430950
0.1477833 0.6515259 0.2440139
0.2872493 0.7102959 0.2453397
0.5653492 0.7723520 0.2557390
0.7520627 0.8149836 0.2680171
0.8644162 0.8436019 0.3090177
0.9414002 0.8669068 0.3478121
0.9770761 0.8819785 0.4078621
0.0252453 0.0712406 0.2065713
0.0329922 0.0726455 0.2121781
0.0765431 0.0787757 0.2157114
0.2058827 0.0943613 0.2361380
0.3941519 0.1064353 0.2583419
0.5577996 0.1208825 0.2791847
0.6741253 0.1542697 0.3084476
0.7510957 0.1763613 0.3406730
0.8036981 0.1914590 0.3880314
0.0264729 0.0802357 0.2237121
0.0279144 0.0821209 0.2246805
0.0769696 0.0899234 0.2340063
0.2076566 0.1081337 0.2505325
0.3992510 0.1246273 0.2712044
0.5642419 0.1318886 0.2929155
0.6838353 0.1570566 0.3206485
0.7626835 0.1796872 0.3604040
0.8203000 0.2206138 0.3999244
0.0327963 0.1189071 0.2497305
0.0329710 0.1195998 0.2504058
0.0626180 0.1317371 0.2612158
0.2187095 0.1565318 0.2793801
0.4254915 0.1858692 0.2990066
0.5984962 0.2161017 0.3204192
0.7162730 0.2430100 0.3488752
0.7983753 0.2762081 0.3913732
0.8492493 0.3148829 0.4330874
0.0460586 0.2282085 0.2971024
0.0463764 0.2311584 0.2982099
0.0497956 0.2492323 0.3101228
0.2216559 0.2860858 0.3256916
0.4518786 0.3312613 0.3458340
0.6395102 0.3664592 0.3653892
0.7625812 0.4051369 0.3944468
0.8419910 0.4364936 0.4206203
0.8915650 0.4714463 0.4616986
0.0643250 0.3607453 0.3377766
0.0671602 0.3706233 0.3394949
0.0736965 0.3933968 0.3516895
0.2025206 0.4431437 0.3656877
0.4774343 0.4962704 0.3867567
0.6756485 0.5345374 0.4011749
0.8046679 0.5689231 0.4253819
0.8820295 0.5971562 0.4565510
0.9249688 0.6261171 0.4981106
0.0971702 0.4751826 0.3717518
0.0993131 0.4826486 0.3729648
0.1076972 0.5118600 0.3846416
0.1682730 0.5632465 0.3962553
0.5010902 0.6241050 0.4121425
0.6997185 0.6650629 0.4258344
0.8226258 0.6937059 0.4560680
0.9030587 0.7142014 0.4819166
0.9432948 0.7397571 0.5243357
0.1201278 0.5551701 0.4053371
0.1225496 0.5636081 0.4064215
0.1322190 0.5972975 0.4181639
0.1694515 0.6558596 0.4290051
0.5209722 0.7172973 0.4347904
0.7144970 0.7559249 0.4591095
0.8412879 0.7848802 0.4787612
0.9183968 0.8053334 0.5058108
0.9567086 0.8209869 0.5494390
0.1381950 0.6181188 0.4389053
0.1395719 0.6229160 0.4394304
0.1503790 0.6605697 0.4425005
0.1852874 0.7204733 0.4623520
0.5349250 0.7799643 0.4676846
0.7226368 0.8167189 0.4818128
0.8498830 0.8466904 0.5123504
0.9243252 0.8644977 0.5399529
0.9621808 0.8776332 0.5684715
0.1536959 0.6721261 0.4687508
0.1536959 0.6721261 0.4687508
0.1652506 0.7123845 0.4800052
0.2559298 0.7680081 0.4895275
0.5579843 0.8194467 0.4955397
0.7411836 0.8555734 0.5104467
0.8587362 0.8828287 0.5417060
0.9288108 0.8984417 0.5692865
0.9668708 0.9117972 0.6030629
0.0738690 0.0738690 0.3939979
0.0764568 0.0764568 0.4030142
0.1157848 0.0787381 0.4109627
0.2523222 0.0952282 0.4349813
0.4345360 0.1075283 0.4564972
0.5895051 0.1299824 0.4753920
0.7019553 0.1622573 0.5008740
0.7780051 0.1840847 0.5314144
0.8287703 0.2257869 0.5643926
0.0770746 0.0795806 0.4051666
0.0806386 0.0811383 0.4175840
0.1172916 0.0957242 0.4270004
0.2536466 0.1156917 0.4473996
0.4402442 0.1373760 0.4707258
0.5979093 0.1547377 0.4897827
0.7112933 0.1755145 0.5154229
0.7913081 0.2222945 0.5443521
0.8419762 0.2734028 0.5765620
0.0896610 0.1492198 0.4490194
0.0903640 0.1523634 0.4514689
0.0931761 0.1694596 0.4612667
0.2640232 0.2016081 0.4840733
0.4676122 0.2307591 0.5065820
0.6303972 0.2590402 0.5219616
0.7424929 0.2909731 0.5486414
0.8194293 0.3257895 0.5736678
0.8676058 0.3712575 0.6111010
0.1039319 0.2748738 0.4987412
0.1045348 0.2769460 0.5008419
0.1096625 0.3015152 0.5187076
0.2551980 0.3397453 0.5325626
0.4849944 0.3891815 0.5522849
0.6616091 0.4252031 0.5782240
0.7831381 0.4533617 0.5894161
0.8578585 0.4897580 0.6138127
0.9020109 0.5195333 0.6425431
0.1187294 0.4175601 0.5502979
0.1195473 0.4248741 0.5531475
0.1219919 0.4474727 0.5616651
0.2285559 0.4989684 0.5825964
0.5007151 0.5474654 0.5984432
0.6904258 0.5831105 0.6097644
0.8117767 0.6166429 0.6328325
0.8900731 0.6459440 0.6491059
0.9286480 0.6668737 0.6689320
0.1279783 0.5232159 0.5825225
0.1288359 0.5329630 0.5855104
0.1337125 0.5679603 0.6025011
0.1935364 0.6182843 0.6167220
0.5183674 0.6727358 0.6356036
0.7045813 0.7090161 0.6456368
0.8323397 0.7354687 0.6607178
0.9034289 0.7530479 0.6759997
0.9435983 0.7727904 0.6941627
0.1367516 0.6024533 0.6130898
0.1366889 0.6128715 0.6122069
0.1492821 0.6567476 0.6334767
0.1675367 0.7076075 0.6376007
0.5201342 0.7582848 0.6500789
0.7172294 0.7975112 0.6696885
0.8384455 0.8219648 0.6770867
0.9167608 0.8398635 0.6916313
0.9537545 0.8522539 0.7156711
0.1511304 0.6631877 0.6368192
0.1557458 0.6792684 0.6471130
0.1660421 0.7151423 0.6540588
0.2084595 0.7688594 0.6686074
0.5403126 0.8212590 0.6797549
0.7244169 0.8518165 0.6877581
0.8459689 0.8760024 0.6977522
0.9197060 0.8892015 0.7109126
0.9584327 0.9001318 0.7322163
0.1660468 0.7151583 0.6691368
0.1679458 0.7217749 0.6704523
0.1781555 0.7573470 0.6730058
0.2597483 0.8091385 0.6900765
0.5658487 0.8554648 0.6994378
0.7445282 0.8868353 0.7063403
0.8547763 0.9086450 0.7197142
0.9240028 0.9214068 0.7336440
0.9617475 0.9312562 0.7522976
0.1216808 0.1216808 0.5605811
0.1228870 0.1228870 0.5647836
0.1771370 0.1261851 0.5762745
0.3169904 0.1326310 0.5987330
0.4878044 0.1371551 0.6144955
0.6331316 0.1627498 0.6348777
0.7403570 0.2092042 0.6564987
0.8111546 0.2449959 0.6809623
0.8563125 0.2994659 0.7008507
0.1249489 0.1249489 0.5719675
0.1260791 0.1260791 0.5759053
0.1752088 0.1297312 0.5886298
0.3180874 0.1514971 0.6134220
0.4995121 0.1901205 0.6359740
0.6430382 0.2165561 0.6490397
0.7530934 0.2569897 0.6757303
0.8213803 0.2913411 0.6928363
0.8648441 0.3375396 0.7110021
0.1355237 0.1959362 0.6088117
0.1370630 0.2065474 0.6141747
0.1523222 0.2233393 0.6320649
0.3229498 0.2598899 0.6490966
0.5119266 0.2944075 0.6688051
0.6620991 0.3208319 0.6868618
0.7732428 0.3554551 0.7043539
0.8440665 0.3982780 0.7187402
0.8878174 0.4408569 0.7417169
0.1488639 0.3321688 0.6552908
0.1518247 0.3394558 0.6656067
0.1553108 0.3626235 0.6777528
0.3172509 0.4031816 0.6934921
0.5302833 0.4484824 0.7127445
0.6868581 0.4757056 0.7250880
0.8006545 0.5167992 0.7412663
0.8745694 0.5406869 0.7510843
0.9116891 0.5732582 0.7711092
0.1626379 0.4685309 0.7032813
0.1639594 0.4791060 0.7078856
0.1663352 0.5076004 0.7161632
0.2798925 0.5559022 0.7392452
0.5430871 0.5983397 0.7489260
0.7063493 0.6294343 0.7601241
0.8250991 0.6529523 0.7693461
0.8956679 0.6813569 0.7877739
0.9329609 0.6988391 0.7953019
0.1703650 0.5647016 0.7302037
0.1720718 0.5841955 0.7361503
0.1767830 0.6172765 0.7525648
0.2636658 0.6629863 0.7642056
0.5445160 0.7111964 0.7790415
0.7212417 0.7455601 0.7895706
0.8340544 0.7688414 0.7973006
0.9060651 0.7853337 0.8072243
0.9448040 0.7968318 0.8139327
0.1790661 0.6496796 0.7605195
0.1802845 0.6637251 0.7647647
0.1827490 0.6945475 0.7733514
0.2564876 0.7472516 0.7901005
0.5524701 0.7904966 0.7966259
0.7289510 0.8240700 0.8056086
0.8461072 0.8429397 0.8125956
0.9148159 0.8583282 0.8193171
0.9504387 0.8689609 0.8342381
0.1856824 0.7045694 0.7835716
0.1870914 0.7239927 0.7884807
0.1892951 0.7563646 0.7961589
0.3060149 0.8053632 0.8024030
0.5727767 0.8463084 0.8133828
0.7399258 0.8774847 0.8248393
0.8529665 0.8962755 0.8317996
0.9224275 0.9103053 0.8374951
0.9564537 0.9192045 0.8484579
0.1894713 0.7466403 0.7967728
0.1920902 0.7613726 0.8058973
0.1941584 0.7948456 0.8131034
0.3517990 0.8412775 0.8207574
0.5962661 0.8799009 0.8311681
0.7548202 0.9068228 0.8382849
0.8613073 0.9265729 0.8443964
0.9230536 0.9368575 0.8499433
0.9596141 0.9450528 0.8582581
0.1603497 0.1603497 0.6953090
0.1616544 0.1616544 0.6998546
0.2462524 0.1734285 0.7126486
0.3942027 0.2044614 0.7355484
0.5527253 0.2364105 0.7492878
0.6801410 0.2651435 0.7660868
0.7781132 0.2975695 0.7794747
0.8427218 0.3392241 0.7911507
0.8833972 0.3956872 0.8156424
0.1636303 0.1833427 0.7067389
0.1660266 0.1953411 0.7150881
0.2391335 0.2118756 0.7243271
0.3943598 0.2457047 0.7476716
0.5571456 0.2774161 0.7608957
0.6898783 0.3062288 0.7770999
0.7876813 0.3499640 0.7944924
0.8507975 0.3803008 0.8057712
0.8887708 0.4243262 0.8210188
0.1724696 0.2759004 0.7375365
0.1738881 0.2833098 0.7424786
0.2177548 0.3091279 0.7597178
0.3899883 0.3456787 0.7753361
0.5740909 0.3766554 0.7872000
0.7040809 0.4066057 0.8021674
0.8036323 0.4462789 0.8176067
0.8697567 0.4789081 0.8285256
0.9056473 0.5141549 0.8406972
0.1834216 0.4057186 0.7756948
0.1860791 0.4155572 0.7849540
0.1901684 0.4451582 0.7992015
0.3829007 0.4757856 0.8093764
0.5792316 0.5115325 0.8200011
0.7183383 0.5451324 0.8341354
0.8233104 0.5734729 0.8439610
0.8879357 0.6016617 0.8544986
0.9240496 0.6230493 0.8615664
0.1945806 0.5299748 0.8145743
0.1961429 0.5430844 0.8200175
0.1988377 0.5679458 0.8294064
0.3673468 0.6121562 0.8425202
0.5897605 0.6427683 0.8548534
0.7369242 0.6701899 0.8599334
0.8408573 0.7003179 0.8681325
0.9007180 0.7148403 0.8758889
0.9380503 0.7319062 0.8819126
0.2016403 0.6243185 0.8391712
0.2028909 0.6368764 0.8435286
0.2055508 0.6663893 0.8527961
0.3712485 0.7065653 0.8670735
0.5917332 0.7459795 0.8747158
0.7463466 0.7758676 0.8830694
0.8492840 0.7969130 0.8854883
0.9137355 0.8123702 0.8930666
0.9462316 0.8225900 0.8980966
0.2070313 0.6983846 0.8579541
0.2090887 0.7098013 0.8651226
0.2114722 0.7400116 0.8734270
0.3781398 0.7827780 0.8830900
0.5998962 0.8170809 0.8890096
0.7566237 0.8465692 0.8967135
0.8566678 0.8665447 0.9027095
0.9174421 0.8801240 0.9069602
0.9537067 0.8900676 0.9125022
0.2117412 0.7491599 0.8743643
0.2126305 0.7606133 0.8774627
0.2147574 0.7909051 0.8848729
0.3896029 0.8328562 0.8930754
0.6176054 0.8687875 0.9025653
0.7629550 0.8924834 0.9051951
0.8628504 0.9114023 0.9099190
0.9239207 0.9212431 0.9153487
0.9556702 0.9287415 0.9190508
0.2162281 0.7895899 0.8899971
0.2171445 0.8026799 0.8931899
0.2188416 0.8292040 0.8991029
0.4389842 0.8656350 0.9057294
0.6379879 0.8971779 0.9085233
0.7735644 0.9214937 0.9157384
0.8711101 0.9374701 0.9201462
0.9275443 0.9465951 0.9239129
0.9596927 0.9534477 0.9273838
0.1892820 0.2607422 0.7961132
0.2246841 0.2752569 0.8024336
0.3310265 0.2909777 0.8119569
0.4703866 0.3259321 0.8272201
0.6142780 0.3499610 0.8394024
0.7260277 0.3824411 0.8488384
0.8133515 0.4214174 0.8618769
0.8729089 0.4542952 0.8689178
0.9062412 0.4896639 0.8794966
0.1928792 0.3047567 0.8086463
0.2099705 0.3108453 0.8123611
0.3249858 0.3275722 0.8219024
0.4700539 0.3559448 0.8340679
0.6179133 0.3948525 0.8503050
0.7312718 0.4239284 0.8585423
0.8176370 0.4499178 0.8686597
0.8782443 0.4875214 0.8763074
0.9124101 0.5224529 0.8864930
0.1987230 0.3798434 0.8290068
0.2000062 0.3881862 0.8334776
0.3038343 0.4140718 0.8440793
0.4658581 0.4459307 0.8560036
0.6332265 0.4765466 0.8696084
0.7400765 0.5057594 0.8767775
0.8363860 0.5372005 0.8859401
0.8902552 0.5597245 0.8914343
0.9227448 0.5926371 0.8991987
0.2065130 0.4829736 0.8561484
0.2082780 0.5028868 0.8622978
0.2747346 0.5194904 0.8698310
0.4694024 0.5557573 0.8813157
0.6356764 0.5880887 0.8923631
0.7586990 0.6174774 0.8985199
0.8473639 0.6374536 0.9057710
0.9025739 0.6595789 0.9092602
0.9336757 0.6792489 0.9142678
0.2139568 0.5934579 0.8820836
0.2149999 0.6034107 0.8857179
0.2523913 0.6269958 0.8936372
0.4614203 0.6620315 0.9052870
0.6409497 0.6952032 0.9126841
0.7627000 0.7129958 0.9161675
0.8552100 0.7379777 0.9220247
0.9113140 0.7517542 0.9271255
0.9437591 0.7690811 0.9292561
0.2198990 0.6805339 0.9027873
0.2209204 0.6919097 0.9063458
0.2228942 0.7158689 0.9132229
0.4597798 0.7455373 0.9208195
0.6484349 0.7803398 0.9274100
0.7747540 0.7999501 0.9327103
0.8671474 0.8188053 0.9350781
0.9212962 0.8319415 0.9387228
0.9519509 0.8497954 0.9437224
0.2235866 0.7433241 0.9156354
0.2245533 0.7556012 0.9190035
0.2384299 0.7838014 0.9256024
0.4747050 0.8150972 0.9322377
0.6516080 0.8432024 0.9370519
0.7814381 0.8683289 0.9436438
0.8689598 0.8818007 0.9439687
0.9243430 0.8941151 0.9482602
0.9560679 0.9024633 0.9508176
0.2266504 0.7899104 0.9263099
0.2275515 0.8025793 0.9294497
0.2677169 0.8256396 0.9346599
0.4909222 0.8584265 0.9427775
0.6595579 0.8854690 0.9469729
0.7873370 0.9050006 0.9493735
0.8749037 0.9213213 0.9527731
0.9301831 0.9298427 0.9534239
0.9576074 0.9365131 0.9557883
0.2293807 0.8239343 0.9358228
0.2300568 0.8343169 0.9381784
0.3331314 0.8572382 0.9429246
0.5206810 0.8859339 0.9478812
0.6742892 0.9108146 0.9514313
0.7970132 0.9309977 0.9555355
0.8823221 0.9446218 0.9567204
0.9338496 0.9544641 0.9593104
0.9604867 0.9604416 0.9625441
0.2832835 0.3966371 0.8664587
0.3306053 0.4164850 0.8728543
0.4246724 0.4257095 0.8780832
0.5461253 0.4555759 0.8878464
0.6657064 0.4795097 0.8952116
0.7726398 0.5085288 0.9039001
0.8457284 0.5332606 0.9099742
0.8958899 0.5599484 0.9165415
0.9248092 0.5927625 0.9229258
0.2721078 0.4258037 0.8729886
0.3235257 0.4415606 0.8790466
0.4206746 0.4556650 0.8851856
0.5456161 0.4811917 0.8937696
0.6672964 0.5092437 0.9016781
0.7748014 0.5302271 0.9086241
0.8483972 0.5552040 0.9138207
0.8998526 0.5902242 0.9223605
0.9281270 0.6107355 0.9258174
0.2550933 0.4884876 0.8881541
0.3049745 0.4952718 0.8910028
0.4208476 0.5200362 0.8992095
0.5483357 0.5385172 0.9056898
0.6797791 0.5645537 0.9127072
0.7805809 0.5984938 0.9219823
0.8575760 0.6164008 0.9255358
0.9071956 0.6401243 0.9310499
0.9375359 0.6720579 0.9366958
0.2213194 0.5777369 0.9074733
0.2770962 0.5844693 0.9098881
0.3998303 0.6092979 0.9170356
0.5519938 0.6321188 0.9237761
0.6809050 0.6582983 0.9297583
0.7948830 0.6804429 0.9364465
0.8692322 0.6966170 0.9392085
0.9152448 0.7190538 0.9440340
0.9441939 0.7350740 0.9462344
0.2259858 0.6584516 0.9239944
0.2506924 0.6669924 0.9266517
0.4083022 0.6880128 0.9326987
0.5545304 0.7102831 0.9383362
0.6867229 0.7369715 0.9451831
0.7977223 0.7598498 0.9490412
0.8745996 0.7773439 0.9515566
0.9209524 0.7901848 0.9545210
0.9513668 0.8061457 0.9570255
0.2299200 0.7323414 0.9377018
0.2468178 0.7417192 0.9402335
0.3967676 0.7608418 0.9450149
0.5602691 0.7857928 0.9504717
0.6951103 0.8123800 0.9563510
0.8052314 0.8293659 0.9589394
0.8842715 0.8456935 0.9609455
0.9294350 0.8569612 0.9639750
0.9554008 0.8654009 0.9660514
0.2329995 0.7909383 0.9484310
0.2587970 0.8009876 0.9508394
0.4113255 0.8205229 0.9563119
0.5616008 0.8418332 0.9605607
0.7002447 0.8640946 0.9641855
0.8153225 0.8858265 0.9669703
0.8855871 0.8967399 0.9693618
0.9316663 0.9072402 0.9703582
0.9607985 0.9152325 0.9722886
0.2354442 0.8309175 0.9569489
0.3111251 0.8396293 0.9588389
0.4360723 0.8564932 0.9622315
0.5849926 0.8796487 0.9663029
0.7110022 0.9000999 0.9693046
0.8208029 0.9201170 0.9716434
0.8930653 0.9315578 0.9739666
0.9357267 0.9404386 0.9747158
0.9620280 0.9445201 0.9762436
0.2972769 0.8588573 0.9623016
0.3725924 0.8682799 0.9641782
0.4661942 0.8816959 0.9666648
0.6073845 0.9031699 0.9702135
0.7324392 0.9252315 0.9731382
0.8295728 0.9410572 0.9760880
0.8979375 0.9518952 0.9770580
0.9399900 0.9600785 0.9785075
0.9645495 0.9638519 0.9787585
