data/spectral_luts/fp100c_fujiflex_new.cube
TITLE "fp100c_fujiflex_new"
LUT_3D_SIZE 9
0.9039839 0.9526584 0.9968358
0.9013737 0.9522842 0.9967992
0.8312580 0.9421040 0.9957061
0.6631476 0.9170189 0.9922525
0.4665815 0.8882793 0.9870953
0.2423723 0.8609083 0.9810872
0.2410288 0.8433850 0.9764062
0.2397086 0.8172743 0.9718066
0.2351902 0.7368955 0.9560640
0.9039839 0.9526584 0.9968358
0.9000698 0.9520971 0.9967809
0.8250586 0.9411929 0.9955992
0.6566073 0.9160366 0.9920967
0.4579592 0.8870913 0.9868562
0.2422533 0.8591772 0.9806725
0.2407749 0.8373452 0.9755217
0.2387358 0.7870624 0.9684172
0.2315612 0.6774160 0.9434198
0.9026783 0.9524711 0.9968176
0.8914189 0.9508539 0.9966573
0.8083046 0.9387230 0.9953020
0.6402911 0.9135884 0.9917018
0.4402815 0.8850245 0.9863999
0.2415956 0.8402727 0.9783813
0.2385259 0.7700558 0.9676860
0.2340005 0.6535002 0.9519188
0.2207469 0.5231407 0.9057414
0.8973122 0.9494379 0.9965690
0.8733587 0.9422295 0.9959205
0.7830037 0.9158295 0.9932374
0.6231951 0.8482019 0.9852417
0.4628475 0.7541674 0.9718043
0.3325586 0.6308015 0.9508777
0.2764526 0.5232375 0.9310105
0.2830203 0.4138524 0.8988651
0.2943779 0.3248481 0.8429936
0.8735923 0.8458298 0.9873605
0.8412749 0.8080410 0.9832376
0.7567250 0.6996065 0.9692784
0.6203942 0.5672964 0.9469296
0.4913709 0.4360013 0.9191279
0.3949369 0.3368718 0.8948138
0.3464253 0.2572263 0.8668953
0.3237461 0.1976672 0.8245108
0.3140623 0.1829221 0.7739542
0.8223189 0.5864943 0.9544705
0.7858943 0.5354497 0.9445134
0.6958735 0.4253938 0.9186925
0.5837969 0.3109892 0.8859988
0.4683385 0.2117037 0.8499982
0.3868366 0.1955870 0.8180808
0.3438463 0.1877903 0.7909159
0.3231317 0.1800431 0.7639235
0.3064602 0.1593491 0.6918226
0.7414511 0.3782054 0.8674552
0.7063745 0.3393334 0.8555257
0.6281688 0.2645427 0.8299995
0.5324448 0.1891724 0.7957312
0.4319624 0.1781989 0.7574982
0.3628306 0.1668863 0.7180833
0.3250324 0.1534262 0.6711864
0.3011207 0.1390933 0.6212485
0.2918640 0.1253737 0.5734476
0.6481574 0.2620691 0.7003247
0.6183411 0.2413300 0.6862460
0.5598640 0.2036568 0.6600922
0.4747162 0.1561131 0.6217673
0.3886054 0.1274596 0.5785947
0.3330042 0.1166076 0.5429052
0.3011768 0.1065185 0.5022895
0.2814157 0.1072697 0.4616399
0.2767191 0.1127256 0.4254499
0.5625190 0.2139998 0.4933001
0.5425830 0.2033403 0.4819248
0.4923923 0.1810065 0.4633957
0.4188127 0.1562743 0.4359614
0.3549768 0.1391000 0.4116164
0.3104054 0.1265525 0.3878556
0.2853833 0.1209594 0.3668686
0.2719920 0.1197057 0.3459510
0.2689819 0.1201392 0.3247367
0.9039839 0.9526584 0.9968358
0.9000698 0.9520971 0.9967809
0.8250586 0.9411929 0.9955992
0.6566073 0.9160366 0.9920967
0.4579592 0.8870913 0.9868562
0.2423128 0.8600417 0.9808801
0.2410197 0.8430811 0.9763747
0.2397430 0.8183705 0.9719266
0.2354385 0.7409801 0.9569288
0.9039839 0.9526584 0.9968358
0.8972149 0.9516873 0.9967405
0.8187606 0.9402657 0.9954889
0.6500754 0.9150560 0.9919395
0.4492866 0.8859061 0.9866158
0.2422533 0.8591772 0.9806725
0.2407929 0.8379432 0.9755844
0.2388365 0.7914580 0.9687679
0.2317834 0.6811029 0.9441941
0.9026783 0.9524711 0.9968176
0.8885273 0.9504374 0.9966152
0.8038110 0.9380589 0.9952202
0.6337771 0.9126120 0.9915417
0.4308392 0.8833607 0.9860989
0.2415269 0.8391653 0.9781418
0.2385458 0.7717134 0.9677553
0.2344196 0.6632200 0.9533790
0.2209639 0.5273083 0.9064972
0.8944688 0.9477874 0.9964327
0.8687223 0.9398496 0.9957134
0.7761742 0.9113919 0.9928052
0.6181265 0.8409359 0.9844198
0.4544412 0.7417846 0.9700247
0.3312039 0.6223082 0.9507040
0.2800096 0.5164603 0.9285470
0.2782866 0.4162011 0.8962420
0.2937221 0.3273503 0.8439829
0.8689283 0.8309889 0.9860016
0.8361007 0.7905314 0.9823126
0.7498915 0.6818829 0.9685052
0.6159797 0.5497083 0.9445129
0.4858067 0.4201271 0.9103492
0.3890690 0.3223196 0.8752425
0.3422222 0.2520545 0.8401415
0.3197078 0.1974385 0.8064110
0.3131995 0.1817136 0.7697436
0.8150319 0.5664197 0.9317269
0.7776170 0.5143499 0.9185710
0.6886270 0.4109324 0.8901826
0.5759413 0.2994992 0.8522539
0.4590705 0.2099721 0.8157294
0.3806027 0.1856921 0.7836054
0.3361449 0.1748092 0.7456880
0.3121848 0.1604035 0.6954964
0.2999991 0.1440037 0.6383570
0.7330636 0.3662123 0.8197402
0.6948340 0.3290697 0.8038729
0.6187561 0.2626344 0.7719411
0.5218007 0.1918293 0.7277067
0.4182881 0.1555730 0.6786661
0.3534573 0.1426037 0.6334792
0.3136794 0.1299264 0.5893098
0.2930886 0.1178095 0.5470929
0.2846178 0.1109913 0.4985916
0.6385168 0.2631849 0.6198576
0.6113628 0.2455874 0.6095913
0.5521633 0.2085785 0.5823883
0.4665422 0.1675867 0.5448068
0.3803268 0.1407356 0.5054031
0.3249797 0.1252564 0.4699032
0.2941638 0.1191893 0.4377502
0.2775368 0.1177099 0.4060523
0.2718372 0.1181441 0.3795150
0.5572014 0.2127261 0.4361637
0.5351087 0.2021952 0.4281786
0.4847057 0.1808045 0.4121875
0.4137394 0.1580334 0.3919906
0.3502215 0.1410808 0.3696737
0.3062993 0.1299307 0.3475063
0.2836558 0.1239478 0.3291589
0.2705276 0.1212861 0.3126032
0.2679206 0.1215237 0.2964918
0.9013737 0.9522842 0.9967992
0.8899727 0.9506456 0.9966362
0.8083046 0.9387230 0.9953020
0.6370331 0.9131001 0.9916219
0.4404238 0.8847057 0.9863702
0.2420735 0.8565943 0.9800462
0.2410847 0.8404890 0.9766012
0.2350577 0.8151221 0.9556022
0.2227505 0.7331805 0.9127222
0.9013737 0.9522842 0.9967992
0.8870832 0.9502293 0.9965941
0.8015677 0.9377271 0.9951791
0.6304648 0.9121161 0.9914598
0.4308132 0.8834171 0.9861042
0.2425032 0.8557591 0.9815432
0.2391828 0.8336616 0.9699745
0.2307517 0.7824679 0.9405995
0.2177156 0.6728236 0.8951797
0.9000698 0.9520971 0.9967809
0.8777929 0.9488876 0.9964556
0.7881548 0.9357390 0.9949289
0.6136501 0.9108218 0.9925908
0.4124377 0.8786382 0.9859819
0.2384979 0.8311616 0.9675884
0.2299972 0.7573007 0.9379706
0.2178369 0.6397092 0.8956025
0.2000511 0.5168409 0.8336340
0.8845119 0.9421071 0.9946985
0.8548664 0.9332457 0.9915764
0.7628058 0.8995280 0.9830662
0.6050027 0.8239771 0.9636297
0.4497200 0.7135130 0.9338120
0.3256793 0.5980291 0.8974020
0.2746772 0.4955721 0.8537543
0.2732895 0.3972264 0.7913743
0.2817579 0.3213828 0.7188590
0.8553266 0.7932421 0.9387611
0.8220966 0.7448434 0.9291945
0.7306469 0.6424102 0.9059683
0.6010807 0.5158592 0.8663336
0.4729355 0.3966121 0.8150982
0.3729699 0.3114512 0.7586380
0.3256804 0.2539953 0.6975700
0.3011554 0.2169292 0.6397429
0.2898232 0.1942612 0.5774751
0.7925233 0.5191911 0.8071358
0.7551436 0.4739015 0.7908300
0.6648837 0.3836977 0.7513620
0.5552090 0.2911121 0.6976590
0.4360434 0.2234083 0.6441601
0.3578307 0.1851628 0.5952803
0.3116011 0.1614841 0.5465491
0.2887898 0.1511388 0.5007739
0.2816361 0.1459489 0.4565895
0.7072617 0.3471336 0.6227669
0.6702348 0.3152588 0.6042417
0.5966691 0.2635738 0.5726740
0.5006098 0.2092243 0.5284243
0.3981641 0.1695376 0.4872222
0.3342388 0.1487795 0.4504944
0.2979734 0.1366548 0.4188569
0.2791417 0.1313760 0.3882708
0.2735885 0.1290338 0.3635081
0.6180891 0.2560624 0.4545116
0.5909491 0.2405058 0.4436248
0.5344127 0.2108539 0.4242924
0.4502378 0.1762648 0.3946670
0.3674908 0.1520790 0.3725137
0.3158501 0.1358991 0.3491144
0.2861291 0.1281784 0.3286244
0.2706645 0.1236654 0.3101530
0.2680428 0.1230114 0.2954385
0.5456737 0.2056893 0.3408313
0.5235662 0.1959038 0.3359033
0.4756518 0.1776032 0.3246008
0.4042343 0.1562704 0.3081638
0.3444611 0.1409764 0.2932427
0.3013971 0.1301092 0.2796805
0.2793375 0.1243497 0.2678656
0.2667237 0.1218006 0.2573242
0.2644818 0.1211769 0.2488876
0.8957689 0.9514968 0.9978693
0.8714583 0.9479698 0.9963281
0.7787489 0.9342735 0.9904780
0.6107489 0.9089641 0.9790664
0.4121003 0.8804641 0.9611809
0.2276846 0.8531738 0.9299133
0.2148806 0.8362839 0.8853021
0.1913048 0.8031610 0.7960570
0.1647477 0.7106323 0.6823783
0.8943136 0.9512657 0.9963973
0.8682934 0.9474785 0.9942067
0.7763460 0.9338477 0.9863114
0.6075835 0.9082893 0.9684790
0.4029833 0.8788223 0.9420309
0.2216672 0.8525777 0.9089478
0.2036410 0.8255124 0.8461418
0.1802844 0.7647642 0.7480794
0.1450282 0.6405750 0.6419266
0.8855802 0.9494514 0.9650171
0.8558857 0.9450111 0.9582477
0.7596496 0.9304737 0.9429556
0.5911835 0.9069910 0.9193385
0.3878013 0.8689135 0.8728754
0.1952759 0.8169967 0.8084698
0.1708016 0.7317246 0.7278233
0.1442538 0.6101736 0.6392286
0.2152324 0.4893247 0.5531318
0.8658683 0.9285695 0.8615681
0.8314209 0.9155227 0.8472708
0.7365287 0.8700617 0.8089952
0.5875121 0.7904087 0.7572553
0.4374029 0.6733483 0.6934789
0.3234062 0.5632626 0.6294572
0.2762622 0.4649801 0.5666429
0.2687876 0.3814390 0.5020354
0.2730132 0.3101300 0.4415361
0.8315527 0.7231613 0.6794176
0.7935172 0.6774538 0.6585923
0.7032691 0.5882115 0.6178377
0.5801047 0.4758534 0.5653750
0.4480688 0.3724540 0.5089952
0.3544657 0.3021912 0.4602613
0.3069667 0.2551400 0.4206626
0.2854975 0.2221344 0.3870522
0.2782969 0.1978204 0.3543844
0.7591686 0.4619795 0.5026571
0.7223399 0.4226331 0.4873528
0.6329259 0.3497970 0.4557937
0.5280359 0.2794329 0.4185444
0.4116225 0.2246947 0.3832902
0.3387016 0.1934229 0.3573965
0.2968025 0.1729543 0.3343633
0.2779616 0.1585310 0.3124332
0.2708105 0.1515277 0.2950947
0.6717122 0.3110707 0.3860690
0.6377729 0.2877286 0.3759306
0.5701888 0.2462671 0.3561315
0.4789615 0.2031758 0.3310149
0.3816968 0.1709936 0.3082367
0.3202203 0.1509608 0.2897770
0.2877221 0.1390196 0.2763445
0.2702998 0.1330526 0.2635294
0.2676210 0.1294130 0.2518978
0.5921021 0.2344227 0.3048748
0.5674083 0.2202872 0.2988330
0.5133237 0.1954658 0.2858959
0.4339293 0.1687089 0.2728772
0.3575434 0.1478343 0.2593539
0.3078667 0.1347938 0.2484879
0.2811065 0.1269729 0.2388873
0.2664416 0.1234011 0.2315714
0.2641748 0.1219517 0.2249304
0.5268422 0.1907894 0.2532790
0.5050280 0.1832746 0.2489708
0.4593769 0.1678176 0.2427159
0.3895127 0.1490075 0.2337537
0.3371961 0.1362320 0.2254425
0.2973183 0.1265124 0.2175943
0.2758787 0.1219525 0.2127668
0.2635370 0.1191850 0.2064175
0.2633978 0.1185690 0.2015950
0.8698843 0.9465077 0.9351895
0.8371899 0.9415758 0.9285898
0.7407976 0.9266924 0.9073977
0.5793759 0.9014028 0.8745304
0.3823356 0.8719106 0.8280814
0.2031148 0.8443085 0.7715575
0.1972381 0.8238333 0.6702092
0.1852601 0.7821004 0.5432877
0.1550952 0.6770016 0.4417275
0.8683112 0.9462636 0.9345468
0.8352670 0.9412537 0.9270532
0.7407976 0.9266924 0.9073977
0.5761188 0.9007710 0.8705736
0.3846419 0.8707442 0.8000070
0.2024973 0.8421570 0.7079657
0.1927269 0.8081157 0.5998281
0.1725115 0.7376824 0.4896314
0.1421164 0.6070672 0.4097924
0.8567455 0.9413070 0.8354802
0.8223165 0.9354035 0.8158034
0.7265719 0.9188170 0.7700166
0.5663180 0.8925385 0.7045408
0.3798329 0.8488159 0.6211159
0.2019077 0.7876149 0.5335228
0.1615783 0.6995896 0.4631203
0.1946245 0.5739322 0.4029965
0.2460613 0.4543433 0.3515493
0.8392020 0.8965406 0.5723468
0.8012576 0.8782338 0.5512915
0.7072043 0.8266274 0.5081379
0.5769360 0.7450794 0.4643060
0.4395830 0.6254886 0.4231622
0.3366406 0.5270456 0.3853169
0.2920212 0.4300324 0.3498511
0.2772862 0.3523601 0.3183648
0.2774288 0.2897928 0.2904539
0.7964424 0.6438707 0.4010437
0.7608158 0.6084531 0.3894920
0.6695237 0.5242854 0.3669285
0.5567115 0.4253164 0.3386806
0.4327846 0.3388063 0.3123384
0.3478036 0.2791276 0.2912438
0.3032899 0.2377188 0.2717153
0.2813769 0.2070137 0.2539540
0.2758198 0.1858272 0.2392715
0.7169626 0.3943261 0.3075522
0.6771697 0.3615096 0.2991810
0.5995359 0.3057532 0.2840565
0.5026491 0.2508337 0.2661127
0.3958406 0.2061193 0.2500777
0.3289039 0.1807055 0.2379111
0.2926140 0.1623128 0.2275585
0.2743449 0.1508756 0.2174375
0.2673695 0.1439227 0.2093481
0.6321597 0.2693876 0.2530961
0.6022193 0.2521962 0.2487309
0.5434358 0.2216004 0.2388140
0.4557174 0.1857852 0.2263927
0.3673180 0.1594028 0.2157602
0.3131786 0.1421036 0.2076052
0.2816635 0.1322348 0.2004420
0.2667307 0.1267668 0.1940937
0.2643531 0.1242527 0.1901008
0.5633436 0.2088227 0.2179747
0.5416595 0.1991972 0.2154810
0.4899155 0.1784232 0.2083001
0.4131232 0.1565266 0.2013823
0.3447317 0.1392643 0.1944199
0.3016335 0.1279515 0.1886225
0.2778203 0.1224178 0.1835800
0.2634163 0.1189384 0.1805529
0.2612424 0.1175112 0.1761596
0.5041072 0.1741502 0.1940629
0.4821094 0.1673477 0.1920706
0.4398530 0.1555919 0.1881301
0.3786454 0.1402455 0.1839414
0.3282239 0.1289046 0.1788514
0.2920404 0.1222535 0.1749707
0.2730105 0.1180617 0.1720419
0.2629544 0.1163204 0.1694500
0.2609155 0.1156188 0.1677618
0.8231186 0.9334303 0.7721061
0.7868374 0.9269828 0.7527937
0.6891924 0.9095542 0.7092972
0.5456556 0.8839186 0.6574394
0.3611672 0.8530346 0.6038263
0.1982625 0.8274024 0.5412284
0.1910234 0.8021804 0.4775985
0.1796949 0.7627103 0.3941018
0.1481546 0.6528193 0.3189396
0.8232024 0.9332299 0.7679874
0.7845744 0.9263976 0.7483711
0.6860780 0.9090772 0.7093025
0.5422092 0.8833978 0.6574407
0.3615351 0.8528453 0.6013561
0.1981965 0.8271727 0.5386202
0.1876529 0.7904370 0.4373081
0.1662483 0.7158605 0.3505189
0.1857192 0.5837854 0.3004684
0.8137481 0.9249608 0.6554641
0.7764485 0.9175203 0.6311241
0.6796687 0.9000889 0.5807462
0.5431614 0.8711234 0.5120358
0.3734319 0.8265545 0.4430701
0.2248003 0.7638022 0.3775741
0.1810569 0.6734074 0.3280250
0.2199062 0.5502188 0.2936396
0.2592158 0.4338810 0.2635303
0.7993931 0.8534754 0.3703239
0.7627573 0.8320053 0.3569987
0.6712203 0.7832401 0.3362111
0.5562263 0.6996008 0.3122798
0.4254801 0.5895332 0.2945067
0.3380233 0.4956260 0.2769498
0.2977939 0.4072142 0.2586592
0.2824091 0.3341728 0.2404294
0.2793845 0.2728893 0.2230040
0.7490160 0.5723391 0.2650265
0.7125273 0.5396320 0.2611363
0.6309732 0.4696801 0.2533244
0.5274051 0.3869716 0.2434482
0.4138748 0.3115827 0.2312843
0.3412109 0.2605168 0.2185182
0.2998044 0.2232867 0.2075870
0.2799788 0.1957993 0.1970860
0.2740494 0.1771710 0.1892885
0.6634688 0.3365930 0.2177771
0.6320417 0.3139687 0.2152094
0.5665473 0.2724209 0.2084637
0.4735420 0.2269066 0.1995716
0.3796242 0.1915522 0.1913385
0.3207707 0.1696258 0.1846134
0.2876464 0.1536680 0.1786660
0.2718344 0.1441430 0.1741405
0.2668433 0.1376799 0.1707411
0.5919662 0.2376394 0.1923582
0.5672830 0.2237245 0.1894827
0.5108917 0.1987239 0.1840598
0.4306257 0.1704883 0.1777599
0.3548088 0.1498619 0.1731102
0.3052436 0.1345681 0.1678737
0.2787918 0.1267739 0.1639589
0.2641363 0.1221002 0.1619122
0.2619552 0.1206500 0.1602096
0.5317492 0.1878232 0.1760347
0.5125366 0.1805837 0.1743703
0.4649017 0.1641920 0.1701738
0.3937961 0.1460170 0.1662823
0.3360316 0.1325750 0.1628240
0.2965137 0.1234516 0.1600203
0.2731375 0.1182716 0.1573882
0.2629826 0.1159688 0.1557170
0.2609516 0.1153092 0.1549158
0.4753428 0.1606558 0.1657189
0.4578911 0.1555706 0.1641541
0.4154776 0.1454719 0.1629054
0.3636450 0.1336242 0.1598464
0.3205817 0.1252032 0.1574844
0.2893615 0.1190958 0.1550054
0.2706982 0.1158331 0.1533746
0.2607481 0.1141972 0.1525560
0.2606473 0.1136684 0.1517480
0.7635041 0.9118862 0.5846945
0.7256026 0.9046373 0.5689146
0.6331313 0.8866170 0.5318769
0.5052353 0.8639544 0.4873237
0.3382063 0.8324160 0.4453406
0.1905271 0.8004512 0.3998682
0.1815001 0.7690000 0.3542018
0.1679464 0.7217768 0.3151400
0.1463479 0.6465246 0.2816369
0.7608454 0.9114776 0.5847521
0.7198116 0.9037378 0.5690400
0.6331198 0.8866971 0.5318741
0.5052320 0.8639672 0.4873231
0.3388042 0.8319193 0.4430478
0.1905271 0.8004512 0.3998682
0.1815001 0.7690000 0.3542018
0.1640096 0.7080606 0.3072067
0.1981409 0.5776426 0.2666785
0.7564820 0.9089497 0.5627268
0.7155871 0.9003438 0.5382281
0.6290706 0.8845786 0.4969760
0.5031682 0.8561530 0.4416915
0.3443214 0.8134374 0.3811422
0.2240179 0.7523879 0.3241154
0.1866616 0.6641381 0.2861138
0.2303293 0.5423123 0.2599131
0.2638518 0.4284564 0.2372098
0.7391769 0.8183383 0.2950249
0.7010846 0.7993163 0.2892527
0.6279440 0.7543625 0.2752630
0.5234629 0.6719078 0.2660074
0.4057704 0.5738124 0.2565028
0.3326112 0.4841129 0.2444063
0.2984369 0.3993754 0.2318540
0.2823760 0.3252296 0.2171899
0.2806406 0.2690544 0.2038498
0.6889033 0.5145366 0.2249555
0.6572769 0.4876323 0.2232386
0.5899261 0.4324301 0.2205768
0.4962518 0.3609682 0.2139929
0.3952935 0.2992064 0.2064517
0.3339748 0.2542240 0.1975177
0.2977483 0.2168674 0.1885088
0.2781333 0.1927181 0.1809679
0.2740971 0.1734236 0.1735682
0.6106505 0.2949604 0.1905244
0.5859239 0.2806153 0.1893675
0.5283508 0.2493412 0.1847946
0.4470185 0.2144556 0.1793598
0.3649138 0.1838457 0.1740102
0.3131998 0.1632906 0.1687801
0.2852761 0.1503072 0.1645187
0.2695670 0.1409896 0.1611881
0.2665617 0.1348341 0.1587998
0.5517979 0.2138574 0.1716691
0.5298111 0.2039948 0.1702286
0.4769394 0.1826259 0.1673269
0.4061916 0.1613040 0.1629493
0.3437951 0.1451342 0.1598527
0.3004914 0.1317179 0.1560510
0.2764051 0.1242369 0.1532124
0.2640031 0.1208052 0.1521821
0.2618243 0.1194159 0.1512760
0.4968641 0.1728302 0.1616647
0.4769101 0.1661095 0.1602657
0.4343556 0.1544445 0.1584366
0.3732755 0.1402197 0.1558513
0.3259821 0.1287929 0.1526691
0.2919537 0.1212808 0.1502000
0.2709859 0.1169796 0.1492549
0.2609271 0.1147932 0.1476837
0.2608283 0.1143145 0.1476046
0.4461828 0.1513107 0.1558804
0.4298642 0.1474967 0.1553424
0.3918017 0.1387093 0.1533961
0.3499081 0.1298930 0.1520976
0.3111465 0.1223292 0.1498735
0.2849353 0.1172888 0.1482841
0.2685900 0.1147595 0.1468244
0.2606279 0.1133086 0.1467446
0.2586153 0.1126587 0.1459957
0.6819848 0.8863280 0.4375017
0.6493452 0.8790873 0.4292137
0.5770196 0.8611707 0.4056422
0.4623280 0.8329456 0.3746794
0.3122062 0.7960649 0.3449498
0.2008860 0.7539425 0.3161848
0.1626594 0.7033563 0.2908792
0.1539235 0.6416000 0.2721938
0.2091708 0.5644700 0.2558213
0.6820051 0.8861135 0.4375205
0.6465028 0.8780814 0.4268845
0.5737903 0.8606510 0.4057794
0.4623280 0.8329456 0.3746794
0.3122062 0.7960649 0.3449498
0.1938360 0.7525170 0.3164287
0.1626594 0.7033563 0.2908792
0.1539235 0.6416000 0.2721938
0.2091708 0.5644700 0.2558213
0.6760890 0.8848309 0.4353212
0.6434702 0.8775017 0.4270248
0.5708516 0.8594971 0.4034626
0.4587395 0.8316246 0.3725148
0.3131598 0.7949644 0.3429090
0.1980596 0.7493076 0.3128348
0.1818009 0.6646971 0.2759368
0.2273171 0.5423346 0.2515146
0.2642948 0.4296409 0.2312392
0.6684345 0.7881926 0.2731676
0.6385279 0.7719186 0.2693872
0.5779452 0.7303569 0.2618501
0.4800916 0.6556327 0.2560316
0.3793643 0.5627026 0.2478495
0.3202744 0.4790788 0.2371227
0.2932848 0.3976040 0.2250808
0.2827015 0.3264782 0.2120959
0.2810277 0.2667130 0.1980036
0.6296837 0.4696376 0.2149957
0.6035481 0.4463218 0.2139476
0.5451927 0.4024965 0.2113343
0.4588427 0.3433298 0.2065389
0.3800410 0.2911940 0.1995303
0.3238259 0.2477233 0.1916732
0.2933693 0.2157878 0.1832397
0.2781278 0.1909823 0.1765565
0.2722208 0.1740573 0.1704769
0.5614185 0.2679064 0.1829450
0.5388210 0.2561393 0.1806264
0.4866772 0.2302665 0.1778619
0.4130479 0.2016359 0.1732832
0.3510777 0.1787042 0.1688288
0.3063414 0.1612950 0.1647839
0.2811326 0.1496927 0.1614966
0.2695880 0.1407320 0.1581825
0.2646010 0.1344305 0.1558348
0.5073993 0.1941792 0.1650707
0.4874009 0.1865784 0.1636645
0.4443355 0.1721524 0.1617592
0.3795794 0.1542626 0.1590960
0.3311967 0.1410393 0.1558444
0.2939263 0.1302258 0.1530268
0.2742427 0.1231882 0.1509230
0.2640000 0.1205821 0.1492925
0.2618211 0.1191947 0.1484030
0.4593345 0.1606315 0.1563745
0.4422829 0.1555822 0.1557903
0.4049456 0.1466264 0.1547216
0.3563988 0.1353380 0.1519243
0.3164937 0.1264072 0.1496327
0.2876452 0.1202608 0.1479921
0.2688972 0.1161547 0.1463680
0.2609230 0.1146881 0.1462922
0.2589079 0.1140316 0.1455460
0.4146129 0.1424887 0.1521896
0.3976746 0.1398161 0.1517623
0.3687468 0.1331276 0.1504149
0.3345621 0.1265225 0.1491085
0.3043253 0.1205906 0.1476168
0.2807398 0.1164019 0.1461397
0.2665241 0.1140529 0.1453898
0.2606206 0.1131536 0.1446888
0.2586108 0.1125558 0.1446294
0.6090636 0.8364618 0.3197970
0.5823598 0.8273264 0.3131843
0.5189280 0.8037804 0.3039723
0.4198399 0.7641507 0.2906354
0.3145949 0.7149418 0.2777481
0.2411276 0.6646548 0.2684327
0.2256487 0.5958413 0.2572656
0.2298266 0.5306327 0.2453784
0.2527412 0.4684847 0.2340177
0.6063338 0.8347145 0.3178696
0.5823598 0.8273264 0.3131843
0.5189280 0.8037804 0.3039723
0.4198399 0.7641507 0.2906354
0.3145949 0.7149418 0.2777481
0.2432184 0.6617700 0.2670863
0.2256487 0.5958413 0.2572656
0.2298266 0.5306327 0.2453784
0.2527412 0.4684847 0.2340177
0.6032530 0.8338456 0.3181477
0.5796120 0.8254722 0.3113179
0.5125970 0.8004431 0.3025798
0.4157588 0.7610873 0.2892278
0.3145949 0.7149418 0.2777481
0.2432184 0.6617700 0.2670863
0.2256487 0.5958413 0.2572656
0.2298266 0.5306327 0.2453784
0.2611673 0.4307001 0.2277529
0.6017911 0.7639678 0.2645694
0.5761414 0.7495328 0.2625090
0.5200661 0.7084396 0.2570076
0.4342358 0.6377424 0.2501906
0.3566692 0.5547176 0.2434253
0.3108080 0.4768815 0.2323689
0.2907265 0.3967217 0.2217680
0.2803667 0.3257196 0.2090791
0.2812059 0.2680194 0.1952969
0.5709808 0.4330426 0.2101622
0.5490217 0.4130412 0.2084514
0.4983496 0.3769458 0.2059828
0.4229434 0.3284250 0.2024459
0.3626794 0.2851475 0.1958966
0.3166337 0.2464477 0.1881272
0.2912011 0.2152458 0.1806498
0.2760575 0.1904931 0.1740669
0.2721337 0.1726632 0.1679580
0.5084867 0.2423893 0.1766174
0.4897752 0.2332236 0.1750958
0.4472972 0.2152900 0.1730396
0.3859640 0.1938869 0.1692859
0.3360035 0.1748578 0.1656616
0.2995943 0.1593823 0.1616429
0.2789207 0.1482405 0.1583436
0.2676046 0.1403708 0.1559559
0.2646135 0.1342412 0.1536202
0.4614732 0.1776339 0.1606904
0.4442847 0.1719303 0.1592610
0.4064053 0.1620154 0.1582143
0.3571954 0.1485858 0.1552777
0.3190115 0.1370845 0.1526382
0.2893626 0.1281015 0.1506291
0.2702559 0.1227461 0.1488026
0.2639987 0.1204694 0.1478698
0.2617001 0.1184897 0.1469099
0.4195732 0.1502576 0.1529772
0.4048949 0.1464300 0.1523421
0.3729146 0.1388076 0.1510609
0.3379878 0.1308440 0.1496459
0.3050600 0.1236273 0.1473642
0.2813577 0.1191228 0.1458833
0.2669320 0.1159225 0.1450152
0.2609172 0.1145297 0.1442412
0.2588058 0.1134511 0.1441053
0.3799419 0.1352453 0.1495387
0.3687174 0.1330070 0.1488945
0.3496142 0.1287343 0.1482116
0.3225453 0.1239072 0.1469022
0.2955329 0.1187535 0.1454660
0.2766015 0.1155708 0.1447372
0.2644721 0.1133485 0.1439676
0.2605160 0.1125755 0.1432538
0.2586065 0.1124517 0.1432733
