data/spectral_luts/fp100c_fujiflex_new.cube
TITLE "fp100c_fujiflex_new"
LUT_3D_SIZE 5
0.9039839 0.9526584 0.9968358
0.8312580 0.9421040 0.9957061
0.4665815 0.8882793 0.9870953
0.2410288 0.8433850 0.9764062
0.2351902 0.7368955 0.9560640
0.9026783 0.9524711 0.9968176
0.8083046 0.9387230 0.9953020
0.4402815 0.8850245 0.9863999
0.2385259 0.7700558 0.9676860
0.2207469 0.5231407 0.9057414
0.8735923 0.8458298 0.9873605
0.7567250 0.6996065 0.9692784
0.4913709 0.4360013 0.9191279
0.3464253 0.2572263 0.8668953
0.3140623 0.1829221 0.7739542
0.7414511 0.3782054 0.8674552
0.6281688 0.2645427 0.8299995
0.4319624 0.1781989 0.7574982
0.3250324 0.1534262 0.6711864
0.2918640 0.1253737 0.5734476
0.5625190 0.2139998 0.4933001
0.4923923 0.1810065 0.4633957
0.3549768 0.1391000 0.4116164
0.2853833 0.1209594 0.3668686
0.2689819 0.1201392 0.3247367
0.9013737 0.9522842 0.9967992
0.8083046 0.9387230 0.9953020
0.4404238 0.8847057 0.9863702
0.2410847 0.8404890 0.9766012
0.2227505 0.7331805 0.9127222
0.9000698 0.9520971 0.9967809
0.7881548 0.9357390 0.9949289
0.4124377 0.8786382 0.9859819
0.2299972 0.7573007 0.9379706
0.2000511 0.5168409 0.8336340
0.8553266 0.7932421 0.9387611
0.7306469 0.6424102 0.9059683
0.4729355 0.3966121 0.8150982
0.3256804 0.2539953 0.6975700
0.2898232 0.1942612 0.5774751
0.7072617 0.3471336 0.6227669
0.5966691 0.2635738 0.5726740
0.3981641 0.1695376 0.4872222
0.2979734 0.1366548 0.4188569
0.2735885 0.1290338 0.3635081
0.5456737 0.2056893 0.3408313
0.4756518 0.1776032 0.3246008
0.3444611 0.1409764 0.2932427
0.2793375 0.1243497 0.2678656
0.2644818 0.1211769 0.2488876
0.8698843 0.9465077 0.9351895
0.7407976 0.9266924 0.9073977
0.3823356 0.8719106 0.8280814
0.1972381 0.8238333 0.6702092
0.1550952 0.6770016 0.4417275
0.8567455 0.9413070 0.8354802
0.7265719 0.9188170 0.7700166
0.3798329 0.8488159 0.6211159
0.1615783 0.6995896 0.4631203
0.2460613 0.4543433 0.3515493
0.7964424 0.6438707 0.4010437
0.6695237 0.5242854 0.3669285
0.4327846 0.3388063 0.3123384
0.3032899 0.2377188 0.2717153
0.2758198 0.1858272 0.2392715
0.6321597 0.2693876 0.2530961
0.5434358 0.2216004 0.2388140
0.3673180 0.1594028 0.2157602
0.2816635 0.1322348 0.2004420
0.2643531 0.1242527 0.1901008
0.5041072 0.1741502 0.1940629
0.4398530 0.1555919 0.1881301
0.3282239 0.1289046 0.1788514
0.2730105 0.1180617 0.1720419
0.2609155 0.1156188 0.1677618
0.7635041 0.9118862 0.5846945
0.6331313 0.8866170 0.5318769
0.3382063 0.8324160 0.4453406
0.1815001 0.7690000 0.3542018
0.1463479 0.6465246 0.2816369
0.7564820 0.9089497 0.5627268
0.6290706 0.8845786 0.4969760
0.3443214 0.8134374 0.3811422
0.1866616 0.6641381 0.2861138
0.2638518 0.4284564 0.2372098
0.6889033 0.5145366 0.2249555
0.5899261 0.4324301 0.2205768
0.3952935 0.2992064 0.2064517
0.2977483 0.2168674 0.1885088
0.2740971 0.1734236 0.1735682
0.5517979 0.2138574 0.1716691
0.4769394 0.1826259 0.1673269
0.3437951 0.1451342 0.1598527
0.2764051 0.1242369 0.1532124
0.2618243 0.1194159 0.1512760
0.4461828 0.1513107 0.1558804
0.3918017 0.1387093 0.1533961
0.3111465 0.1223292 0.1498735
0.2685900 0.1147595 0.1468244
0.2586153 0.1126587 0.1459957
0.6090636 0.8364618 0.3197970
0.5189280 0.8037804 0.3039723
0.3145949 0.7149418 0.2777481
0.2256487 0.5958413 0.2572656
0.2527412 0.4684847 0.2340177
0.6032530 0.8338456 0.3181477
0.5125970 0.8004431 0.3025798
0.3145949 0.7149418 0.2777481
0.2256487 0.5958413 0.2572656
0.2611673 0.4307001 0.2277529
0.5709808 0.4330426 0.2101622
0.4983496 0.3769458 0.2059828
0.3626794 0.2851475 0.1958966
0.2912011 0.2152458 0.1806498
0.2721337 0.1726632 0.1679580
0.4614732 0.1776339 0.1606904
0.4064053 0.1620154 0.1582143
0.3190115 0.1370845 0.1526382
0.2702559 0.1227461 0.1488026
0.2617001 0.1184897 0.1469099
0.3799419 0.1352453 0.1495387
0.3496142 0.1287343 0.1482116
0.2955329 0.1187535 0.1454660
0.2644721 0.1133485 0.1439676
0.2586065 0.1124517 0.1432733
