data/spectral_luts/fp100c_fujiflex_new.cube
TITLE "fp100c_fujiflex_new"
LUT_3D_SIZE 33
0.9039839 0.9526584 0.9968358
0.9039839 0.9526584 0.9968358
0.9039839 0.9526584 0.9968358
0.9026783 0.9524711 0.9968176
0.9013737 0.9522842 0.9967992
0.8928662 0.9510622 0.9966782
0.8793799 0.9491171 0.9964795
0.8576665 0.9459662 0.9961430
0.8312580 0.9421040 0.9957061
0.7948512 0.9367324 0.9950547
0.7593976 0.9314577 0.9943672
0.7106411 0.9241549 0.9933394
0.6631476 0.9170189 0.9922525
0.6139247 0.9096428 0.9910461
0.5665445 0.9026123 0.9898197
0.5152353 0.8951444 0.9884373
0.4665815 0.8882793 0.9870953
0.4113412 0.8808507 0.9855678
0.3550794 0.8738236 0.9840517
0.2915240 0.8667355 0.9824531
0.2423723 0.8609083 0.9810872
0.2419528 0.8548813 0.9796258
0.2415865 0.8497768 0.9783494
0.2412145 0.8447325 0.9770533
0.2410288 0.8433850 0.9764062
0.2407315 0.8395994 0.9753706
0.2404498 0.8339584 0.9743890
0.2401057 0.8263811 0.9731899
0.2397086 0.8172743 0.9718066
0.2394580 0.8053071 0.9709336
0.2389812 0.7841534 0.9692724
0.2376557 0.7617536 0.9646538
0.2351902 0.7368955 0.9560640
0.9039839 0.9526584 0.9968358
0.9039839 0.9526584 0.9968358
0.9039839 0.9526584 0.9968358
0.9026783 0.9524711 0.9968176
0.9013737 0.9522842 0.9967992
0.8928662 0.9510622 0.9966782
0.8777929 0.9488876 0.9964556
0.8576665 0.9459662 0.9961430
0.8292677 0.9418117 0.9956719
0.7948512 0.9367324 0.9950547
0.7593976 0.9314577 0.9943672
0.7106411 0.9241549 0.9933394
0.6631476 0.9170189 0.9922525
0.6139247 0.9096428 0.9910461
0.5665445 0.9026123 0.9898197
0.5152353 0.8951444 0.9884373
0.4622758 0.8876850 0.9869760
0.4113412 0.8808507 0.9855678
0.3488194 0.8730822 0.9838878
0.2915240 0.8667355 0.9824531
0.2423723 0.8609083 0.9810872
0.2419528 0.8548813 0.9796258
0.2415865 0.8497768 0.9783494
0.2412378 0.8455214 0.9771346
0.2409780 0.8429103 0.9762295
0.2407067 0.8387705 0.9752840
0.2403988 0.8322807 0.9742114
0.2400399 0.8242550 0.9729611
0.2396027 0.8139202 0.9714378
0.2393173 0.7991470 0.9704431
0.2387190 0.7763605 0.9683587
0.2372077 0.7542984 0.9630930
0.2344712 0.7262049 0.9535586
0.9039839 0.9526584 0.9968358
0.9039839 0.9526584 0.9968358
0.9039839 0.9526584 0.9968358
0.9026783 0.9524711 0.9968176
0.9013737 0.9522842 0.9967992
0.8928662 0.9510622 0.9966782
0.8777929 0.9488876 0.9964556
0.8559002 0.9457088 0.9961147
0.8271621 0.9415023 0.9956357
0.7948512 0.9367324 0.9950547
0.7566326 0.9310448 0.9943115
0.7106411 0.9241549 0.9933394
0.6598762 0.9165276 0.9921749
0.6139247 0.9096428 0.9910461
0.5665445 0.9026123 0.9898197
0.5113398 0.8945858 0.9883305
0.4622758 0.8876850 0.9869760
0.4113412 0.8808507 0.9855678
0.3488194 0.8730822 0.9838878
0.2915240 0.8667355 0.9824531
0.2423128 0.8600417 0.9808801
0.2419528 0.8548813 0.9796258
0.2415248 0.8489317 0.9781346
0.2412637 0.8464000 0.9772249
0.2409776 0.8428964 0.9762281
0.2406610 0.8372480 0.9751248
0.2402701 0.8292896 0.9737630
0.2398868 0.8205432 0.9724274
0.2394748 0.8098978 0.9709921
0.2391397 0.7920142 0.9698244
0.2384028 0.7685377 0.9672569
0.2368559 0.7470238 0.9618675
0.2339773 0.7163228 0.9518379
0.9039839 0.9526584 0.9968358
0.9039839 0.9526584 0.9968358
0.9039839 0.9526584 0.9968358
0.9026783 0.9524711 0.9968176
0.9000698 0.9520971 0.9967809
0.8914189 0.9508539 0.9966573
0.8762077 0.9486580 0.9964316
0.8541354 0.9454515 0.9960864
0.8271621 0.9415023 0.9956357
0.7926171 0.9364010 0.9950130
0.7566326 0.9310448 0.9943115
0.7076189 0.9237014 0.9932727
0.6566073 0.9160366 0.9920967
0.6106192 0.9091496 0.9909623
0.5630600 0.9020996 0.9897274
0.5113398 0.8945858 0.9883305
0.4622758 0.8876850 0.9869760
0.4064140 0.8802114 0.9854327
0.3488194 0.8730822 0.9838878
0.2834246 0.8659076 0.9822618
0.2423128 0.8600417 0.9808801
0.2418923 0.8540277 0.9794148
0.2415584 0.8500803 0.9782516
0.2412194 0.8461405 0.9770705
0.2409403 0.8416423 0.9760981
0.2405699 0.8342321 0.9748074
0.2401623 0.8257834 0.9733874
0.2397442 0.8159969 0.9719305
0.2391849 0.8020754 0.9699818
0.2388209 0.7805666 0.9687136
0.2380238 0.7585292 0.9659366
0.2360467 0.7335368 0.9590479
0.2330248 0.7013421 0.9485194
0.9039839 0.9526584 0.9968358
0.9039839 0.9526584 0.9968358
0.9026783 0.9524711 0.9968176
0.9026783 0.9524711 0.9968176
0.9000698 0.9520971 0.9967809
0.8899727 0.9506456 0.9966362
0.8746231 0.9484288 0.9964076
0.8523719 0.9451944 0.9960580
0.8250586 0.9411929 0.9955992
0.7903847 0.9360700 0.9949710
0.7538709 0.9306321 0.9942554
0.7046001 0.9232478 0.9932057
0.6566073 0.9160366 0.9920967
0.6073148 0.9086568 0.9908785
0.5594532 0.9015694 0.9896316
0.5074390 0.8940280 0.9882236
0.4579592 0.8870913 0.9868562
0.4064140 0.8802114 0.9854327
0.3424942 0.8723421 0.9837232
0.2834246 0.8659076 0.9822618
0.2422533 0.8591772 0.9806725
0.2419256 0.8551822 0.9795310
0.2415897 0.8511521 0.9783607
0.2411867 0.8450323 0.9769564
0.2407749 0.8373452 0.9755217
0.2403723 0.8289727 0.9741191
0.2399690 0.8195626 0.9727139
0.2394872 0.8079135 0.9710352
0.2387358 0.7870624 0.9684172
0.2383838 0.7662640 0.9671906
0.2373324 0.7426719 0.9635276
0.2349422 0.7132595 0.9551996
0.2315612 0.6774160 0.9434198
0.9039839 0.9526584 0.9968358
0.9039839 0.9526584 0.9968358
0.9026783 0.9524711 0.9968176
0.9026783 0.9524711 0.9968176
0.8986670 0.9518959 0.9967611
0.8885273 0.9504374 0.9966152
0.8730400 0.9481995 0.9963835
0.8506104 0.9449372 0.9960293
0.8208576 0.9405748 0.9955258
0.7881548 0.9357390 0.9949289
0.7511115 0.9302199 0.9941992
0.7015837 0.9227948 0.9931384
0.6533405 0.9155461 0.9920184
0.6073148 0.9086568 0.9908785
0.5594532 0.9015694 0.9896316
0.5074390 0.8940280 0.9882236
0.4536293 0.8864983 0.9867362
0.4014611 0.8795730 0.9852972
0.3424942 0.8723421 0.9837232
0.2751526 0.8650815 0.9820701
0.2422992 0.8607882 0.9808326
0.2418965 0.8554213 0.9794295
0.2414801 0.8486674 0.9779786
0.2409855 0.8394868 0.9762554
0.2406027 0.8316547 0.9749216
0.2401525 0.8218552 0.9733533
0.2396106 0.8094140 0.9714652
0.2388886 0.7907334 0.9689495
0.2383716 0.7692502 0.9671483
0.2376945 0.7474063 0.9647893
0.2361209 0.7188780 0.9593064
0.2332209 0.6842884 0.9492027
0.2295078 0.6436123 0.9362654
0.9039839 0.9526584 0.9968358
0.9039839 0.9526584 0.9968358
0.9026783 0.9524711 0.9968176
0.9026783 0.9524711 0.9968176
0.8972149 0.9516873 0.9967405
0.8870832 0.9502293 0.9965941
0.8698781 0.9477410 0.9963349
0.8487237 0.9446618 0.9959984
0.8187606 0.9402657 0.9954889
0.7859271 0.9354083 0.9948866
0.7456021 0.9293960 0.9940858
0.6984368 0.9223219 0.9930679
0.6500754 0.9150560 0.9919395
0.6007077 0.9076725 0.9907097
0.5558446 0.9010399 0.9895353
0.5035331 0.8934707 0.9881163
0.4492866 0.8859061 0.9866158
0.3964802 0.8789356 0.9851615
0.3352447 0.8728378 0.9836773
0.2645820 0.8664592 0.9820937
0.2422389 0.8599039 0.9806225
0.2417931 0.8518510 0.9790692
0.2412330 0.8415634 0.9771177
0.2407694 0.8323241 0.9755027
0.2402592 0.8216977 0.9737249
0.2396794 0.8080538 0.9717048
0.2388172 0.7863244 0.9687009
0.2380995 0.7675277 0.9662002
0.2376063 0.7447579 0.9644819
0.2365915 0.7182993 0.9609460
0.2342730 0.6833174 0.9528683
0.2309287 0.6415938 0.9412162
0.2268949 0.6070514 0.9271618
0.9039839 0.9526584 0.9968358
0.9026783 0.9524711 0.9968176
0.9026783 0.9524711 0.9968176
0.9013737 0.9522842 0.9967992
0.8943148 0.9512705 0.9966990
0.8841484 0.9498059 0.9965509
0.8665230 0.9472540 0.9962826
0.8428851 0.9438082 0.9959022
0.8145720 0.9396483 0.9954145
0.7787435 0.9343405 0.9947488
0.7401038 0.9285732 0.9939716
0.6920181 0.9213573 0.9929228
0.6468121 0.9145664 0.9918606
0.5973271 0.9071693 0.9906231
0.5522339 0.9005110 0.9894388
0.4996201 0.8929142 0.9880087
0.4442756 0.8868011 0.9866332
0.3902127 0.8805957 0.9852424
0.3285182 0.8724254 0.9835434
0.2592377 0.8622081 0.9815641
0.2419880 0.8524082 0.9797483
0.2414926 0.8428550 0.9780222
0.2408706 0.8307760 0.9758550
0.2403085 0.8185650 0.9738966
0.2395631 0.8009773 0.9712996
0.2387682 0.7815148 0.9685301
0.2379986 0.7624711 0.9658487
0.2371773 0.7365422 0.9629872
0.2363118 0.7088116 0.9599717
0.2345034 0.6730430 0.9536710
0.2315414 0.6344805 0.9433510
0.2284979 0.6037284 0.9327470
0.2241578 0.5685557 0.9176252
0.9026783 0.9524711 0.9968176
0.9026783 0.9524711 0.9968176
0.9026783 0.9524711 0.9968176
0.9000698 0.9520971 0.9967809
0.8914189 0.9508539 0.9966573
0.8793799 0.9491171 0.9964795
0.8629755 0.9467386 0.9962273
0.8390018 0.9432399 0.9958373
0.8083046 0.9387230 0.9953020
0.7739241 0.9336233 0.9946551
0.7373592 0.9281621 0.9939141
0.6888131 0.9208757 0.9928499
0.6402911 0.9135884 0.9917018
0.5936708 0.9076306 0.9906200
0.5443698 0.9015952 0.9894364
0.4909922 0.8939408 0.9879876
0.4402815 0.8850245 0.9863999
0.3811603 0.8739600 0.9844312
0.3275026 0.8631052 0.9825326
0.2598206 0.8519735 0.9804288
0.2415956 0.8402727 0.9783813
0.2409924 0.8274844 0.9762793
0.2402032 0.8093770 0.9735297
0.2393590 0.7902634 0.9705886
0.2385259 0.7700558 0.9676860
0.2376085 0.7483396 0.9644894
0.2364959 0.7223747 0.9606133
0.2357164 0.6935365 0.9578971
0.2340005 0.6535002 0.9519188
0.2317104 0.6198071 0.9439397
0.2287909 0.5882098 0.9337677
0.2250848 0.5563533 0.9208550
0.2207469 0.5231407 0.9057414
0.9026783 0.9524711 0.9968176
0.9026783 0.9524711 0.9968176
0.9013737 0.9522842 0.9967992
0.8972149 0.9516873 0.9967405
0.8885273 0.9504374 0.9966152
0.8762077 0.9486580 0.9964316
0.8576665 0.9459662 0.9961430
0.8331911 0.9423879 0.9957391
0.8038110 0.9380589 0.9952202
0.7691140 0.9329069 0.9945607
0.7286134 0.9285197 0.9938684
0.6820176 0.9222531 0.9928999
0.6333348 0.9147431 0.9917251
0.5869877 0.9059713 0.9903865
0.5386520 0.8954979 0.9887883
0.4900812 0.8851655 0.9871225
0.4352111 0.8738080 0.9851948
0.3816409 0.8618318 0.9831612
0.3230931 0.8471910 0.9807205
0.2701803 0.8310470 0.9781479
0.2407553 0.8140414 0.9754535
0.2399337 0.7952948 0.9725909
0.2390325 0.7750990 0.9694509
0.2379374 0.7502067 0.9656354
0.2368947 0.7259289 0.9620025
0.2356823 0.6984578 0.9577783
0.2344072 0.6624858 0.9533357
0.2330481 0.6297899 0.9486004
0.2310298 0.5954880 0.9415684
0.2283901 0.5671577 0.9323714
0.2251495 0.5340465 0.9210806
0.2213983 0.5056567 0.9080110
0.2365253 0.4730749 0.8912395
0.9026783 0.9524711 0.9968176
0.9013737 0.9522842 0.9967992
0.8986670 0.9518959 0.9967611
0.8928662 0.9510622 0.9966782
0.8841484 0.9498059 0.9965509
0.8698435 0.9483524 0.9963819
0.8522586 0.9469473 0.9961938
0.8290894 0.9441450 0.9958548
0.7968664 0.9394276 0.9952847
0.7641775 0.9334019 0.9945638
0.7228901 0.9250158 0.9935240
0.6735315 0.9144159 0.9921347
0.6286156 0.9046729 0.9907715
0.5829400 0.8939387 0.9892231
0.5387860 0.8825295 0.9875454
0.4875895 0.8680500 0.9853736
0.4392081 0.8534525 0.9831263
0.3898744 0.8350887 0.9803522
0.3382303 0.8134848 0.9770410
0.2914571 0.7950881 0.9740704
0.2505679 0.7734774 0.9706777
0.2383549 0.7504085 0.9670900
0.2371540 0.7239470 0.9629059
0.2356714 0.6915748 0.9577404
0.2342381 0.6604762 0.9527466
0.2327870 0.6271253 0.9476909
0.2315636 0.5964330 0.9434281
0.2301172 0.5691910 0.9383887
0.2276348 0.5395613 0.9297400
0.2283569 0.5083151 0.9191397
0.2376238 0.4796780 0.9069803
0.2497627 0.4506105 0.8914493
0.2613445 0.4266579 0.8771503
0.9012698 0.9547430 0.9969852
0.8985599 0.9543656 0.9969480
0.8942031 0.9537417 0.9968865
0.8884127 0.9528330 0.9967974
0.8792754 0.9511219 0.9966329
0.8646853 0.9480688 0.9963378
0.8448720 0.9434695 0.9958858
0.8210987 0.9375495 0.9952860
0.7909342 0.9303241 0.9945068
0.7576201 0.9224374 0.9936020
0.7154075 0.9123021 0.9923658
0.6694443 0.9001833 0.9908244
0.6221792 0.8869594 0.9890568
0.5810788 0.8731734 0.9872025
0.5393801 0.8549814 0.9847853
0.4911845 0.8329125 0.9817034
0.4504544 0.8140844 0.9789268
0.4005343 0.7898144 0.9751911
0.3599434 0.7645174 0.9712729
0.3217407 0.7403181 0.9673359
0.2928375 0.7103956 0.9625365
0.2725611 0.6803449 0.9575941
0.2539672 0.6506881 0.9524625
0.2412103 0.6179745 0.9466296
0.2399077 0.5882956 0.9412693
0.2385805 0.5597710 0.9373580
0.2416572 0.5330068 0.9323698
0.2496440 0.5055472 0.9250468
0.2521892 0.4782052 0.9154390
0.2585549 0.4505838 0.9040561
0.2674125 0.4234322 0.8906788
0.2736363 0.3992335 0.8756362
0.2796457 0.3729036 0.8589225
0.8973122 0.9494379 0.9965690
0.8944322 0.9486275 0.9964972
0.8901204 0.9474481 0.9963912
0.8827713 0.9452454 0.9961937
0.8733587 0.9422295 0.9959205
0.8581463 0.9380054 0.9955192
0.8377863 0.9326042 0.9949824
0.8135988 0.9256720 0.9942733
0.7830037 0.9158295 0.9932374
0.7512621 0.9047036 0.9920205
0.7093852 0.8895453 0.9902672
0.6648136 0.8685941 0.9877992
0.6231951 0.8482019 0.9852417
0.5813571 0.8275831 0.9824844
0.5413319 0.8050444 0.9793593
0.4992262 0.7809355 0.9758126
0.4628475 0.7541674 0.9718043
0.4227686 0.7234102 0.9669220
0.3827731 0.6917433 0.9615722
0.3574620 0.6610097 0.9563352
0.3325586 0.6308015 0.9508777
0.3083597 0.6026985 0.9454904
0.2964081 0.5755783 0.9403139
0.2867668 0.5476934 0.9348077
0.2764526 0.5232375 0.9310105
0.2772786 0.4963118 0.9259289
0.2748664 0.4675015 0.9187409
0.2787395 0.4419099 0.9093853
0.2830203 0.4138524 0.8988651
0.2844126 0.3913016 0.8870111
0.2861196 0.3664698 0.8724032
0.2902272 0.3417019 0.8561944
0.2943779 0.3248481 0.8429936
0.8933778 0.9392501 0.9957640
0.8891053 0.9376054 0.9956185
0.8847950 0.9359941 0.9954741
0.8770135 0.9325278 0.9951653
0.8657760 0.9282287 0.9947678
0.8519967 0.9220785 0.9941950
0.8312492 0.9135271 0.9933619
0.8046054 0.9009576 0.9921018
0.7763860 0.8825763 0.9902284
0.7445604 0.8644853 0.9882350
0.7029354 0.8424600 0.9856110
0.6624602 0.8205503 0.9828202
0.6227672 0.7961016 0.9795577
0.5860329 0.7703182 0.9759551
0.5495216 0.7374958 0.9712044
0.5117161 0.7033111 0.9658788
0.4749469 0.6708787 0.9604350
0.4414533 0.6372194 0.9544923
0.4070851 0.6115505 0.9494698
0.3822803 0.5845883 0.9442002
0.3585844 0.5570258 0.9385787
0.3359426 0.5309916 0.9329961
0.3242130 0.5051408 0.9275271
0.3154362 0.4754454 0.9223214
0.3093514 0.4508736 0.9173128
0.3037598 0.4262892 0.9110824
0.3023578 0.4001579 0.9017882
0.2991553 0.3791710 0.8926516
0.2996932 0.3559551 0.8813066
0.2990523 0.3353561 0.8685845
0.3020687 0.3101880 0.8533202
0.3029782 0.2908472 0.8378522
0.3031549 0.2741118 0.8249693
0.8883023 0.9217045 0.9943290
0.8839420 0.9182658 0.9940258
0.8777907 0.9146410 0.9936957
0.8701704 0.9096228 0.9932355
0.8583438 0.9001532 0.9923574
0.8441866 0.8883766 0.9912311
0.8232172 0.8742195 0.9897961
0.7987967 0.8573247 0.9880010
0.7705541 0.8373207 0.9857588
0.7378271 0.8155569 0.9831469
0.6998985 0.7852120 0.9793211
0.6616408 0.7536238 0.9750338
0.6272783 0.7198325 0.9701829
0.5897588 0.6871900 0.9650706
0.5546268 0.6531782 0.9594268
0.5207118 0.6231394 0.9540449
0.4846092 0.5921592 0.9481139
0.4512694 0.5629250 0.9421902
0.4193579 0.5351213 0.9362295
0.3954746 0.5096524 0.9306471
0.3778307 0.4813798 0.9244369
0.3563200 0.4574311 0.9187218
0.3457141 0.4293968 0.9134268
0.3352855 0.4042227 0.9078892
0.3280230 0.3821354 0.9022326
0.3210167 0.3600775 0.8937753
0.3172405 0.3382925 0.8848093
0.3160887 0.3171153 0.8742723
0.3118622 0.2958768 0.8617357
0.3100024 0.2756651 0.8484430
0.3091133 0.2619597 0.8343192
0.3090328 0.2433457 0.8205268
0.3101370 0.2307345 0.8077338
0.8818433 0.8873317 0.9913329
0.8773109 0.8834512 0.9909601
0.8712685 0.8793732 0.9905572
0.8629082 0.8710900 0.9897434
0.8509592 0.8616378 0.9887770
0.8346402 0.8463522 0.9871763
0.8153804 0.8264865 0.9850093
0.7906714 0.8042902 0.9824269
0.7639608 0.7771765 0.9791043
0.7315440 0.7430053 0.9746196
0.6944432 0.7080722 0.9696155
0.6573385 0.6737114 0.9642975
0.6236333 0.6417606 0.9590093
0.5899446 0.6089639 0.9532323
0.5582340 0.5777085 0.9473813
0.5221009 0.5444907 0.9407122
0.4895882 0.5149100 0.9344020
0.4573998 0.4844095 0.9275638
0.4315790 0.4544483 0.9206643
0.4050222 0.4297082 0.9146724
0.3872766 0.4062405 0.9096873
0.3706116 0.3828340 0.9042242
0.3553948 0.3616728 0.8988926
0.3481284 0.3360100 0.8921258
0.3395112 0.3187147 0.8852639
0.3321453 0.2962409 0.8755758
0.3270055 0.2773532 0.8657854
0.3242259 0.2594615 0.8549229
0.3211732 0.2422263 0.8430993
0.3173525 0.2285360 0.8299115
0.3135116 0.2151608 0.8170720
0.3142506 0.2024883 0.8049569
0.3121683 0.1905175 0.7901022
0.8735923 0.8458298 0.9873605
0.8687829 0.8401285 0.9867638
0.8621314 0.8342089 0.9861249
0.8538570 0.8219111 0.9848008
0.8412749 0.8080410 0.9832376
0.8263449 0.7874482 0.9808466
0.8047519 0.7611770 0.9776078
0.7819582 0.7305005 0.9736044
0.7567250 0.6996065 0.9692784
0.7212907 0.6653708 0.9640534
0.6869449 0.6329483 0.9587389
0.6533623 0.5996473 0.9529380
0.6203942 0.5672964 0.9469296
0.5872585 0.5330846 0.9402083
0.5560022 0.4975531 0.9328616
0.5235734 0.4640805 0.9254461
0.4913709 0.4360013 0.9191279
0.4596579 0.4080413 0.9127645
0.4343008 0.3806676 0.9062396
0.4123363 0.3586614 0.9005657
0.3949369 0.3368718 0.8948138
0.3789485 0.3126155 0.8879509
0.3641889 0.2914625 0.8811473
0.3551789 0.2740843 0.8745543
0.3464253 0.2572263 0.8668953
0.3378271 0.2409075 0.8581129
0.3344225 0.2234564 0.8475418
0.3278724 0.2113190 0.8373600
0.3237461 0.1976672 0.8245108
0.3193125 0.1939024 0.8122114
0.3172018 0.1906121 0.8007473
0.3149811 0.1872614 0.7890730
0.3140623 0.1829221 0.7739542
0.8642264 0.7871282 0.9810832
0.8592948 0.7786636 0.9800880
0.8524691 0.7674544 0.9787395
0.8435064 0.7536014 0.9770235
0.8305836 0.7346833 0.9745914
0.8132354 0.7111716 0.9714203
0.7951202 0.6833911 0.9674981
0.7714564 0.6545678 0.9631419
0.7424293 0.6266577 0.9586014
0.7089051 0.5904472 0.9523891
0.6778028 0.5575246 0.9463561
0.6449786 0.5221679 0.9394793
0.6149675 0.4889751 0.9329616
0.5820993 0.4526979 0.9256772
0.5510170 0.4222645 0.9190456
0.5188991 0.3914777 0.9117286
0.4898673 0.3603222 0.9039412
0.4586164 0.3342431 0.8967644
0.4368185 0.3120081 0.8902468
0.4122165 0.2924866 0.8833418
0.3952732 0.2713344 0.8760806
0.3793150 0.2533065 0.8691856
0.3671694 0.2359697 0.8623821
0.3578405 0.2218871 0.8563163
0.3487296 0.2082209 0.8490635
0.3422671 0.2023899 0.8417829
0.3353224 0.1996764 0.8323287
0.3310787 0.1963862 0.8208654
0.3239907 0.1929679 0.8089554
0.3214746 0.1898846 0.7982128
0.3190684 0.1865409 0.7865629
0.3160862 0.1826581 0.7730345
0.3123238 0.1777076 0.7557861
0.8518255 0.7138576 0.9721116
0.8463812 0.7046330 0.9708583
0.8391908 0.6931927 0.9692683
0.8297683 0.6790599 0.9672496
0.8182973 0.6625084 0.9648100
0.8002762 0.6382313 0.9610768
0.7793632 0.6129679 0.9569808
0.7585778 0.5843455 0.9526224
0.7288312 0.5504187 0.9470095
0.6978711 0.5174745 0.9410158
0.6645929 0.4811453 0.9338095
0.6346827 0.4507662 0.9273077
0.6073235 0.4181334 0.9200548
0.5747097 0.3842386 0.9119169
0.5439020 0.3556033 0.9042931
0.5146589 0.3271731 0.8960889
0.4824628 0.2986627 0.8868673
0.4542319 0.2790203 0.8798749
0.4326361 0.2577049 0.8722293
0.4118709 0.2393409 0.8652096
0.3949839 0.2217915 0.8576769
0.3792880 0.2068614 0.8510896
0.3670117 0.2030140 0.8439575
0.3576953 0.2010512 0.8371187
0.3484966 0.1991336 0.8304377
0.3418022 0.1971879 0.8236583
0.3351250 0.1949891 0.8159977
0.3302563 0.1918726 0.8051391
0.3254827 0.1888503 0.7946090
0.3207909 0.1858893 0.7842926
0.3176931 0.1824505 0.7723111
0.3161497 0.1780576 0.7570056
0.3119296 0.1719618 0.7357669
0.8378210 0.6494046 0.9645402
0.8321750 0.6396363 0.9630765
0.8244903 0.6296561 0.9615877
0.8149727 0.6170382 0.9596157
0.8026436 0.5968230 0.9563961
0.7861068 0.5750092 0.9527094
0.7662413 0.5466656 0.9476877
0.7421440 0.5169709 0.9420961
0.7115186 0.4836186 0.9353029
0.6830608 0.4507374 0.9282378
0.6528915 0.4205266 0.9208676
0.6255931 0.3899986 0.9128885
0.5959412 0.3588760 0.9040835
0.5659077 0.3277380 0.8949817
0.5349776 0.2996152 0.8860467
0.5053154 0.2746885 0.8778523
0.4758685 0.2501509 0.8691266
0.4482823 0.2315241 0.8611743
0.4269183 0.2134264 0.8537840
0.4066459 0.2035083 0.8456798
0.3900414 0.2016414 0.8391749
0.3773833 0.1995481 0.8318816
0.3652382 0.1973713 0.8242975
0.3558421 0.1954429 0.8175785
0.3465587 0.1931186 0.8094804
0.3396187 0.1910304 0.8022047
0.3331147 0.1891503 0.7956544
0.3285033 0.1874735 0.7898120
0.3239673 0.1850001 0.7811943
0.3209395 0.1818709 0.7702919
0.3173361 0.1776182 0.7554749
0.3131641 0.1722161 0.7366533
0.3106615 0.1660940 0.7153230
0.8223189 0.5864943 0.9544705
0.8147721 0.5782015 0.9529573
0.8086078 0.5673454 0.9509377
0.7984018 0.5528722 0.9479348
0.7858943 0.5354497 0.9445134
0.7684952 0.5090701 0.9389408
0.7493501 0.4850887 0.9336092
0.7241944 0.4553180 0.9265375
0.6958735 0.4253938 0.9186925
0.6677447 0.3947951 0.9109205
0.6402566 0.3639479 0.9023219
0.6132371 0.3360330 0.8940544
0.5837969 0.3109892 0.8859988
0.5535194 0.2807118 0.8763776
0.5251502 0.2567302 0.8673152
0.4977854 0.2330517 0.8586727
0.4683385 0.2117037 0.8499982
0.4411569 0.2024193 0.8418852
0.4202323 0.2001276 0.8339008
0.4031487 0.1979923 0.8264610
0.3868366 0.1955870 0.8180808
0.3743246 0.1936463 0.8113190
0.3622022 0.1914834 0.8037832
0.3528644 0.1894328 0.7966385
0.3438463 0.1877903 0.7909159
0.3370097 0.1858201 0.7840515
0.3324566 0.1840377 0.7778412
0.3279717 0.1822691 0.7716792
0.3231317 0.1800431 0.7639235
0.3181541 0.1771272 0.7537642
0.3142830 0.1727811 0.7386216
0.3118325 0.1669707 0.7183774
0.3064602 0.1593491 0.6918226
0.8019218 0.5264391 0.9380833
0.7957624 0.5176895 0.9359372
0.7894372 0.5059980 0.9335823
0.7807680 0.4941055 0.9308933
0.7676262 0.4736560 0.9260417
0.7511812 0.4558133 0.9215205
0.7313772 0.4321233 0.9152973
0.7058500 0.4047585 0.9079956
0.6800427 0.3770800 0.8999869
0.6523741 0.3491887 0.8919066
0.6252283 0.3216884 0.8829850
0.5982202 0.2946131 0.8739150
0.5710412 0.2679439 0.8653621
0.5432485 0.2421413 0.8550317
0.5150325 0.2214375 0.8465251
0.4871567 0.2013596 0.8381932
0.4602718 0.1985582 0.8284328
0.4333690 0.1961760 0.8201329
0.4157295 0.1939912 0.8125206
0.3962245 0.1917647 0.8047633
0.3830391 0.1898768 0.7981856
0.3684208 0.1880231 0.7917271
0.3588212 0.1861890 0.7853369
0.3495319 0.1840738 0.7779670
0.3404664 0.1821225 0.7711684
0.3336830 0.1802024 0.7644783
0.3288241 0.1781151 0.7572061
0.3235857 0.1751690 0.7469416
0.3187044 0.1725410 0.7377851
0.3155558 0.1696596 0.7277460
0.3118158 0.1655622 0.7134701
0.3097678 0.1608667 0.6971102
0.3046018 0.1535965 0.6717798
0.7840926 0.4705211 0.9167657
0.7777847 0.4645136 0.9152213
0.7691309 0.4528624 0.9125472
0.7601590 0.4410432 0.9097958
0.7480925 0.4265340 0.9054060
0.7309865 0.4081571 0.8997512
0.7105197 0.3838266 0.8932998
0.6869311 0.3564483 0.8852108
0.6615894 0.3319687 0.8774492
0.6367886 0.3080089 0.8686563
0.6121317 0.2817388 0.8599399
0.5854321 0.2587382 0.8508432
0.5584465 0.2358041 0.8424858
0.5307339 0.2129060 0.8331775
0.5048587 0.1974462 0.8245585
0.4763322 0.1948131 0.8153844
0.4493501 0.1925741 0.8075835
0.4255722 0.1902901 0.7996255
0.4084221 0.1884211 0.7931136
0.3919187 0.1863150 0.7857756
0.3765774 0.1842574 0.7786068
0.3643499 0.1822373 0.7715684
0.3546654 0.1797944 0.7630572
0.3452661 0.1777461 0.7559205
0.3360533 0.1753676 0.7476333
0.3308477 0.1724716 0.7375432
0.3235042 0.1694386 0.7269759
0.3181718 0.1662384 0.7158260
0.3147985 0.1629133 0.7042409
0.3092093 0.1590032 0.6906176
0.3056899 0.1552656 0.6775951
0.3040054 0.1512383 0.6635635
0.3018811 0.1461608 0.6458727
0.7636608 0.4235264 0.8927951
0.7567786 0.4144595 0.8904352
0.7497700 0.4082860 0.8886313
0.7422118 0.3966246 0.8848092
0.7275074 0.3811654 0.8804513
0.7120928 0.3631824 0.8745747
0.6888165 0.3388885 0.8675318
0.6682958 0.3180008 0.8607329
0.6456150 0.2946906 0.8528232
0.6214287 0.2743236 0.8458670
0.5970822 0.2519911 0.8371745
0.5726494 0.2295127 0.8291654
0.5456563 0.2095347 0.8210995
0.5176987 0.1937496 0.8116789
0.4909472 0.1915736 0.8040973
0.4650669 0.1892002 0.7958282
0.4412690 0.1866035 0.7867810
0.4204696 0.1844082 0.7791321
0.4006824 0.1820972 0.7710801
0.3842857 0.1795570 0.7622299
0.3714731 0.1769428 0.7531218
0.3591087 0.1743905 0.7442290
0.3492080 0.1714959 0.7341438
0.3396072 0.1685446 0.7238611
0.3322574 0.1658313 0.7144076
0.3244884 0.1618547 0.7005526
0.3192777 0.1589891 0.6905684
0.3134975 0.1547803 0.6759045
0.3081968 0.1514810 0.6644090
0.3044767 0.1472519 0.6496744
0.3007254 0.1430325 0.6349735
0.2991318 0.1391740 0.6215299
0.2955298 0.1351034 0.6073474
0.7414511 0.3782054 0.8674552
0.7366301 0.3722712 0.8657060
0.7292227 0.3632437 0.8632453
0.7191777 0.3540314 0.8606684
0.7063745 0.3393334 0.8555257
0.6882679 0.3214161 0.8503858
