data/spectral_luts/fuji_superia_xtra_400_ca_dpii.cube
TITLE "fuji_superia_xtra_400_ca_dpii"
LUT_3D_SIZE 33
0.0284332 0.0828911 0.0943248
0.0285899 0.0829084 0.0943293
0.0324515 0.0833273 0.0944355
0.0392780 0.0840380 0.0946553
0.0482994 0.0849560 0.0948641
0.0580947 0.0860350 0.0950876
0.0695393 0.0873778 0.0953841
0.0850004 0.0892202 0.0957747
0.1038873 0.0915099 0.0962075
0.1259011 0.0941463 0.0966166
0.1533692 0.0973732 0.0969042
0.1827052 0.1007235 0.0970497
0.2139034 0.1041041 0.0970833
0.2484032 0.1075787 0.0967982
0.2840348 0.1110306 0.0963763
0.3238006 0.1145333 0.0955582
0.3700881 0.1179602 0.0941397
0.4109195 0.1204007 0.0925756
0.4492287 0.1230805 0.0909683
0.4892237 0.1264863 0.1012002
0.5271325 0.1316484 0.1120806
0.5566228 0.1360851 0.1205447
0.5834635 0.1417257 0.1282484
0.6110197 0.1477444 0.1361575
0.6366932 0.1559874 0.1435261
0.6620356 0.1679125 0.1507998
0.6797144 0.1775104 0.1558739
0.7034866 0.1917510 0.1626968
0.7210711 0.2038714 0.1677438
0.7364751 0.2161701 0.1721650
0.7518293 0.2313294 0.1765719
0.7674653 0.2476884 0.1810596
0.7826238 0.2681201 0.1854104
0.0283926 0.0829600 0.0943845
0.0290257 0.0830527 0.0944066
0.0329908 0.0835041 0.0945190
0.0399562 0.0842868 0.0947036
0.0487828 0.0852425 0.0949645
0.0586754 0.0863848 0.0951977
0.0706717 0.0878375 0.0955632
0.0863651 0.0897603 0.0960157
0.1038556 0.0919995 0.0964440
0.1259100 0.0947852 0.0968826
0.1534290 0.0980796 0.0971928
0.1840018 0.1017094 0.0973449
0.2141102 0.1051793 0.0974346
0.2502121 0.1088852 0.0971254
0.2844430 0.1125660 0.0967888
0.3242662 0.1161252 0.0960634
0.3705361 0.1193732 0.0945377
0.4115407 0.1222713 0.0930210
0.4524395 0.1260645 0.0914388
0.4904416 0.1299939 0.1015498
0.5279352 0.1339492 0.1123110
0.5577146 0.1392144 0.1208581
0.5846420 0.1450839 0.1285867
0.6124536 0.1518762 0.1365690
0.6387157 0.1618489 0.1441066
0.6630403 0.1708282 0.1510881
0.6821699 0.1846471 0.1565786
0.7048995 0.1959706 0.1631023
0.7222168 0.2073282 0.1680727
0.7381490 0.2212858 0.1726454
0.7533982 0.2360786 0.1770222
0.7697576 0.2548106 0.1817176
0.7843661 0.2737451 0.1859104
0.0280689 0.0832772 0.0945357
0.0293268 0.0834682 0.0945809
0.0333988 0.0839579 0.0947001
0.0405270 0.0847441 0.0949356
0.0491949 0.0857184 0.0951498
0.0591904 0.0869407 0.0954465
0.0717864 0.0885285 0.0958347
0.0862774 0.0904090 0.0962790
0.1038140 0.0926999 0.0967142
0.1283487 0.0959319 0.0972098
0.1535210 0.0991328 0.0975319
0.1841730 0.1028807 0.0977115
0.2143724 0.1065484 0.0978230
0.2506233 0.1106525 0.0976441
0.2848443 0.1140893 0.0972028
0.3247439 0.1177656 0.0964861
0.3710590 0.1210282 0.0948600
0.4124765 0.1251048 0.0934238
0.4534183 0.1289492 0.0917204
0.4916193 0.1334099 0.1018878
0.5295042 0.1384707 0.1127613
0.5594693 0.1442360 0.1213617
0.5882872 0.1501117 0.1296329
0.6141281 0.1566691 0.1370496
0.6409732 0.1683598 0.1447545
0.6653461 0.1775801 0.1517499
0.6849577 0.1886756 0.1573788
0.7074524 0.2036047 0.1638350
0.7249920 0.2157183 0.1688692
0.7413177 0.2309118 0.1735549
0.7578380 0.2470347 0.1782964
0.7714435 0.2601624 0.1822014
0.7868046 0.2816152 0.1866103
0.0276411 0.0841009 0.0948343
0.0295759 0.0843515 0.0948953
0.0340224 0.0849158 0.0950799
0.0408762 0.0857307 0.0952655
0.0494038 0.0867737 0.0955397
0.0595703 0.0881329 0.0959091
0.0715288 0.0897264 0.0962947
0.0875395 0.0918802 0.0967904
0.1055564 0.0943052 0.0972554
0.1283825 0.0974636 0.0976865
0.1566782 0.1011854 0.0980975
0.1844601 0.1048906 0.0983328
0.2201824 0.1090959 0.0982678
0.2510909 0.1126850 0.0981958
0.2922049 0.1167365 0.0975758
0.3334153 0.1206387 0.0966548
0.3722793 0.1249272 0.0956420
0.4140108 0.1297960 0.0941635
0.4549490 0.1334886 0.0926531
0.4956513 0.1389115 0.1030450
0.5336225 0.1445991 0.1139433
0.5611273 0.1490262 0.1218376
0.5906837 0.1570661 0.1303207
0.6169670 0.1649354 0.1378644
0.6432192 0.1749405 0.1453992
0.6690809 0.1885466 0.1528219
0.6884509 0.1990965 0.1583813
0.7113759 0.2117423 0.1649612
0.7280589 0.2249976 0.1697494
0.7427789 0.2354230 0.1739743
0.7599897 0.2538310 0.1789140
0.7753485 0.2727920 0.1833223
0.7907664 0.2948450 0.1877474
0.0267325 0.0858365 0.0953952
0.0299854 0.0861948 0.0954847
0.0344500 0.0868559 0.0956836
0.0413776 0.0876905 0.0959198
0.0502245 0.0888119 0.0962107
0.0597265 0.0901732 0.0965279
0.0732165 0.0920447 0.0970257
0.0887123 0.0942433 0.0974648
0.1073583 0.0970703 0.0979740
0.1309369 0.1004314 0.0984875
0.1569288 0.1040318 0.0988446
0.1884155 0.1079788 0.0990872
0.2207239 0.1119343 0.0990774
0.2580464 0.1162141 0.0988333
0.2951055 0.1213288 0.0984759
0.3349742 0.1260128 0.0975856
0.3762036 0.1305729 0.0963235
0.4247262 0.1355697 0.0943966
0.4662473 0.1412458 0.0946057
0.4980711 0.1460556 0.1037396
0.5357533 0.1508090 0.1145549
0.5659387 0.1573822 0.1232185
0.5934858 0.1652288 0.1311250
0.6230183 0.1778533 0.1396012
0.6492874 0.1883360 0.1471409
0.6740288 0.1988439 0.1542420
0.6910065 0.2067906 0.1591149
0.7143015 0.2205729 0.1658009
0.7312124 0.2347545 0.1706545
0.7493691 0.2529280 0.1758658
0.7638252 0.2661381 0.1800149
0.7793233 0.2859005 0.1844631
0.7955069 0.3082476 0.1891080
0.0262510 0.0889575 0.0963988
0.0300577 0.0896259 0.0966018
0.0347621 0.0901206 0.0967169
0.0415500 0.0910501 0.0969692
0.0498895 0.0922321 0.0972607
0.0602292 0.0935815 0.0975692
0.0734139 0.0952984 0.0979157
0.0898090 0.0977874 0.0984624
0.1071604 0.1003913 0.0989495
0.1309955 0.1038681 0.0993987
0.1572109 0.1075480 0.0997631
0.1890601 0.1125874 0.1001355
0.2216982 0.1171658 0.1001833
0.2595428 0.1227981 0.1000480
0.2966630 0.1273804 0.0995885
0.3390698 0.1334160 0.0986339
0.3787346 0.1389487 0.0976416
0.4298375 0.1445206 0.0953094
0.4692146 0.1502647 0.0954573
0.5009233 0.1545915 0.1045582
0.5395318 0.1619903 0.1156394
0.5706816 0.1714126 0.1245798
0.5986603 0.1805704 0.1326101
0.6274527 0.1911110 0.1408740
0.6527103 0.1985668 0.1481233
0.6781211 0.2111877 0.1554166
0.6966467 0.2239833 0.1607337
0.7186728 0.2341076 0.1670555
0.7373086 0.2504049 0.1724042
0.7532819 0.2654155 0.1769888
0.7695722 0.2849290 0.1816643
0.7842661 0.2994995 0.1858817
0.7994289 0.3219380 0.1902337
0.0260239 0.0931369 0.0976156
0.0299821 0.0940005 0.0978531
0.0348572 0.0945088 0.0979653
0.0413991 0.0959007 0.0982907
0.0501498 0.0968038 0.0985324
0.0603155 0.0984452 0.0988809
0.0745037 0.1007906 0.0993095
0.0905772 0.1039440 0.0998671
0.1088441 0.1069651 0.1003923
0.1336874 0.1112522 0.1009095
0.1620173 0.1153941 0.1012400
0.1949979 0.1208405 0.1015668
0.2289193 0.1262673 0.1015825
0.2614079 0.1314457 0.1015276
0.2989896 0.1367915 0.1010661
0.3417993 0.1434014 0.1001964
0.3906629 0.1491647 0.0983257
0.4329831 0.1546014 0.0967932
0.4754256 0.1629258 0.0972400
0.5148494 0.1704755 0.1085552
0.5473868 0.1797340 0.1178939
0.5757077 0.1866476 0.1260224
0.6117764 0.1978018 0.1363746
0.6321997 0.2055616 0.1422364
0.6589541 0.2176796 0.1499153
0.6833113 0.2272414 0.1569062
0.7026184 0.2381481 0.1624476
0.7257752 0.2566150 0.1690940
0.7433364 0.2698183 0.1741343
0.7604636 0.2892006 0.1790501
0.7760102 0.3035653 0.1835122
0.7898052 0.3187220 0.1874715
0.8035791 0.3367050 0.1914248
0.0238801 0.1016810 0.0996260
0.0281461 0.1021437 0.0997224
0.0326993 0.1037204 0.1000627
0.0400867 0.1044530 0.1002007
0.0491519 0.1062616 0.1005684
0.0603766 0.1074615 0.1008275
0.0736607 0.1101482 0.1013468
0.0902410 0.1129608 0.1017468
0.1102744 0.1162319 0.1021762
0.1372746 0.1206436 0.1026212
0.1660312 0.1262201 0.1030524
0.1961740 0.1305854 0.1032480
0.2292168 0.1366818 0.1033045
0.2703326 0.1436653 0.1029722
0.3089349 0.1492660 0.1022556
0.3535896 0.1569737 0.1013249
0.3950756 0.1646853 0.1000147
0.4383191 0.1724340 0.0987948
0.4807225 0.1800632 0.0987602
0.5202752 0.1876478 0.1101124
0.5523204 0.1952267 0.1193099
0.5902525 0.2074662 0.1301970
0.6176692 0.2162237 0.1380659
0.6452998 0.2257113 0.1459963
0.6664649 0.2364867 0.1520710
0.6898565 0.2480769 0.1587848
0.7137591 0.2608472 0.1656452
0.7346250 0.2817169 0.1716340
0.7510371 0.2956440 0.1763445
0.7665339 0.3100427 0.1807923
0.7851409 0.3254816 0.1861328
0.7987325 0.3413495 0.1900338
0.8094161 0.3583507 0.1931001
0.0199479 0.1129429 0.1019984
0.0245194 0.1134392 0.1020890
0.0297133 0.1139965 0.1022611
0.0379977 0.1148175 0.1023970
0.0463357 0.1172691 0.1028283
0.0595638 0.1186575 0.1030904
0.0746476 0.1215846 0.1035968
0.0914719 0.1255423 0.1041668
0.1144737 0.1299309 0.1045584
0.1397912 0.1352366 0.1050303
0.1701254 0.1407217 0.1053059
0.2016953 0.1469574 0.1054570
0.2374693 0.1528949 0.1053307
0.2736391 0.1613870 0.1050889
0.3112001 0.1678393 0.1045093
0.3585647 0.1771580 0.1031778
0.4000890 0.1835072 0.1016913
0.4439788 0.1925629 0.1008559
0.4870706 0.2017667 0.1005823
0.5264020 0.2079750 0.1118709
0.5590454 0.2172685 0.1212401
0.5964001 0.2274704 0.1319614
0.6263794 0.2387064 0.1405659
0.6529948 0.2508278 0.1482049
0.6795241 0.2639611 0.1558192
0.7002038 0.2774820 0.1617546
0.7241446 0.2913178 0.1686260
0.7415097 0.3054935 0.1736100
0.7579941 0.3201391 0.1783413
0.7785527 0.3381085 0.1842419
0.7941819 0.3552032 0.1887277
0.8080679 0.3732650 0.1927132
0.8190224 0.3826452 0.1958573
0.0133665 0.1285872 0.1049280
0.0181083 0.1291025 0.1050053
0.0216858 0.1320657 0.1054684
0.0295092 0.1328695 0.1056527
0.0410652 0.1339615 0.1057829
0.0554990 0.1373624 0.1063222
0.0719821 0.1398102 0.1066186
0.0918563 0.1441281 0.1071144
0.1147690 0.1469443 0.1073196
0.1418732 0.1530529 0.1076414
0.1741059 0.1591761 0.1077094
0.2072039 0.1661506 0.1077126
0.2445767 0.1728297 0.1073383
0.2817815 0.1801330 0.1070050
0.3225289 0.1877536 0.1060897
0.3631924 0.1979683 0.1051066
0.4150439 0.2065678 0.1031547
0.4588231 0.2132773 0.1020170
0.5022591 0.2246649 0.1049416
0.5332232 0.2319783 0.1138287
0.5752286 0.2446666 0.1258849
0.6051373 0.2575886 0.1344691
0.6343507 0.2660530 0.1428538
0.6631666 0.2800694 0.1511244
0.6897588 0.2940569 0.1587567
0.7073808 0.3027160 0.1638145
0.7315204 0.3175569 0.1707429
0.7490963 0.3330041 0.1757875
0.7670528 0.3493941 0.1809413
0.7873523 0.3674133 0.1867675
0.8003038 0.3789056 0.1904848
0.8143185 0.3982657 0.1945072
0.8274764 0.4172747 0.1982837
0.0125358 0.1491200 0.1083393
0.0126211 0.1496978 0.1084044
0.0127065 0.1502735 0.1084657
0.0202934 0.1511113 0.1086313
0.0319634 0.1546813 0.1091442
0.0505294 0.1563993 0.1093457
0.0685563 0.1590879 0.1095963
0.0907451 0.1641061 0.1100355
0.1168833 0.1673493 0.1101631
0.1464683 0.1746196 0.1104652
0.1776334 0.1814694 0.1105443
0.2138504 0.1861308 0.1099667
0.2466597 0.1940254 0.1093981
0.2849281 0.2029288 0.1090125
0.3265799 0.2111544 0.1079835
0.3744414 0.2210878 0.1067053
0.4214582 0.2351520 0.1048785
0.4665777 0.2451994 0.1036290
0.5100274 0.2551250 0.1071712
0.5501807 0.2630857 0.1186958
0.5843772 0.2788835 0.1285107
0.6128688 0.2862397 0.1366882
0.6442800 0.3027876 0.1457036
0.6714221 0.3105230 0.1534938
0.6983442 0.3260036 0.1612209
0.7221814 0.3361429 0.1680625
0.7408118 0.3528003 0.1734097
0.7583200 0.3636298 0.1784348
0.7788999 0.3822473 0.1843415
0.7957864 0.4015554 0.1891882
0.8087571 0.4137328 0.1929110
0.8225529 0.4334087 0.1968706
0.8346663 0.4450345 0.2003473
0.0163432 0.1729710 0.1118571
0.0164539 0.1736130 0.1119048
0.0165545 0.1741942 0.1119446
0.0167334 0.1752234 0.1121927
0.0200802 0.1766273 0.1122634
0.0376563 0.1815723 0.1127516
0.0618134 0.1850305 0.1129609
0.0883835 0.1879793 0.1131312
0.1179581 0.1953175 0.1133652
0.1481218 0.1993156 0.1133166
0.1816542 0.2089055 0.1131827
0.2188738 0.2179008 0.1127278
0.2535573 0.2238593 0.1116627
0.2935841 0.2332577 0.1108226
0.3394416 0.2447197 0.1092650
0.3803923 0.2556127 0.1085688
0.4350813 0.2677847 0.1058268
0.4805384 0.2774214 0.1043461
0.5174883 0.2876695 0.1093126
0.5586647 0.2983038 0.1211308
0.5916383 0.3086404 0.1305947
0.6244502 0.3247511 0.1400122
0.6600194 0.3359898 0.1502211
0.6799371 0.3444227 0.1559378
0.7079018 0.3645690 0.1639640
0.7316369 0.3742399 0.1707764
0.7487817 0.3853714 0.1756972
0.7720655 0.4046566 0.1823800
0.7882820 0.4169200 0.1870344
0.8037073 0.4361238 0.1914616
0.8166138 0.4487081 0.1951660
0.8309231 0.4676080 0.1992730
0.8416777 0.4778729 0.2023597
0.0215147 0.2006401 0.1152633
0.0216477 0.2012971 0.1152856
0.0218054 0.2020735 0.1153076
0.0222934 0.2044551 0.1156417
0.0234360 0.2099154 0.1159730
0.0238619 0.2119105 0.1162103
0.0506421 0.2146964 0.1163898
0.0800204 0.2190326 0.1165404
0.1154158 0.2274823 0.1166993
0.1501320 0.2320948 0.1164176
0.1825466 0.2423268 0.1159673
0.2228407 0.2481050 0.1152576
0.2615064 0.2579897 0.1140685
0.3038382 0.2700055 0.1126867
0.3493279 0.2760592 0.1102486
0.3945251 0.2885333 0.1090638
0.4407195 0.3010986 0.1066535
0.4874488 0.3137715 0.1039680
0.5324941 0.3265567 0.1136195
0.5668260 0.3365891 0.1234732
0.6071704 0.3492616 0.1350527
0.6385732 0.3614248 0.1440657
0.6686252 0.3737465 0.1526911
0.6965551 0.3860193 0.1607074
0.7148825 0.3952852 0.1659676
0.7408355 0.4148535 0.1734165
0.7594478 0.4266947 0.1787585
0.7796918 0.4391900 0.1845688
0.7957548 0.4511207 0.1891792
0.8110480 0.4708808 0.1935685
0.8242707 0.4806925 0.1973636
0.8359272 0.4923609 0.2007092
0.8482966 0.5114141 0.2042594
0.0287310 0.2333822 0.1192036
0.0289083 0.2341223 0.1191980
0.0291004 0.2349213 0.1191877
0.0294564 0.2363941 0.1191568
0.0302390 0.2395950 0.1194689
0.0308527 0.2420717 0.1193492
0.0327400 0.2495126 0.1195751
0.0727055 0.2533134 0.1198687
0.1126605 0.2594713 0.1197197
0.1465842 0.2689357 0.1195630
0.1888225 0.2749546 0.1189738
0.2249249 0.2873481 0.1180198
0.2666048 0.2935007 0.1163938
0.3111140 0.3075073 0.1148071
0.3522398 0.3133433 0.1122402
0.4065529 0.3286209 0.1084465
0.4566655 0.3414609 0.1051681
0.5038964 0.3560513 0.1054115
0.5388883 0.3627762 0.1154547
0.5836173 0.3769424 0.1282926
0.6147016 0.3876360 0.1372142
0.6464829 0.4008004 0.1463359
0.6767497 0.4134687 0.1550229
0.7048647 0.4261827 0.1630923
0.7297645 0.4364475 0.1702390
0.7476959 0.4481062 0.1753855
0.7707331 0.4609127 0.1819976
0.7879336 0.4731967 0.1869344
0.8039951 0.4927154 0.1915442
0.8170493 0.5017394 0.1952910
0.8305956 0.5136340 0.1991790
0.8421117 0.5251299 0.2024843
0.8529441 0.5367985 0.2055933
0.0377262 0.2680405 0.1229972
0.0379338 0.2687799 0.1229612
0.0382645 0.2699531 0.1228972
0.0386288 0.2712384 0.1235677
0.0412575 0.2803749 0.1233510
0.0420131 0.2830074 0.1238791
0.0430785 0.2867194 0.1234630
0.0520088 0.2906568 0.1234535
0.1011425 0.3034148 0.1231110
0.1452778 0.3087730 0.1219361
0.1855577 0.3145018 0.1213113
0.2272746 0.3266629 0.1197683
0.2721728 0.3356924 0.1185076
0.3194573 0.3490572 0.1154206
0.3610164 0.3574347 0.1125863
0.4098349 0.3709981 0.1091822
0.4607942 0.3781811 0.1043373
0.5088845 0.3933527 0.1068432
0.5553764 0.4082703 0.1201870
0.5875192 0.4151870 0.1294125
0.6213660 0.4264774 0.1391270
0.6618773 0.4408174 0.1507543
0.6839598 0.4532177 0.1570923
0.7121779 0.4655765 0.1651914
0.7372138 0.4759888 0.1723770
0.7551405 0.4880914 0.1775223
0.7781027 0.5005667 0.1841127
0.7951710 0.5122378 0.1890116
0.8096954 0.5242108 0.1931803
0.8238928 0.5336397 0.1972552
0.8362423 0.5456755 0.2007997
0.8475934 0.5566152 0.2040576
0.8588725 0.5664958 0.2072949
0.0489908 0.3073188 0.1269569
0.0492805 0.3083279 0.1268642
0.0495802 0.3093722 0.1267623
0.0500818 0.3111198 0.1274660
0.0522506 0.3186764 0.1269937
0.0531601 0.3218452 0.1265627
0.0546069 0.3268861 0.1269037
0.0561395 0.3322256 0.1259359
0.0925084 0.3377104 0.1257278
0.1385902 0.3512620 0.1246464
0.1873349 0.3579479 0.1233400
0.2350064 0.3651834 0.1218685
0.2831315 0.3807868 0.1186839
0.3245487 0.3874260 0.1166000
0.3712058 0.4010226 0.1125097
0.4223329 0.4110311 0.1077694
0.4726861 0.4247468 0.1013042
0.5207277 0.4320036 0.1102423
0.5600424 0.4461042 0.1215262
0.6035413 0.4612006 0.1340110
0.6359875 0.4659021 0.1433236
0.6678904 0.4789276 0.1524802
0.6961376 0.4916008 0.1605875
0.7235436 0.5039100 0.1684535
0.7424731 0.5074117 0.1738865
0.7666885 0.5200802 0.1808367
0.7848686 0.5320795 0.1860546
0.8004218 0.5441585 0.1905186
0.8194745 0.5538337 0.1959871
0.8324798 0.5660430 0.1997198
0.8453125 0.5769304 0.2034030
0.8559456 0.5856002 0.2064548
0.8636560 0.5970930 0.2103186
0.0599482 0.3454958 0.1311074
0.0603201 0.3467915 0.1309399
0.0611999 0.3498571 0.1306440
0.0616103 0.3512867 0.1304358
0.0623748 0.3539506 0.1300187
0.0633710 0.3574212 0.1305858
0.0644740 0.3612645 0.1298566
0.0680731 0.3738041 0.1293724
0.0726431 0.3798622 0.1278052
0.1362930 0.3864678 0.1267606
0.1908855 0.3939026 0.1256232
0.2317093 0.4080223 0.1235558
0.2851619 0.4162430 0.1195257
0.3313877 0.4238367 0.1171488
0.3807849 0.4394847 0.1121942
0.4312386 0.4479355 0.1101871
0.4855370 0.4643865 0.1034695
0.5343200 0.4716669 0.1141435
0.5713165 0.4832021 0.1247620
0.6069795 0.4905815 0.1349979
0.6408673 0.5042759 0.1447242
0.6728585 0.5153386 0.1539061
0.7004462 0.5220489 0.1618242
0.7276758 0.5322848 0.1696395
0.7530879 0.5451704 0.1769331
0.7723109 0.5570816 0.1824504
0.7892196 0.5609585 0.1873035
0.8101262 0.5728964 0.1933040
0.8240852 0.5847036 0.1973104
0.8368987 0.5953095 0.2009881
0.8493516 0.6041864 0.2045622
0.8602178 0.6154191 0.2076810
0.8712493 0.6258700 0.2148424
0.0696916 0.3794434 0.1353675
0.0701211 0.3809398 0.1351277
0.0704362 0.3820377 0.1349448
0.0711157 0.3844050 0.1345300
0.0719286 0.3872373 0.1350742
0.0747457 0.3970525 0.1343049
0.0760278 0.4015194 0.1332865
0.0777661 0.4075759 0.1334601
0.0793599 0.4131290 0.1318645
0.1331895 0.4207774 0.1312871
0.1829251 0.4292661 0.1305561
0.2394699 0.4430924 0.1259702
0.2885361 0.4510473 0.1241067
0.3349724 0.4587925 0.1218862
0.3869336 0.4750762 0.1166161
0.4425778 0.4842262 0.1117167
0.4950979 0.5002555 0.1043665
0.5363312 0.5068147 0.1147208
0.5821537 0.5216981 0.1278725
0.6175619 0.5274745 0.1380352
0.6513303 0.5383571 0.1477272
0.6829799 0.5451794 0.1568111
0.7126504 0.5583514 0.1653270
0.7315038 0.5619905 0.1707382
0.7586929 0.5751655 0.1785418
0.7761500 0.5861830 0.1835523
0.7985119 0.5962690 0.1899705
0.8141171 0.6020386 0.1944494
0.8279846 0.6130387 0.1984296
0.8415743 0.6219194 0.2023300
0.8532289 0.6333786 0.2056751
0.8629839 0.6360833 0.2088315
0.8739929 0.6469378 0.2238635
0.0790801 0.4121540 0.1409940
0.0794377 0.4134000 0.1407630
0.0798147 0.4147137 0.1405115
0.0804550 0.4169444 0.1400656
0.0819646 0.4222041 0.1410141
0.0844465 0.4308513 0.1395616
0.0855683 0.4347598 0.1385671
0.0872485 0.4406140 0.1389750
0.0893968 0.4480988 0.1366299
0.1284765 0.4566040 0.1360834
0.1863759 0.4635222 0.1332871
0.2389552 0.4767141 0.1309192
0.2883152 0.4864966 0.1288411
0.3408031 0.4948616 0.1236546
0.3962750 0.5042325 0.1197352
0.4503476 0.5189491 0.1144425
0.5065881 0.5300912 0.1129298
0.5455708 0.5418592 0.1173727
0.5834773 0.5479721 0.1282524
0.6200543 0.5609025 0.1387505
0.6537638 0.5662097 0.1484256
0.6863265 0.5790848 0.1577716
0.7154285 0.5843217 0.1661243
0.7425439 0.5968864 0.1739068
0.7619284 0.6035380 0.1794705
0.7857225 0.6137463 0.1862997
0.8019551 0.6249396 0.1909587
0.8174235 0.6284323 0.1953984
0.8312494 0.6404200 0.1993666
0.8451195 0.6515141 0.2033475
0.8557711 0.6544179 0.2064047
0.8665575 0.6650228 0.2160792
0.8775185 0.6759772 0.2317193
0.0884830 0.4449150 0.1479963
0.0889114 0.4464078 0.1476922
0.0893644 0.4479861 0.1473597
0.0900726 0.4504535 0.1468170
0.0909209 0.4534092 0.1461292
0.0921840 0.4578101 0.1472252
0.0935049 0.4624122 0.1460057
0.0952678 0.4685544 0.1441993
0.0990889 0.4818677 0.1432913
0.1267820 0.4888798 0.1406496
0.1900958 0.4967386 0.1401206
0.2492057 0.5050067 0.1361456
0.3007238 0.5151559 0.1341560
0.3555036 0.5296190 0.1301745
0.4019831 0.5371878 0.1245682
0.4610552 0.5473092 0.1200923
0.5060081 0.5622416 0.1221574
0.5570100 0.5705742 0.1245490
0.5948974 0.5769431 0.1315301
0.6312904 0.5905396 0.1419755
0.6626349 0.5957674 0.1509718
0.6948919 0.6084180 0.1602300
0.7239043 0.6132401 0.1685570
0.7452758 0.6252254 0.1746909
0.7698565 0.6308502 0.1817459
0.7887267 0.6428027 0.1871620
0.8041172 0.6464095 0.1915793
0.8205742 0.6576989 0.1963027
0.8392596 0.6694072 0.2016657
0.8506759 0.6724941 0.2049423
0.8629780 0.6834645 0.2099413
0.8705709 0.6943604 0.2317511
0.8796871 0.6971639 0.2469348
0.0974670 0.4762166 0.1534802
0.0979922 0.4780464 0.1530635
0.0983624 0.4793364 0.1554025
0.0992685 0.4824934 0.1546613
0.1002265 0.4858311 0.1538286
0.1012343 0.4893425 0.1528957
0.1026173 0.4941611 0.1515162
0.1051508 0.5029882 0.1520917
0.1068450 0.5088908 0.1500566
0.1299886 0.5163467 0.1471769
0.1978022 0.5247546 0.1469615
0.2574230 0.5403099 0.1422838
0.3031430 0.5479265 0.1420375
0.3621844 0.5581197 0.1407422
0.4235863 0.5681536 0.1334520
0.4677829 0.5832990 0.1302607
0.5132553 0.5913732 0.1305186
0.5648318 0.6003398 0.1330922
0.6033548 0.6143385 0.1371100
0.6396942 0.6206704 0.1443875
0.6731421 0.6264307 0.1539875
0.6963497 0.6382377 0.1606484
0.7257942 0.6432537 0.1690994
0.7528661 0.6535093 0.1768695
0.7723493 0.6596565 0.1824614
0.7912727 0.6711323 0.1878927
0.8126035 0.6756680 0.1940150
0.8272312 0.6869664 0.1982133
0.8411618 0.6904750 0.2022116
0.8534168 0.7009377 0.2098595
0.8654810 0.7094641 0.2235971
0.8753042 0.7142009 0.2386293
0.8821606 0.7224745 0.2566867
0.1055972 0.5045434 0.1667311
0.1062065 0.5066664 0.1662567
0.1064717 0.5075904 0.1660443
0.1074804 0.5111048 0.1652043
0.1081529 0.5134479 0.1646147
0.1096872 0.5187935 0.1631773
0.1115436 0.5252616 0.1656674
0.1131574 0.5308841 0.1639504
0.1154467 0.5388604 0.1612283
0.1248339 0.5506664 0.1622655
0.2055650 0.5595619 0.1585113
0.2584222 0.5668119 0.1550365
0.3158928 0.5782347 0.1553367
0.3650140 0.5869780 0.1563682
0.4282131 0.6028410 0.1500114
0.4768037 0.6134162 0.1496788
0.5228704 0.6217649 0.1498452
0.5723963 0.6296909 0.1423720
0.6112787 0.6418973 0.1450198
0.6399694 0.6489359 0.1470399
0.6739525 0.6549169 0.1542201
0.7062026 0.6659710 0.1634763
0.7354923 0.6728603 0.1718829
0.7544991 0.6818091 0.1773382
0.7809165 0.6863964 0.1849203
0.7978727 0.6973914 0.1897870
0.8146230 0.7014066 0.1945946
0.8293545 0.7111481 0.1988228
0.8433748 0.7147502 0.2028468
0.8555093 0.7247788 0.2183337
0.8670679 0.7280424 0.2337656
0.8773755 0.7376798 0.2483916
0.8871335 0.7407496 0.2648168
0.1138543 0.5333123 0.1812381
0.1145252 0.5356500 0.1807288
0.1149977 0.5372962 0.1819970
0.1157027 0.5397525 0.1814364
0.1168901 0.5438896 0.1804380
0.1181483 0.5482731 0.1793029
0.1195622 0.5531995 0.1830837
0.1218497 0.5611696 0.1809883
0.1249752 0.5720590 0.1781636
0.1272338 0.5799283 0.1808628
0.2122618 0.5892780 0.1772254
0.2678379 0.5968236 0.1738927
0.3186561 0.6070117 0.1754165
0.3855790 0.6176512 0.1695784
0.4363028 0.6317704 0.1692106
0.4827636 0.6403182 0.1704332
0.5296584 0.6479863 0.1646179
0.5707087 0.6571690 0.1655780
0.6101491 0.6696798 0.1681650
0.6471626 0.6754710 0.1625654
0.6813254 0.6833035 0.1644191
0.7135590 0.6936725 0.1657306
0.7362911 0.6979174 0.1721122
0.7625352 0.7041851 0.1796446
0.7823002 0.7126482 0.1853175
0.7989261 0.7158850 0.1900893
0.8163907 0.7257845 0.1951019
0.8359028 0.7302321 0.2045311
0.8487654 0.7393305 0.2184747
0.8611478 0.7427744 0.2340635
0.8687186 0.7515693 0.2524344
0.8784251 0.7547076 0.2691981
0.8886774 0.7632923 0.2861353
0.1220831 0.5619825 0.1998923
0.1228313 0.5645894 0.1993619
0.1232775 0.5661440 0.1990343
0.1240794 0.5689382 0.1984236
0.1249065 0.5718198 0.1977638
0.1262537 0.5765135 0.1966212
0.1278695 0.5821434 0.2006333
0.1298320 0.5889810 0.1987692
0.1334051 0.6014301 0.1976582
0.1349803 0.6069184 0.1958338
0.2206393 0.6175004 0.1980193
0.2789186 0.6253693 0.1948531
0.3335923 0.6345419 0.1972293
0.3884464 0.6447287 0.1926427
0.4414202 0.6543094 0.1943911
0.4920339 0.6672099 0.1881979
0.5384953 0.6757563 0.1900231
0.5806490 0.6825901 0.1849570
0.6198780 0.6913290 0.1869455
0.6563209 0.7020713 0.1885965
0.6906267 0.7096335 0.1913607
0.7135309 0.7131214 0.1880681
0.7423727 0.7227648 0.1936562
0.7630619 0.7267132 0.1989543
0.7827622 0.7318617 0.2040767
0.8063354 0.7402850 0.2080364
0.8214806 0.7433261 0.2144497
0.8371329 0.7512994 0.2196810
0.8495685 0.7548206 0.2354379
0.8620980 0.7596138 0.2513970
0.8725842 0.7669580 0.2706662
0.8794424 0.7701235 0.2792428
0.8895377 0.7769403 0.2969247
0.1298289 0.5889701 0.2208814
0.1303077 0.5906382 0.2205748
0.1311581 0.5936013 0.2200079
0.1316588 0.5953456 0.2196607
0.1325432 0.5984271 0.2190225
0.1339620 0.6033702 0.2179297
