data/spectral_luts/fuji_pro_160c_ca_maxima.cube
TITLE "fuji_pro_160c_ca_maxima"
LUT_3D_SIZE 9
0.0236300 0.0651090 0.0776153
0.0313358 0.0659538 0.0778419
0.0843785 0.0719518 0.0792803
0.1913093 0.0828049 0.0802635
0.3416891 0.0924346 0.0782759
0.4959081 0.1031187 0.1031187
0.6138219 0.1369617 0.1369617
0.6909493 0.1590984 0.1590984
0.7474658 0.1753195 0.1753195
0.0222741 0.0695340 0.0790988
0.0334420 0.0711706 0.0796177
0.0897947 0.0785062 0.0815424
0.2025634 0.0917415 0.0829083
0.3573929 0.1060265 0.0821635
0.5162086 0.1158960 0.1089453
0.6268274 0.1406945 0.1406945
0.7069104 0.1636795 0.1636795
0.7622328 0.1971840 0.1795578
0.0074927 0.1045086 0.0870828
0.0305414 0.1073121 0.0878234
0.1013611 0.1190752 0.0898941
0.2227817 0.1401895 0.0925836
0.3861471 0.1636834 0.0915290
0.5509499 0.1872711 0.1189165
0.6638969 0.2143643 0.1513340
0.7401952 0.2513550 0.1732327
0.7960114 0.2986782 0.1892528
0.0217714 0.2019065 0.1033187
0.0236692 0.2110107 0.1043222
0.1123039 0.2263003 0.1051538
0.2590393 0.2590647 0.1051801
0.4415025 0.2972073 0.1025717
0.6003790 0.3321347 0.1331034
0.7149841 0.3684514 0.1659968
0.7890335 0.4099283 0.1872500
0.8391336 0.4512878 0.2016295
0.0626708 0.3549817 0.1194243
0.0649406 0.3628899 0.1190098
0.0981352 0.3903582 0.1167692
0.3002130 0.4216859 0.1100951
0.4956415 0.4627346 0.1030422
0.6532355 0.5033226 0.1482740
0.7601362 0.5383734 0.1789561
0.8278311 0.5664384 0.1983855
0.8686317 0.5907084 0.2304607
0.1003263 0.4861789 0.1442893
0.1030899 0.4958075 0.1445671
0.1230259 0.5239246 0.1420486
0.3484717 0.5589757 0.1373481
0.5452076 0.6012199 0.1333448
0.6865923 0.6354841 0.1578479
0.7853901 0.6622939 0.1862043
0.8469902 0.6838011 0.2236090
0.8863093 0.7082024 0.2778395
0.1342108 0.6042372 0.2039040
0.1366469 0.6127248 0.2014540
0.2241531 0.6351948 0.1981969
0.4216747 0.6684572 0.1999579
0.5892227 0.7020347 0.1993591
0.7192597 0.7266896 0.2079913
0.8080105 0.7491656 0.2394129
0.8616198 0.7689332 0.2924362
0.8974412 0.7843497 0.3481371
0.1584917 0.6888354 0.2802943
0.2197036 0.6970876 0.2783638
0.3537596 0.7158619 0.2788554
0.5011460 0.7421739 0.2853594
0.6385062 0.7702065 0.2917159
0.7453859 0.7897743 0.3076104
0.8246565 0.8092325 0.3358322
0.8733414 0.8226121 0.3753671
0.9038657 0.8334839 0.4123586
0.3568270 0.7639246 0.3783623
0.3890968 0.7686158 0.3775524
0.4702403 0.7825071 0.3810179
0.5792265 0.8005966 0.3829153
0.6871170 0.8222257 0.3933676
0.7755021 0.8375793 0.4046355
0.8372017 0.8496969 0.4237744
0.8800219 0.8611698 0.4497038
0.9083372 0.8689291 0.4823277
0.0225938 0.0660465 0.0844176
0.0314743 0.0672810 0.0854524
0.0855383 0.0734470 0.0878462
0.1953304 0.0846807 0.0905127
0.3423482 0.0944797 0.0912072
0.4966849 0.1033417 0.1033417
0.6143045 0.1371002 0.1371002
0.6905735 0.1589905 0.1589905
0.7460877 0.1749240 0.1749240
0.0209648 0.0707480 0.0881466
0.0333374 0.0728285 0.0894169
0.0917156 0.0801132 0.0922919
0.2024559 0.0934723 0.0961490
0.3576098 0.1068829 0.0968710
0.5166084 0.1163135 0.1090600
0.6250172 0.1401749 0.1401749
0.7050133 0.1631350 0.1631350
0.7599948 0.1928736 0.1789155
0.0072914 0.1078649 0.1023007
0.0276197 0.1109460 0.1042008
0.1014119 0.1236480 0.1083444
0.2270138 0.1442955 0.1118385
0.3867408 0.1673559 0.1130336
0.5517007 0.1895108 0.1191320
0.6631725 0.2116345 0.1511261
0.7404507 0.2519658 0.1733061
0.7942376 0.2926426 0.1887437
0.0234871 0.2101557 0.1281344
0.0258131 0.2207968 0.1302048
0.1031413 0.2344261 0.1321497
0.2563676 0.2675464 0.1344586
0.4416733 0.3054855 0.1321837
0.6007729 0.3362492 0.1339414
0.7155045 0.3713827 0.1661461
0.7893179 0.4114029 0.1873317
0.8391336 0.4512878 0.2016295
0.0660243 0.3666659 0.1575778
0.0690044 0.3770490 0.1592379
0.0762277 0.4022160 0.1599024
0.2928682 0.4336254 0.1603405
0.4935052 0.4744366 0.1581656
0.6528950 0.5112728 0.1614377
0.7600843 0.5424424 0.1789412
0.8278753 0.5682393 0.1987769
0.8686497 0.5912509 0.2358135
0.1040654 0.4992063 0.2002071
0.1074080 0.5108523 0.2037662
0.1154775 0.5389677 0.2021667
0.3385869 0.5718089 0.2021188
0.5412459 0.6136882 0.1997576
0.6851948 0.6436988 0.2048955
0.7866207 0.6691854 0.2234680
0.8469186 0.6884945 0.2507629
0.8864308 0.7111945 0.2880524
0.1376805 0.6163262 0.2587245
0.1403037 0.6254659 0.2571438
0.2026876 0.6461811 0.2598907
0.4140083 0.6774830 0.2607674
0.5852553 0.7117950 0.2621484
0.7170827 0.7359901 0.2720823
0.8067088 0.7564757 0.2982447
0.8610299 0.7721792 0.3247406
0.8972350 0.7856411 0.3615417
0.1615181 0.6993797 0.3403462
0.1977169 0.7057791 0.3394748
0.3417582 0.7254922 0.3425079
0.4949106 0.7502396 0.3468020
0.6346706 0.7780895 0.3550633
0.7432754 0.7973112 0.3615267
0.8233928 0.8147995 0.3820245
0.8726171 0.8257084 0.4079918
0.9036121 0.8358781 0.4283904
0.3484035 0.7696930 0.4250780
0.3816519 0.7743899 0.4245502
0.4808738 0.7900440 0.4224237
0.5855516 0.8072465 0.4253923
0.6847826 0.8271496 0.4369171
0.7739568 0.8420914 0.4454302
0.8362100 0.8534961 0.4582561
0.8793814 0.8642566 0.4774145
0.9080329 0.8701950 0.4973316
0.0188990 0.0704143 0.1182818
0.0296345 0.0719219 0.1205294
0.0890168 0.0784396 0.1246050
0.1995621 0.0903850 0.1338293
0.3534628 0.1004781 0.1425469
0.5092460 0.1069469 0.1548151
0.6203748 0.1388425 0.1711327
0.6975977 0.1610066 0.1953479
0.7537270 0.1771166 0.2244338
0.0160986 0.0750790 0.1271295
0.0315746 0.0772564 0.1287413
0.0931663 0.0849873 0.1354904
0.2078689 0.0981941 0.1448844
0.3592245 0.1115656 0.1561964
0.5196184 0.1212243 0.1657134
0.6290588 0.1413349 0.1849909
0.7094286 0.1644023 0.2049299
0.7633774 0.1969860 0.2326150
0.0141475 0.1138304 0.1596702
0.0181634 0.1189639 0.1644599
0.0999841 0.1319179 0.1724143
0.2299916 0.1525389 0.1818732
0.3975086 0.1757379 0.1897170
0.5546634 0.1979485 0.2024661
0.6673704 0.2215686 0.2137189
0.7475637 0.2604030 0.2379473
0.7998073 0.3000241 0.2676926
0.0271799 0.2267898 0.2109479
0.0294325 0.2362952 0.2140336
0.0898442 0.2519218 0.2194688
0.2563068 0.2837318 0.2307517
0.4479893 0.3215216 0.2371530
0.6092967 0.3537822 0.2444013
0.7179064 0.3857978 0.2618773
0.7919009 0.4252472 0.2821048
0.8414952 0.4641660 0.3101768
0.0728059 0.3902940 0.2603396
0.0751972 0.3986256 0.2664456
0.0829315 0.4255730 0.2677301
0.2781146 0.4545141 0.2765369
0.4873544 0.4942866 0.2824624
0.6510395 0.5305600 0.2921759
0.7599875 0.5607097 0.3084497
0.8282171 0.5840657 0.3342695
0.8691828 0.6051508 0.3584401
0.1112850 0.5243606 0.3162829
0.1139896 0.5337836 0.3165508
0.1223628 0.5629572 0.3241491
0.3299724 0.5937167 0.3272745
0.5324412 0.6336524 0.3357002
0.6808490 0.6629967 0.3442928
0.7844527 0.6873078 0.3594211
0.8456243 0.7057245 0.3860433
0.8854960 0.7243004 0.4048140
0.1438621 0.6378638 0.3799507
0.1465495 0.6472270 0.3853715
0.1792212 0.6666411 0.3847741
0.4088631 0.6980785 0.3875561
0.5852609 0.7304542 0.3970600
0.7119113 0.7524211 0.4072763
0.8037767 0.7707486 0.4180657
0.8590293 0.7851842 0.4366766
0.8958250 0.7970055 0.4621813
0.1656601 0.7138112 0.4445491
0.1850034 0.7228740 0.4444119
0.3415851 0.7416241 0.4490907
0.4948089 0.7661129 0.4555452
0.6396652 0.7920744 0.4579801
0.7474371 0.8108768 0.4693283
0.8206629 0.8258759 0.4813624
0.8708729 0.8349916 0.4913956
0.9021373 0.8438522 0.5106604
0.3338321 0.7790420 0.5066586
0.3830481 0.7864011 0.5064539
0.4710779 0.8001549 0.5140546
0.5790935 0.8167866 0.5127127
0.6880726 0.8367392 0.5162356
0.7728016 0.8508955 0.5284819
0.8395082 0.8623517 0.5381457
0.8816804 0.8715385 0.5515215
0.9068187 0.8766626 0.5625075
0.0212368 0.0751480 0.1992587
0.0317332 0.0771207 0.2017946
0.0966544 0.0844466 0.2128015
0.2125771 0.0964620 0.2256657
0.3667959 0.1060566 0.2437099
0.5182437 0.1123001 0.2600169
0.6298833 0.1415716 0.2876611
0.7087401 0.1642047 0.3145196
0.7627277 0.1805961 0.3451290
0.0230383 0.0777774 0.2080330
0.0337609 0.0800882 0.2108791
0.0987402 0.0873476 0.2223687
0.2131952 0.0992152 0.2373354
0.3686561 0.1122203 0.2522913
0.5236146 0.1211012 0.2744118
0.6398040 0.1444190 0.2962846
0.7141004 0.1657431 0.3216667
0.7682831 0.1988783 0.3525096
0.0358563 0.1181559 0.2612699
0.0370791 0.1231541 0.2657200
0.1057920 0.1363529 0.2798631
0.2360656 0.1565056 0.2937205
0.4066328 0.1795823 0.3082993
0.5581958 0.2023764 0.3278398
0.6712198 0.2248425 0.3438496
0.7518088 0.2657574 0.3675159
0.8037203 0.3054429 0.3939328
0.0570041 0.2388092 0.3352382
0.0578619 0.2483567 0.3382269
0.0747560 0.2638407 0.3502326
0.2615747 0.2978439 0.3649843
0.4460105 0.3320876 0.3767379
0.6100740 0.3641148 0.3857108
0.7197324 0.3955959 0.4016821
0.7975840 0.4352899 0.4239725
0.8434100 0.4730944 0.4412862
0.0786435 0.4106328 0.4047599
0.0808225 0.4182248 0.4067793
0.0887730 0.4459256 0.4190626
0.2784904 0.4737949 0.4232928
0.4891903 0.5121045 0.4382811
0.6557035 0.5472214 0.4455861
0.7592723 0.5754182 0.4579496
0.8283542 0.5969870 0.4703683
0.8696415 0.6174256 0.4917107
0.1175071 0.5460392 0.4624540
0.1204067 0.5561420 0.4642367
0.1278107 0.5819385 0.4698660
0.3246759 0.6146927 0.4775356
0.5328614 0.6531358 0.4858087
0.6858459 0.6816971 0.4924344
0.7819550 0.7014280 0.5015137
0.8487580 0.7187334 0.5138282
0.8875427 0.7361698 0.5268421
0.1488146 0.6551192 0.5129403
0.1515092 0.6645073 0.5140488
0.1569944 0.6836186 0.5157800
0.3922763 0.7132536 0.5250028
0.5771323 0.7447292 0.5298724
0.7160103 0.7669974 0.5335718
0.8008033 0.7838058 0.5459377
0.8604464 0.7976475 0.5587722
0.8943621 0.8065815 0.5723677
0.1705491 0.7308449 0.5639820
0.1724516 0.7374735 0.5645323
0.3381770 0.7557478 0.5656176
0.4993346 0.7801394 0.5715134
0.6331989 0.8040604 0.5793970
0.7434537 0.8220151 0.5839475
0.8179143 0.8362909 0.5915419
0.8687705 0.8452526 0.6025439
0.9005065 0.8534763 0.6168903
0.3327975 0.7913925 0.6108357
0.3880566 0.7986717 0.6112173
0.4737291 0.8109141 0.6116260
0.5851105 0.8290431 0.6202762
0.6856580 0.8467315 0.6256975
0.7751504 0.8607906 0.6338014
0.8371104 0.8709014 0.6390786
0.8799115 0.8793571 0.6442887
0.9052708 0.8844500 0.6583214
0.0506755 0.0714216 0.3131883
0.0520215 0.0727799 0.3165164
0.1144549 0.0801125 0.3287636
0.2287265 0.0930731 0.3459445
0.3834607 0.1060579 0.3668117
0.5361608 0.1154439 0.3879196
0.6468368 0.1464375 0.4087641
0.7249915 0.1688690 0.4358543
0.7765706 0.1965664 0.4587457
0.0506755 0.0714216 0.3131883
0.0548604 0.0730692 0.3167871
0.1180836 0.0804929 0.3290746
0.2334629 0.0934037 0.3462015
0.3906095 0.1061058 0.3670031
0.5361608 0.1154439 0.3879196
0.6468368 0.1464375 0.4087641
0.7249915 0.1688690 0.4358543
0.7765706 0.1965664 0.4587457
0.0670812 0.1108888 0.3703482
0.0686889 0.1168801 0.3759497
0.1268439 0.1270367 0.3894683
0.2499047 0.1480077 0.4042736
0.4167353 0.1706617 0.4223976
0.5671266 0.1930268 0.4406584
0.6796551 0.2198905 0.4579459
0.7534140 0.2559853 0.4763121
0.8065906 0.3029271 0.5005082
0.0898579 0.2412251 0.4497053
0.0908478 0.2480703 0.4531545
0.1019115 0.2668627 0.4680232
0.2760565 0.3002030 0.4813645
0.4647546 0.3300979 0.4960940
0.6201196 0.3656477 0.5091847
0.7284052 0.3996187 0.5232408
0.7995856 0.4390326 0.5375528
0.8476524 0.4774548 0.5568071
0.1110350 0.4217454 0.5234895
0.1124883 0.4292137 0.5285530
0.1144028 0.4504254 0.5352233
0.2821373 0.4828435 0.5500540
0.4978859 0.5203049 0.5560963
0.6545254 0.5539358 0.5667936
0.7657648 0.5826419 0.5762102
0.8286888 0.6035124 0.5934241
0.8724772 0.6234153 0.6026489
0.1274932 0.5619197 0.5808321
0.1281547 0.5706981 0.5831368
0.1299672 0.5894518 0.5875052
0.3241836 0.6266367 0.6014338
0.5403635 0.6630574 0.6079400
0.6899123 0.6925539 0.6147553
0.7857144 0.7116610 0.6233230
0.8479865 0.7280513 0.6348501
0.8870762 0.7449361 0.6434113
0.1531397 0.6701881 0.6328690
0.1552368 0.6774949 0.6343257
0.1693673 0.6987782 0.6379232
0.4111653 0.7266099 0.6415027
0.5839503 0.7559453 0.6516085
0.7125633 0.7762955 0.6576387
0.8052714 0.7935359 0.6660180
0.8590618 0.8057047 0.6712908
0.8933821 0.8141075 0.6789127
0.1734897 0.7410907 0.6736842
0.1932163 0.7514256 0.6752006
0.3440876 0.7676455 0.6773453
0.5030960 0.7899847 0.6820128
0.6372404 0.8142462 0.6884288
0.7404135 0.8298378 0.6939237
0.8203992 0.8455235 0.7015703
0.8672850 0.8523656 0.7063615
0.8994102 0.8600335 0.7138542
0.3413904 0.8009442 0.7110343
0.3912534 0.8080527 0.7118310
0.4817724 0.8207796 0.7131082
0.5800034 0.8356816 0.7191654
0.6897929 0.8549576 0.7225618
0.7728006 0.8675683 0.7276669
0.8353877 0.8775712 0.7324989
0.8785658 0.8858257 0.7373389
0.9042708 0.8896746 0.7421823
0.0816166 0.0816166 0.4209915
0.0822408 0.0819422 0.4221262
0.1455926 0.0854685 0.4344122
0.2579690 0.0905856 0.4522410
0.4093278 0.1061933 0.4758671
0.5549800 0.1222360 0.4935135
0.6657431 0.1518639 0.5156565
0.7379988 0.1773084 0.5380771
0.7891923 0.2204654 0.5619561
0.0816166 0.0816166 0.4209915
0.0858664 0.0826233 0.4244992
0.1488026 0.0862482 0.4371286
0.2579690 0.0905856 0.4522410
0.4187807 0.1063189 0.4762459
0.5632451 0.1224454 0.4937016
0.6657431 0.1518639 0.5156565
0.7379988 0.1773084 0.5380771
0.7891923 0.2204654 0.5619561
0.0924396 0.0964784 0.4587005
0.0931178 0.0996564 0.4610633
0.1553530 0.1141108 0.4725941
0.2735673 0.1341126 0.4933248
0.4380521 0.1584644 0.5122376
0.5790039 0.1800161 0.5303805
0.6891126 0.2095599 0.5484308
0.7599666 0.2472622 0.5692770
0.8093548 0.2963400 0.5913616
0.1174659 0.2404376 0.5458958
0.1185676 0.2459705 0.5497341
0.1389691 0.2666412 0.5620918
0.2960308 0.2910729 0.5754468
0.4748337 0.3262650 0.5939754
0.6291370 0.3647773 0.6078225
0.7357793 0.3992914 0.6215979
0.8044872 0.4284738 0.6361369
0.8479037 0.4669046 0.6510538
0.1401968 0.4293022 0.6250935
0.1411280 0.4365745 0.6283378
0.1438529 0.4545417 0.6378316
0.3144845 0.4898570 0.6503648
0.5151737 0.5254954 0.6630038
0.6615703 0.5576649 0.6703665
0.7641736 0.5787051 0.6800171
0.8330770 0.6066894 0.6897581
0.8734155 0.6262913 0.6986102
0.1556746 0.5716718 0.6790202
0.1563963 0.5794575 0.6815349
0.1580580 0.5991949 0.6873243
0.3484679 0.6348728 0.7017751
0.5469272 0.6707382 0.7099288
0.6887285 0.6906300 0.7169663
0.7901858 0.7183876 0.7214546
0.8478509 0.7318589 0.7268970
0.8870953 0.7487279 0.7349930
0.1686109 0.6812499 0.7240922
0.1691789 0.6892389 0.7260713
0.2055787 0.7076951 0.7302123
0.4170114 0.7340798 0.7372766
0.5901308 0.7629413 0.7455577
0.7175682 0.7826505 0.7473306
0.8043448 0.7987537 0.7550244
0.8584697 0.8096991 0.7600553
0.8952330 0.8194608 0.7673782
0.1790624 0.7544273 0.7605067
0.2310241 0.7612708 0.7618580
0.3713452 0.7773132 0.7647189
0.5136595 0.7972263 0.7676464
0.6464139 0.8180686 0.7741432
0.7451400 0.8355837 0.7775594
0.8194222 0.8473381 0.7824346
0.8709702 0.8575633 0.7871479
0.9015512 0.8648946 0.7939592
0.3703753 0.8103814 0.7881239
0.4175595 0.8166510 0.7891049
0.4894066 0.8267852 0.7905508
0.5993690 0.8438751 0.7965500
0.6978135 0.8586063 0.7979153
0.7773153 0.8723943 0.8007627
0.8384519 0.8820502 0.8051568
0.8808820 0.8901172 0.8114401
0.9061878 0.8938021 0.8155553
0.1184787 0.1097984 0.5191810
0.1184787 0.1097984 0.5191810
0.1798055 0.1137217 0.5328503
0.2917529 0.1199051 0.5543942
0.4464362 0.1256618 0.5744513
0.5843771 0.1429795 0.5909728
0.6860500 0.1737982 0.6136674
0.7567182 0.2083657 0.6332709
0.8070993 0.2591889 0.6530540
0.1184787 0.1097984 0.5191810
0.1184787 0.1097984 0.5191810
0.1840242 0.1150569 0.5375023
0.2917529 0.1199051 0.5543942
0.4464362 0.1256618 0.5744513
0.5843771 0.1429795 0.5909728
0.6860500 0.1737982 0.6136674
0.7567182 0.2083657 0.6332709
0.8070993 0.2591889 0.6530540
0.1149801 0.1134190 0.5317957
0.1223828 0.1137232 0.5328555
0.1897306 0.1184950 0.5494810
0.3039403 0.1234314 0.5666804
0.4565198 0.1413357 0.5859732
0.5948225 0.1645875 0.6026091
0.6969193 0.1957323 0.6227421
0.7660398 0.2357569 0.6433786
0.8126741 0.2803652 0.6615483
0.1388939 0.2374222 0.6205538
0.1397955 0.2416704 0.6236952
0.1819781 0.2626402 0.6364338
0.3248010 0.2864640 0.6500702
0.4959820 0.3210323 0.6688943
0.6381074 0.3590023 0.6834247
0.7424523 0.3940883 0.6954699
0.8066302 0.4263744 0.7078483
0.8521138 0.4656550 0.7228313
0.1621079 0.4362031 0.7014346
0.1630591 0.4430631 0.7047488
0.1652940 0.4606284 0.7125356
0.3503827 0.4945523 0.7254729
0.5367479 0.5261314 0.7360411
0.6788871 0.5600665 0.7485800
0.7717633 0.5776854 0.7514149
0.8379967 0.6009507 0.7605191
0.8744503 0.6271385 0.7677191
0.1772605 0.5810162 0.7542285
0.1780493 0.5887447 0.7569767
0.1796761 0.6059949 0.7626449
0.3886545 0.6421895 0.7734504
0.5692241 0.6674426 0.7789807
0.7046759 0.6945133 0.7885884
0.7903059 0.7202603 0.7933294
0.8515758 0.7341623 0.7984840
0.8895895 0.7508046 0.8018376
0.1879925 0.6890680 0.7916204
0.1886473 0.6972783 0.7939019
0.2633634 0.7174962 0.7988616
0.4429256 0.7402778 0.8055362
0.6100476 0.7681326 0.8100440
0.7256785 0.7861332 0.8159326
0.8087672 0.8014786 0.8192051
0.8627815 0.8134965 0.8238019
0.8952727 0.8213484 0.8261821
0.1962221 0.7605821 0.8202934
0.2722242 0.7681124 0.8219834
0.3953780 0.7840404 0.8251513
0.5334001 0.8035368 0.8285881
0.6535378 0.8213823 0.8345524
0.7526096 0.8398166 0.8381835
0.8248571 0.8501097 0.8390708
0.8707736 0.8604503 0.8432224
0.9014709 0.8677185 0.8488872
0.4003466 0.8174112 0.8449779
0.4452036 0.8235267 0.8460856
0.5141720 0.8333789 0.8477415
0.6074628 0.8472331 0.8514423
0.7038438 0.8622568 0.8532661
0.7841890 0.8761550 0.8576677
0.8420611 0.8850911 0.8583598
0.8806484 0.8925247 0.8635431
0.9060530 0.8960630 0.8637375
0.1635268 0.1354899 0.6086939
0.1635268 0.1354899 0.6086939
0.2142507 0.1391341 0.6213909
0.3245267 0.1439691 0.6382366
0.4809620 0.1546253 0.6566619
0.6121731 0.1816300 0.6734729
0.7066309 0.2167761 0.6932926
0.7773044 0.2632766 0.7104560
0.8213655 0.3035939 0.7250212
0.1635268 0.1354899 0.6086939
0.1635268 0.1354899 0.6086939
0.2185032 0.1392750 0.6218815
0.3308442 0.1444273 0.6398330
0.4809620 0.1546253 0.6566619
0.6121731 0.1816300 0.6734729
0.7127954 0.2168074 0.6934670
0.7773044 0.2632766 0.7104560
0.8215254 0.3031672 0.7284698
0.1635268 0.1354899 0.6086939
0.1635268 0.1354899 0.6086939
0.2273033 0.1395602 0.6228753
0.3394214 0.1446213 0.6405091
0.4904386 0.1550769 0.6571511
0.6181993 0.1817158 0.6736923
0.7127954 0.2168074 0.6934670
0.7773044 0.2632766 0.7104560
0.8258629 0.3111819 0.7301351
0.1561259 0.2389186 0.6805924
0.1564697 0.2405449 0.6817904
0.2317194 0.2592848 0.6938132
0.3624721 0.2844971 0.7076697
0.5244383 0.3161695 0.7217641
0.6537801 0.3451680 0.7342202
0.7503779 0.3881773 0.7513083
0.8113441 0.4211358 0.7598575
0.8534079 0.4606976 0.7758102
0.1765854 0.4344478 0.7518765
0.1779874 0.4482210 0.7567611
0.1963573 0.4652344 0.7656069
0.3873938 0.4960205 0.7780034
0.5581470 0.5279631 0.7903459
0.6881096 0.5508787 0.7974278
0.7779118 0.5778289 0.8038582
0.8390486 0.6006885 0.8123648
0.8775938 0.6250591 0.8189264
0.1916468 0.5890747 0.8043526
0.1925489 0.5976072 0.8074954
0.2147343 0.6134691 0.8129211
0.4163711 0.6465582 0.8230468
0.5903622 0.6709497 0.8289660
0.7113181 0.6959615 0.8381103
0.8021038 0.7142657 0.8406956
0.8554260 0.7352926 0.8445497
0.8897845 0.7457730 0.8501985
0.2017720 0.7000247 0.8396300
0.2022917 0.7063072 0.8414407
0.3174717 0.7249629 0.8477212
0.4809313 0.7468129 0.8528108
0.6299253 0.7734117 0.8574582
0.7404847 0.7892648 0.8614217
0.8135330 0.8031936 0.8659053
0.8662186 0.8149721 0.8683887
0.8981918 0.8227710 0.8717584
0.2690390 0.7691808 0.8640684
0.3281347 0.7768529 0.8657501
0.4250574 0.7893858 0.8685077
0.5569717 0.8082599 0.8721634
0.6721163 0.8262489 0.8749994
0.7585812 0.8417745 0.8782640
0.8291355 0.8528235 0.8821640
0.8737954 0.8619581 0.8842492
0.9035273 0.8690052 0.8873019
0.4437497 0.8245566 0.8834388
0.4732443 0.8286970 0.8842390
0.5392508 0.8389026 0.8860360
0.6281661 0.8520873 0.8881838
0.7105178 0.8643321 0.8899050
0.7893090 0.8785549 0.8939760
0.8419456 0.8861482 0.8959939
0.8840908 0.8939367 0.8966343
0.9078674 0.8979239 0.8994360
0.2170500 0.1582085 0.6878489
0.2170500 0.1582085 0.6878489
0.2542632 0.1598422 0.6935408
0.3679076 0.1780441 0.7084241
0.5181945 0.2130504 0.7265705
0.6400734 0.2431929 0.7407410
0.7332501 0.2782793 0.7539161
0.7957298 0.3214346 0.7719925
0.8393859 0.3694870 0.7870118
0.2170500 0.1582085 0.6878489
0.2170500 0.1582085 0.6878489
0.2597889 0.1604287 0.6955843
0.3751978 0.1877216 0.7111515
0.5181945 0.2130504 0.7265705
0.6400734 0.2431929 0.7407410
0.7332501 0.2782793 0.7539161
0.7957298 0.3214346 0.7719925
0.8393859 0.3694870 0.7870118
0.2170500 0.1582085 0.6878489
0.2170500 0.1582085 0.6878489
0.2651736 0.1605872 0.6961364
0.3825523 0.1884887 0.7117019
0.5254945 0.2135464 0.7269532
0.6492559 0.2508182 0.7426935
0.7345870 0.2856471 0.7570574
0.7989458 0.3215581 0.7720761
0.8422559 0.3696226 0.7870776
0.2000167 0.2331606 0.7210175
0.2000167 0.2331606 0.7210175
0.2723269 0.2492816 0.7308709
0.4006982 0.2811037 0.7476892
0.5446451 0.3133264 0.7614830
0.6695476 0.3394538 0.7732831
0.7549973 0.3736608 0.7865736
0.8162160 0.4186339 0.8004368
0.8576312 0.4590358 0.8110091
0.1885173 0.4441683 0.7934489
0.1890813 0.4481334 0.7954137
0.2588100 0.4684548 0.8044259
0.4230514 0.4995187 0.8163958
0.5791658 0.5272263 0.8261153
0.7020435 0.5515125 0.8346494
0.7898068 0.5783041 0.8421715
0.8429152 0.5980870 0.8466860
0.8811283 0.6249548 0.8544445
0.2021110 0.5990626 0.8408114
0.2032128 0.6062956 0.8446499
0.3020567 0.6231633 0.8504385
0.4648637 0.6533480 0.8593414
0.6079318 0.6734422 0.8644475
0.7265931 0.6980742 0.8700982
0.8085240 0.7152091 0.8727226
0.8601863 0.7360964 0.8789248
0.8923389 0.7462953 0.8813378
0.2107946 0.7092620 0.8710661
0.2407656 0.7157546 0.8729410
0.3669218 0.7316666 0.8782122
0.5212792 0.7530875 0.8833182
0.6497849 0.7768050 0.8898216
0.7467991 0.7906476 0.8932799
0.8198341 0.8045110 0.8950811
0.8697101 0.8159068 0.8974683
0.9003611 0.8235220 0.9005165
0.3430460 0.7793315 0.8932723
0.3926278 0.7856647 0.8947703
0.4664165 0.7957849 0.8970281
0.5802135 0.8123105 0.9014735
0.6896964 0.8294468 0.9043488
0.7722889 0.8443714 0.9083521
0.8334710 0.8539958 0.9095153
0.8769035 0.8629494 0.9114207
0.9036340 0.8695362 0.9120090
0.4847590 0.8316584 0.9098935
0.5123095 0.8356233 0.9106750
0.5635140 0.8431225 0.9120837
0.6483502 0.8557256 0.9142401
0.7262377 0.8679405 0.9160280
0.7964457 0.8801682 0.9185308
0.8471401 0.8874713 0.9212738
0.8867372 0.8955155 0.9220168
0.9079271 0.8984598 0.9222823
