data/spectral_luts/fuji_pro_160c_ca_maxima.cube
TITLE "fuji_pro_160c_ca_maxima"
LUT_3D_SIZE 5
0.0236300 0.0651090 0.0776153
0.0843785 0.0719518 0.0792803
0.3416891 0.0924346 0.0782759
0.6138219 0.1369617 0.1369617
0.7474658 0.1753195 0.1753195
0.0074927 0.1045086 0.0870828
0.1013611 0.1190752 0.0898941
0.3861471 0.1636834 0.0915290
0.6638969 0.2143643 0.1513340
0.7960114 0.2986782 0.1892528
0.0626708 0.3549817 0.1194243
0.0981352 0.3903582 0.1167692
0.4956415 0.4627346 0.1030422
0.7601362 0.5383734 0.1789561
0.8686317 0.5907084 0.2304607
0.1342108 0.6042372 0.2039040
0.2241531 0.6351948 0.1981969
0.5892227 0.7020347 0.1993591
0.8080105 0.7491656 0.2394129
0.8974412 0.7843497 0.3481371
0.3568270 0.7639246 0.3783623
0.4702403 0.7825071 0.3810179
0.6871170 0.8222257 0.3933676
0.8372017 0.8496969 0.4237744
0.9083372 0.8689291 0.4823277
0.0188990 0.0704143 0.1182818
0.0890168 0.0784396 0.1246050
0.3534628 0.1004781 0.1425469
0.6203748 0.1388425 0.1711327
0.7537270 0.1771166 0.2244338
0.0141475 0.1138304 0.1596702
0.0999841 0.1319179 0.1724143
0.3975086 0.1757379 0.1897170
0.6673704 0.2215686 0.2137189
0.7998073 0.3000241 0.2676926
0.0728059 0.3902940 0.2603396
0.0829315 0.4255730 0.2677301
0.4873544 0.4942866 0.2824624
0.7599875 0.5607097 0.3084497
0.8691828 0.6051508 0.3584401
0.1438621 0.6378638 0.3799507
0.1792212 0.6666411 0.3847741
0.5852609 0.7304542 0.3970600
0.8037767 0.7707486 0.4180657
0.8958250 0.7970055 0.4621813
0.3338321 0.7790420 0.5066586
0.4710779 0.8001549 0.5140546
0.6880726 0.8367392 0.5162356
0.8395082 0.8623517 0.5381457
0.9068187 0.8766626 0.5625075
0.0506755 0.0714216 0.3131883
0.1144549 0.0801125 0.3287636
0.3834607 0.1060579 0.3668117
0.6468368 0.1464375 0.4087641
0.7765706 0.1965664 0.4587457
0.0670812 0.1108888 0.3703482
0.1268439 0.1270367 0.3894683
0.4167353 0.1706617 0.4223976
0.6796551 0.2198905 0.4579459
0.8065906 0.3029271 0.5005082
0.1110350 0.4217454 0.5234895
0.1144028 0.4504254 0.5352233
0.4978859 0.5203049 0.5560963
0.7657648 0.5826419 0.5762102
0.8724772 0.6234153 0.6026489
0.1531397 0.6701881 0.6328690
0.1693673 0.6987782 0.6379232
0.5839503 0.7559453 0.6516085
0.8052714 0.7935359 0.6660180
0.8933821 0.8141075 0.6789127
0.3413904 0.8009442 0.7110343
0.4817724 0.8207796 0.7131082
0.6897929 0.8549576 0.7225618
0.8353877 0.8775712 0.7324989
0.9042708 0.8896746 0.7421823
0.1184787 0.1097984 0.5191810
0.1798055 0.1137217 0.5328503
0.4464362 0.1256618 0.5744513
0.6860500 0.1737982 0.6136674
0.8070993 0.2591889 0.6530540
0.1149801 0.1134190 0.5317957
0.1897306 0.1184950 0.5494810
0.4565198 0.1413357 0.5859732
0.6969193 0.1957323 0.6227421
0.8126741 0.2803652 0.6615483
0.1621079 0.4362031 0.7014346
0.1652940 0.4606284 0.7125356
0.5367479 0.5261314 0.7360411
0.7717633 0.5776854 0.7514149
0.8744503 0.6271385 0.7677191
0.1879925 0.6890680 0.7916204
0.2633634 0.7174962 0.7988616
0.6100476 0.7681326 0.8100440
0.8087672 0.8014786 0.8192051
0.8952727 0.8213484 0.8261821
0.4003466 0.8174112 0.8449779
0.5141720 0.8333789 0.8477415
0.7038438 0.8622568 0.8532661
0.8420611 0.8850911 0.8583598
0.9060530 0.8960630 0.8637375
0.2170500 0.1582085 0.6878489
0.2542632 0.1598422 0.6935408
0.5181945 0.2130504 0.7265705
0.7332501 0.2782793 0.7539161
0.8393859 0.3694870 0.7870118
0.2170500 0.1582085 0.6878489
0.2651736 0.1605872 0.6961364
0.5254945 0.2135464 0.7269532
0.7345870 0.2856471 0.7570574
0.8422559 0.3696226 0.7870776
0.1885173 0.4441683 0.7934489
0.2588100 0.4684548 0.8044259
0.5791658 0.5272263 0.8261153
0.7898068 0.5783041 0.8421715
0.8811283 0.6249548 0.8544445
0.2107946 0.7092620 0.8710661
0.3669218 0.7316666 0.8782122
0.6497849 0.7768050 0.8898216
0.8198341 0.8045110 0.8950811
0.9003611 0.8235220 0.9005165
0.4847590 0.8316584 0.9098935
0.5635140 0.8431225 0.9120837
0.7262377 0.8679405 0.9160280
0.8471401 0.8874713 0.9212738
0.9079271 0.8984598 0.9222823
