data/spectral_luts/fuji_pro_160s_ca_dpii.cube
TITLE "fuji_pro_160s_ca_dpii"
LUT_3D_SIZE 9
0.0419316 0.0882271 0.1021529
0.0544754 0.0895087 0.1024552
0.1191832 0.0968875 0.1037116
0.2266834 0.1085142 0.1053387
0.3581135 0.1211384 0.1077516
0.5008602 0.1345625 0.1127883
0.6065710 0.1541484 0.1348806
0.6848649 0.1860334 0.1573521
0.7457812 0.2318431 0.1941608
0.0417588 0.0936524 0.1041009
0.0589640 0.0961562 0.1047248
0.1245973 0.1055119 0.1070101
0.2363936 0.1221634 0.1100426
0.3723410 0.1400924 0.1129898
0.5109100 0.1580807 0.1196115
0.6242173 0.1851726 0.1399454
0.6979563 0.2216036 0.1628161
0.7604116 0.2655294 0.2036237
0.0231631 0.1368567 0.1155643
0.0605359 0.1425165 0.1167191
0.1383357 0.1559331 0.1187377
0.2605345 0.1783995 0.1214366
0.4068894 0.2038568 0.1256022
0.5414319 0.2311736 0.1330898
0.6522706 0.2655485 0.1479971
0.7309366 0.3099544 0.1851099
0.7850617 0.3496151 0.2249883
0.0297287 0.2375132 0.1360573
0.0345319 0.2444560 0.1364889
0.1556059 0.2626061 0.1377888
0.2966702 0.2931073 0.1386898
0.4455882 0.3271534 0.1415070
0.5899009 0.3661479 0.1473467
0.6916524 0.4004488 0.1744508
0.7670613 0.4396249 0.2090587
0.8178767 0.4769766 0.2477164
0.0695041 0.3787900 0.1634449
0.0717272 0.3865356 0.1632443
0.1732984 0.4054964 0.1632925
0.3313570 0.4352876 0.1609114
0.4914974 0.4689632 0.1588188
0.6319779 0.5044948 0.1754671
0.7260283 0.5355550 0.2050765
0.7934436 0.5624934 0.2400503
0.8377036 0.5907903 0.2815080
0.1037148 0.4979849 0.2136755
0.1058323 0.5053626 0.2124528
0.2157881 0.5286750 0.2116541
0.3760163 0.5534568 0.2113246
0.5350630 0.5875522 0.2125169
0.6625783 0.6143554 0.2192455
0.7486888 0.6377564 0.2442090
0.8146323 0.6625329 0.2791442
0.8555658 0.6798036 0.3178623
0.1352209 0.6077567 0.2767117
0.1698387 0.6142974 0.2756350
0.2885537 0.6293967 0.2769125
0.4448800 0.6560814 0.2791035
0.5752427 0.6830728 0.2829885
0.6937674 0.7039652 0.2845144
0.7689924 0.7215647 0.2947145
0.8281254 0.7406221 0.3298164
0.8650897 0.7548430 0.3758796
0.2639886 0.6908961 0.3545408
0.3056481 0.6963128 0.3538028
0.3984384 0.7105267 0.3575428
0.5149006 0.7304924 0.3595933
0.6258207 0.7486766 0.3609826
0.7201955 0.7682086 0.3719029
0.7862952 0.7803130 0.3805765
0.8388343 0.7927305 0.3958791
0.8733106 0.8048851 0.4275615
0.4082024 0.7538075 0.4358342
0.4325784 0.7574512 0.4354447
0.4924182 0.7672822 0.4400655
0.5796925 0.7818264 0.4379256
0.6705319 0.7971696 0.4466802
0.7441463 0.8119473 0.4527172
0.8067837 0.8232545 0.4622564
0.8498772 0.8332496 0.4720300
0.8804842 0.8386275 0.4826218
0.0404682 0.0893643 0.1110464
0.0550367 0.0909449 0.1118995
0.1184559 0.0982822 0.1144326
0.2265475 0.1096250 0.1171769
0.3647715 0.1220376 0.1200413
0.4988932 0.1348897 0.1231163
0.6056960 0.1514617 0.1346295
0.6838787 0.1830476 0.1570691
0.7445077 0.2277895 0.1939387
0.0402228 0.0952191 0.1158819
0.0590508 0.0977067 0.1172433
0.1261215 0.1072659 0.1210709
0.2360672 0.1231956 0.1253689
0.3723454 0.1406483 0.1282685
0.5107799 0.1574906 0.1305782
0.6234981 0.1828094 0.1397390
0.6968299 0.2180493 0.1626788
0.7604116 0.2655294 0.2036237
0.0172382 0.1407318 0.1357489
0.0565796 0.1464459 0.1371823
0.1390538 0.1589376 0.1413359
0.2597865 0.1824260 0.1451423
0.4072284 0.2074504 0.1468823
0.5506395 0.2333290 0.1477266
0.6525681 0.2665821 0.1577927
0.7292761 0.3039174 0.1802679
0.7850617 0.3496151 0.2249883
0.0318423 0.2460051 0.1649131
0.0332612 0.2515228 0.1666614
0.1532679 0.2717039 0.1699566
0.2940076 0.3018208 0.1727306
0.4529650 0.3348961 0.1764486
0.5887202 0.3636207 0.1815698
0.6918179 0.4023442 0.1915167
0.7655990 0.4324728 0.2094866
0.8164187 0.4695882 0.2480503
0.0729149 0.3906736 0.2081584
0.0750300 0.3980430 0.2106716
0.1664624 0.4161195 0.2120826
0.3247823 0.4469272 0.2138614
0.4887635 0.4787470 0.2172143
0.6313680 0.5118036 0.2191899
0.7260940 0.5406883 0.2322123
0.7934339 0.5629629 0.2445153
0.8377036 0.5907903 0.2815080
0.1066693 0.5082789 0.2605488
0.1089430 0.5162008 0.2635333
0.2110969 0.5393694 0.2649559
0.3689545 0.5641128 0.2643601
0.5319601 0.5958006 0.2643241
0.6610559 0.6221668 0.2708883
0.7482064 0.6433919 0.2780512
0.8146223 0.6661597 0.2953133
0.8555658 0.6798036 0.3178623
0.1374003 0.6153499 0.3223135
0.1487638 0.6219070 0.3217102
0.2788225 0.6364862 0.3198981
0.4396799 0.6633443 0.3255067
0.5723184 0.6897458 0.3278932
0.6919304 0.7108501 0.3334319
0.7695341 0.7289222 0.3472710
0.8274125 0.7441707 0.3657983
0.8649433 0.7557024 0.3850229
0.2528983 0.6967860 0.3973821
0.2965203 0.7022116 0.3969456
0.3922791 0.7163535 0.4010351
0.5115422 0.7346271 0.3983234
0.6231571 0.7544246 0.4063041
0.7187424 0.7728531 0.4082834
0.7851447 0.7851069 0.4200179
0.8379593 0.7974302 0.4355487
0.8729038 0.8067555 0.4486351
0.4040189 0.7576815 0.4664252
0.4280997 0.7618644 0.4718010
0.5034680 0.7733098 0.4708064
0.5867596 0.7868103 0.4747837
0.6689063 0.8009791 0.4783826
0.7430313 0.8154392 0.4818474
0.8061063 0.8252809 0.4855797
0.8492485 0.8354802 0.4984045
0.8799920 0.8417043 0.5086944
0.0372508 0.0939197 0.1508559
0.0552774 0.0958587 0.1531910
0.1235147 0.1035659 0.1564772
0.2324620 0.1160575 0.1664297
0.3665009 0.1276297 0.1772983
0.5011783 0.1390156 0.1861388
0.6142954 0.1559582 0.2047809
0.6869717 0.1878595 0.2239326
0.7453646 0.2271991 0.2472792
0.0339610 0.0993975 0.1617835
0.0582220 0.1025755 0.1649085
0.1286857 0.1120465 0.1719566
0.2401524 0.1280588 0.1826486
0.3802061 0.1456214 0.1930939
0.5196618 0.1628943 0.2022051
0.6266919 0.1888943 0.2173743
0.7026796 0.2197832 0.2366051
0.7608793 0.2642733 0.2611294
0.0218793 0.1486662 0.2024360
0.0504877 0.1523846 0.2037865
0.1394783 0.1669864 0.2111806
0.2625687 0.1878924 0.2184752
0.4075195 0.2152114 0.2283319
0.5529318 0.2429686 0.2392855
0.6555118 0.2765364 0.2514923
0.7316567 0.3112850 0.2668486
0.7855587 0.3504036 0.2867287
0.0354389 0.2597308 0.2498286
0.0374250 0.2669632 0.2541703
0.1416862 0.2851850 0.2570141
0.2934559 0.3160098 0.2672805
0.4508886 0.3477304 0.2717976
0.5961707 0.3792652 0.2814142
0.6972324 0.4077823 0.2881663
0.7671295 0.4436411 0.3008992
0.8177748 0.4789334 0.3235892
0.0775723 0.4069008 0.3014170
0.0802846 0.4163506 0.3060500
0.1490712 0.4337680 0.3072377
0.3218023 0.4623497 0.3112199
0.4925946 0.4958620 0.3173936
0.6294537 0.5275728 0.3249391
0.7253544 0.5532829 0.3340139
0.7933615 0.5756015 0.3507068
0.8402536 0.5951524 0.3687697
0.1109653 0.5232468 0.3550815
0.1137682 0.5330124 0.3606654
0.1818596 0.5546719 0.3611248
0.3669457 0.5793969 0.3655241
0.5253844 0.6113403 0.3708635
0.6576449 0.6372821 0.3783446
0.7515339 0.6572315 0.3889840
0.8134301 0.6779781 0.3973714
0.8548311 0.6908677 0.4155923
0.1419810 0.6313096 0.4170687
0.1437358 0.6374238 0.4171804
0.2745208 0.6527576 0.4170591
0.4291083 0.6766759 0.4211612
0.5779980 0.7049357 0.4265077
0.6880771 0.7224459 0.4348268
0.7671756 0.7391868 0.4378495
0.8259230 0.7548156 0.4496901
0.8638670 0.7657520 0.4656544
0.2487787 0.7077847 0.4781082
0.2948614 0.7132651 0.4781170
0.3815692 0.7260543 0.4778970
0.5076424 0.7453972 0.4821953
0.6186874 0.7629402 0.4859511
0.7155947 0.7822300 0.4893131
0.7830548 0.7925789 0.4931924
0.8364403 0.8044190 0.5054214
0.8717164 0.8133590 0.5155500
0.4089359 0.7659535 0.5283325
0.4381800 0.7702129 0.5282589
0.4979810 0.7796660 0.5331293
0.5828786 0.7935634 0.5323944
0.6660926 0.8067799 0.5365527
0.7470202 0.8223296 0.5431598
0.8044106 0.8321000 0.5474024
0.8479635 0.8419499 0.5572199
0.8790050 0.8467351 0.5618855
0.0378571 0.0989905 0.2276246
0.0607364 0.1014489 0.2330998
0.1296562 0.1097847 0.2414876
0.2428081 0.1224836 0.2524061
0.3793090 0.1362508 0.2673982
0.5161362 0.1500401 0.2860264
0.6201475 0.1643797 0.3020185
0.6957307 0.1919446 0.3262979
0.7523791 0.2300414 0.3530466
0.0364257 0.1016513 0.2380277
0.0650081 0.1046933 0.2411700
0.1359279 0.1139916 0.2500553
0.2500813 0.1293070 0.2652063
0.3886728 0.1459289 0.2799442
0.5225540 0.1642670 0.2985163
0.6300800 0.1904611 0.3222929
0.7063409 0.2229358 0.3404428
0.7645481 0.2682760 0.3724189
0.0445640 0.1506642 0.2918950
0.0540969 0.1572586 0.2966229
0.1443019 0.1709424 0.3040686
0.2668808 0.1915977 0.3189885
0.4150510 0.2159176 0.3309070
0.5547568 0.2462449 0.3465163
0.6617518 0.2749923 0.3638084
0.7345992 0.3172350 0.3845674
0.7884004 0.3567054 0.4051047
0.0642483 0.2700745 0.3604778
0.0649216 0.2770920 0.3628240
0.1445839 0.2960205 0.3745899
0.2946669 0.3213501 0.3800790
0.4567198 0.3530748 0.3911090
0.5962034 0.3876797 0.4006839
0.6986782 0.4191013 0.4164272
0.7688494 0.4548819 0.4254504
0.8190669 0.4871510 0.4418512
0.0824020 0.4226980 0.4237280
0.0841217 0.4297196 0.4254401
0.1247503 0.4484077 0.4338744
0.3183874 0.4769861 0.4376962
0.4872253 0.5089062 0.4445452
0.6270886 0.5403650 0.4523076
0.7299474 0.5662164 0.4594096
0.7932253 0.5872649 0.4719280
0.8404990 0.6059930 0.4846625
0.1159911 0.5407571 0.4742539
0.1182130 0.5484986 0.4755351
0.1773884 0.5701923 0.4780964
0.3685040 0.5959938 0.4851501
0.5279024 0.6252750 0.4936009
0.6613449 0.6503157 0.4981636
0.7496226 0.6684569 0.5021675
0.8122116 0.6888914 0.5090976
0.8541120 0.7010662 0.5218246
0.1455062 0.6435920 0.5187377
0.1472738 0.6497508 0.5194106
0.2670618 0.6671829 0.5259309
0.4301707 0.6891307 0.5269701
0.5720269 0.7156534 0.5345110
0.6844652 0.7341928 0.5387567
0.7701889 0.7516996 0.5428461
0.8242462 0.7638901 0.5472481
0.8658178 0.7747580 0.5597165
0.2482483 0.7156382 0.5624747
0.2995517 0.7249404 0.5630203
0.3879583 0.7370573 0.5686761
0.5115331 0.7551042 0.5690839
0.6228136 0.7733447 0.5740003
0.7125682 0.7899631 0.5759209
0.7863110 0.8008159 0.5776091
0.8347972 0.8117159 0.5902536
0.8704670 0.8201677 0.5950808
0.4000319 0.7729427 0.6083321
0.4301755 0.7772113 0.6085429
0.5027529 0.7887681 0.6089259
0.5783281 0.8001785 0.6090268
0.6708862 0.8145895 0.6141402
0.7446924 0.8285044 0.6163661
0.8025936 0.8382408 0.6212922
0.8465971 0.8476692 0.6263581
0.8777764 0.8527780 0.6372664
0.0636933 0.1010643 0.3322471
0.0795418 0.1032255 0.3336924
0.1477914 0.1123587 0.3457242
0.2584238 0.1274211 0.3639324
0.3927091 0.1439649 0.3796004
0.5324454 0.1585120 0.3979645
0.6369656 0.1801182 0.4168244
0.7065166 0.2078585 0.4357683
0.7604642 0.2443116 0.4560449
0.0636933 0.1010643 0.3322471
0.0825788 0.1032850 0.3359028
0.1542503 0.1130227 0.3461790
0.2633589 0.1278010 0.3641668
0.3997463 0.1442214 0.3797823
0.5324454 0.1585120 0.3979645
0.6378055 0.1834099 0.4174578
0.7095860 0.2192330 0.4401286
0.7671573 0.2655059 0.4641647
0.0729887 0.1486974 0.3909310
0.0758573 0.1546058 0.3940704
0.1627574 0.1661938 0.4027363
0.2796600 0.1901816 0.4165323
0.4247641 0.2144899 0.4331460
0.5634165 0.2409697 0.4486070
0.6644902 0.2748684 0.4617187
0.7401036 0.3122419 0.4813360
0.7908760 0.3583205 0.5019026
0.0929306 0.2750492 0.4604113
0.0936877 0.2803274 0.4630490
0.1610134 0.3007551 0.4725064
0.3089430 0.3241112 0.4843158
0.4646572 0.3569621 0.4938040
0.6040225 0.3918101 0.5059346
0.7052713 0.4231190 0.5187610
0.7746284 0.4593667 0.5295857
0.8208209 0.4939447 0.5423061
0.1111020 0.4259044 0.5237229
0.1121275 0.4410250 0.5272958
0.1441824 0.4570545 0.5319996
0.3206360 0.4860129 0.5401114
0.4930307 0.5158334 0.5492096
0.6330597 0.5468963 0.5543548
0.7290327 0.5652244 0.5600034
0.7976056 0.5930398 0.5688314
0.8407601 0.6109801 0.5769904
0.1247511 0.5507153 0.5712785
0.1252986 0.5587043 0.5731860
0.1903141 0.5817447 0.5771864
0.3723385 0.6037330 0.5807481
0.5366611 0.6330417 0.5885263
0.6591862 0.6584334 0.5974349
0.7484700 0.6763711 0.5977529
0.8111890 0.6905727 0.6029768
0.8538115 0.7084492 0.6111958
0.1474156 0.6502446 0.6142078
0.1506262 0.6614308 0.6157379
0.2819801 0.6783559 0.6182145
0.4342679 0.6985982 0.6205702
0.5770488 0.7247118 0.6276034
0.6891833 0.7426252 0.6280549
0.7684742 0.7591194 0.6362559
0.8230112 0.7712264 0.6415031
0.8650123 0.7815470 0.6467845
0.2490268 0.7244251 0.6520810
0.3020225 0.7337548 0.6530996
0.3928174 0.7455096 0.6544578
0.5167573 0.7633433 0.6559892
0.6276000 0.7812010 0.6622897
0.7169138 0.7974517 0.6626144
0.7844806 0.8074417 0.6677913
0.8374875 0.8183126 0.6728911
0.8724678 0.8267142 0.6807488
0.4059082 0.7803677 0.6847069
0.4472719 0.7874323 0.6905367
0.5084522 0.7963430 0.6913213
0.5837714 0.8075824 0.6920828
0.6680083 0.8211222 0.6926496
0.7425025 0.8351836 0.6977317
0.8059174 0.8443630 0.6976433
0.8453850 0.8530333 0.7024807
0.8799780 0.8581202 0.7072401
0.0991734 0.1066697 0.4323151
0.1054462 0.1074041 0.4329494
0.1776399 0.1182293 0.4424133
0.2863875 0.1352775 0.4580841
0.4160881 0.1519437 0.4705876
0.5507066 0.1751365 0.4897348
0.6491725 0.2011260 0.5078105
0.7207692 0.2289357 0.5253731
0.7730346 0.2734336 0.5478694
0.0991734 0.1066697 0.4323151
0.1100366 0.1079434 0.4334105
0.1813332 0.1196901 0.4450623
0.2863875 0.1352775 0.4580841
0.4237351 0.1546586 0.4736054
0.5507066 0.1751365 0.4897348
0.6491725 0.2011260 0.5078105
0.7207692 0.2289357 0.5253731
0.7761929 0.2734616 0.5478868
0.0934931 0.1405609 0.4623711
0.1121221 0.1457196 0.4672423
0.1885784 0.1599518 0.4772300
0.3017291 0.1812821 0.4914566
0.4419494 0.2050553 0.5073566
0.5722488 0.2352245 0.5228048
0.6721229 0.2695752 0.5419739
0.7420717 0.3079782 0.5564311
0.7957331 0.3550670 0.5764593
0.1148787 0.2718384 0.5368813
0.1166663 0.2821335 0.5431098
0.1903298 0.2968296 0.5501620
0.3239228 0.3249033 0.5619498
0.4766079 0.3554763 0.5727696
0.6122351 0.3900812 0.5869814
0.7063597 0.4210537 0.5969037
0.7757561 0.4578355 0.6119335
0.8218501 0.4927911 0.6237825
0.1344666 0.4334797 0.6051286
0.1353415 0.4424559 0.6081767
0.1762372 0.4630170 0.6142228
0.3404894 0.4914441 0.6237327
0.5128007 0.5209877 0.6297754
0.6399310 0.5437487 0.6406713
0.7349367 0.5685712 0.6433578
0.7981216 0.5960120 0.6559287
0.8413849 0.6139616 0.6623322
0.1479626 0.5612968 0.6521506
0.1485031 0.5678539 0.6540337
0.2123799 0.5825012 0.6578854
0.3907003 0.6107209 0.6707047
0.5433793 0.6400052 0.6750834
0.6655501 0.6628969 0.6775268
0.7534941 0.6809157 0.6862694
0.8153641 0.6947657 0.6870309
0.8568870 0.7124829 0.6950742
0.1591056 0.6606080 0.6909744
0.1679066 0.6669048 0.6923624
0.3078738 0.6863596 0.6980013
0.4565965 0.7063624 0.7012988
0.5842553 0.7267165 0.7084376
0.6949317 0.7476470 0.7101404
0.7729824 0.7636684 0.7157252
0.8266723 0.7754560 0.7184500
0.8645889 0.7851508 0.7233507
0.2791555 0.7333070 0.7219536
0.3265562 0.7389069 0.7229170
0.4129651 0.7536762 0.7271964
0.5233212 0.7697287 0.7338215
0.6338265 0.7870756 0.7355312
0.7220349 0.8031083 0.7365879
0.7886367 0.8127981 0.7416273
0.8367814 0.8227035 0.7419365
0.8719658 0.8309242 0.7488867
0.4310417 0.7888201 0.7541798
0.4551132 0.7931343 0.7547143
0.5158037 0.8019273 0.7558287
0.5937103 0.8134828 0.7570702
0.6739706 0.8254306 0.7580712
0.7472296 0.8401297 0.7634664
0.8049460 0.8484468 0.7637866
0.8483050 0.8576719 0.7706748
0.8794566 0.8619075 0.7685539
0.1406502 0.1223536 0.5193007
0.1406502 0.1223536 0.5193007
0.2047374 0.1334771 0.5265667
0.3108812 0.1560045 0.5445111
0.4496496 0.1789083 0.5596229
0.5765148 0.2013873 0.5774165
0.6659993 0.2308153 0.5926814
0.7349429 0.2657679 0.6076617
0.7871110 0.3048551 0.6274183
0.1406502 0.1223536 0.5193007
0.1406502 0.1223536 0.5193007
0.2100635 0.1367362 0.5300148
0.3164648 0.1565198 0.5448782
0.4496496 0.1789083 0.5596229
0.5765148 0.2013873 0.5774165
0.6712729 0.2309028 0.5927921
0.7391320 0.2658421 0.6077278
0.7871110 0.3048551 0.6274183
0.1384141 0.1299872 0.5235695
0.1471838 0.1337619 0.5274414
0.2174567 0.1493069 0.5382329
0.3227601 0.1693351 0.5528789
0.4613658 0.1932055 0.5679488
0.5806307 0.2221684 0.5891720
0.6787129 0.2582828 0.6053846
0.7462301 0.2971871 0.6255761
0.7966716 0.3449845 0.6439740
0.1351045 0.2727538 0.6073510
0.1359440 0.2774750 0.6102759
0.2223847 0.2945766 0.6201025
0.3488181 0.3183610 0.6296349
0.4944258 0.3546665 0.6446415
0.6199298 0.3813197 0.6535836
0.7134091 0.4201507 0.6698208
0.7803411 0.4496255 0.6770527
0.8253919 0.4848247 0.6910449
0.1534155 0.4396405 0.6711494
0.1542950 0.4480686 0.6742134
0.2177629 0.4679630 0.6805685
0.3715700 0.4871525 0.6911629
0.5302211 0.5239640 0.7014084
0.6477903 0.5453762 0.7076016
0.7411162 0.5701855 0.7133471
0.8026630 0.5905960 0.7202545
0.8454928 0.6155210 0.7273244
0.1664023 0.5680764 0.7163969
0.1670636 0.5753064 0.7187012
0.2478895 0.5884337 0.7246227
0.4146915 0.6178620 0.7352850
0.5610813 0.6443377 0.7401800
0.6728448 0.6595761 0.7425979
0.7591547 0.6833615 0.7473502
0.8155868 0.6967164 0.7551771
0.8571572 0.7143196 0.7566469
0.1777077 0.6674597 0.7557865
0.2218347 0.6745729 0.7575770
0.3319761 0.6920421 0.7610214
0.4757738 0.7133045 0.7650843
0.5921296 0.7300841 0.7677893
0.7013071 0.7508298 0.7722582
0.7725954 0.7673394 0.7779366
0.8265119 0.7791722 0.7809350
0.8678262 0.7892944 0.7857531
0.3063039 0.7392654 0.7814658
0.3565698 0.7454714 0.7827143
0.4391285 0.7599906 0.7870039
0.5317125 0.7743548 0.7892580
0.6412526 0.7904447 0.7914097
0.7275218 0.8062944 0.7969038
0.7881306 0.8159668 0.7976736
0.8404569 0.8264673 0.7983294
0.8717855 0.8340087 0.8047936
0.4525435 0.7951427 0.8072595
0.4799882 0.7990535 0.8078975
0.5246352 0.8055387 0.8088959
0.6015558 0.8178382 0.8105304
0.6831524 0.8299317 0.8119186
0.7528113 0.8401151 0.8128546
0.8093328 0.8521264 0.8173440
0.8480037 0.8575708 0.8176540
0.8792027 0.8648683 0.8235865
0.1894372 0.1567860 0.6024082
0.1894372 0.1567860 0.6024082
0.2386816 0.1679083 0.6103956
0.3481375 0.1878769 0.6229678
0.4756264 0.2113715 0.6373538
0.5941921 0.2405433 0.6513603
0.6893588 0.2683713 0.6676223
0.7520425 0.3031853 0.6817797
0.8025870 0.3463031 0.6968746
0.1894372 0.1567860 0.6024082
0.1894372 0.1567860 0.6024082
0.2451467 0.1687048 0.6109788
0.3481375 0.1878769 0.6229678
0.4828009 0.2134205 0.6380627
0.6006182 0.2408486 0.6515803
0.6906139 0.2747384 0.6709581
0.7532988 0.3099816 0.6831594
0.8025870 0.3463031 0.6968746
0.1894372 0.1567860 0.6024082
0.1894372 0.1567860 0.6024082
0.2550226 0.1699055 0.6118516
0.3545691 0.1885128 0.6234011
0.4828009 0.2134205 0.6380627
0.6006182 0.2408486 0.6515803
0.6906139 0.2747384 0.6709581
0.7572487 0.3101335 0.6832429
0.8025870 0.3463031 0.6968746
0.1612722 0.2686133 0.6566619
0.1765545 0.2765380 0.6594054
0.2619354 0.2888890 0.6680135
0.3770537 0.3156354 0.6803561
0.5117688 0.3435086 0.6959168
0.6303725 0.3767861 0.7067925
0.7191783 0.4105527 0.7181350
0.7818643 0.4480636 0.7290157
0.8299791 0.4839540 0.7429703
0.1687502 0.4452328 0.7245774
0.1699778 0.4505435 0.7288547
0.2643054 0.4659371 0.7347580
0.4050162 0.4909680 0.7426190
0.5483910 0.5189508 0.7518179
0.6649964 0.5471375 0.7593452
0.7473591 0.5707415 0.7688335
0.8079319 0.5911683 0.7736757
0.8463400 0.6158141 0.7787374
0.1814610 0.5758545 0.7688636
0.1820431 0.5818714 0.7708918
0.3014970 0.5955153 0.7788354
0.4367143 0.6196059 0.7847094
0.5822639 0.6418849 0.7896969
0.6825538 0.6616105 0.7947297
0.7649652 0.6849432 0.7995261
0.8201537 0.6980746 0.8045850
0.8607448 0.7156832 0.8081679
0.2183316 0.6755442 0.8002115
0.2681628 0.6806908 0.8015811
0.3766062 0.6957201 0.8050938
0.4960084 0.7175305 0.8145640
0.6122437 0.7342608 0.8176767
0.7099678 0.7550142 0.8204383
0.7780953 0.7692684 0.8237011
0.8322176 0.7810703 0.8248212
0.8679609 0.7904289 0.8289970
0.3537867 0.7477823 0.8255215
0.3956830 0.7532710 0.8267039
0.4617262 0.7625062 0.8318955
0.5546339 0.7791488 0.8346627
0.6514681 0.7933360 0.8368819
0.7336622 0.8062819 0.8385133
0.7932312 0.8179792 0.8413963
0.8403866 0.8278562 0.8456059
0.8748626 0.8356354 0.8461959
0.4791465 0.7984375 0.8466529
0.5013666 0.8044805 0.8490430
0.5480878 0.8113043 0.8502101
0.6187623 0.8217535 0.8518364
0.6975534 0.8343276 0.8534799
0.7585558 0.8432102 0.8544948
0.8091204 0.8533872 0.8586242
0.8515486 0.8593488 0.8591224
0.8819829 0.8663558 0.8596160
0.2429975 0.2083012 0.6744092
0.2429975 0.2083012 0.6744092
0.2756309 0.2124722 0.6773050
0.3791684 0.2381061 0.6904721
0.5080091 0.2626478 0.7025973
0.6194899 0.2897738 0.7151214
0.7080672 0.3212258 0.7307507
0.7680664 0.3556171 0.7422622
0.8141788 0.3982204 0.7561991
0.2429975 0.2083012 0.6744092
0.2429975 0.2083012 0.6744092
0.2831884 0.2134168 0.6779488
0.3888652 0.2391454 0.6911162
0.5152042 0.2632435 0.7029477
0.6268747 0.2966143 0.7185491
0.7080672 0.3212258 0.7307507
0.7680664 0.3556171 0.7422622
0.8172455 0.3984056 0.7562639
0.2429975 0.2083012 0.6744092
0.2429975 0.2083012 0.6744092
0.2884237 0.2195911 0.6816723
0.3962483 0.2399238 0.6915970
0.5158435 0.2694651 0.7061431
0.6268747 0.2966143 0.7185491
0.7130736 0.3215054 0.7308969
0.7720641 0.3558381 0.7423600
0.8172455 0.3984056 0.7562639
0.2337549 0.2723336 0.7011440
0.2337549 0.2723336 0.7011440
0.3047880 0.2874919 0.7098791
0.4114156 0.3090797 0.7190161
0.5385187 0.3357913 0.7321165
0.6443998 0.3672255 0.7462265
0.7254972 0.4058167 0.7582594
0.7858474 0.4352971 0.7676516
0.8307424 0.4799562 0.7790160
0.1801752 0.4451926 0.7643836
0.2137636 0.4565587 0.7693422
0.3127249 0.4708717 0.7748820
0.4352325 0.4939221 0.7838024
0.5690361 0.5183228 0.7906497
0.6727925 0.5450271 0.7979203
0.7534640 0.5709270 0.8041266
0.8086681 0.5908726 0.8088891
0.8496234 0.6092075 0.8164412
0.1925173 0.5832874 0.8073853
0.2452864 0.5890105 0.8093525
0.3421492 0.6007500 0.8131583
0.4727892 0.6206056 0.8186237
0.5999324 0.6444328 0.8253646
0.6969483 0.6636656 0.8318929
0.7705427 0.6794653 0.8358682
0.8247603 0.6988989 0.8398793
0.8611708 0.7160628 0.8433954
0.2821111 0.6829707 0.8384705
0.3302577 0.6904312 0.8402658
0.4138503 0.7014417 0.8430986
0.5200663 0.7215753 0.8486480
0.6290166 0.7372357 0.8517864
0.7167488 0.7565680 0.8545939
0.7836313 0.7706358 0.8577811
0.8363283 0.7822968 0.8619028
0.8711842 0.7914816 0.8628091
0.3945013 0.7540016 0.8612903
0.4372885 0.7598467 0.8626061
0.4985475 0.7685357 0.8644513
0.5741152 0.7827627 0.8669077
0.6675217 0.7974895 0.8693295
0.7399424 0.8079156 0.8708498
0.7985315 0.8194517 0.8736057
0.8444658 0.8290727 0.8745673
0.8749631 0.8363745 0.8779134
0.5013844 0.8024496 0.8767323
0.5232669 0.8056253 0.8773386
0.5681028 0.8150437 0.8800262
0.6387762 0.8264348 0.8818530
0.7044007 0.8360992 0.8832837
0.7642680 0.8447932 0.8844159
0.8140238 0.8547592 0.8854491
0.8564493 0.8616677 0.8861099
0.8820236 0.8680057 0.8891568
