data/spectral_luts/fuji_pro_400h_ca_maxima.cube
TITLE "fuji_pro_400h_ca_maxima"
LUT_3D_SIZE 9
0.0529995 0.0850743 0.0960530
0.0572888 0.0855292 0.0961490
0.0962399 0.0890465 0.0962491
0.2079826 0.1000095 0.0966352
0.3629339 0.1094838 0.0933272
0.5217237 0.1130187 0.1105282
0.6270791 0.1407667 0.1407667
0.7024842 0.1624091 0.1624091
0.7579750 0.1839935 0.1783358
0.0515668 0.0864378 0.0965202
0.0587995 0.0874221 0.0964833
0.1024617 0.0930076 0.0973298
0.2133655 0.1054742 0.0981056
0.3653081 0.1168899 0.0950879
0.5267720 0.1216453 0.1119771
0.6293786 0.1414267 0.1414267
0.7024842 0.1624091 0.1624091
0.7579750 0.1839935 0.1783358
0.0337166 0.1260680 0.1050923
0.0451578 0.1293156 0.1058060
0.1095956 0.1381781 0.1075558
0.2302440 0.1549067 0.1085857
0.3992017 0.1778533 0.1052875
0.5597182 0.1955367 0.1214332
0.6654459 0.2091105 0.1517786
0.7361810 0.2315965 0.1720806
0.7854330 0.2634563 0.1862167
0.0274585 0.2279898 0.1204111
0.0286325 0.2329699 0.1208808
0.1098853 0.2460454 0.1213682
0.2596297 0.2726019 0.1201785
0.4422725 0.3049379 0.1143178
0.6017589 0.3291180 0.1334995
0.7138433 0.3572685 0.1656693
0.7796742 0.3803553 0.1845638
0.8304649 0.4132391 0.2007479
0.0647126 0.3620955 0.1279359
0.0669973 0.3700560 0.1277317
0.0865910 0.3897654 0.1273551
0.2954351 0.4270354 0.1218494
0.4948919 0.4603313 0.1162690
0.6448678 0.4927516 0.1458724
0.7502668 0.5184684 0.1761234
0.8168046 0.5395688 0.1952208
0.8606430 0.5641450 0.2263448
0.0987368 0.4806408 0.1437157
0.1011193 0.4889418 0.1444146
0.1090784 0.5166726 0.1422457
0.3350374 0.5518957 0.1440427
0.5389264 0.5878060 0.1398627
0.6810303 0.6209583 0.1562515
0.7767463 0.6410661 0.1837234
0.8424091 0.6633266 0.2249568
0.8795466 0.6815233 0.2750376
0.1298963 0.5892049 0.1847365
0.1328831 0.5996114 0.1855015
0.2001560 0.6210126 0.1886082
0.4062927 0.6536916 0.1896836
0.5752097 0.6857907 0.1937302
0.7080401 0.7153560 0.2059684
0.7959774 0.7345896 0.2402291
0.8574221 0.7538754 0.2840428
0.8928065 0.7654061 0.3338979
0.1530923 0.6700233 0.2429971
0.1984538 0.6776973 0.2481723
0.3323005 0.6959760 0.2473986
0.4888571 0.7236283 0.2501360
0.6240463 0.7496815 0.2625158
0.7359817 0.7740685 0.2855298
0.8125083 0.7907595 0.3179292
0.8665909 0.8037375 0.3545204
0.8978289 0.8162830 0.3947427
0.3167556 0.7404298 0.3288043
0.3554088 0.7459097 0.3275757
0.4557640 0.7629485 0.3299016
0.5679396 0.7831163 0.3410291
0.6795781 0.8040159 0.3536060
0.7630960 0.8194633 0.3712240
0.8293752 0.8329097 0.3932337
0.8752263 0.8460491 0.4224810
0.9030901 0.8545545 0.4617589
0.0522703 0.0856802 0.1004005
0.0571596 0.0857931 0.1007747
0.0980825 0.0901539 0.1025806
0.2079347 0.1013638 0.1057000
0.3634519 0.1112218 0.1063361
0.5230089 0.1159221 0.1108970
0.6286202 0.1412091 0.1412091
0.7034522 0.1626869 0.1626869
0.7585267 0.1848527 0.1784941
0.0509711 0.0877021 0.1017502
0.0583350 0.0885258 0.1022675
0.1018107 0.0942559 0.1046647
0.2133010 0.1070618 0.1084058
0.3749965 0.1189966 0.1085187
0.5276287 0.1233550 0.1122230
0.6303367 0.1417017 0.1417017
0.7034522 0.1626869 0.1626869
0.7585267 0.1848527 0.1784941
0.0297374 0.1296672 0.1147285
0.0434647 0.1310982 0.1157597
0.1078898 0.1406047 0.1184889
0.2300208 0.1592731 0.1218601
0.3994355 0.1799566 0.1216718
0.5605082 0.1979614 0.1225628
0.6665738 0.2117630 0.1521023
0.7371171 0.2336284 0.1723493
0.7840814 0.2585995 0.1858287
0.0285299 0.2325393 0.1345446
0.0293920 0.2361282 0.1357711
0.1036882 0.2508754 0.1385481
0.2576498 0.2778064 0.1403863
0.4418303 0.3086018 0.1399419
0.6040668 0.3420849 0.1427379
0.7145033 0.3607202 0.1658588
0.7808176 0.3852551 0.1848920
0.8306988 0.4142621 0.2112166
0.0674160 0.3715146 0.1549331
0.0695909 0.3790925 0.1565390
0.0812458 0.3987020 0.1587405
0.2897429 0.4351412 0.1602956
0.4931303 0.4684051 0.1608697
0.6446160 0.4999121 0.1641508
0.7505918 0.5246119 0.1823766
0.8172828 0.5443161 0.2080745
0.8610751 0.5676254 0.2390495
0.1018508 0.4914906 0.1860217
0.1058537 0.5054372 0.1838070
0.1122188 0.5276141 0.1873034
0.3284432 0.5597525 0.1862654
0.5363673 0.5955583 0.1873811
0.6800700 0.6277478 0.1931616
0.7765246 0.6465188 0.2118805
0.8425211 0.6667935 0.2390246
0.8795038 0.6822035 0.2818125
0.1326641 0.5988482 0.2251467
0.1352745 0.6079433 0.2232187
0.1847723 0.6281061 0.2286992
0.4007776 0.6615676 0.2289484
0.5730895 0.6911491 0.2273170
0.7068728 0.7204512 0.2407132
0.7954595 0.7369722 0.2630022
0.8572383 0.7549785 0.2949316
0.8928065 0.7654061 0.3338979
0.1547868 0.6759268 0.2794206
0.1862818 0.6826324 0.2779566
0.3254290 0.7013317 0.2815520
0.4849086 0.7291684 0.2879124
0.6335070 0.7551948 0.2943504
0.7369795 0.7783499 0.3133653
0.8135712 0.7937477 0.3352095
0.8663788 0.8047105 0.3644916
0.8978289 0.8162830 0.3947427
0.3117744 0.7438214 0.3507979
0.3700632 0.7520528 0.3492059
0.4526976 0.7658772 0.3553492
0.5666929 0.7848331 0.3566011
0.6787113 0.8057153 0.3698210
0.7627229 0.8212497 0.3808034
0.8291903 0.8335204 0.3995783
0.8752263 0.8460491 0.4224810
0.9030901 0.8545545 0.4617589
0.0461800 0.0892620 0.1451978
0.0533859 0.0901126 0.1474314
0.0987863 0.0951860 0.1521520
0.2135020 0.1065781 0.1599205
0.3747217 0.1174028 0.1661471
0.5291934 0.1236921 0.1778961
0.6347369 0.1429646 0.1956940
0.7117167 0.1650590 0.2239086
0.7644514 0.1962609 0.2502198
0.0446664 0.0927994 0.1498494
0.0539540 0.0939542 0.1502637
0.1034402 0.1000742 0.1552698
0.2190680 0.1135322 0.1645299
0.3770683 0.1252899 0.1735319
0.5311977 0.1296283 0.1814312
0.6356147 0.1432166 0.1959903
0.7114823 0.1649917 0.2186500
0.7644514 0.1962609 0.2502198
0.0171241 0.1391737 0.1774475
0.0284393 0.1405846 0.1779231
0.1060335 0.1506878 0.1840879
0.2345158 0.1706303 0.1948446
0.4107965 0.1916228 0.2011818
0.5639479 0.2083332 0.2109888
0.6714851 0.2239114 0.2257711
0.7433526 0.2458278 0.2446344
0.7891243 0.2706140 0.2747166
0.0323294 0.2479152 0.2180258
0.0333224 0.2517577 0.2188158
0.0868824 0.2723450 0.2258928
0.2572899 0.2991972 0.2319893
0.4516387 0.3308539 0.2427169
0.6136530 0.3547041 0.2499447
0.7185080 0.3811924 0.2638141
0.7894201 0.4030084 0.2840289
0.8328707 0.4236016 0.3177533
0.0737641 0.3936323 0.2588867
0.0759738 0.4013315 0.2595330
0.0830646 0.4260367 0.2658672
0.2726358 0.4546625 0.2686493
0.4877104 0.4934921 0.2755508
0.6523156 0.5171281 0.2848561
0.7522095 0.5396098 0.3006647
0.8234270 0.5657531 0.3288157
0.8615317 0.5787854 0.3563228
0.1106125 0.5220174 0.3016825
0.1129486 0.5301567 0.3017776
0.1189040 0.5509061 0.3086279
0.3228225 0.5825281 0.3111055
0.5280166 0.6173415 0.3189628
0.6760426 0.6470494 0.3297461
0.7767311 0.6711682 0.3487035
0.8413392 0.6823742 0.3752951
0.8820516 0.6953734 0.3940081
0.1392198 0.6216895 0.3476694
0.1414985 0.6296285 0.3474343
0.1532205 0.6507226 0.3549479
0.3865924 0.6808169 0.3601838
0.5758332 0.7156870 0.3684986
0.7109029 0.7391456 0.3776119
0.7971210 0.7540404 0.3978817
0.8552343 0.7694679 0.4160532
0.8914114 0.7765325 0.4388357
0.1596329 0.6928116 0.4006617
0.1619934 0.7010358 0.4003120
0.3040905 0.7197356 0.4075717
0.4719044 0.7448809 0.4105510
0.6261163 0.7728338 0.4145460
0.7325552 0.7916592 0.4255229
0.8107362 0.8046390 0.4373997
0.8644467 0.8155158 0.4595150
0.8963168 0.8250428 0.4819397
0.3161834 0.7601666 0.4543018
0.3521200 0.7649719 0.4539844
0.4399821 0.7783604 0.4586072
0.5708023 0.8003614 0.4649069
0.6734381 0.8169732 0.4679865
0.7589167 0.8322527 0.4798389
0.8265558 0.8436202 0.4923910
0.8732690 0.8543097 0.5081703
0.9018285 0.8607780 0.5277173
0.0454031 0.0913107 0.2408304
0.0528815 0.0922616 0.2413740
0.1087862 0.0984990 0.2467711
0.2257135 0.1108561 0.2580457
0.3885096 0.1230608 0.2724741
0.5439986 0.1311570 0.2919268
0.6502337 0.1479936 0.3155351
0.7246823 0.1753024 0.3447327
0.7750413 0.2141979 0.3716969
0.0428071 0.0961143 0.2456050
0.0524633 0.0976625 0.2463833
0.1136822 0.1046505 0.2521043
0.2264533 0.1167959 0.2653989
0.3903650 0.1292943 0.2824351
0.5448450 0.1337259 0.2946566
0.6502337 0.1479936 0.3155351
0.7246823 0.1753024 0.3447327
0.7750413 0.2141979 0.3716969
0.0441520 0.1478803 0.2904596
0.0444593 0.1497096 0.2915303
0.1100815 0.1614206 0.2987668
0.2457420 0.1786063 0.3118185
0.4127321 0.1975597 0.3234115
0.5767149 0.2159395 0.3390288
0.6765721 0.2314053 0.3542822
0.7488065 0.2539023 0.3732100
0.7943515 0.2783552 0.3978349
0.0598489 0.2655879 0.3451498
0.0603572 0.2700424 0.3469208
0.0664210 0.2893145 0.3614095
0.2667550 0.3127751 0.3672507
0.4602517 0.3426480 0.3827268
0.6157117 0.3721835 0.3940165
0.7199972 0.3883421 0.4059326
0.7918440 0.4118835 0.4219325
0.8368319 0.4389330 0.4437859
0.0811719 0.4194423 0.4014319
0.0833796 0.4271341 0.4033485
0.0888755 0.4462827 0.4143825
0.2790107 0.4734114 0.4183244
0.4925526 0.5117417 0.4278499
0.6505035 0.5395599 0.4400949
0.7578779 0.5621343 0.4546528
0.8235372 0.5766227 0.4669814
0.8654164 0.5905604 0.4798160
0.1165599 0.5427392 0.4449414
0.1190826 0.5515286 0.4512663
0.1249770 0.5720655 0.4565714
0.3169183 0.6024545 0.4641777
0.5310887 0.6419927 0.4723493
0.6813296 0.6640391 0.4784999
0.7813352 0.6864256 0.4904287
0.8407066 0.7011072 0.5027448
0.8819843 0.7135620 0.5184994
0.1449040 0.6414941 0.4921339
0.1472203 0.6495642 0.4930398
0.1527099 0.6686909 0.4946723
0.3848363 0.6998994 0.5035818
0.5698726 0.7320755 0.5108149
0.7059771 0.7527375 0.5143893
0.7958050 0.7665852 0.5264958
0.8531904 0.7807754 0.5390835
0.8901967 0.7905998 0.5552157
0.1653616 0.7127709 0.5268665
0.1673741 0.7197829 0.5273330
0.3008417 0.7364448 0.5358644
0.4747421 0.7606546 0.5360460
0.6188016 0.7862161 0.5432236
0.7363508 0.8055432 0.5499533
0.8137331 0.8178428 0.5625905
0.8635562 0.8283098 0.5672308
0.8969492 0.8339532 0.5810955
0.3169945 0.7746915 0.5686864
0.3587286 0.7800787 0.5688611
0.4438954 0.7920436 0.5690370
0.5627839 0.8115060 0.5771365
0.6784276 0.8296720 0.5819139
0.7632257 0.8430822 0.5894912
0.8296619 0.8540704 0.5942712
0.8711818 0.8635175 0.6115513
0.9002181 0.8684006 0.6229109
0.0611560 0.0842225 0.3497038
0.0683958 0.0858477 0.3507093
0.1290579 0.0941618 0.3610158
0.2426605 0.1078262 0.3782712
0.4047091 0.1225319 0.3932483
0.5530136 0.1373847 0.4107657
0.6608196 0.1597441 0.4373004
0.7351643 0.1905707 0.4574293
0.7848333 0.2300279 0.4833375
0.0628450 0.0899811 0.3555889
0.0698798 0.0912157 0.3566943
0.1314324 0.0992771 0.3646857
0.2496766 0.1116870 0.3816988
0.4049155 0.1236326 0.3935096
0.5613128 0.1370917 0.4108551
0.6608196 0.1597441 0.4373004
0.7351643 0.1905707 0.4574293
0.7848333 0.2300279 0.4833375
0.0759327 0.1484394 0.4011882
0.0767484 0.1540673 0.4040300
0.1298010 0.1624815 0.4164830
0.2633671 0.1836303 0.4288095
0.4378491 0.2049099 0.4461170
0.5822800 0.2203090 0.4575333
0.6890905 0.2377328 0.4706346
0.7552313 0.2619992 0.4843275
0.8038099 0.2873879 0.5027669
0.0935135 0.2748635 0.4624423
0.0953912 0.2879137 0.4689842
0.0971523 0.3008872 0.4751201
0.2688645 0.3278707 0.4931534
0.4719114 0.3588145 0.5079011
0.6272196 0.3838536 0.5191293
0.7315341 0.4078063 0.5292400
0.7970731 0.4309723 0.5390603
0.8406201 0.4502447 0.5562403
0.1101689 0.4292376 0.5204720
0.1110470 0.4390200 0.5235312
0.1148312 0.4621619 0.5367161
0.2803956 0.4888339 0.5434970
0.5006390 0.5272456 0.5568233
0.6587923 0.5476190 0.5661768
0.7576303 0.5661501 0.5748901
0.8248177 0.5893658 0.5840887
0.8670884 0.6034427 0.6011677
0.1243501 0.5560617 0.5698813
0.1250264 0.5651165 0.5722374
0.1307645 0.5922300 0.5799533
0.3181822 0.6208599 0.5849288
0.5385778 0.6522056 0.5962543
0.6878377 0.6814120 0.6030611
0.7798994 0.6940267 0.6112443
0.8446724 0.7088414 0.6195922
0.8817202 0.7223286 0.6340769
0.1494711 0.6574062 0.6105661
0.1522903 0.6672289 0.6146543
0.1581057 0.6874903 0.6181028
0.4064212 0.7183253 0.6217843
0.5763099 0.7436667 0.6318176
0.7111462 0.7636766 0.6378804
0.7937319 0.7797175 0.6460786
0.8517413 0.7880349 0.6540298
0.8892773 0.7982606 0.6595213
0.1688329 0.7248657 0.6468080
0.1708885 0.7320275 0.6478907
0.3254850 0.7535873 0.6504425
0.4804605 0.7749140 0.6523451
0.6249324 0.7980004 0.6616387
0.7329353 0.8143203 0.6673765
0.8115174 0.8260502 0.6750852
0.8618371 0.8365638 0.6826714
0.8964640 0.8415704 0.6876632
0.3234381 0.7863773 0.6757889
0.3653105 0.7916797 0.6763481
0.4504893 0.8034199 0.6774043
0.5699261 0.8215932 0.6861526
0.6743390 0.8373361 0.6866555
0.7603114 0.8513559 0.6945524
0.8275223 0.8636096 0.6995931
0.8738338 0.8705876 0.7068588
0.9017155 0.8747386 0.7117381
0.0900850 0.0900850 0.4504969
0.0956759 0.0903136 0.4512933
0.1583904 0.0939029 0.4637989
0.2690165 0.1086371 0.4797157
0.4308298 0.1285089 0.4978930
0.5810124 0.1510444 0.5193154
0.6785988 0.1758648 0.5414200
0.7506890 0.2068707 0.5612956
0.7994626 0.2524296 0.5854862
0.0889358 0.0889358 0.4464928
0.0978579 0.0903923 0.4515675
0.1583904 0.0939029 0.4637989
0.2742824 0.1090807 0.4800789
0.4308298 0.1285089 0.4978930
0.5810124 0.1510444 0.5193154
0.6785988 0.1758648 0.5414200
0.7506890 0.2068707 0.5612956
0.7994626 0.2524296 0.5854862
0.1041464 0.1504819 0.4994887
0.1047647 0.1530117 0.5016429
0.1591200 0.1664315 0.5126421
0.2896610 0.1850932 0.5259182
0.4530923 0.2072663 0.5457359
0.5973347 0.2267877 0.5554539
0.7028593 0.2466590 0.5710459
0.7660917 0.2665963 0.5830560
0.8100266 0.2933258 0.6006148
0.1224313 0.2885731 0.5631957
0.1240337 0.2938445 0.5687789
0.1273770 0.3148859 0.5804275
0.2999409 0.3347673 0.5943006
0.4848356 0.3663546 0.6065988
0.6391252 0.3889123 0.6195055
0.7416645 0.4161234 0.6268436
0.8047472 0.4366245 0.6373802
0.8472595 0.4586370 0.6498688
0.1404311 0.4435005 0.6259096
0.1414094 0.4515206 0.6293184
0.1443122 0.4768837 0.6394320
0.3142403 0.5031582 0.6477879
0.5113998 0.5385765 0.6623250
0.6685871 0.5584312 0.6656717
0.7656232 0.5765616 0.6749740
0.8304715 0.5926509 0.6836130
0.8688802 0.6126724 0.6948789
0.1539525 0.5755718 0.6730202
0.1547043 0.5839027 0.6756395
0.1562131 0.6022883 0.6808963
0.3461392 0.6301085 0.6897392
0.5475246 0.6664785 0.7024480
0.6865678 0.6857947 0.7047113
0.7849085 0.7052509 0.7134094
0.8449808 0.7193813 0.7212771
0.8818706 0.7260174 0.7262353
0.1637090 0.6703153 0.7070132
0.1643067 0.6787482 0.7090957
0.1843607 0.6985773 0.7133430
0.4160760 0.7255854 0.7204688
0.5858260 0.7502771 0.7283197
0.7181123 0.7734643 0.7325759
0.7995229 0.7862317 0.7379768
0.8559309 0.7978740 0.7456650
0.8917916 0.8028446 0.7525555
0.1724066 0.7373170 0.7343391
0.1816439 0.7456159 0.7358631
0.3366375 0.7620295 0.7454147
0.5055099 0.7852466 0.7488009
0.6337541 0.8042007 0.7507997
0.7397467 0.8200275 0.7587078
0.8167323 0.8350663 0.7593849
0.8654978 0.8421163 0.7664911
0.8959495 0.8464406 0.7712239
0.3353871 0.7942060 0.7634269
0.3955773 0.8019424 0.7646192
0.4773289 0.8133510 0.7661907
0.5797090 0.8284320 0.7679099
0.6819127 0.8439194 0.7737141
0.7665848 0.8587195 0.7767017
0.8322304 0.8691118 0.7813873
0.8730200 0.8751368 0.7880460
0.9010937 0.8792086 0.7924923
0.1251605 0.1175524 0.5461969
0.1251605 0.1175524 0.5461969
0.1880594 0.1214831 0.5598921
0.3029431 0.1265144 0.5774220
0.4607904 0.1485306 0.5986646
0.6015033 0.1737832 0.6154486
0.6968127 0.2011788 0.6281984
0.7645837 0.2420280 0.6510010
0.8124793 0.2842381 0.6708989
0.1251605 0.1175524 0.5461969
0.1278485 0.1176587 0.5465674
0.1933142 0.1216507 0.5604762
0.3029431 0.1265144 0.5774220
0.4607904 0.1485306 0.5986646
0.6015033 0.1737832 0.6154486
0.6968127 0.2011788 0.6281984
0.7645837 0.2420280 0.6510010
0.8124793 0.2842381 0.6708989
0.1282809 0.1569585 0.5835765
0.1286278 0.1583740 0.5847854
0.1900209 0.1730101 0.5960504
0.3179672 0.1932666 0.6101242
0.4786617 0.2121257 0.6269320
0.6199660 0.2400447 0.6412965
0.7147446 0.2557005 0.6528887
0.7764112 0.2772608 0.6625538
0.8199731 0.3087986 0.6779568
0.1460027 0.3016169 0.6453221
0.1468861 0.3064415 0.6483998
0.1597053 0.3293104 0.6604280
0.3306620 0.3495346 0.6768848
0.5093321 0.3783662 0.6894003
0.6517257 0.4034548 0.6962956
0.7459130 0.4272550 0.7097283
0.8095169 0.4515177 0.7162145
0.8520218 0.4741025 0.7262880
0.1636622 0.4642290 0.7068500
0.1646586 0.4718818 0.7103216
0.1667859 0.4897064 0.7177335
0.3412306 0.5139534 0.7284528
0.5354978 0.5490095 0.7393629
0.6790864 0.5670766 0.7475502
0.7739664 0.5847681 0.7523314
0.8329373 0.6073048 0.7612924
0.8738366 0.6203963 0.7689994
0.1747390 0.5891349 0.7454432
0.1762131 0.5984526 0.7505792
0.1789387 0.6160326 0.7600756
0.3757603 0.6423853 0.7672781
0.5720472 0.6698316 0.7752364
0.7046245 0.6964489 0.7790552
0.7918100 0.7143646 0.7870704
0.8498294 0.7216539 0.7877544
0.8858340 0.7342250 0.7945766
0.1840387 0.6810817 0.7778447
0.1845407 0.6874075 0.7795938
0.2482960 0.7118061 0.7868572
0.4402937 0.7359830 0.7976354
0.6049833 0.7597275 0.8017057
0.7261329 0.7771043 0.8039404
0.8041330 0.7931001 0.8112550
0.8558570 0.8000537 0.8117768
0.8919919 0.8087838 0.8178598
0.1917304 0.7481678 0.8046436
0.2614289 0.7563220 0.8064731
0.3913333 0.7719296 0.8096648
0.5177999 0.7898422 0.8163854
0.6439965 0.8084072 0.8190644
0.7471573 0.8275912 0.8228652
0.8162489 0.8375703 0.8292630
0.8652670 0.8443475 0.8297163
0.8986352 0.8520485 0.8339277
0.3917438 0.8042375 0.8251250
0.4281120 0.8091493 0.8260038
0.4906792 0.8179839 0.8274836
0.6028963 0.8376552 0.8353947
0.6906565 0.8507174 0.8369674
0.7735056 0.8628785 0.8381294
0.8317356 0.8714089 0.8439471
0.8767722 0.8777366 0.8443283
0.9009302 0.8842338 0.8481832
0.1687543 0.1419860 0.6313272
0.1687543 0.1419860 0.6313272
0.2252509 0.1447892 0.6410939
0.3406148 0.1594397 0.6572785
0.4977649 0.1874122 0.6801210
0.6279928 0.2126351 0.6920682
0.7183303 0.2521755 0.7087820
0.7819976 0.2844272 0.7239816
0.8294485 0.3349835 0.7420191
0.1687543 0.1419860 0.6313272
0.1687543 0.1419860 0.6313272
0.2252509 0.1447892 0.6410939
0.3406148 0.1594397 0.6572785
0.4977649 0.1874122 0.6801210
0.6279928 0.2126351 0.6920682
0.7183303 0.2521755 0.7087820
0.7819976 0.2844272 0.7239816
0.8294485 0.3349835 0.7420191
0.1548444 0.1761231 0.6554605
0.1572689 0.1701485 0.6539202
0.2287412 0.1856434 0.6648563
0.3573197 0.2092746 0.6796764
0.5120352 0.2287200 0.6959440
0.6340607 0.2492501 0.7060823
0.7287061 0.2760510 0.7176775
0.7891414 0.2995231 0.7289614
0.8294485 0.3349835 0.7420191
0.1655441 0.3280921 0.7134070
0.1660513 0.3309501 0.7151739
0.2190577 0.3445933 0.7248141
0.3663178 0.3656773 0.7383311
0.5418401 0.3944300 0.7508053
0.6735212 0.4264807 0.7628717
0.7610212 0.4425878 0.7668379
0.8183005 0.4665556 0.7782674
0.8583711 0.4890004 0.7839469
0.1804344 0.4768127 0.7652870
0.1819641 0.4860564 0.7706165
0.1863699 0.5019500 0.7774365
0.3828356 0.5323120 0.7891353
0.5597968 0.5560638 0.7964573
0.6978391 0.5824907 0.8038570
0.7827305 0.6014931 0.8121880
0.8391144 0.6142964 0.8141543
0.8754793 0.6270818 0.8208275
0.1916327 0.6066497 0.8043033
0.1922085 0.6123055 0.8063096
0.2191553 0.6307556 0.8139833
0.4219754 0.6556360 0.8211058
0.5956241 0.6800794 0.8301274
0.7132565 0.7047361 0.8358194
0.7988331 0.7159455 0.8375475
0.8506230 0.7285608 0.8438559
0.8866997 0.7412170 0.8467017
0.1998357 0.6947258 0.8328836
0.2004888 0.7032915 0.8351592
0.3143440 0.7207174 0.8412646
0.4704508 0.7414731 0.8461047
0.6276456 0.7679330 0.8508462
0.7342954 0.7832063 0.8547029
0.8104330 0.7950553 0.8592141
0.8606114 0.8056628 0.8618079
0.8951550 0.8102518 0.8653437
0.2553820 0.7603921 0.8523895
0.3276331 0.7684325 0.8542823
0.4238478 0.7810102 0.8611207
0.5450857 0.7983107 0.8645008
0.6650296 0.8169530 0.8674821
0.7530210 0.8297251 0.8691981
0.8206601 0.8392926 0.8702593
0.8686373 0.8490793 0.8751711
0.8987219 0.8531561 0.8755029
0.4254369 0.8125164 0.8694614
0.4556319 0.8174849 0.8716679
0.5193095 0.8266078 0.8733482
0.6144491 0.8406528 0.8756601
0.7091023 0.8547667 0.8803259
0.7809928 0.8652665 0.8815625
0.8356218 0.8731169 0.8837069
0.8767025 0.8819979 0.8869627
0.9036009 0.8857193 0.8872416
0.2215917 0.1779311 0.7058948
0.2215917 0.1779311 0.7058948
0.2581869 0.1894201 0.7129243
0.3808807 0.2132186 0.7272356
0.5362725 0.2405287 0.7430255
0.6566580 0.2716782 0.7552258
0.7433383 0.3082587 0.7698105
0.8000112 0.3435949 0.7842299
0.8436702 0.3843382 0.7957317
0.2215917 0.1779311 0.7058948
0.2215917 0.1779311 0.7058948
0.2657689 0.1904396 0.7136743
0.3884438 0.2140362 0.7277921
0.5362725 0.2405287 0.7430255
0.6566580 0.2716782 0.7552258
0.7433383 0.3082587 0.7698105
0.8000112 0.3435949 0.7842299
0.8436702 0.3843382 0.7957317
0.2166252 0.1992370 0.7142643
0.2166252 0.1992370 0.7142643
0.2704962 0.2128767 0.7227678
0.3988461 0.2283499 0.7332790
0.5376462 0.2543550 0.7478070
0.6577685 0.2788325 0.7583759
0.7433383 0.3082587 0.7698105
0.8043015 0.3437937 0.7843422
0.8436702 0.3843382 0.7957317
0.1807065 0.3498047 0.7662348
0.1807065 0.3498047 0.7662348
0.2630622 0.3699556 0.7764017
0.4115721 0.3890683 0.7873610
0.5655580 0.4183247 0.7989637
0.6907172 0.4421800 0.8059269
0.7708654 0.4576738 0.8141781
0.8262956 0.4817876 0.8219041
0.8627340 0.5041499 0.8274267
0.1937085 0.5019988 0.8115358
0.1946735 0.5067993 0.8148979
0.2600929 0.5224151 0.8214656
0.4361378 0.5453949 0.8299772
0.5942446 0.5757771 0.8392977
0.7073575 0.5898961 0.8468426
0.7901280 0.6061167 0.8500022
0.8448623 0.6210949 0.8537401
0.8797804 0.6316052 0.8592345
0.2030808 0.6198642 0.8441900
0.2038120 0.6282361 0.8467377
0.3001674 0.6462364 0.8526480
0.4651890 0.6681648 0.8625166
0.6152435 0.6893470 0.8677255
0.7283730 0.7129492 0.8730493
0.8056707 0.7230700 0.8747928
0.8546958 0.7354109 0.8776083
0.8902165 0.7460406 0.8825337
0.2104015 0.7086044 0.8696964
0.2398325 0.7169061 0.8718939
0.3717386 0.7322590 0.8760162
0.5142533 0.7520582 0.8819216
0.6503034 0.7717710 0.8858969
0.7405890 0.7884541 0.8896431
0.8168610 0.8003029 0.8935396
0.8652047 0.8067799 0.8943481
0.8954936 0.8145853 0.8962780
0.3473383 0.7716460 0.8869485
0.3869138 0.7767122 0.8881535
0.4689242 0.7879561 0.8906756
0.5848616 0.8047783 0.8940470
0.6855257 0.8196196 0.8999957
0.7688587 0.8357208 0.9021376
0.8264521 0.8438652 0.9043156
0.8728998 0.8502662 0.9050273
0.9008866 0.8572070 0.9079790
0.4753123 0.8210573 0.9018145
0.5033839 0.8250782 0.9026171
0.5620158 0.8336439 0.9042385
0.6383477 0.8449808 0.9071879
0.7182437 0.8568007 0.9089921
0.7879746 0.8692345 0.9105161
0.8408555 0.8776174 0.9144843
0.8807657 0.8832124 0.9150516
0.9061214 0.8867137 0.9153717
