data/spectral_luts/fuji_pro_160c_ca_maxima.cube
TITLE "fuji_pro_160c_ca_maxima"
LUT_3D_SIZE 33
0.0236300 0.0651090 0.0776153
0.0239926 0.0651544 0.0776277
0.0251490 0.0652976 0.0776662
0.0269761 0.0655194 0.0777250
0.0313358 0.0659538 0.0778419
0.0405548 0.0669462 0.0780797
0.0538018 0.0684003 0.0784533
0.0677061 0.0700319 0.0788096
0.0843785 0.0719518 0.0792803
0.1076635 0.0745883 0.0797847
0.1320477 0.0772097 0.0801859
0.1595483 0.0799439 0.0802964
0.1913093 0.0828049 0.0802635
0.2270412 0.0856966 0.0800357
0.2592046 0.0881046 0.0796916
0.2993588 0.0905079 0.0790227
0.3416891 0.0924346 0.0782759
0.3870408 0.0936556 0.0770317
0.4231575 0.0942056 0.0822382
0.4608301 0.0944603 0.0930508
0.4959081 0.1031187 0.1031187
0.5310286 0.1131988 0.1131988
0.5578153 0.1208870 0.1208870
0.5894722 0.1299730 0.1299730
0.6138219 0.1369617 0.1369617
0.6354254 0.1431623 0.1431623
0.6573923 0.1494671 0.1494671
0.6731743 0.1539967 0.1539967
0.6909493 0.1590984 0.1590984
0.7060753 0.1634398 0.1634398
0.7225513 0.1681687 0.1681687
0.7349795 0.1717357 0.1717357
0.7474658 0.1753195 0.1753195
0.0235883 0.0651905 0.0776968
0.0241254 0.0652949 0.0777220
0.0252894 0.0654387 0.0777607
0.0271199 0.0656976 0.0778263
0.0317327 0.0662747 0.0779710
0.0411259 0.0673225 0.0782178
0.0537194 0.0687534 0.0785832
0.0690715 0.0705258 0.0790288
0.0862418 0.0725493 0.0795072
0.1076729 0.0750450 0.0800005
0.1330902 0.0778355 0.0804088
0.1630647 0.0809370 0.0805908
0.1955318 0.0840588 0.0805428
0.2289431 0.0872218 0.0804427
0.2646988 0.0899008 0.0800961
0.3018960 0.0923176 0.0795229
0.3423015 0.0942544 0.0790147
0.3876995 0.0955268 0.0778530
0.4260696 0.0961917 0.0830740
0.4615576 0.0964788 0.0932596
0.4987618 0.1039378 0.1039378
0.5326841 0.1136740 0.1136740
0.5610824 0.1218247 0.1218247
0.5929180 0.1309620 0.1309620
0.6152982 0.1373854 0.1373854
0.6369743 0.1436068 0.1436068
0.6591923 0.1499837 0.1499837
0.6744304 0.1543573 0.1543573
0.6939601 0.1599626 0.1599626
0.7082976 0.1640777 0.1640777
0.7248217 0.1688203 0.1688203
0.7374501 0.1724449 0.1724449
0.7497718 0.1759814 0.1759814
0.0234196 0.0655848 0.0778360
0.0241646 0.0656779 0.0778612
0.0255160 0.0658855 0.0779134
0.0275955 0.0661771 0.0779868
0.0323206 0.0668122 0.0781413
0.0426662 0.0679713 0.0784765
0.0547922 0.0694123 0.0788368
0.0689739 0.0711731 0.0793457
0.0861936 0.0733526 0.0798517
0.1076946 0.0759647 0.0803620
0.1362192 0.0793318 0.0808076
0.1644579 0.0825375 0.0811081
0.1958753 0.0856626 0.0811195
0.2293775 0.0889402 0.0811614
0.2669271 0.0918019 0.0806753
0.3024413 0.0940586 0.0802813
0.3450792 0.0959666 0.0795933
0.3906008 0.0973332 0.0787198
0.4269852 0.0987542 0.0833369
0.4648382 0.0993844 0.0942012
0.5003276 0.1043872 0.1043872
0.5360974 0.1146537 0.1146537
0.5628135 0.1223215 0.1223215
0.5943553 0.1313745 0.1313745
0.6172636 0.1379496 0.1379496
0.6401730 0.1445249 0.1445249
0.6611409 0.1505430 0.1505430
0.6769968 0.1550939 0.1550939
0.6971769 0.1608859 0.1608859
0.7116066 0.1650274 0.1650274
0.7277828 0.1696702 0.1696702
0.7405512 0.1733349 0.1733349
0.7529898 0.1769050 0.1769050
0.0231175 0.0667206 0.0782465
0.0240731 0.0668400 0.0782784
0.0254108 0.0671302 0.0783452
0.0275008 0.0675074 0.0784335
0.0328465 0.0682597 0.0786785
0.0428881 0.0695890 0.0790377
0.0564500 0.0713361 0.0795173
0.0701645 0.0730772 0.0800155
0.0880025 0.0755636 0.0805567
0.1109708 0.0785247 0.0811725
0.1364582 0.0817010 0.0816329
0.1648316 0.0848857 0.0819567
0.1977537 0.0882242 0.0819638
0.2299407 0.0911758 0.0818720
0.2675729 0.0940590 0.0814868
0.3053186 0.0969349 0.0813241
0.3461896 0.0993021 0.0809312
0.3921892 0.1018933 0.0802296
0.4309132 0.1036995 0.0844643
0.4736105 0.1049699 0.0967190
0.5048360 0.1077217 0.1056812
0.5385556 0.1153592 0.1153592
0.5724389 0.1250842 0.1250842
0.5968198 0.1320819 0.1320819
0.6210467 0.1390354 0.1390354
0.6433113 0.1454256 0.1454256
0.6660168 0.1519424 0.1519424
0.6824319 0.1566538 0.1566538
0.7005233 0.1618463 0.1618463
0.7147294 0.1659237 0.1659237
0.7312270 0.1706587 0.1706587
0.7442272 0.1743900 0.1743900
0.7569007 0.1835432 0.1780275
0.0222741 0.0695340 0.0790988
0.0234600 0.0696827 0.0791373
0.0246935 0.0698350 0.0791763
0.0272886 0.0703078 0.0793522
0.0334420 0.0711706 0.0796177
0.0438392 0.0725020 0.0799686
0.0571034 0.0740979 0.0804093
0.0727681 0.0762510 0.0809647
0.0897947 0.0785062 0.0815424
0.1135096 0.0815580 0.0820748
0.1408441 0.0849146 0.0825327
0.1700531 0.0882739 0.0827501
0.2025634 0.0917415 0.0829083
0.2372171 0.0956156 0.0828466
0.2705671 0.0986460 0.0827440
0.3151744 0.1026252 0.0824957
0.3573929 0.1060265 0.0821635
0.3965702 0.1079787 0.0814220
0.4400409 0.1108982 0.0870840
0.4787219 0.1133095 0.0981860
0.5162086 0.1158960 0.1089453
0.5438972 0.1185747 0.1168923
0.5773336 0.1264891 0.1264891
0.6020156 0.1335731 0.1335731
0.6268274 0.1406945 0.1406945
0.6495135 0.1472057 0.1472057
0.6702574 0.1531596 0.1531596
0.6867602 0.1578961 0.1578961
0.7069104 0.1636795 0.1636795
0.7193415 0.1672474 0.1672474
0.7369528 0.1752511 0.1723021
0.7488750 0.1831298 0.1757239
0.7622328 0.1971840 0.1795578
0.0213974 0.0728186 0.0800312
0.0224372 0.0733376 0.0802024
0.0239536 0.0735252 0.0802485
0.0274680 0.0739602 0.0804208
0.0340251 0.0751490 0.0807414
0.0452700 0.0766966 0.0811963
0.0582903 0.0786375 0.0816856
0.0737682 0.0807352 0.0822212
0.0916788 0.0833364 0.0828420
0.1162415 0.0867024 0.0834151
0.1413837 0.0904549 0.0839548
0.1746344 0.0944214 0.0841830
0.2053659 0.0986151 0.0845200
0.2389254 0.1025824 0.0846058
0.2781262 0.1069699 0.0847625
0.3176208 0.1106517 0.0844739
0.3623521 0.1143859 0.0837802
0.4093634 0.1182745 0.0828077
0.4457418 0.1208893 0.0887203
0.4843789 0.1232413 0.0998097
0.5196909 0.1256973 0.1099447
0.5499039 0.1300270 0.1186163
0.5822464 0.1337297 0.1278991
0.6099381 0.1408474 0.1358470
0.6327959 0.1458734 0.1424075
0.6547816 0.1511354 0.1487178
0.6777036 0.1585768 0.1552967
0.6970532 0.1647182 0.1608503
0.7127191 0.1750213 0.1653467
0.7294316 0.1825260 0.1701434
0.7422901 0.1909179 0.1738340
0.7550309 0.2012774 0.1774908
0.7686002 0.2161947 0.1813854
0.0185742 0.0803547 0.0819143
0.0198792 0.0805210 0.0819526
0.0216934 0.0807632 0.0820813
0.0257590 0.0812696 0.0822669
0.0338096 0.0829478 0.0826567
0.0456986 0.0842078 0.0829636
0.0591719 0.0864755 0.0835740
0.0752897 0.0891607 0.0841904
0.0963485 0.0921823 0.0848224
0.1199879 0.0957472 0.0853080
0.1453480 0.0994557 0.0858359
0.1759825 0.1035762 0.0862726
0.2116186 0.1088403 0.0866348
0.2477231 0.1129404 0.0867853
0.2826858 0.1173169 0.0870354
0.3205878 0.1207739 0.0868479
0.3659211 0.1256915 0.0862295
0.4133835 0.1303785 0.0850867
0.4528691 0.1352362 0.0907659
0.4893886 0.1376867 0.1012475
0.5277783 0.1426770 0.1122659
0.5616078 0.1466827 0.1219755
0.5904531 0.1517639 0.1302546
0.6156169 0.1571238 0.1374769
0.6402159 0.1627143 0.1445372
0.6634161 0.1718416 0.1511960
0.6846531 0.1786971 0.1572913
0.7055014 0.1858812 0.1632751
0.7204334 0.1943658 0.1675608
0.7379277 0.2046265 0.1725819
0.7512303 0.2149072 0.1764000
0.7639731 0.2257943 0.1800573
0.7762692 0.2374565 0.1835865
0.0148845 0.0892882 0.0840065
0.0165259 0.0894997 0.0840504
0.0190565 0.0907874 0.0844399
0.0243025 0.0914184 0.0845615
0.0329221 0.0924034 0.0848235
0.0454232 0.0948011 0.0853674
0.0605975 0.0964856 0.0857684
0.0772652 0.0995805 0.0864307
0.0980036 0.1020565 0.0868887
0.1227836 0.1061754 0.0874819
0.1541012 0.1110844 0.0880718
0.1826228 0.1158390 0.0886392
0.2197867 0.1213127 0.0891096
0.2505714 0.1259331 0.0895795
0.2922292 0.1332769 0.0897586
0.3339965 0.1383347 0.0893703
0.3803131 0.1431947 0.0886113
0.4194693 0.1495163 0.0880639
0.4588387 0.1534167 0.0924793
0.4988835 0.1594959 0.1039727
0.5346517 0.1628763 0.1142387
0.5712241 0.1689707 0.1247355
0.5984864 0.1752045 0.1325602
0.6246431 0.1787326 0.1400676
0.6481110 0.1857910 0.1468032
0.6722682 0.1933842 0.1537367
0.6938924 0.2017635 0.1599431
0.7140805 0.2113744 0.1657374
0.7285582 0.2186666 0.1698927
0.7462741 0.2298632 0.1749775
0.7599809 0.2417233 0.1789115
0.7730436 0.2539867 0.1826607
0.7855332 0.2666312 0.1862454
0.0074927 0.1045086 0.0870828
0.0098780 0.1048448 0.0872420
0.0137079 0.1053300 0.0873230
0.0201485 0.1061294 0.0875510
0.0305414 0.1073121 0.0878234
0.0437192 0.1104929 0.0884370
0.0602586 0.1122880 0.0887155
0.0783213 0.1144319 0.0892043
0.1013611 0.1190752 0.0898941
0.1285441 0.1243722 0.0908314
0.1586147 0.1287110 0.0912537
0.1886120 0.1342988 0.0921342
0.2227817 0.1401895 0.0925836
0.2613155 0.1463534 0.0930139
0.2964977 0.1519395 0.0933360
0.3481013 0.1585112 0.0921416
0.3861471 0.1636834 0.0915290
0.4343107 0.1692095 0.0909498
0.4747364 0.1749726 0.0970422
0.5129007 0.1825747 0.1079959
0.5509499 0.1872711 0.1189165
0.5787359 0.1916946 0.1268916
0.6085834 0.1998975 0.1354582
0.6398336 0.2048020 0.1444275
0.6638969 0.2143643 0.1513340
0.6856179 0.2199195 0.1575682
0.7053886 0.2327129 0.1632427
0.7260141 0.2444023 0.1691625
0.7401952 0.2513550 0.1732327
0.7580321 0.2636632 0.1783522
0.7699486 0.2705010 0.1817724
0.7830333 0.2834640 0.1855279
0.7960114 0.2986782 0.1892528
0.0088619 0.1216545 0.0904060
0.0089223 0.1221555 0.0904743
0.0090694 0.1233662 0.0907543
0.0142013 0.1243260 0.0908687
0.0256080 0.1256511 0.0912720
0.0402880 0.1292762 0.0917672
0.0590098 0.1312426 0.0920208
0.0807004 0.1338527 0.0926764
0.1040396 0.1391215 0.0935824
0.1342091 0.1437850 0.0939678
0.1627625 0.1499384 0.0949059
0.1987261 0.1545781 0.0955344
0.2301668 0.1608918 0.0960179
0.2703345 0.1682173 0.0961376
0.3092508 0.1761595 0.0960573
0.3533539 0.1804164 0.0952634
0.4019650 0.1875978 0.0943090
0.4413201 0.1940675 0.0935957
0.4823084 0.2006974 0.0992154
0.5229584 0.2083968 0.1108826
0.5608368 0.2193305 0.1217542
0.5913720 0.2257394 0.1305183
0.6260290 0.2320746 0.1404653
0.6505260 0.2385197 0.1474963
0.6768051 0.2502795 0.1550388
0.6992472 0.2587735 0.1614800
0.7195930 0.2655783 0.1673196
0.7364081 0.2781771 0.1721458
0.7551789 0.2857845 0.1775333
0.7679404 0.2930656 0.1811960
0.7823355 0.3089957 0.1853276
0.7928049 0.3168310 0.1883325
0.8085750 0.3314941 0.1928588
0.0116701 0.1431235 0.0941455
0.0117430 0.1436387 0.0941946
0.0118440 0.1443486 0.0944299
0.0120009 0.1454448 0.0946909
0.0181309 0.1469490 0.0951413
0.0331752 0.1516534 0.0958421
0.0547107 0.1548182 0.0961565
0.0819551 0.1579443 0.0965073
0.1086561 0.1646414 0.0976047
0.1367248 0.1684455 0.0981125
0.1718381 0.1732525 0.0985250
0.2062537 0.1825708 0.0988976
0.2446620 0.1876504 0.0991525
0.2797291 0.1958033 0.0991814
0.3205350 0.2046147 0.0992948
0.3676103 0.2153636 0.0989288
0.4095366 0.2195657 0.0974683
0.4594982 0.2286531 0.0965092
0.5011712 0.2369938 0.1046293
0.5404470 0.2464975 0.1159021
0.5727023 0.2538378 0.1251598
0.6099193 0.2615462 0.1358416
0.6367856 0.2687006 0.1435526
0.6638240 0.2779879 0.1513131
0.6870927 0.2852178 0.1579915
0.7092607 0.2928196 0.1643541
0.7313786 0.3011143 0.1707022
0.7483405 0.3152323 0.1755705
0.7666757 0.3259520 0.1808330
0.7796975 0.3345284 0.1845705
0.7918732 0.3432545 0.1880651
0.8087584 0.3623123 0.1929114
0.8192481 0.3712178 0.1959221
0.0162559 0.1724627 0.0987668
0.0166114 0.1745221 0.0990915
0.0167377 0.1752478 0.0991196
0.0169693 0.1765701 0.0995717
0.0172545 0.1781836 0.0998092
0.0192989 0.1800719 0.1000244
0.0485115 0.1828526 0.1006198
0.0805313 0.1876678 0.1009607
0.1079154 0.1951227 0.1014961
0.1402401 0.1995653 0.1018574
0.1788462 0.2091251 0.1021983
0.2113864 0.2152069 0.1023655
0.2523419 0.2210631 0.1026015
0.2911506 0.2306610 0.1024129
0.3339901 0.2361722 0.1014307
0.3831500 0.2482852 0.1009195
0.4247288 0.2579624 0.1010398
0.4671529 0.2625654 0.1000582
0.5099797 0.2737499 0.1071575
0.5518320 0.2829745 0.1191697
0.5889098 0.2920833 0.1298116
0.6202574 0.3005728 0.1388088
0.6465694 0.3050302 0.1463608
0.6787325 0.3141779 0.1555920
0.7037281 0.3231240 0.1627661
0.7213621 0.3319402 0.1678273
0.7428758 0.3435135 0.1740021
0.7633913 0.3528031 0.1798903
0.7774156 0.3621135 0.1839155
0.7929645 0.3815783 0.1883783
0.8080665 0.3913481 0.1927128
0.8193934 0.4010194 0.1959638
0.8296836 0.4099326 0.1989172
0.0217714 0.2019065 0.1033187
0.0219694 0.2028773 0.1035469
0.0221488 0.2037527 0.1035449
0.0232923 0.2092373 0.1041299
0.0236692 0.2110107 0.1043222
0.0241331 0.2131707 0.1047289
0.0319163 0.2161057 0.1048010
0.0756156 0.2217906 0.1049531
0.1123039 0.2263003 0.1051538
0.1486065 0.2359287 0.1048017
0.1802130 0.2406707 0.1052697
0.2208409 0.2483498 0.1050905
0.2590393 0.2590647 0.1051801
0.2997066 0.2650107 0.1045989
0.3457505 0.2786638 0.1036666
0.3962843 0.2856498 0.1034495
0.4415025 0.2972073 0.1025717
0.4850772 0.3044506 0.1011943
0.5259271 0.3151977 0.1117346
0.5681704 0.3264231 0.1238591
0.6003790 0.3321347 0.1331034
0.6382450 0.3428240 0.1439715
0.6655047 0.3526576 0.1517954
0.6929900 0.3651217 0.1596841
0.7149841 0.3684514 0.1659968
0.7387922 0.3785091 0.1728300
0.7553042 0.3883985 0.1775692
0.7750474 0.4002891 0.1832358
0.7890335 0.4099283 0.1872500
0.8052210 0.4199237 0.1918961
0.8170577 0.4295569 0.1952934
0.8288563 0.4419321 0.1986798
0.8391336 0.4512878 0.2016295
0.0304017 0.2402545 0.1078585
0.0306807 0.2413805 0.1078059
0.0309191 0.2423380 0.1077543
0.0312465 0.2436455 0.1079660
0.0322792 0.2477192 0.1083814
0.0329638 0.2503779 0.1081381
0.0338635 0.2538235 0.1083566
0.0689519 0.2583376 0.1086527
0.1045747 0.2681088 0.1084313
0.1482475 0.2760046 0.1085413
0.1863394 0.2814576 0.1074101
0.2314838 0.2885795 0.1075847
0.2726638 0.3031346 0.1073373
0.3168930 0.3099298 0.1061072
0.3588926 0.3224787 0.1053156
0.4121702 0.3323313 0.1033664
0.4552848 0.3384183 0.1023293
0.5001411 0.3510277 0.1043337
0.5436924 0.3588595 0.1168335
0.5765710 0.3697565 0.1262702
0.6170992 0.3814423 0.1379023
0.6472881 0.3852505 0.1465670
0.6753590 0.3986449 0.1546238
0.7025382 0.4091336 0.1624246
0.7247725 0.4123920 0.1688062
0.7492331 0.4253443 0.1758267
0.7700207 0.4358377 0.1817931
0.7863930 0.4460050 0.1864922
0.8020925 0.4488733 0.1909982
0.8150805 0.4608217 0.1947259
0.8266895 0.4700578 0.1980579
0.8377309 0.4797678 0.2012269
0.8481779 0.4907793 0.2054522
0.0410600 0.2796865 0.1109979
0.0419289 0.2827142 0.1115493
0.0422739 0.2839161 0.1114221
0.0427678 0.2856369 0.1112240
0.0435132 0.2882340 0.1116451
0.0443675 0.2912104 0.1119847
0.0455633 0.2953768 0.1121284
0.0498477 0.3017285 0.1116257
0.1046807 0.3071754 0.1113381
0.1474893 0.3187608 0.1102831
0.1886342 0.3249566 0.1103300
0.2320302 0.3338988 0.1097626
0.2770348 0.3411798 0.1088796
0.3238802 0.3551168 0.1077934
0.3684081 0.3642098 0.1057080
0.4236597 0.3728850 0.1043666
0.4712228 0.3864065 0.1017171
0.5163434 0.3952033 0.1089839
0.5509819 0.4068390 0.1189257
0.5930738 0.4127545 0.1310067
0.6248835 0.4263189 0.1401366
0.6620161 0.4315526 0.1507942
0.6913772 0.4428157 0.1592213
0.7169754 0.4490438 0.1665683
0.7405022 0.4594311 0.1733208
0.7578993 0.4692931 0.1783141
0.7787952 0.4726870 0.1843115
0.7940519 0.4848265 0.1886904
0.8111658 0.4941663 0.1936023
0.8235682 0.5039083 0.1971620
0.8337812 0.5062851 0.2000933
0.8450480 0.5174929 0.2033270
0.8572791 0.5274264 0.2178959
0.0519560 0.3176498 0.1152432
0.0522272 0.3185948 0.1151094
0.0526555 0.3200869 0.1148876
0.0532333 0.3221000 0.1155341
0.0539325 0.3245362 0.1151244
0.0554582 0.3298519 0.1153735
0.0567103 0.3342144 0.1155568
0.0582536 0.3395916 0.1154043
0.1011509 0.3513248 0.1142911
0.1511880 0.3595406 0.1132027
0.1931636 0.3656047 0.1121584
0.2414023 0.3733213 0.1114194
0.2899014 0.3810686 0.1087842
0.3325702 0.3967882 0.1081122
0.3883436 0.4058481 0.1048844
0.4344033 0.4134761 0.1040800
0.4827262 0.4290725 0.1000399
0.5286388 0.4363059 0.1125129
0.5634704 0.4476836 0.1225101
0.6064401 0.4565650 0.1348431
0.6388958 0.4617487 0.1441583
0.6707854 0.4731387 0.1533111
0.6975109 0.4796979 0.1609817
0.7240992 0.4906648 0.1686129
0.7466024 0.4945366 0.1750717
0.7707676 0.5070701 0.1820075
0.7867251 0.5170807 0.1865875
0.8041244 0.5201231 0.1915814
0.8185923 0.5297730 0.1957338
0.8312117 0.5415610 0.1993558
0.8442907 0.5441325 0.2031097
0.8547444 0.5536090 0.2129155
0.8640667 0.5621144 0.2236089
0.0626708 0.3549817 0.1194243
0.0630126 0.3561725 0.1192067
0.0634391 0.3576587 0.1189241
0.0640987 0.3599567 0.1196285
0.0649406 0.3628899 0.1190098
0.0659790 0.3665082 0.1193784
0.0672786 0.3710359 0.1182416
0.0688647 0.3765623 0.1179309
0.0981352 0.3903582 0.1167692
0.1514310 0.3966645 0.1158148
0.2065273 0.4045101 0.1139134
0.2479354 0.4132278 0.1132967
0.3002130 0.4216859 0.1100951
0.3466589 0.4355192 0.1072293
0.3965839 0.4439726 0.1047043
0.4471532 0.4545309 0.1022327
0.4956415 0.4627346 0.1030422
0.5398935 0.4759480 0.1157432
0.5773032 0.4845943 0.1264803
0.6197315 0.4911823 0.1386579
0.6532355 0.5033226 0.1482740
0.6822265 0.5100012 0.1565949
0.7107628 0.5215192 0.1647852
0.7345906 0.5253502 0.1716241
0.7601362 0.5383734 0.1789561
0.7761778 0.5414814 0.1835603
0.7976017 0.5518526 0.1897092
0.8108928 0.5543506 0.1935240
0.8278311 0.5664384 0.1983855
0.8396680 0.5753505 0.2017829
0.8497568 0.5780039 0.2077175
0.8600336 0.5864202 0.2184630
0.8686317 0.5907084 0.2304607
0.0728856 0.3905715 0.1243422
0.0733144 0.3920657 0.1240172
0.0737597 0.3936169 0.1236671
0.0744531 0.3960328 0.1230952
0.0753316 0.3990939 0.1236800
0.0764519 0.4029969 0.1226386
0.0785309 0.4102407 0.1221773
0.0803220 0.4164812 0.1216791
0.1070721 0.4223768 0.1195067
0.1645458 0.4292951 0.1183380
0.2100312 0.4416920 0.1158076
0.2579271 0.4510316 0.1131864
0.3052573 0.4591688 0.1122790
0.3553441 0.4677583 0.1098427
0.4042112 0.4781487 0.1075717
0.4560165 0.4927415 0.1036851
0.5053827 0.5014415 0.1058381
0.5529026 0.5113243 0.1194770
0.5877278 0.5178630 0.1294724
0.6233904 0.5300719 0.1397080
0.6640063 0.5385999 0.1513654
0.6949025 0.5500769 0.1602331
0.7205020 0.5543920 0.1675805
0.7407006 0.5587382 0.1733778
0.7644992 0.5707463 0.1802083
0.7867417 0.5744841 0.1865923
0.8022038 0.5841504 0.1910301
0.8196826 0.5895068 0.1960468
0.8324889 0.5982820 0.1997224
0.8434121 0.6014134 0.2048090
0.8544601 0.6101003 0.2156184
0.8641292 0.6143530 0.2250060
0.8733609 0.6238452 0.2453427
0.0817685 0.4215207 0.1284128
0.0820172 0.4223874 0.1281962
0.0826063 0.4244397 0.1276670
0.0839249 0.4290342 0.1282210
0.0848635 0.4323042 0.1272885
0.0858585 0.4357711 0.1262305
0.0873046 0.4408095 0.1263939
0.0892525 0.4475963 0.1259619
0.1015837 0.4576836 0.1229640
0.1626641 0.4664616 0.1215769
0.2180794 0.4745159 0.1209031
0.2692547 0.4825934 0.1186863
0.3171870 0.4906629 0.1165550
0.3704091 0.4997619 0.1132149
0.4237722 0.5166357 0.1100555
0.4762785 0.5262958 0.1118405
0.5139903 0.5332678 0.1138415
0.5622841 0.5435262 0.1221696
0.6001245 0.5560238 0.1330304
0.6354929 0.5621686 0.1431816
0.6666752 0.5697725 0.1521314
0.6979967 0.5809318 0.1611211
0.7257712 0.5865412 0.1690928
0.7501038 0.5927782 0.1760767
0.7748228 0.6032553 0.1831714
0.7907498 0.6066333 0.1877427
0.8099134 0.6126357 0.1932429
0.8251529 0.6219156 0.1976168
0.8370487 0.6247366 0.2010311
0.8519587 0.6346371 0.2145700
0.8621736 0.6393695 0.2270387
0.8720376 0.6481114 0.2391442
0.8798870 0.6505709 0.2534127
0.0909250 0.4534235 0.1337957
0.0912044 0.4543969 0.1335241
0.0919962 0.4571555 0.1349030
0.0926002 0.4592601 0.1342870
0.0936586 0.4629476 0.1331479
0.0947592 0.4667824 0.1318786
0.0978548 0.4775679 0.1329435
0.0994064 0.4829737 0.1308505
0.1133294 0.4912108 0.1306043
0.1787210 0.4989741 0.1299797
0.2368071 0.5074561 0.1287029
0.2778607 0.5142328 0.1284307
0.3322171 0.5252677 0.1260316
0.3883376 0.5349889 0.1231428
0.4304864 0.5482756 0.1217847
0.4839875 0.5575039 0.1207976
0.5254544 0.5670867 0.1235480
0.5738755 0.5759699 0.1260976
0.6089519 0.5823603 0.1355640
0.6447938 0.5968143 0.1458511
0.6779670 0.6027091 0.1553723
0.7063369 0.6078128 0.1635149
0.7345449 0.6189677 0.1716110
0.7603361 0.6258099 0.1790135
0.7774510 0.6300570 0.1839257
0.8003869 0.6404229 0.1905086
0.8149995 0.6454499 0.1947027
0.8320170 0.6490328 0.1999262
0.8443915 0.6581588 0.2109993
0.8553356 0.6626925 0.2207920
0.8659991 0.6723181 0.2421193
0.8751001 0.6747097 0.2535585
0.8837172 0.6833515 0.2675799
0.1003263 0.4861789 0.1442893
0.1006564 0.4873291 0.1439551
0.1014336 0.4900368 0.1431413
0.1022759 0.4929717 0.1454667
0.1030899 0.4958075 0.1445671
0.1042784 0.4999486 0.1431726
0.1061360 0.5064206 0.1445286
0.1078046 0.5122344 0.1422994
0.1230259 0.5239246 0.1420486
0.1968349 0.5322071 0.1381451
0.2465265 0.5397183 0.1381055
0.2897025 0.5490261 0.1394046
0.3484717 0.5589757 0.1373481
0.3932723 0.5668918 0.1361925
0.4502926 0.5768345 0.1329898
0.4944786 0.5846017 0.1309949
0.5452076 0.6012199 0.1333448
0.5825466 0.6082603 0.1353655
0.6203563 0.6152315 0.1388372
0.6530089 0.6234777 0.1482090
0.6865923 0.6354841 0.1578479
0.7168265 0.6410010 0.1665256
0.7440585 0.6482009 0.1743416
0.7624217 0.6519003 0.1796121
0.7853901 0.6622939 0.1862043
0.8030041 0.6680865 0.1912598
0.8218052 0.6717496 0.1989808
0.8352866 0.6807558 0.2102961
0.8469902 0.6838011 0.2236090
0.8585631 0.6942858 0.2358082
0.8686132 0.6972096 0.2505864
0.8777643 0.6996797 0.2623975
0.8863093 0.7082024 0.2778395
0.1096758 0.5187538 0.1574262
0.1105188 0.5216910 0.1565610
0.1108848 0.5229663 0.1561722
0.1117471 0.5259706 0.1552242
0.1125051 0.5286116 0.1543522
0.1144284 0.5353127 0.1558317
0.1157722 0.5399947 0.1541182
0.1173183 0.5453814 0.1557194
0.1462980 0.5518616 0.1530189
0.2060158 0.5598405 0.1552674
0.2547415 0.5683314 0.1515272
0.3164800 0.5783435 0.1502466
0.3622688 0.5917783 0.1482988
0.4120510 0.6005688 0.1469762
0.4597856 0.6093803 0.1477522
0.5103042 0.6199882 0.1450093
0.5529064 0.6274841 0.1435902
0.5934435 0.6345200 0.1429024
0.6282607 0.6467450 0.1481089
0.6637760 0.6551663 0.1525685
0.6966466 0.6615922 0.1611049
0.7240480 0.6689156 0.1701983
0.7460207 0.6781712 0.1749047
0.7700127 0.6830823 0.1817908
0.7939780 0.6876251 0.1893408
0.8096513 0.6931585 0.2012212
0.8243459 0.7017499 0.2129430
0.8420931 0.7057021 0.2257984
0.8537039 0.7102377 0.2365111
0.8647485 0.7185313 0.2505091
0.8745091 0.7215221 0.2661301
0.8837596 0.7297738 0.2820649
0.8914370 0.7341593 0.2988951
0.1182560 0.5486483 0.1685908
0.1187742 0.5504540 0.1680479
0.1191678 0.5518254 0.1676254
0.1202646 0.5556466 0.1701566
0.1210823 0.5584958 0.1692371
0.1220576 0.5618939 0.1680870
0.1250630 0.5723650 0.1709717
0.1269934 0.5790909 0.1684095
0.1669754 0.5843722 0.1662102
0.2268994 0.5939208 0.1664763
0.2783931 0.6018532 0.1670067
0.3329599 0.6101859 0.1625021
0.3813339 0.6189710 0.1644206
0.4318144 0.6279108 0.1635904
0.4756398 0.6373808 0.1627192
0.5203954 0.6453740 0.1619215
0.5600371 0.6576113 0.1626694
0.6006563 0.6647507 0.1620651
0.6385553 0.6729795 0.1612030
0.6713298 0.6796026 0.1700558
0.7036941 0.6857278 0.1763206
0.7332653 0.6960737 0.1788851
0.7526631 0.7019957 0.1901197
0.7783734 0.7069395 0.1981329
0.7952354 0.7109009 0.2107212
0.8172457 0.7208417 0.2155154
0.8310999 0.7240453 0.2260834
0.8436722 0.7274463 0.2407130
0.8552658 0.7322274 0.2555631
0.8662449 0.7400441 0.2709747
0.8760867 0.7428334 0.2843310
0.8848381 0.7458113 0.3013541
0.8929024 0.7543110 0.3176195
0.1272555 0.5800042 0.1866968
0.1276770 0.5814726 0.1862749
0.1281008 0.5829492 0.1858412
0.1291088 0.5864611 0.1847712
0.1301374 0.5900449 0.1836208
0.1310384 0.5931841 0.1825628
0.1327395 0.5991111 0.1846618
0.1428479 0.6045282 0.1826373
0.1917967 0.6122035 0.1864100
0.2549527 0.6198565 0.1808872
0.2954724 0.6267762 0.1845764
0.3479589 0.6348237 0.1805354
0.4013546 0.6441006 0.1802797
0.4482599 0.6538796 0.1799172
0.4956080 0.6616855 0.1746233
0.5396859 0.6741831 0.1756158
0.5793951 0.6812986 0.1756694
0.6193124 0.6883377 0.1755189
0.6457781 0.6949233 0.1795750
0.6807306 0.7016281 0.1857980
0.7128245 0.7074683 0.1897935
0.7335528 0.7175944 0.1999577
0.7608402 0.7229186 0.2080908
0.7791750 0.7262427 0.2117252
0.8026411 0.7325404 0.2237619
0.8180892 0.7403335 0.2370185
0.8319636 0.7440283 0.2519777
0.8496327 0.7471735 0.2566446
0.8608277 0.7518857 0.2730570
0.8714709 0.7592095 0.2895077
0.8809534 0.7619596 0.3029491
0.8893066 0.7660866 0.3199951
0.8940715 0.7713739 0.3297828
0.1342108 0.6042372 0.2039040
0.1346586 0.6057974 0.2034760
0.1351095 0.6073685 0.2030351
0.1361826 0.6111072 0.2019445
0.1366469 0.6127248 0.2014540
0.1377443 0.6165485 0.2002485
