data/spectral_luts/fuji_pro_160s_ca_dpii.cube
TITLE "fuji_pro_160s_ca_dpii"
LUT_3D_SIZE 5
0.0419316 0.0882271 0.1021529
0.1191832 0.0968875 0.1037116
0.3581135 0.1211384 0.1077516
0.6065710 0.1541484 0.1348806
0.7457812 0.2318431 0.1941608
0.0231631 0.1368567 0.1155643
0.1383357 0.1559331 0.1187377
0.4068894 0.2038568 0.1256022
0.6522706 0.2655485 0.1479971
0.7850617 0.3496151 0.2249883
0.0695041 0.3787900 0.1634449
0.1732984 0.4054964 0.1632925
0.4914974 0.4689632 0.1588188
0.7260283 0.5355550 0.2050765
0.8377036 0.5907903 0.2815080
0.1352209 0.6077567 0.2767117
0.2885537 0.6293967 0.2769125
0.5752427 0.6830728 0.2829885
0.7689924 0.7215647 0.2947145
0.8650897 0.7548430 0.3758796
0.4082024 0.7538075 0.4358342
0.4924182 0.7672822 0.4400655
0.6705319 0.7971696 0.4466802
0.8067837 0.8232545 0.4622564
0.8804842 0.8386275 0.4826218
0.0372508 0.0939197 0.1508559
0.1235147 0.1035659 0.1564772
0.3665009 0.1276297 0.1772983
0.6142954 0.1559582 0.2047809
0.7453646 0.2271991 0.2472792
0.0218793 0.1486662 0.2024360
0.1394783 0.1669864 0.2111806
0.4075195 0.2152114 0.2283319
0.6555118 0.2765364 0.2514923
0.7855587 0.3504036 0.2867287
0.0775723 0.4069008 0.3014170
0.1490712 0.4337680 0.3072377
0.4925946 0.4958620 0.3173936
0.7253544 0.5532829 0.3340139
0.8402536 0.5951524 0.3687697
0.1419810 0.6313096 0.4170687
0.2745208 0.6527576 0.4170591
0.5779980 0.7049357 0.4265077
0.7671756 0.7391868 0.4378495
0.8638670 0.7657520 0.4656544
0.4089359 0.7659535 0.5283325
0.4979810 0.7796660 0.5331293
0.6660926 0.8067799 0.5365527
0.8044106 0.8321000 0.5474024
0.8790050 0.8467351 0.5618855
0.0636933 0.1010643 0.3322471
0.1477914 0.1123587 0.3457242
0.3927091 0.1439649 0.3796004
0.6369656 0.1801182 0.4168244
0.7604642 0.2443116 0.4560449
0.0729887 0.1486974 0.3909310
0.1627574 0.1661938 0.4027363
0.4247641 0.2144899 0.4331460
0.6644902 0.2748684 0.4617187
0.7908760 0.3583205 0.5019026
0.1111020 0.4259044 0.5237229
0.1441824 0.4570545 0.5319996
0.4930307 0.5158334 0.5492096
0.7290327 0.5652244 0.5600034
0.8407601 0.6109801 0.5769904
0.1474156 0.6502446 0.6142078
0.2819801 0.6783559 0.6182145
0.5770488 0.7247118 0.6276034
0.7684742 0.7591194 0.6362559
0.8650123 0.7815470 0.6467845
0.4059082 0.7803677 0.6847069
0.5084522 0.7963430 0.6913213
0.6680083 0.8211222 0.6926496
0.8059174 0.8443630 0.6976433
0.8799780 0.8581202 0.7072401
0.1406502 0.1223536 0.5193007
0.2047374 0.1334771 0.5265667
0.4496496 0.1789083 0.5596229
0.6659993 0.2308153 0.5926814
0.7871110 0.3048551 0.6274183
0.1384141 0.1299872 0.5235695
0.2174567 0.1493069 0.5382329
0.4613658 0.1932055 0.5679488
0.6787129 0.2582828 0.6053846
0.7966716 0.3449845 0.6439740
0.1534155 0.4396405 0.6711494
0.2177629 0.4679630 0.6805685
0.5302211 0.5239640 0.7014084
0.7411162 0.5701855 0.7133471
0.8454928 0.6155210 0.7273244
0.1777077 0.6674597 0.7557865
0.3319761 0.6920421 0.7610214
0.5921296 0.7300841 0.7677893
0.7725954 0.7673394 0.7779366
0.8678262 0.7892944 0.7857531
0.4525435 0.7951427 0.8072595
0.5246352 0.8055387 0.8088959
0.6831524 0.8299317 0.8119186
0.8093328 0.8521264 0.8173440
0.8792027 0.8648683 0.8235865
0.2429975 0.2083012 0.6744092
0.2756309 0.2124722 0.6773050
0.5080091 0.2626478 0.7025973
0.7080672 0.3212258 0.7307507
0.8141788 0.3982204 0.7561991
0.2429975 0.2083012 0.6744092
0.2884237 0.2195911 0.6816723
0.5158435 0.2694651 0.7061431
0.7130736 0.3215054 0.7308969
0.8172455 0.3984056 0.7562639
0.1801752 0.4451926 0.7643836
0.3127249 0.4708717 0.7748820
0.5690361 0.5183228 0.7906497
0.7534640 0.5709270 0.8041266
0.8496234 0.6092075 0.8164412
0.2821111 0.6829707 0.8384705
0.4138503 0.7014417 0.8430986
0.6290166 0.7372357 0.8517864
0.7836313 0.7706358 0.8577811
0.8711842 0.7914816 0.8628091
0.5013844 0.8024496 0.8767323
0.5681028 0.8150437 0.8800262
0.7044007 0.8360992 0.8832837
0.8140238 0.8547592 0.8854491
0.8820236 0.8680057 0.8891568
