data/spectral_luts/fuji_c200_ca_dpii.cube
TITLE "fuji_c200_ca_dpii"
LUT_3D_SIZE 33
0.0271782 0.0821711 0.0927542
0.0281718 0.0822827 0.0927827
0.0319662 0.0826981 0.0928867
0.0385343 0.0833809 0.0930503
0.0501018 0.0845656 0.0933129
0.0636473 0.0860428 0.0936361
0.0781415 0.0876945 0.0940139
0.0939847 0.0895816 0.0944611
0.1110869 0.0916172 0.0948243
0.1342030 0.0943131 0.0952714
0.1573318 0.0969597 0.0956431
0.1861190 0.1001346 0.0958851
0.2164234 0.1034033 0.0960466
0.2481913 0.1066363 0.0961752
0.2837615 0.1100097 0.0961058
0.3177569 0.1133070 0.0960197
0.3567356 0.1163901 0.0953216
0.4012515 0.1186309 0.0937728
0.4440744 0.1207095 0.0922234
0.4814755 0.1224833 0.0989764
0.5184528 0.1248433 0.1095894
0.5538664 0.1281198 0.1197536
0.5817959 0.1314507 0.1277698
0.6136643 0.1369165 0.1369165
0.6361857 0.1433805 0.1433805
0.6591033 0.1499581 0.1499581
0.6811459 0.1562847 0.1562847
0.6978534 0.1643121 0.1610800
0.7162851 0.1729524 0.1663702
0.7324365 0.1854683 0.1710058
0.7483740 0.1952205 0.1755802
0.7598891 0.2059062 0.1788851
0.7721558 0.2177437 0.1824059
0.0271423 0.0822450 0.0927674
0.0287111 0.0824402 0.0928156
0.0322740 0.0828540 0.0929511
0.0391607 0.0836250 0.0931314
0.0506081 0.0848488 0.0934330
0.0635721 0.0863158 0.0937864
0.0793723 0.0881683 0.0942438
0.0939449 0.0899751 0.0946489
0.1124252 0.0922395 0.0950809
0.1342264 0.0949296 0.0955525
0.1574106 0.0977977 0.0960180
0.1862891 0.1012570 0.0963144
0.2180207 0.1047850 0.0964997
0.2485533 0.1081791 0.0966485
0.2842469 0.1118293 0.0966261
0.3182282 0.1149248 0.0963553
0.3657753 0.1179389 0.0950863
0.4018908 0.1205693 0.0943561
0.4467966 0.1223245 0.0924214
0.4823342 0.1249481 0.0992228
0.5196571 0.1282791 0.1099351
0.5550095 0.1313824 0.1200817
0.5830352 0.1349474 0.1281255
0.6146585 0.1391415 0.1372018
0.6387842 0.1441263 0.1441263
0.6604434 0.1503428 0.1503428
0.6829430 0.1589390 0.1568005
0.6988986 0.1673454 0.1613800
0.7194958 0.1790523 0.1672917
0.7335013 0.1886392 0.1713115
0.7494974 0.1985902 0.1759026
0.7632317 0.2133488 0.1798445
0.7749768 0.2261652 0.1832156
0.0268179 0.0825868 0.0929292
0.0291392 0.0828931 0.0930034
0.0328562 0.0833425 0.0931113
0.0399790 0.0841208 0.0932922
0.0510477 0.0853428 0.0936237
0.0645727 0.0869719 0.0940515
0.0792680 0.0887855 0.0945101
0.0948937 0.0908036 0.0949886
0.1124003 0.0931650 0.0954576
0.1342704 0.0960721 0.0960177
0.1575353 0.0990837 0.0964619
0.1876826 0.1027680 0.0968278
0.2183523 0.1064551 0.0969684
0.2505167 0.1101538 0.0971951
0.2863974 0.1137270 0.0971694
0.3264106 0.1168420 0.0964681
0.3663636 0.1198135 0.0957276
0.4025817 0.1226757 0.0949818
0.4477931 0.1252473 0.0931717
0.4856267 0.1283491 0.1001678
0.5228629 0.1313310 0.1108551
0.5563314 0.1351284 0.1204611
0.5844861 0.1391056 0.1285419
0.6161962 0.1435394 0.1376432
0.6405219 0.1490909 0.1446250
0.6641502 0.1569396 0.1514067
0.6848536 0.1644952 0.1573489
0.7009621 0.1733829 0.1619723
0.7216901 0.1854357 0.1679215
0.7387654 0.1950166 0.1728224
0.7518021 0.2054723 0.1765641
0.7646298 0.2174068 0.1802458
0.7771832 0.2304044 0.1838488
0.0265357 0.0836848 0.0933103
0.0292380 0.0840591 0.0933990
0.0332994 0.0845844 0.0935613
0.0408927 0.0855669 0.0938175
0.0520649 0.0868559 0.0941676
0.0657193 0.0886666 0.0946641
0.0798755 0.0904868 0.0950890
0.0963856 0.0927151 0.0956068
0.1144649 0.0954071 0.0961670
0.1369353 0.0984229 0.0966296
0.1619718 0.1018834 0.0970990
0.1880758 0.1053713 0.0975549
0.2188092 0.1088268 0.0977615
0.2510275 0.1123819 0.0979217
0.2869679 0.1159032 0.0978221
0.3271437 0.1193633 0.0971559
0.3694822 0.1229141 0.0962433
0.4129310 0.1264959 0.0951578
0.4516089 0.1300725 0.0938722
0.4876047 0.1340920 0.1007355
0.5247529 0.1367539 0.1113976
0.5604044 0.1412611 0.1216301
0.5888625 0.1461793 0.1297980
0.6200874 0.1499325 0.1387600
0.6426474 0.1551632 0.1452351
0.6669627 0.1650579 0.1522139
0.6892893 0.1734832 0.1586220
0.7052575 0.1823998 0.1632051
0.7238371 0.1917864 0.1685377
0.7419928 0.2017446 0.1737487
0.7543514 0.2130346 0.1772958
0.7672281 0.2253711 0.1809916
0.7801174 0.2394622 0.1846910
0.0260994 0.0862486 0.0941770
0.0291048 0.0867958 0.0943409
0.0334526 0.0874166 0.0945227
0.0415213 0.0884663 0.0947907
0.0529618 0.0898894 0.0951640
0.0670278 0.0916450 0.0955206
0.0816777 0.0936925 0.0959692
0.0972316 0.0958775 0.0964840
0.1143984 0.0983202 0.0969604
0.1370627 0.1015045 0.0975084
0.1622627 0.1048739 0.0979903
0.1920818 0.1083944 0.0982509
0.2235164 0.1121034 0.0985401
0.2564349 0.1159273 0.0987009
0.2931612 0.1203933 0.0986446
0.3305996 0.1245818 0.0982505
0.3712012 0.1284809 0.0973153
0.4148647 0.1324473 0.0961069
0.4539173 0.1369757 0.0951494
0.4920439 0.1408739 0.1020097
0.5274386 0.1445498 0.1121685
0.5628480 0.1482998 0.1223315
0.5911286 0.1527217 0.1304484
0.6238090 0.1606898 0.1398282
0.6487087 0.1682596 0.1469748
0.6709455 0.1766893 0.1533571
0.6933878 0.1855206 0.1597983
0.7132279 0.1949447 0.1654927
0.7294164 0.2050280 0.1701391
0.7456657 0.2126636 0.1748028
0.7591429 0.2247740 0.1786710
0.7715189 0.2385417 0.1822231
0.7848231 0.2542400 0.1860416
0.0254537 0.0898491 0.0953056
0.0287543 0.0904774 0.0954368
0.0335340 0.0909957 0.0956014
0.0425149 0.0920850 0.0958740
0.0540573 0.0935623 0.0962498
0.0677992 0.0953675 0.0966509
0.0820147 0.0972874 0.0970258
0.0980360 0.0994429 0.0974320
0.1157995 0.1021073 0.0979893
0.1389534 0.1055459 0.0985273
0.1648283 0.1094120 0.0990765
0.1927797 0.1132558 0.0995875
0.2259726 0.1177366 0.0998588
0.2595428 0.1227981 0.1000480
0.2965216 0.1268541 0.0998097
0.3326446 0.1318642 0.0995714
0.3737828 0.1370458 0.0987598
0.4197771 0.1409539 0.0971532
0.4566989 0.1454422 0.0965156
0.4951136 0.1500174 0.1028907
0.5329982 0.1545618 0.1137641
0.5685418 0.1592163 0.1239657
0.6027421 0.1653241 0.1337817
0.6281471 0.1733398 0.1410733
0.6533300 0.1817592 0.1483011
0.6760953 0.1876686 0.1548351
0.6973244 0.1971335 0.1609282
0.7185726 0.2072066 0.1670267
0.7331145 0.2160844 0.1712005
0.7508240 0.2283508 0.1762834
0.7648840 0.2424860 0.1803188
0.7772347 0.2535708 0.1838636
0.7908752 0.2708469 0.1877786
0.0244811 0.0952090 0.0967537
0.0285935 0.0956616 0.0968534
0.0341554 0.0962665 0.0970839
0.0433405 0.0978439 0.0974253
0.0546753 0.0990289 0.0976904
0.0684895 0.1012059 0.0981350
0.0828489 0.1035119 0.0986187
0.0990835 0.1061042 0.0990853
0.1202417 0.1092763 0.0995051
0.1419410 0.1130157 0.1001538
0.1687622 0.1168397 0.1005966
0.1976160 0.1215999 0.1010984
0.2275375 0.1264481 0.1015690
0.2662679 0.1318649 0.1015318
0.2989064 0.1364935 0.1014199
0.3412862 0.1415599 0.1008367
0.3853261 0.1463286 0.0996768
0.4228383 0.1508066 0.0990744
0.4693846 0.1574309 0.0978557
0.5079104 0.1626058 0.1065636
0.5435569 0.1679937 0.1167946
0.5742277 0.1761339 0.1255976
0.6082727 0.1817015 0.1353690
0.6355911 0.1904737 0.1432098
0.6599426 0.1967790 0.1501991
0.6813830 0.2034358 0.1563528
0.7042744 0.2140747 0.1629229
0.7239347 0.2234355 0.1685657
0.7397729 0.2365563 0.1731115
0.7577096 0.2467470 0.1782596
0.7697648 0.2577897 0.1817196
0.7839306 0.2751333 0.1857854
0.7982693 0.2878506 0.1899008
0.0219224 0.1041203 0.0989061
0.0264428 0.1049280 0.0991130
0.0330719 0.1056331 0.0993058
0.0432883 0.1066424 0.0994835
0.0550626 0.1087769 0.0999325
0.0692483 0.1103494 0.1002768
0.0852155 0.1130942 0.1007369
0.1004689 0.1158311 0.1012747
0.1213869 0.1192584 0.1017771
0.1449582 0.1229971 0.1020938
0.1729577 0.1272617 0.1026079
0.2026975 0.1315723 0.1029063
0.2336170 0.1371470 0.1034466
0.2683057 0.1417523 0.1032456
0.3068478 0.1480007 0.1029708
0.3446941 0.1545965 0.1027044
0.3896770 0.1616499 0.1017507
0.4344622 0.1671113 0.1006776
0.4744273 0.1735941 0.0996271
0.5134838 0.1800338 0.1081632
0.5515412 0.1863189 0.1190863
0.5795869 0.1925422 0.1271358
0.6140140 0.1991258 0.1370168
0.6417862 0.2093356 0.1449879
0.6665346 0.2168655 0.1520911
0.6898871 0.2251247 0.1587936
0.7107354 0.2339548 0.1647773
0.7322598 0.2454123 0.1709552
0.7471399 0.2561434 0.1752260
0.7642428 0.2676042 0.1801347
0.7792168 0.2856290 0.1844325
0.7922983 0.3001502 0.1881871
0.8064860 0.3131137 0.1922591
0.0189570 0.1146985 0.1013970
0.0253094 0.1154010 0.1015875
0.0325522 0.1161594 0.1017834
0.0417946 0.1183044 0.1021657
0.0551305 0.1196826 0.1024952
0.0692224 0.1217353 0.1028835
0.0847712 0.1251532 0.1033956
0.1019109 0.1288699 0.1040198
0.1249174 0.1316815 0.1043075
0.1468251 0.1360509 0.1048248
0.1773630 0.1415490 0.1051217
0.2083557 0.1470770 0.1054257
0.2404116 0.1525614 0.1053626
0.2767828 0.1603986 0.1054567
0.3108903 0.1665157 0.1053681
0.3489403 0.1720698 0.1049567
0.3946128 0.1802046 0.1037751
0.4421022 0.1858557 0.1027021
0.4802798 0.1933360 0.1021909
0.5198672 0.2009577 0.1099954
0.5575935 0.2056791 0.1208233
0.5944691 0.2145540 0.1314072
0.6233354 0.2227959 0.1396922
0.6505260 0.2315868 0.1474963
0.6742961 0.2414097 0.1543187
0.6968302 0.2470873 0.1607863
0.7201325 0.2596681 0.1674744
0.7403035 0.2713624 0.1732638
0.7597779 0.2834633 0.1788532
0.7736341 0.2955534 0.1828302
0.7864477 0.3101882 0.1865079
0.8014629 0.3234675 0.1908175
0.8133565 0.3373971 0.1942311
0.0135355 0.1310952 0.1048688
0.0199841 0.1317860 0.1049660
0.0269987 0.1344873 0.1054592
0.0382566 0.1355815 0.1056645
0.0528953 0.1376809 0.1060449
0.0684178 0.1393639 0.1063433
0.0848698 0.1432703 0.1069161
0.1026628 0.1454291 0.1071447
0.1257713 0.1503627 0.1076668
0.1526091 0.1558639 0.1081969
0.1804022 0.1593416 0.1080816
0.2140770 0.1655932 0.1081025
0.2475549 0.1717368 0.1077420
0.2797612 0.1784960 0.1079585
0.3200689 0.1851097 0.1073554
0.3617983 0.1918100 0.1069634
0.4067368 0.2012492 0.1060747
0.4481598 0.2086007 0.1051757
0.4951658 0.2151023 0.1033698
0.5355527 0.2246866 0.1144973
0.5649114 0.2303441 0.1229237
0.6027558 0.2421744 0.1337856
0.6310892 0.2484321 0.1419177
0.6642391 0.2599637 0.1514322
0.6878250 0.2662958 0.1582017
0.7125185 0.2801386 0.1652891
0.7297460 0.2919303 0.1702336
0.7484856 0.2989908 0.1756122
0.7680134 0.3116243 0.1812169
0.7826077 0.3267842 0.1854057
0.7959569 0.3408942 0.1892371
0.8093907 0.3490616 0.1930929
0.8206715 0.3644060 0.1963306
0.0128308 0.1511080 0.1086375
0.0130639 0.1526598 0.1087994
0.0193803 0.1534873 0.1090439
0.0312236 0.1546517 0.1093098
0.0483526 0.1562086 0.1094189
0.0655194 0.1604680 0.1100856
0.0843578 0.1626115 0.1103264
0.1051366 0.1651418 0.1105122
0.1279022 0.1705502 0.1109894
0.1536053 0.1748083 0.1112161
0.1842597 0.1815957 0.1114354
0.2198083 0.1889827 0.1111702
0.2546606 0.1933772 0.1109066
0.2880443 0.2002552 0.1102027
0.3301516 0.2095314 0.1097192
0.3737069 0.2177538 0.1090711
0.4121615 0.2253112 0.1086308
0.4617741 0.2352064 0.1069091
0.5024323 0.2429299 0.1056794
0.5437856 0.2552276 0.1168603
0.5822601 0.2627516 0.1279030
0.6109972 0.2715670 0.1361510
0.6486226 0.2843251 0.1469500
0.6747510 0.2913467 0.1544493
0.6975562 0.3003005 0.1609947
0.7218605 0.3131084 0.1679704
0.7431773 0.3204682 0.1740886
0.7595407 0.3341922 0.1787852
0.7770112 0.3441743 0.1837994
0.7913997 0.3593143 0.1879292
0.8058763 0.3682250 0.1920842
0.8186403 0.3844582 0.1957476
0.8295251 0.3961461 0.1988717
0.0165403 0.1741123 0.1126147
0.0166657 0.1748347 0.1126628
0.0168280 0.1757645 0.1127176
0.0198630 0.1801451 0.1132339
0.0391036 0.1818931 0.1136076
0.0584669 0.1837035 0.1138504
0.0807048 0.1861098 0.1140793
0.1032726 0.1924770 0.1144674
0.1285170 0.1957414 0.1146410
0.1578299 0.2046989 0.1149768
0.1915928 0.2093861 0.1150629
0.2234229 0.2176245 0.1149079
0.2619374 0.2227764 0.1142218
0.2969342 0.2314211 0.1137204
0.3347907 0.2418011 0.1127639
0.3796299 0.2515807 0.1114933
0.4280873 0.2570008 0.1098158
0.4688724 0.2673660 0.1086831
0.5102590 0.2760804 0.1072377
0.5510716 0.2848302 0.1189515
0.5904979 0.2950590 0.1302674
0.6283755 0.3087769 0.1411388
0.6572002 0.3170217 0.1494119
0.6837029 0.3250898 0.1570186
0.7083158 0.3350281 0.1640829
0.7299149 0.3434909 0.1702821
0.7532858 0.3587797 0.1769899
0.7687511 0.3696156 0.1814287
0.7870432 0.3788792 0.1866788
0.8014716 0.3954218 0.1908200
0.8159869 0.4051492 0.1949861
0.8283426 0.4245541 0.1985323
0.8385638 0.4341535 0.2014660
0.0221594 0.2038043 0.1170831
0.0223070 0.2045212 0.1171008
0.0225143 0.2055234 0.1171186
0.0236041 0.2107053 0.1178031
0.0239685 0.2124067 0.1177900
0.0444628 0.2145752 0.1180651
0.0723828 0.2172481 0.1182810
0.1017462 0.2219973 0.1184565
0.1312179 0.2300218 0.1188055
0.1599864 0.2340449 0.1191148
0.1916842 0.2427903 0.1187669
0.2275627 0.2480262 0.1187672
0.2685507 0.2582437 0.1179685
0.3052171 0.2647420 0.1164773
0.3446292 0.2746621 0.1152150
0.3915179 0.2855169 0.1135297
0.4415394 0.2914650 0.1102866
0.4854757 0.3033384 0.1077592
0.5250221 0.3132166 0.1114749
0.5662423 0.3230726 0.1233057
0.5995969 0.3346755 0.1328789
0.6368251 0.3445801 0.1435640
0.6661192 0.3541601 0.1519718
0.6935763 0.3657765 0.1598524
0.7181144 0.3751821 0.1668952
0.7415016 0.3847218 0.1736077
0.7624558 0.3965182 0.1796218
0.7822679 0.4061849 0.1853082
0.7959210 0.4159485 0.1892269
0.8131737 0.4329337 0.1941786
0.8251530 0.4449387 0.1976169
0.8359629 0.4547738 0.2007195
0.8452092 0.4642403 0.2033733
0.0297169 0.2374648 0.1218005
0.0299568 0.2384463 0.1217834
0.0302321 0.2395668 0.1222150
0.0306205 0.2411381 0.1221641
0.0310463 0.2428468 0.1220884
0.0320195 0.2467019 0.1224617
0.0594443 0.2495672 0.1229793
0.0954336 0.2581843 0.1230991
0.1275574 0.2621559 0.1230626
0.1621677 0.2668635 0.1227760
0.1968160 0.2768623 0.1223912
0.2359097 0.2844425 0.1218512
0.2740577 0.2954369 0.1205806
0.3126732 0.3011301 0.1194764
0.3564031 0.3129656 0.1176177
0.4027604 0.3193115 0.1151784
0.4472976 0.3308631 0.1114263
0.4889251 0.3381289 0.1087057
0.5316966 0.3497427 0.1133906
0.5737145 0.3611850 0.1254503
0.6164964 0.3749976 0.1377294
0.6454054 0.3851632 0.1460266
0.6832607 0.3987784 0.1568917
0.7080257 0.4017302 0.1639996
0.7309523 0.4116511 0.1705799
0.7546187 0.4237183 0.1773725
0.7719361 0.4333035 0.1823428
0.7905574 0.4435659 0.1876874
0.8041074 0.4532526 0.1915765
0.8227088 0.4727246 0.1969153
0.8329950 0.4820904 0.1998676
0.8436610 0.4918024 0.2029289
0.8540608 0.5038027 0.2059138
0.0392050 0.2732573 0.1266192
0.0394485 0.2741054 0.1265709
0.0402996 0.2770453 0.1264882
0.0407679 0.2786689 0.1268982
0.0414005 0.2808730 0.1267119
0.0421079 0.2833379 0.1270197
0.0429582 0.2863004 0.1266753
0.0829084 0.2903419 0.1267011
0.1210860 0.3006476 0.1266286
0.1610049 0.3079083 0.1260227
0.2009120 0.3136570 0.1251525
0.2370917 0.3252298 0.1248079
0.2783838 0.3315085 0.1231792
0.3191426 0.3377248 0.1215417
0.3653276 0.3528845 0.1192437
0.4138945 0.3599868 0.1165627
0.4599251 0.3727509 0.1122417
0.5051426 0.3853782 0.1087252
0.5478769 0.3909768 0.1180345
0.5905684 0.4052615 0.1302876
0.6239330 0.4164121 0.1398637
0.6603879 0.4210553 0.1503269
0.6900991 0.4339325 0.1588544
0.7165342 0.4442897 0.1664417
0.7416993 0.4570671 0.1736644
0.7633978 0.4671865 0.1798922
0.7847261 0.4769821 0.1860138
0.7979056 0.4796632 0.1897964
0.8164107 0.4924324 0.1951077
0.8284397 0.5019768 0.1985602
0.8395006 0.5107875 0.2017348
0.8495073 0.5222904 0.2046069
0.8616948 0.5318512 0.2081049
0.0496308 0.3095485 0.1302400
0.0500647 0.3110605 0.1307598
0.0503683 0.3121181 0.1306503
0.0508336 0.3137391 0.1308087
0.0514131 0.3157582 0.1305650
0.0523252 0.3189363 0.1308243
0.0554634 0.3298700 0.1306122
0.0644924 0.3340023 0.1298393
0.1166155 0.3393462 0.1298397
0.1594324 0.3448366 0.1293200
0.2024474 0.3571973 0.1282335
0.2436559 0.3634789 0.1269163
0.2882068 0.3704231 0.1249442
0.3311011 0.3855530 0.1233937
0.3732808 0.3921173 0.1207726
0.4268526 0.4002565 0.1170267
0.4713392 0.4133390 0.1140965
0.5167181 0.4221745 0.1112995
0.5609010 0.4347214 0.1217727
0.5964690 0.4460963 0.1319812
0.6359046 0.4513102 0.1432998
0.6677127 0.4644878 0.1524292
0.6972888 0.4754364 0.1609180
0.7279769 0.4799047 0.1697259
0.7479153 0.4916689 0.1754485
0.7710955 0.5015844 0.1821016
0.7914525 0.5140283 0.1879443
0.8047737 0.5171796 0.1917677
0.8227361 0.5271032 0.1969232
0.8346417 0.5361032 0.2003403
0.8461106 0.5478505 0.2036320
0.8591254 0.5568774 0.2073674
0.8684567 0.5660570 0.2100457
0.0604676 0.3473057 0.1350794
0.0607275 0.3482111 0.1349586
0.0610911 0.3494780 0.1347821
0.0616298 0.3513549 0.1345049
0.0622295 0.3534441 0.1341734
0.0648735 0.3626564 0.1345392
0.0659053 0.3662511 0.1338237
0.0672293 0.3708642 0.1338661
0.1054536 0.3763480 0.1341380
0.1537692 0.3819040 0.1325521
0.1986912 0.3901796 0.1313886
0.2420958 0.4028867 0.1298657
0.2900653 0.4104940 0.1277725
0.3385760 0.4186320 0.1270528
0.3802323 0.4315099 0.1241062
0.4363878 0.4421706 0.1189111
0.4818170 0.4552379 0.1157188
0.5279863 0.4621730 0.1123257
0.5643139 0.4673987 0.1227522
0.6080585 0.4818647 0.1353076
0.6415042 0.4930343 0.1449070
0.6789606 0.4979650 0.1556575
0.7078919 0.5086472 0.1639612
0.7336238 0.5149734 0.1713466
0.7582154 0.5256443 0.1784048
0.7810808 0.5358706 0.1849675
0.7959134 0.5413864 0.1892247
0.8154356 0.5515386 0.1948278
0.8286856 0.5627919 0.1986308
0.8446490 0.5726272 0.2032125
0.8543813 0.5811383 0.2060058
0.8638066 0.5861186 0.2087110
0.8730293 0.5947076 0.2169917
0.0703027 0.3815723 0.1396257
0.0707675 0.3831916 0.1393593
0.0711046 0.3843665 0.1403234
0.0718236 0.3868714 0.1398814
0.0725557 0.3894223 0.1393975
0.0733395 0.3921531 0.1388403
0.0753133 0.3990301 0.1393506
0.0780756 0.4086543 0.1376651
0.1010510 0.4147965 0.1378441
0.1592766 0.4214873 0.1370313
0.1994480 0.4272232 0.1370422
0.2513996 0.4348185 0.1339099
0.2988804 0.4480878 0.1307297
0.3426210 0.4572932 0.1286302
0.3953808 0.4662729 0.1271592
0.4449492 0.4801068 0.1216016
0.4941804 0.4879653 0.1175039
0.5406281 0.4970680 0.1159540
0.5753602 0.5086310 0.1259227
0.6208054 0.5151945 0.1389661
0.6542259 0.5264986 0.1485583
0.6830305 0.5307229 0.1568256
0.7144425 0.5437314 0.1658413
0.7400441 0.5479180 0.1731894
0.7632146 0.5605867 0.1798396
0.7861602 0.5704218 0.1864254
0.8063914 0.5746935 0.1922320
0.8206467 0.5858513 0.1963235
0.8334452 0.5949121 0.1999968
0.8484750 0.5978709 0.2043106
0.8593444 0.6089965 0.2074303
0.8684382 0.6173596 0.2115144
0.8767019 0.6195376 0.2228667
0.0794339 0.4133869 0.1466193
0.0797578 0.4145154 0.1464116
0.0815773 0.4208546 0.1456326
0.0821514 0.4228548 0.1452229
0.0831301 0.4262648 0.1458110
0.0840962 0.4296308 0.1450346
0.0853065 0.4338479 0.1439754
0.0869188 0.4394652 0.1445766
0.1042789 0.4457519 0.1426484
0.1576565 0.4536392 0.1417832
0.2019817 0.4598164 0.1417593
0.2565942 0.4734038 0.1372319
0.3001014 0.4804247 0.1353884
0.3551557 0.4896487 0.1329739
0.4019368 0.4993723 0.1303616
0.4528908 0.5133311 0.1256913
0.5031848 0.5214653 0.1208115
0.5416913 0.5281221 0.1212790
0.5877517 0.5410210 0.1294792
0.6234317 0.5486010 0.1397199
0.6642519 0.5605486 0.1514359
0.6949235 0.5657444 0.1602391
0.7237979 0.5757083 0.1685264
0.7493303 0.5820714 0.1758546
0.7736027 0.5922080 0.1828212
0.7893786 0.5953922 0.1873491
0.8108103 0.6075616 0.1935003
0.8239380 0.6106623 0.1972681
0.8413045 0.6199695 0.2022526
0.8529644 0.6311370 0.2055992
0.8627183 0.6335816 0.2083987
0.8726315 0.6428952 0.2246867
0.8811526 0.6529937 0.2352320
0.0891254 0.4471534 0.1522723
0.0895780 0.4487301 0.1519421
0.0900510 0.4503784 0.1515845
0.0907841 0.4529324 0.1510049
0.0920141 0.4572181 0.1525811
0.0930907 0.4609689 0.1516472
0.0942527 0.4650176 0.1505570
0.0958743 0.4706675 0.1506030
0.0975910 0.4766488 0.1486695
0.1569520 0.4833563 0.1489558
0.2164073 0.4961202 0.1448775
0.2633085 0.5052449 0.1444388
0.3119807 0.5131578 0.1426578
0.3589038 0.5212132 0.1416155
0.4110871 0.5299950 0.1383636
0.4603032 0.5438353 0.1355684
0.5109569 0.5542952 0.1330966
0.5503197 0.5610390 0.1324366
0.5966365 0.5740667 0.1320293
0.6325080 0.5798364 0.1423249
0.6658486 0.5853550 0.1518941
0.7062253 0.5995868 0.1634829
0.7338257 0.6040770 0.1714046
0.7524915 0.6129699 0.1767620
0.7762989 0.6173567 0.1835950
0.7991514 0.6267286 0.1901540
0.8137350 0.6325520 0.1943397
0.8326975 0.6422704 0.1997822
0.8446320 0.6472754 0.2032076
0.8560118 0.6566843 0.2064738
0.8685973 0.6595367 0.2169123
0.8784673 0.6699981 0.2299874
0.8871235 0.6784937 0.2438866
0.0978620 0.4775929 0.1610451
0.0983745 0.4793785 0.1606484
0.0986373 0.4802943 0.1604394
0.0994450 0.4831083 0.1597735
0.1003889 0.4863971 0.1609537
0.1016016 0.4906223 0.1598488
0.1028821 0.4950837 0.1585846
0.1048337 0.5018832 0.1603884
0.1066794 0.5083139 0.1582701
0.1674917 0.5150892 0.1557654
0.2218926 0.5228270 0.1569666
0.2731534 0.5363246 0.1567305
0.3220834 0.5438856 0.1528774
0.3719929 0.5523751 0.1512928
0.4163600 0.5621439 0.1515841
0.4704840 0.5714468 0.1491576
0.5212996 0.5857342 0.1471977
0.5583792 0.5923522 0.1483680
0.6075023 0.6006422 0.1475728
0.6411754 0.6138490 0.1468605
0.6744143 0.6192319 0.1543526
0.7056777 0.6244760 0.1633257
0.7363297 0.6351882 0.1721233
0.7617454 0.6418469 0.1794180
0.7844571 0.6513266 0.1859366
0.8018404 0.6544435 0.1909258
0.8218466 0.6584027 0.1966679
0.8356082 0.6694793 0.2006177
0.8517324 0.6731688 0.2052455
0.8617581 0.6814580 0.2105166
0.8720669 0.6899720 0.2241523
0.8811743 0.6951882 0.2443721
0.8897782 0.7036455 0.2591664
0.1058314 0.5053595 0.1738606
0.1061172 0.5063550 0.1736418
0.1066924 0.5083593 0.1731888
0.1072019 0.5101345 0.1727733
0.1096843 0.5187833 0.1727193
0.1106818 0.5222589 0.1718026
0.1122043 0.5275635 0.1735941
0.1136227 0.5325054 0.1721233
0.1156018 0.5394009 0.1698571
0.1653330 0.5460438 0.1727349
0.2251313 0.5551839 0.1695169
0.2811101 0.5641102 0.1712472
0.3226718 0.5710813 0.1717951
0.3779941 0.5854992 0.1678070
0.4313526 0.5947481 0.1664128
0.4765136 0.6029413 0.1674957
0.5282550 0.6139069 0.1671846
0.5684483 0.6266049 0.1672214
0.6156223 0.6344857 0.1653607
0.6510806 0.6406885 0.1673592
0.6844251 0.6464522 0.1697257
0.7158457 0.6590184 0.1705083
0.7434459 0.6635096 0.1741657
0.7688338 0.6678875 0.1814524
0.7880197 0.6768503 0.1869590
0.8084227 0.6804525 0.1928150
0.8247850 0.6917309 0.1975112
0.8415292 0.6945102 0.2023171
0.8546806 0.7031322 0.2120311
0.8652924 0.7076728 0.2240017
0.8745488 0.7158855 0.2383730
0.8835360 0.7184805 0.2514375
0.8922514 0.7283627 0.2664976
0.1145459 0.5357218 0.1899898
0.1151869 0.5379553 0.1895149
0.1155111 0.5390847 0.1892675
0.1168503 0.5437507 0.1933312
0.1178905 0.5473750 0.1925071
0.1190781 0.5515127 0.1915010
0.1201728 0.5553267 0.1905092
0.1219622 0.5615613 0.1922742
0.1235371 0.5670485 0.1906380
0.1844070 0.5751507 0.1879441
0.2313951 0.5872186 0.1901277
0.2885015 0.5952609 0.1868734
0.3323439 0.6046395 0.1892317
0.3920186 0.6141264 0.1845353
0.4396836 0.6227847 0.1863340
0.4925460 0.6319871 0.1853072
0.5345888 0.6448258 0.1861259
0.5759273 0.6514280 0.1812679
0.6229374 0.6613383 0.1819754
0.6585681 0.6676726 0.1845904
0.6922519 0.6786942 0.1861997
0.7227705 0.6837766 0.1870303
0.7444705 0.6877820 0.1917976
0.7706677 0.6993392 0.1942289
0.7944923 0.7035555 0.1989373
0.8101102 0.7071359 0.2103057
0.8304717 0.7157236 0.2145443
0.8432811 0.7183149 0.2211241
0.8566749 0.7274107 0.2262968
0.8671601 0.7302496 0.2390640
0.8796899 0.7336712 0.2548870
0.8889839 0.7429389 0.2672542
0.8957360 0.7457080 0.2851828
0.1229190 0.5648949 0.2110497
0.1232700 0.5661179 0.2108120
0.1236278 0.5673645 0.2105643
0.1243536 0.5698933 0.2100446
0.1250887 0.5724545 0.2094945
0.1263387 0.5768096 0.2085024
0.1274976 0.5808476 0.2075162
0.1312165 0.5938048 0.2104960
0.1330388 0.6001540 0.2086894
0.1842607 0.6067001 0.2066333
0.2373625 0.6141913 0.2101843
0.3013979 0.6231567 0.2068517
0.3486579 0.6310166 0.2079086
0.3960460 0.6385309 0.2044961
0.4553834 0.6506054 0.2057258
0.5006865 0.6634704 0.2073066
0.5411848 0.6700449 0.2033069
0.5940843 0.6794328 0.2046998
0.6325220 0.6860787 0.2051868
0.6679893 0.6924464 0.2084755
0.7011477 0.7046379 0.2105858
0.7229270 0.7087742 0.2156432
0.7526988 0.7137379 0.2171753
0.7783036 0.7232672 0.2235872
0.7953321 0.7262851 0.2269003
0.8172668 0.7316399 0.2321193
0.8317277 0.7387269 0.2377963
0.8496268 0.7420849 0.2441492
0.8609443 0.7442304 0.2486222
0.8716449 0.7508419 0.2553282
0.8812686 0.7554102 0.2720286
0.8903032 0.7622702 0.2861730
0.8971900 0.7641534 0.2950200
0.1304831 0.5912494 0.2293823
0.1308594 0.5925606 0.2291422
0.1312390 0.5938831 0.2288943
0.1330912 0.6003366 0.2279168
0.1340106 0.6035398 0.2272511
0.1352217 0.6077593 0.2263189
