data/spectral_luts/fuji_superia_xtra_400_ca_dpii.cube
TITLE "fuji_superia_xtra_400_ca_dpii"
LUT_3D_SIZE 9
0.0284332 0.0828911 0.0943248
0.0482994 0.0849560 0.0948641
0.1038873 0.0915099 0.0962075
0.2139034 0.1041041 0.0970833
0.3700881 0.1179602 0.0941397
0.5271325 0.1316484 0.1120806
0.6366932 0.1559874 0.1435261
0.7210711 0.2038714 0.1677438
0.7826238 0.2681201 0.1854104
0.0267325 0.0858365 0.0953952
0.0502245 0.0888119 0.0962107
0.1073583 0.0970703 0.0979740
0.2207239 0.1119343 0.0990774
0.3762036 0.1305729 0.0963235
0.5357533 0.1508090 0.1145549
0.6492874 0.1883360 0.1471409
0.7312124 0.2347545 0.1706545
0.7955069 0.3082476 0.1891080
0.0199479 0.1129429 0.1019984
0.0463357 0.1172691 0.1028283
0.1144737 0.1299309 0.1045584
0.2374693 0.1528949 0.1053307
0.4000890 0.1835072 0.1016913
0.5590454 0.2172685 0.1212401
0.6795241 0.2639611 0.1558192
0.7579941 0.3201391 0.1783413
0.8190224 0.3826452 0.1958573
0.0215147 0.2006401 0.1152633
0.0234360 0.2099154 0.1159730
0.1154158 0.2274823 0.1166993
0.2615064 0.2579897 0.1140685
0.4407195 0.3010986 0.1066535
0.6071704 0.3492616 0.1350527
0.7148825 0.3952852 0.1659676
0.7957548 0.4511207 0.1891792
0.8482966 0.5114141 0.2042594
0.0599482 0.3454958 0.1311074
0.0623748 0.3539506 0.1300187
0.0726431 0.3798622 0.1278052
0.2851619 0.4162430 0.1195257
0.4855370 0.4643865 0.1034695
0.6408673 0.5042759 0.1447242
0.7530879 0.5451704 0.1769331
0.8240852 0.5847036 0.1973104
0.8712493 0.6258700 0.2148424
0.0974670 0.4762166 0.1534802
0.1002265 0.4858311 0.1538286
0.1068450 0.5088908 0.1500566
0.3031430 0.5479265 0.1420375
0.5132553 0.5913732 0.1305186
0.6731421 0.6264307 0.1539875
0.7723493 0.6596565 0.1824614
0.8411618 0.6904750 0.2022116
0.8821606 0.7224745 0.2566867
0.1298289 0.5889701 0.2208814
0.1325432 0.5984271 0.2190225
0.1392100 0.6216553 0.2191798
0.3550452 0.6608407 0.2125359
0.5448541 0.6988749 0.2109968
0.6874503 0.7291611 0.2165106
0.7883310 0.7519524 0.2272825
0.8501378 0.7702867 0.2563567
0.8900458 0.7918964 0.3229124
0.1535960 0.6717780 0.3096182
0.1563342 0.6813183 0.3084222
0.1793039 0.7020981 0.3128901
0.4086217 0.7359372 0.3137606
0.5855518 0.7666450 0.3157998
0.7153224 0.7930887 0.3260733
0.7987338 0.8115224 0.3397884
0.8584183 0.8273816 0.3690917
0.8970153 0.8392443 0.3952143
0.1740582 0.7430713 0.4181952
0.1759537 0.7496753 0.4178111
0.3110933 0.7685798 0.4246323
0.4876614 0.7965965 0.4240216
0.6255625 0.8200803 0.4285757
0.7313746 0.8410667 0.4422793
0.8119808 0.8550869 0.4570446
0.8648637 0.8669004 0.4725274
0.8992214 0.8761077 0.4919422
0.0276338 0.0834257 0.0980441
0.0502100 0.0858072 0.0988624
0.1059533 0.0923439 0.1005874
0.2138207 0.1045860 0.1020397
0.3701591 0.1182790 0.0995430
0.5269501 0.1309049 0.1120283
0.6359971 0.1538965 0.1433263
0.7184632 0.1994423 0.1669953
0.7826238 0.2681201 0.1854104
0.0276403 0.0867401 0.1001815
0.0514648 0.0898822 0.1012342
0.1096432 0.0981362 0.1034841
0.2206656 0.1128437 0.1052260
0.3765075 0.1317994 0.1041944
0.5362652 0.1521432 0.1147018
0.6481121 0.1847285 0.1468035
0.7297676 0.2302864 0.1702399
0.7932352 0.3004824 0.1884560
0.0201140 0.1153320 0.1101127
0.0472801 0.1197663 0.1114192
0.1156984 0.1328382 0.1143929
0.2372655 0.1559452 0.1170048
0.4098686 0.1867824 0.1146813
0.5660381 0.2201084 0.1232471
0.6781487 0.2592830 0.1554245
0.7563927 0.3143981 0.1778817
0.8164929 0.3825045 0.1951313
0.0232849 0.2092021 0.1320686
0.0253600 0.2187693 0.1329915
0.1096094 0.2364903 0.1352523
0.2671162 0.2688746 0.1364280
0.4408675 0.3081306 0.1305881
0.6082864 0.3564387 0.1353730
0.7156388 0.3993411 0.1661847
0.7957548 0.4511207 0.1891792
0.8469936 0.5045902 0.2038854
0.0637458 0.3587274 0.1580716
0.0657425 0.3656840 0.1595589
0.0733148 0.3920671 0.1587057
0.2788541 0.4277932 0.1561909
0.4837704 0.4742099 0.1471095
0.6475965 0.5149067 0.1466555
0.7549985 0.5522574 0.1774815
0.8240908 0.5854346 0.1973120
0.8692937 0.6179548 0.2163560
0.1013965 0.4899075 0.2001397
0.1044031 0.5003830 0.2034037
0.1107982 0.5226645 0.2044123
0.3049705 0.5618731 0.1997280
0.5209831 0.6053380 0.1955839
0.6714331 0.6379884 0.1978171
0.7715596 0.6679462 0.2070352
0.8410180 0.6956472 0.2289565
0.8821606 0.7224745 0.2566867
0.1331757 0.6006310 0.2707241
0.1359345 0.6102430 0.2696861
0.1421133 0.6317706 0.2727137
0.3446409 0.6710802 0.2709841
0.5528703 0.7101147 0.2675468
0.6943841 0.7400810 0.2791347
0.7868513 0.7604969 0.2877987
0.8490875 0.7772247 0.3137028
0.8896956 0.7939293 0.3436745
0.1561617 0.6807173 0.3563686
0.1588353 0.6900327 0.3643457
0.1830945 0.7113854 0.3624846
0.4006360 0.7438592 0.3669226
0.5815419 0.7734573 0.3697085
0.7126646 0.8000607 0.3848599
0.7968600 0.8182726 0.3986821
0.8572820 0.8328303 0.4166719
0.8960987 0.8444164 0.4422143
0.1754726 0.7479993 0.4589985
0.1773703 0.7546111 0.4588920
0.3229866 0.7761240 0.4663655
0.4830605 0.8015156 0.4671825
0.6226711 0.8249409 0.4726275
0.7297822 0.8449226 0.4778920
0.8124495 0.8590698 0.4927371
0.8639773 0.8705196 0.5079683
0.8985555 0.8793513 0.5239601
0.0279976 0.0870550 0.1216318
0.0522796 0.0897425 0.1240378
0.1108215 0.0965836 0.1281720
0.2231635 0.1086228 0.1327889
0.3778223 0.1220084 0.1383720
0.5292393 0.1354908 0.1459751
0.6392075 0.1596692 0.1609525
0.7221168 0.2067793 0.1845843
0.7837144 0.2687308 0.2191308
0.0284898 0.0906170 0.1283068
0.0526066 0.0939023 0.1313634
0.1123297 0.1022398 0.1361236
0.2302289 0.1175119 0.1424146
0.3865235 0.1362609 0.1489590
0.5386750 0.1576551 0.1582962
0.6516917 0.1925045 0.1739965
0.7331344 0.2375410 0.1971653
0.7962011 0.3086345 0.2260476
0.0160849 0.1218939 0.1514013
0.0445766 0.1260484 0.1544989
0.1178085 0.1401583 0.1616344
0.2419769 0.1634843 0.1688358
0.4107792 0.1947151 0.1783138
0.5707544 0.2296307 0.1894183
0.6837252 0.2775242 0.2051640
0.7646365 0.3262187 0.2221109
0.8215548 0.3924416 0.2498789
0.0263100 0.2229964 0.1966418
0.0286329 0.2329716 0.1993188
0.1072197 0.2518378 0.2053359
0.2667604 0.2834417 0.2118772
0.4502840 0.3264344 0.2205296
0.6118528 0.3736097 0.2303113
0.7245474 0.4173963 0.2378954
0.7979305 0.4666286 0.2599869
0.8484042 0.5157595 0.2796037
0.0701773 0.3811354 0.2496807
0.0723496 0.3887039 0.2549636
0.0795708 0.4138638 0.2560282
0.2719996 0.4503874 0.2614834
0.4893173 0.4976002 0.2679336
0.6455075 0.5347793 0.2737049
0.7549543 0.5725463 0.2810430
0.8243945 0.6033006 0.2997617
0.8705571 0.6335521 0.3326395
0.1082156 0.5136664 0.3105332
0.1110587 0.5235721 0.3109534
0.1169828 0.5442124 0.3110157
0.2960182 0.5849755 0.3174403
0.5117471 0.6265870 0.3259913
0.6671582 0.6584496 0.3295787
0.7690673 0.6886384 0.3504328
0.8394722 0.7132605 0.3674752
0.8845282 0.7414990 0.3942563
0.1394904 0.6226321 0.3875831
0.1423242 0.6325055 0.3879445
0.1479724 0.6521848 0.3880495
0.3389683 0.6919368 0.3970087
0.5424899 0.7285370 0.4008783
0.6888400 0.7559659 0.4073083
0.7830993 0.7760102 0.4206496
0.8515630 0.7918797 0.4353424
0.8904344 0.8073685 0.4630915
0.1608575 0.6970782 0.4666032
0.1631877 0.7051968 0.4669962
0.1687058 0.7244226 0.4674235
0.4023531 0.7595922 0.4774233
0.5860134 0.7893398 0.4830654
0.7080369 0.8115988 0.4886137
0.8007848 0.8298157 0.4943853
0.8562322 0.8431044 0.5122421
0.8944890 0.8533512 0.5278642
0.1785703 0.7587920 0.5353930
0.1808649 0.7667868 0.5433603
0.3082555 0.7844467 0.5438959
0.4861970 0.8115489 0.5462343
0.6291959 0.8349587 0.5529891
0.7348395 0.8542163 0.5592516
0.8102496 0.8661708 0.5658313
0.8622544 0.8774430 0.5812187
0.8971322 0.8859821 0.5970840
0.0315890 0.0938706 0.1933303
0.0561227 0.0963485 0.1969681
0.1214285 0.1038154 0.2039628
0.2338673 0.1156597 0.2182538
0.3895375 0.1265388 0.2327918
0.5392144 0.1385341 0.2550803
0.6484292 0.1625564 0.2825801
0.7270139 0.2113898 0.3190088
0.7925277 0.2812889 0.3592037
0.0324002 0.0960112 0.2023031
0.0579238 0.0991222 0.2062552
0.1243618 0.1079171 0.2190287
0.2408925 0.1219620 0.2333098
0.3957937 0.1404146 0.2519479
0.5485882 0.1611006 0.2780163
0.6607444 0.1971363 0.2998812
0.7425541 0.2442261 0.3329954
0.8032119 0.3172050 0.3754393
0.0334329 0.1284784 0.2521814
0.0457817 0.1326253 0.2586676
0.1260441 0.1469751 0.2688752
0.2587841 0.1708608 0.2847004
0.4218460 0.2022093 0.3021247
0.5800570 0.2361104 0.3210329
0.6874953 0.2863041 0.3499127
0.7684092 0.3357625 0.3689963
0.8254844 0.4056101 0.4067046
0.0540443 0.2378194 0.3249258
0.0547893 0.2465604 0.3275214
0.1009202 0.2653166 0.3351949
0.2750247 0.2993532 0.3536565
0.4585982 0.3397649 0.3682361
0.6186861 0.3865425 0.3830955
0.7264654 0.4331550 0.4046308
0.7999410 0.4817165 0.4187417
0.8502863 0.5313106 0.4489787
0.0763526 0.4026511 0.3990428
0.0790535 0.4120616 0.4012657
0.0857757 0.4354827 0.4081313
0.2739755 0.4717132 0.4200591
0.4903334 0.5167059 0.4324636
0.6520658 0.5555839 0.4424118
0.7536086 0.5897326 0.4518079
0.8241414 0.6219113 0.4723507
0.8713876 0.6565719 0.4908683
0.1154416 0.5388429 0.4622742
0.1179138 0.5474561 0.4662765
0.1241246 0.5690955 0.4697554
0.2836714 0.6069832 0.4805545
0.5133570 0.6479467 0.4918858
0.6713715 0.6791103 0.4987173
0.7730349 0.7070516 0.5076315
0.8375802 0.7298554 0.5226645
0.8831062 0.7545631 0.5349491
0.1454553 0.6434147 0.5260143
0.1478398 0.6517225 0.5272946
0.1537828 0.6724288 0.5299342
0.3301170 0.7093122 0.5399858
0.5422052 0.7451551 0.5429890
0.6928190 0.7729557 0.5496656
0.7866755 0.7907129 0.5587984
0.8490413 0.8051718 0.5737343
0.8887072 0.8187082 0.5837880
0.1654527 0.7130886 0.5823911
0.1678382 0.7214000 0.5835024
0.1737098 0.7418572 0.5856852
0.4050965 0.7743342 0.5953577
0.5787871 0.8003175 0.5983594
0.7125491 0.8247756 0.6057302
0.7975739 0.8406275 0.6130322
0.8575817 0.8534769 0.6233903
0.8926745 0.8630069 0.6399078
0.1818806 0.7703255 0.6380008
0.1840312 0.7778187 0.6388910
0.3291597 0.7981690 0.6487344
0.4923952 0.8232233 0.6502392
0.6236503 0.8436738 0.6589192
0.7311863 0.8625511 0.6615390
0.8125119 0.8751400 0.6692593
0.8648015 0.8856227 0.6768681
0.8979857 0.8935457 0.6930127
0.0509497 0.0942594 0.3112943
0.0762026 0.0968535 0.3176024
0.1431666 0.1045288 0.3289385
0.2567858 0.1161597 0.3462837
0.4143366 0.1265614 0.3694178
0.5539590 0.1357553 0.3870252
0.6544573 0.1578382 0.4172129
0.7376260 0.2111897 0.4524758
0.7964794 0.2785382 0.4915195
0.0531641 0.0944659 0.3114646
0.0782830 0.0970656 0.3177691
0.1461010 0.1048257 0.3291443
0.2618293 0.1172836 0.3488390
0.4164471 0.1341769 0.3799838
0.5617405 0.1534419 0.4107887
0.6719205 0.1911393 0.4417615
0.7488064 0.2470292 0.4748785
0.8066552 0.3158186 0.5045011
0.0684094 0.1234333 0.3749757
0.0757007 0.1285005 0.3800480
0.1533655 0.1430686 0.3982799
0.2740900 0.1700340 0.4157122
0.4423239 0.1988640 0.4388369
0.5921782 0.2347912 0.4564757
0.6971757 0.2848954 0.4840088
0.7720433 0.3378385 0.5059423
0.8279548 0.4064195 0.5387734
0.0921802 0.2412864 0.4577968
0.0939625 0.2521149 0.4640065
0.1324836 0.2718985 0.4744199
0.2905753 0.3026614 0.4866028
0.4777430 0.3453719 0.5076275
0.6289902 0.3918807 0.5266535
0.7327261 0.4358760 0.5366551
0.8067554 0.4881594 0.5636749
0.8567702 0.5470693 0.5839226
0.1143916 0.4172626 0.5351842
0.1152322 0.4248740 0.5381130
0.1179178 0.4501942 0.5474702
0.2837739 0.4842779 0.5578566
0.4979727 0.5282505 0.5742427
0.6575284 0.5640943 0.5801041
0.7586091 0.6004395 0.5949645
0.8290015 0.6298712 0.6067188
0.8715238 0.6640505 0.6271492
0.1314017 0.5553541 0.5944499
0.1321713 0.5647290 0.5971313
0.1336180 0.5845303 0.6021718
0.2961762 0.6213675 0.6187375
0.5296952 0.6614279 0.6236269
0.6756709 0.6962236 0.6362925
0.7784434 0.7180014 0.6394963
0.8416710 0.7398753 0.6480087
0.8823497 0.7640648 0.6675193
0.1500843 0.6595429 0.6469257
0.1529534 0.6695392 0.6515189
0.1585170 0.6889235 0.6555001
0.3528954 0.7244857 0.6607255
0.5486999 0.7567798 0.6738595
0.6889583 0.7821232 0.6777205
0.7842348 0.8007860 0.6859457
0.8474768 0.8133643 0.6936905
0.8884299 0.8268539 0.7035574
0.1696801 0.7278175 0.6931205
0.1721201 0.7363187 0.6947995
0.1863999 0.7547467 0.6980336
0.4253672 0.7865666 0.7115133
0.5952259 0.8114670 0.7138029
0.7184938 0.8339061 0.7219517
0.8005270 0.8496132 0.7246054
0.8559970 0.8613603 0.7317432
0.8947166 0.8697600 0.7388871
0.1860583 0.7848814 0.7400929
0.1895807 0.7920851 0.7413266
0.3387475 0.8074073 0.7436764
0.5012362 0.8320556 0.7465275
0.6285939 0.8514655 0.7548627
0.7372416 0.8703064 0.7581135
0.8106890 0.8814452 0.7653025
0.8634584 0.8916925 0.7721339
0.8970452 0.8984287 0.7787683
0.0905071 0.0855476 0.4346877
0.1153775 0.0870162 0.4398044
0.1824179 0.0958775 0.4511356
0.2954160 0.1104843 0.4731703
0.4422283 0.1261029 0.4910491
0.5805722 0.1390767 0.5089993
0.6760486 0.1587739 0.5335472
0.7454131 0.1981206 0.5615034
0.8001692 0.2694420 0.5998462
0.0919898 0.0855981 0.4348637
0.1153775 0.0870162 0.4398044
0.1829541 0.0954015 0.4571899
0.2954160 0.1104843 0.4731703
0.4493623 0.1257394 0.4933783
0.5805722 0.1390767 0.5089993
0.6815119 0.1811132 0.5450547
0.7561540 0.2365402 0.5809407
0.8126089 0.3086965 0.6142979
0.0978761 0.1101836 0.4776421
0.1189413 0.1160922 0.4836219
0.1894703 0.1326241 0.4991468
0.3070695 0.1576040 0.5178802
0.4640732 0.1914812 0.5400938
0.6032526 0.2289116 0.5677021
0.7054589 0.2767221 0.5954775
0.7806693 0.3410116 0.6200463
0.8345068 0.4051645 0.6477070
0.1234236 0.2454036 0.5666533
0.1251215 0.2507566 0.5725688
0.1743519 0.2695245 0.5837322
0.3250912 0.3008866 0.5984311
0.5007296 0.3428908 0.6155335
0.6382275 0.3911174 0.6398677
0.7433803 0.4470066 0.6567199
0.8123902 0.4892515 0.6739703
0.8583086 0.5464522 0.6950120
0.1462373 0.4265421 0.6461394
0.1471524 0.4335231 0.6493278
0.1501486 0.4584306 0.6597669
0.3198431 0.4893594 0.6714346
0.5179010 0.5334599 0.6831895
0.6671377 0.5681604 0.6977248
0.7659787 0.6042992 0.7064120
0.8334977 0.6335471 0.7182191
0.8750492 0.6697280 0.7327513
0.1616673 0.5685502 0.6998997
0.1624233 0.5762395 0.7025334
0.1648207 0.5972887 0.7108865
0.3404394 0.6317168 0.7254207
0.5395688 0.6673702 0.7339197
0.6839842 0.7015159 0.7402039
0.7832193 0.7228981 0.7486824
0.8454466 0.7523573 0.7618915
0.8850980 0.7699505 0.7651407
0.1748783 0.6721706 0.7459286
0.1756139 0.6813737 0.7484916
0.1769799 0.7007989 0.7532510
0.3818280 0.7338570 0.7658874
0.5680785 0.7654745 0.7726818
0.7038648 0.7899668 0.7773936
0.7901145 0.8071080 0.7851162
0.8516761 0.8190026 0.7878349
0.8905284 0.8320778 0.7965209
0.1851032 0.7409661 0.7815536
0.1872121 0.7480710 0.7889012
0.2482429 0.7675654 0.7930782
0.4525889 0.7957756 0.7999244
0.6047690 0.8189600 0.8031484
0.7232938 0.8393007 0.8051417
0.8059757 0.8551710 0.8138702
0.8599175 0.8665445 0.8200209
0.8942576 0.8740647 0.8222254
0.1951562 0.7957715 0.8165796
0.2388795 0.8011327 0.8176777
0.3880790 0.8182369 0.8208825
0.5237645 0.8397108 0.8240764
0.6465856 0.8582240 0.8316240
0.7441460 0.8752784 0.8349232
0.8162963 0.8858271 0.8356872
0.8674079 0.8956429 0.8414626
0.8995433 0.9026876 0.8488564
0.1351582 0.1185193 0.5495659
0.1603713 0.1202626 0.5556397
0.2279157 0.1239213 0.5683870
0.3323825 0.1281180 0.5830092
0.4785137 0.1332111 0.6007543
0.6074788 0.1552282 0.6188961
0.6960482 0.1813809 0.6412698
0.7613314 0.2157502 0.6581991
0.8085842 0.2666799 0.6833909
0.1373993 0.1186105 0.5498835
0.1631277 0.1203647 0.5559954
0.2279157 0.1239213 0.5683870
0.3381175 0.1282354 0.5834181
0.4853738 0.1333017 0.6010698
0.6074788 0.1552282 0.6188961
0.6960482 0.1813809 0.6412698
0.7628304 0.2231366 0.6597242
0.8155640 0.2988634 0.6960151
0.1405280 0.1220656 0.5619217
0.1681630 0.1238672 0.5681986
0.2315268 0.1282941 0.5836226
0.3404020 0.1395748 0.6026316
0.4945835 0.1759087 0.6256517
0.6214985 0.2148681 0.6545169
0.7148979 0.2659695 0.6755204
0.7880914 0.3326356 0.7061225
0.8391820 0.3987565 0.7287229
0.1463242 0.2428412 0.6464422
0.1478572 0.2475850 0.6517833
0.2314915 0.2661234 0.6667846
0.3653406 0.3046478 0.6872980
0.5300084 0.3471211 0.7048450
0.6555198 0.3861300 0.7186426
0.7502592 0.4422416 0.7416317
0.8190931 0.4962208 0.7564728
0.8626319 0.5460522 0.7752926
0.1686730 0.4328961 0.7243084
0.1701119 0.4396048 0.7293218
0.1852621 0.4636758 0.7396480
0.3701754 0.4953351 0.7517388
0.5508133 0.5351252 0.7690663
0.6842184 0.5701733 0.7777032
0.7720857 0.6031638 0.7864712
0.8346641 0.6342507 0.7992462
0.8793245 0.6689233 0.8068463
0.1839218 0.5802978 0.7774373
0.1852355 0.5882245 0.7820146
0.1870181 0.6075478 0.7882255
0.3837063 0.6389469 0.8016510
0.5702391 0.6731704 0.8106074
0.7006445 0.7053928 0.8187830
0.7901906 0.7253196 0.8213102
0.8504652 0.7545683 0.8326750
0.8854951 0.7716742 0.8359413
0.1957482 0.6864569 0.8186421
0.1964425 0.6945021 0.8210612
0.1977873 0.7112948 0.8257470
0.4261395 0.7433710 0.8343296
0.5891462 0.7706146 0.8407633
0.7101886 0.7928781 0.8454152
0.7951755 0.8097186 0.8520033
0.8552963 0.8224721 0.8547648
0.8906616 0.8350284 0.8621395
0.2035001 0.7529241 0.8456511
0.2039962 0.7596442 0.8473795
0.3096068 0.7763748 0.8513705
0.4777812 0.8022972 0.8576959
0.6243297 0.8238956 0.8655714
0.7311943 0.8434495 0.8694586
0.8122483 0.8587278 0.8709970
0.8631458 0.8687326 0.8776479
0.8966272 0.8769888 0.8782559
0.2607026 0.8059464 0.8700531
0.3277294 0.8132874 0.8716605
0.4219501 0.8253304 0.8741175
0.5471894 0.8456879 0.8787772
0.6570079 0.8621547 0.8849917
0.7497915 0.8784409 0.8881765
0.8204935 0.8887452 0.8892408
0.8672317 0.8978013 0.8937950
0.8994797 0.9040875 0.8954561
0.1826068 0.1456966 0.6442555
0.2112495 0.1474996 0.6505373
0.2761003 0.1503971 0.6606325
0.3873788 0.1546804 0.6755563
0.5221890 0.1629905 0.6906183
0.6343383 0.1893367 0.7058777
0.7206478 0.2239065 0.7225165
0.7811462 0.2646259 0.7424620
0.8247228 0.3085961 0.7571055
0.1869529 0.1458655 0.6448439
0.2112495 0.1474996 0.6505373
0.2761003 0.1503971 0.6606325
0.3873788 0.1546804 0.6755563
0.5221890 0.1629905 0.6906183
0.6343383 0.1893367 0.7058777
0.7208243 0.2232363 0.7256558
0.7811462 0.2646259 0.7424620
0.8247228 0.3085961 0.7571055
0.1903057 0.1459941 0.6452919
0.2162581 0.1476754 0.6511499
0.2826004 0.1505813 0.6612743
0.3873788 0.1546804 0.6755563
0.5230082 0.1686793 0.6936858
0.6364694 0.2012514 0.7118707
0.7298007 0.2635062 0.7410265
0.7935232 0.3242491 0.7628453
0.8428440 0.4033626 0.7868541
0.1658231 0.2414280 0.7104754
0.2034243 0.2523195 0.7171198
0.2869689 0.2714137 0.7279777
0.4079351 0.3010061 0.7433555
0.5604470 0.3419349 0.7648274
0.6735109 0.3911120 0.7820817
0.7630950 0.4373966 0.7967642
0.8250914 0.4917988 0.8113191
0.8671550 0.5424918 0.8286983
0.1864186 0.4413432 0.7861366
0.1880840 0.4540893 0.7919391
0.2633087 0.4705088 0.7988593
0.4219067 0.4982240 0.8099679
0.5829397 0.5379772 0.8231997
0.7008616 0.5689128 0.8312132
0.7847947 0.6038911 0.8438905
0.8437788 0.6348516 0.8512208
0.8802689 0.6689128 0.8584590
0.1995684 0.5914308 0.8319526
0.2010905 0.5984616 0.8372555
0.2570121 0.6151160 0.8442829
0.4414432 0.6470498 0.8539714
0.5917148 0.6764190 0.8616761
0.7163349 0.7078524 0.8681998
0.7958048 0.7326027 0.8728074
0.8544633 0.7555915 0.8804339
0.8892810 0.7727578 0.8846720
0.2087192 0.6989323 0.8638352
0.2092999 0.7055676 0.8658582
0.3032418 0.7284589 0.8759021
0.4797446 0.7517974 0.8816832
0.6216201 0.7773769 0.8876002
0.7277998 0.7962397 0.8917100
0.8069114 0.8121115 0.8937426
0.8600895 0.8272424 0.8999266
0.8940387 0.8362287 0.9019217
0.2160883 0.7655438 0.8895102
0.2657627 0.7726694 0.8913643
0.3845943 0.7867425 0.8947884
0.5183108 0.8091653 0.9002372
0.6441692 0.8276973 0.9036494
0.7457924 0.8464260 0.9073259
0.8169873 0.8602864 0.9100003
0.8676965 0.8710842 0.9142854
0.8967440 0.8778521 0.9159699
0.3480095 0.8167519 0.9073145
0.3831799 0.8217950 0.9083706
0.4785287 0.8366728 0.9122018
0.5840212 0.8520816 0.9150947
0.6754800 0.8663362 0.9173791
0.7638345 0.8813363 0.9221697
0.8265049 0.8910050 0.9233059
0.8704862 0.8990100 0.9250367
0.9016361 0.9057082 0.9265643
0.2394127 0.1671972 0.7191664
0.2601876 0.1687510 0.7245802
0.3304949 0.1715036 0.7341708
0.4374770 0.1893553 0.7469985
0.5658542 0.2215751 0.7623160
0.6694085 0.2520369 0.7751138
0.7476102 0.2877766 0.7928101
0.8012290 0.3266440 0.8055449
0.8411394 0.3654677 0.8175465
0.2394127 0.1671972 0.7191664
0.2666619 0.1689516 0.7252792
0.3304949 0.1715036 0.7341708
0.4374770 0.1893553 0.7469985
0.5658542 0.2215751 0.7623160
0.6694085 0.2520369 0.7751138
0.7476102 0.2877766 0.7928101
0.8012290 0.3266440 0.8055449
0.8411394 0.3654677 0.8175465
0.2453899 0.1673949 0.7198554
0.2716374 0.1691035 0.7258083
0.3381749 0.1721109 0.7348567
0.4476495 0.1984181 0.7496042
0.5658542 0.2215751 0.7623160
0.6694085 0.2520369 0.7751138
0.7476102 0.2877766 0.7928101
0.8042470 0.3267688 0.8056308
0.8464302 0.3970966 0.8261116
0.2450308 0.2416639 0.7572644
0.2707637 0.2514961 0.7625923
0.3407791 0.2692463 0.7720296
0.4616837 0.2988332 0.7868322
0.5867203 0.3374987 0.8017601
0.6947994 0.3865708 0.8202974
0.7702034 0.4323035 0.8340276
0.8296112 0.4901242 0.8495466
0.8706470 0.5414978 0.8616912
0.1987633 0.4581241 0.8291472
0.2302352 0.4623421 0.8322197
0.3396688 0.4761398 0.8384752
0.4801327 0.5115858 0.8512601
0.6109397 0.5378276 0.8597806
0.7163540 0.5766112 0.8698511
0.7918708 0.6017099 0.8754970
0.8489203 0.6326699 0.8854349
0.8834596 0.6688619 0.8935326
0.2104366 0.6053844 0.8698187
0.2235160 0.6112909 0.8719855
0.3545768 0.6350507 0.8795766
0.4912381 0.6538322 0.8862915
0.6313860 0.6818002 0.8935848
0.7314075 0.7098115 0.9019855
0.8074766 0.7341475 0.9064639
0.8592618 0.7543349 0.9099638
0.8919790 0.7732463 0.9139670
0.2186750 0.7121978 0.8985224
0.2615770 0.7188391 0.9005090
0.3908323 0.7384642 0.9061724
0.5193226 0.7577883 0.9108020
0.6498966 0.7806114 0.9160364
0.7426436 0.7986585 0.9196995
0.8135830 0.8133893 0.9240135
0.8636038 0.8280580 0.9272275
0.8966314 0.8369164 0.9281771
0.3121371 0.7782322 0.9169610
0.3692937 0.7861595 0.9188389
0.4493597 0.7969124 0.9214063
0.5673704 0.8167765 0.9259807
0.6714661 0.8331015 0.9295699
0.7601728 0.8489208 0.9319252
0.8230571 0.8615596 0.9341206
0.8710101 0.8719364 0.9371351
0.8997567 0.8786553 0.9384321
0.4198180 0.8271099 0.9302085
0.4501862 0.8312754 0.9311271
0.5205122 0.8437839 0.9340395
0.6152417 0.8577800 0.9366933
0.7031731 0.8708814 0.9388827
0.7793839 0.8845565 0.9413030
0.8364756 0.8928094 0.9423511
0.8747514 0.9005893 0.9455034
0.9045294 0.9064978 0.9460708
