data/spectral_luts/fuji_c200_ca_dpii.cube
TITLE "fuji_c200_ca_dpii"
LUT_3D_SIZE 9
0.0271782 0.0821711 0.0927542
0.0501018 0.0845656 0.0933129
0.1110869 0.0916172 0.0948243
0.2164234 0.1034033 0.0960466
0.3567356 0.1163901 0.0953216
0.5184528 0.1248433 0.1095894
0.6361857 0.1433805 0.1433805
0.7162851 0.1729524 0.1663702
0.7721558 0.2177437 0.1824059
0.0260994 0.0862486 0.0941770
0.0529618 0.0898894 0.0951640
0.1143984 0.0983202 0.0969604
0.2235164 0.1121034 0.0985401
0.3712012 0.1284809 0.0973153
0.5274386 0.1445498 0.1121685
0.6487087 0.1682596 0.1469748
0.7294164 0.2050280 0.1701391
0.7848231 0.2542400 0.1860416
0.0189570 0.1146985 0.1013970
0.0551305 0.1196826 0.1024952
0.1249174 0.1316815 0.1043075
0.2404116 0.1525614 0.1053626
0.3946128 0.1802046 0.1037751
0.5575935 0.2056791 0.1208233
0.6742961 0.2414097 0.1543187
0.7597779 0.2834633 0.1788532
0.8133565 0.3373971 0.1942311
0.0221594 0.2038043 0.1170831
0.0239685 0.2124067 0.1177900
0.1312179 0.2300218 0.1188055
0.2685507 0.2582437 0.1179685
0.4415394 0.2914650 0.1102866
0.5995969 0.3346755 0.1328789
0.7181144 0.3751821 0.1668952
0.7959210 0.4159485 0.1892269
0.8452092 0.4642403 0.2033733
0.0604676 0.3473057 0.1350794
0.0622295 0.3534441 0.1341734
0.1054536 0.3763480 0.1341380
0.2900653 0.4104940 0.1277725
0.4818170 0.4552379 0.1157188
0.6415042 0.4930343 0.1449070
0.7582154 0.5256443 0.1784048
0.8286856 0.5627919 0.1986308
0.8730293 0.5947076 0.2169917
0.0978620 0.4775929 0.1610451
0.1003889 0.4863971 0.1609537
0.1066794 0.5083139 0.1582701
0.3220834 0.5438856 0.1528774
0.5212996 0.5857342 0.1471977
0.6744143 0.6192319 0.1543526
0.7844571 0.6513266 0.1859366
0.8517324 0.6731688 0.2052455
0.8897782 0.7036455 0.2591664
0.1304831 0.5912494 0.2293823
0.1340106 0.6035398 0.2272511
0.1442136 0.6250871 0.2279543
0.3621056 0.6566438 0.2306695
0.5596910 0.6941109 0.2258892
0.7007414 0.7245176 0.2326541
0.8007594 0.7476002 0.2502887
0.8619006 0.7645662 0.2752095
0.8982210 0.7824529 0.3165821
0.1552339 0.6774846 0.3188029
0.1577478 0.6862435 0.3176752
0.2345979 0.7051024 0.3226062
0.4253938 0.7325975 0.3221023
0.6002339 0.7664970 0.3312795
0.7280252 0.7884290 0.3396893
0.8173587 0.8086590 0.3633921
0.8699913 0.8225335 0.3852061
0.9042182 0.8334047 0.4176871
0.1749178 0.7460664 0.4261589
0.2285447 0.7554883 0.4311650
0.3560551 0.7712420 0.4298393
0.5056183 0.7947022 0.4355842
0.6505715 0.8213931 0.4399347
0.7519046 0.8386047 0.4508744
0.8302341 0.8544592 0.4625922
0.8795151 0.8629836 0.4752808
0.9088082 0.8719558 0.4976776
0.0260459 0.0830242 0.0986971
0.0520025 0.0857711 0.0995454
0.1119415 0.0927242 0.1015861
0.2163954 0.1044663 0.1031000
0.3655502 0.1173655 0.1024232
0.5188438 0.1256631 0.1097016
0.6364309 0.1434508 0.1434508
0.7162851 0.1729524 0.1663702
0.7721558 0.2177437 0.1824059
0.0259738 0.0878542 0.1016766
0.0551567 0.0917508 0.1029635
0.1182870 0.1004883 0.1055827
0.2249080 0.1138534 0.1076982
0.3717366 0.1305413 0.1075159
0.5278732 0.1455680 0.1122932
0.6490363 0.1689118 0.1470688
0.7282739 0.2016269 0.1698111
0.7831517 0.2490060 0.1855619
0.0171943 0.1195960 0.1132566
0.0548327 0.1250669 0.1148093
0.1259607 0.1368498 0.1175972
0.2404165 0.1580620 0.1200976
0.4020520 0.1834933 0.1187689
0.5584112 0.2084040 0.1210581
0.6793157 0.2381064 0.1557594
0.7597779 0.2834633 0.1788532
0.8133565 0.3373971 0.1942311
0.0246260 0.2154390 0.1360467
0.0256766 0.2201882 0.1362763
0.1252927 0.2376601 0.1384996
0.2667282 0.2665464 0.1410258
0.4420034 0.3004434 0.1368196
0.6091132 0.3408506 0.1356103
0.7190805 0.3799761 0.1671725
0.7961881 0.4173111 0.1893035
0.8452092 0.4642403 0.2033733
0.0630509 0.3563062 0.1613231
0.0672111 0.3708009 0.1625309
0.0955174 0.3879698 0.1623698
0.2918428 0.4231959 0.1618034
0.4829566 0.4653389 0.1571369
0.6505228 0.5045809 0.1543951
0.7585806 0.5332209 0.1785096
0.8287899 0.5658956 0.1986607
0.8730471 0.5951927 0.2218052
0.1014020 0.4899267 0.2089906
0.1038924 0.4986036 0.2079184
0.1099769 0.5198027 0.2093635
0.3119521 0.5557770 0.2113766
0.5172720 0.5975620 0.2120286
0.6727617 0.6308859 0.2156896
0.7854255 0.6606532 0.2276079
0.8521855 0.6859047 0.2486469
0.8898261 0.7078841 0.2818834
0.1348062 0.6063118 0.2800504
0.1372842 0.6149454 0.2791097
0.1430930 0.6351842 0.2824989
0.3531218 0.6660206 0.2827962
0.5554599 0.7037022 0.2836987
0.7056267 0.7342917 0.2879517
0.8011132 0.7549379 0.3063920
0.8609374 0.7717871 0.3344706
0.8982330 0.7889839 0.3710731
0.1579347 0.6868948 0.3672881
0.1599889 0.6940518 0.3668192
0.2182166 0.7121365 0.3739040
0.4332944 0.7433349 0.3787085
0.5967004 0.7728559 0.3820791
0.7258775 0.7945808 0.3910224
0.8160341 0.8141668 0.4106091
0.8689806 0.8278412 0.4323047
0.9035774 0.8376403 0.4548211
0.1770656 0.7535496 0.4671321
0.2171998 0.7598647 0.4669915
0.3497035 0.7756375 0.4662657
0.5019414 0.7990552 0.4727716
0.6483297 0.8255894 0.4777945
0.7503628 0.8427185 0.4892712
0.8291295 0.8584550 0.5008633
0.8787108 0.8689286 0.5134675
0.9082375 0.8743179 0.5267030
0.0266900 0.0866404 0.1219073
0.0559074 0.0898395 0.1244886
0.1168581 0.0969864 0.1286690
0.2217869 0.1090247 0.1356350
0.3670093 0.1224244 0.1417483
0.5220162 0.1326488 0.1510103
0.6419450 0.1486181 0.1675612
0.7223047 0.1823135 0.1899110
0.7768344 0.2276518 0.2196827
0.0248883 0.0930230 0.1329785
0.0582096 0.0970962 0.1351540
0.1199543 0.1055085 0.1400832
0.2290036 0.1192573 0.1466410
0.3799083 0.1366703 0.1531274
0.5394607 0.1535638 0.1638914
0.6535263 0.1783621 0.1808331
0.7332997 0.2122581 0.2013928
0.7903585 0.2607383 0.2320523
0.0138478 0.1279137 0.1577638
0.0527117 0.1338878 0.1601217
0.1266808 0.1460222 0.1660676
0.2486636 0.1683660 0.1759208
0.4059026 0.1939695 0.1832183
0.5703207 0.2205244 0.1914006
0.6844231 0.2528033 0.2081571
0.7655253 0.3004985 0.2296078
0.8166928 0.3476267 0.2584099
0.0278549 0.2296851 0.2034701
0.0299574 0.2384486 0.2048337
0.1201794 0.2572859 0.2121556
0.2662835 0.2812175 0.2198514
0.4412490 0.3189564 0.2281227
0.6107409 0.3568945 0.2367954
0.7262556 0.3949747 0.2488810
0.8008719 0.4412672 0.2682615
0.8496256 0.4841298 0.2940699
0.0711166 0.3844080 0.2577415
0.0730440 0.3911234 0.2583219
0.0803656 0.4166328 0.2641638
0.2854208 0.4495765 0.2699966
0.4859012 0.4856906 0.2741188
0.6488053 0.5237483 0.2847081
0.7587006 0.5517389 0.2984939
0.8295332 0.5830708 0.3166044
0.8736175 0.6093869 0.3458005
0.1078043 0.5122334 0.3148604
0.1103988 0.5212728 0.3152159
0.1167912 0.5435450 0.3219279
0.3010151 0.5777087 0.3271183
0.5184338 0.6167697 0.3288734
0.6783041 0.6502533 0.3444939
0.7835302 0.6779377 0.3565716
0.8511034 0.7027208 0.3800113
0.8889713 0.7211800 0.4012890
0.1401402 0.6248961 0.3956953
0.1426526 0.6336496 0.3960117
0.1486479 0.6545382 0.3961031
0.3501531 0.6847885 0.3998548
0.5464770 0.7196725 0.4040829
0.7005185 0.7499425 0.4160209
0.7981259 0.7692329 0.4265001
0.8589674 0.7849152 0.4472793
0.8967593 0.7991478 0.4719445
0.1619482 0.7008783 0.4643227
0.1640200 0.7080967 0.4645649
0.2038495 0.7261305 0.4728993
0.4207270 0.7553290 0.4800703
0.6016288 0.7865716 0.4857028
0.7284711 0.8064694 0.4883234
0.8135810 0.8239771 0.4998575
0.8672300 0.8358251 0.5150620
0.9022675 0.8459554 0.5334605
0.1796918 0.7626995 0.5382318
0.2153536 0.7697535 0.5384780
0.3522062 0.7855767 0.5387269
0.5094304 0.8111134 0.5461118
0.6441578 0.8326401 0.5528426
0.7538174 0.8504958 0.5562929
0.8272174 0.8647106 0.5710479
0.8773788 0.8743926 0.5753827
0.9069982 0.8808367 0.5969322
0.0306924 0.0940338 0.1957076
0.0624407 0.0973300 0.1997867
0.1283562 0.1051587 0.2081489
0.2371636 0.1175060 0.2240526
0.3856030 0.1285082 0.2375722
0.5355356 0.1394201 0.2586580
0.6525752 0.1555890 0.2814454
0.7324102 0.1915141 0.3112422
0.7857403 0.2350388 0.3479744
0.0290820 0.1002849 0.2146436
0.0641641 0.1039893 0.2191497
0.1293540 0.1123937 0.2309050
0.2432532 0.1273458 0.2460363
0.3924448 0.1446540 0.2607605
0.5507640 0.1616997 0.2762164
0.6641458 0.1876550 0.2983786
0.7435178 0.2235310 0.3324750
0.7965281 0.2719104 0.3626508
0.0367646 0.1404684 0.2645836
0.0518515 0.1446410 0.2682107
0.1322697 0.1592365 0.2768155
0.2592721 0.1796044 0.2901805
0.4153143 0.2055857 0.3047578
0.5754635 0.2347363 0.3232266
0.6912284 0.2702892 0.3476536
0.7711075 0.3142398 0.3711656
0.8220384 0.3623588 0.3998966
0.0546797 0.2472033 0.3271395
0.0561199 0.2578641 0.3321575
0.1120764 0.2751332 0.3436747
0.2722939 0.3043576 0.3543691
0.4585585 0.3400263 0.3732573
0.6190678 0.3751686 0.3819249
0.7316247 0.4161751 0.4004869
0.8088734 0.4603011 0.4195304
0.8544333 0.4978073 0.4441203
0.0769982 0.4049003 0.4022077
0.0811644 0.4194162 0.4070626
0.0862188 0.4370263 0.4108705
0.2749784 0.4678717 0.4221391
0.4904528 0.5125359 0.4322080
0.6537912 0.5473069 0.4419862
0.7656773 0.5763702 0.4536461
0.8350593 0.6045374 0.4714610
0.8748208 0.6285909 0.4872189
0.1143004 0.5348666 0.4601038
0.1168287 0.5436757 0.4641687
0.1239933 0.5686380 0.4747162
0.2919834 0.5982471 0.4776692
0.5209715 0.6372175 0.4862626
0.6739721 0.6731410 0.4931596
0.7862531 0.6951989 0.5045066
0.8497298 0.7160184 0.5194380
0.8881823 0.7353504 0.5346413
0.1456231 0.6439995 0.5194735
0.1478081 0.6516122 0.5205441
0.1541072 0.6735592 0.5302796
0.3421965 0.7052681 0.5323913
0.5502403 0.7362177 0.5402026
0.7052231 0.7646650 0.5440701
0.8001926 0.7832147 0.5585085
0.8616083 0.7993670 0.5653062
0.8977612 0.8097948 0.5781522
0.1663269 0.7161344 0.5758460
0.1684267 0.7234504 0.5767081
0.2193332 0.7411346 0.5783994
0.4204482 0.7703786 0.5875584
0.5952126 0.7971129 0.5955743
0.7245389 0.8193890 0.5946992
0.8157856 0.8345827 0.6071834
0.8686945 0.8453744 0.6146880
0.9008652 0.8535418 0.6283225
0.1828270 0.7736230 0.6308992
0.2188427 0.7807406 0.6315891
0.3537229 0.7959417 0.6328554
0.5126986 0.8211330 0.6421337
0.6479667 0.8416845 0.6423066
0.7507259 0.8584423 0.6501023
0.8311928 0.8726829 0.6550097
0.8756707 0.8818114 0.6685678
0.9058538 0.8889889 0.6763464
0.0558472 0.0970317 0.3081838
0.0828196 0.0996585 0.3166156
0.1467530 0.1069161 0.3277505
0.2568870 0.1187135 0.3448283
0.4080535 0.1312794 0.3660675
0.5512922 0.1423991 0.3861530
0.6620855 0.1590406 0.4107454
0.7400392 0.1964681 0.4384263
0.7941012 0.2467943 0.4700945
0.0559307 0.0993536 0.3253146
0.0851306 0.1027271 0.3317873
0.1488772 0.1116812 0.3434820
0.2633081 0.1271042 0.3639871
0.4139611 0.1454203 0.3825174
0.5656496 0.1626915 0.4058997
0.6773894 0.1920255 0.4282285
0.7516093 0.2332755 0.4609296
0.8044305 0.2829368 0.4831682
0.0720094 0.1444932 0.3875187
0.0739049 0.1500907 0.3926767
0.1535261 0.1642952 0.4018929
0.2777751 0.1852059 0.4152980
0.4370074 0.2129419 0.4351622
0.5963214 0.2451494 0.4562911
0.7038317 0.2814861 0.4740902
0.7807741 0.3277996 0.4950952
0.8306895 0.3788041 0.5208797
0.0919729 0.2627491 0.4570743
0.0926709 0.2673298 0.4595063
0.1331106 0.2864659 0.4689198
0.2888694 0.3158149 0.4869513
0.4674345 0.3573166 0.5006115
0.6313429 0.3943940 0.5130578
0.7395830 0.4285793 0.5262593
0.8121419 0.4730413 0.5473466
0.8574536 0.5102617 0.5629519
0.1118375 0.4244772 0.5262854
0.1127626 0.4368991 0.5295088
0.1149689 0.4541497 0.5371957
0.2931515 0.4873578 0.5514027
0.4956410 0.5207596 0.5568019
0.6618139 0.5554909 0.5695743
0.7661309 0.5899593 0.5789428
0.8353516 0.6109356 0.5897373
0.8784248 0.6434653 0.6069714
0.1283042 0.5563883 0.5836579
0.1289673 0.5649824 0.5859684
0.1301808 0.5825762 0.5901961
0.3164408 0.6188315 0.5987098
0.5243137 0.6540559 0.6101848
0.6808508 0.6823938 0.6195543
0.7851709 0.7105039 0.6283569
0.8528890 0.7313983 0.6366782
0.8904493 0.7497557 0.6478323
0.1500020 0.6592562 0.6326507
0.1526603 0.6685179 0.6344454
0.1591823 0.6912415 0.6408113
0.3606323 0.7186838 0.6525573
0.5663543 0.7532178 0.6555632
0.7107208 0.7786845 0.6645718
0.8048065 0.7959818 0.6723945
0.8602943 0.8086205 0.6802423
0.8968294 0.8172968 0.6854865
0.1703989 0.7303218 0.6829299
0.1720322 0.7360122 0.6839687
0.2391942 0.7569560 0.6893839
0.4404802 0.7819977 0.6925182
0.6119116 0.8085338 0.6992736
0.7298818 0.8289899 0.7023900
0.8155109 0.8445305 0.7098356
0.8673832 0.8548832 0.7147357
0.9027125 0.8638128 0.7219457
0.1858604 0.7841917 0.7228215
0.2493294 0.7914822 0.7239511
0.3771709 0.8086360 0.7283950
0.5216587 0.8297497 0.7306086
0.6553628 0.8502319 0.7390139
0.7565315 0.8673839 0.7396405
0.8295920 0.8782849 0.7444578
0.8776746 0.8879148 0.7513294
0.9049508 0.8939165 0.7582559
0.0940989 0.0896928 0.4268407
0.1158134 0.0928952 0.4313895
0.1797411 0.1027642 0.4423790
0.2858514 0.1177179 0.4577795
0.4332097 0.1343174 0.4797150
0.5750434 0.1467707 0.4972683
0.6826622 0.1681120 0.5173547
0.7521985 0.2004499 0.5431600
0.8039969 0.2546207 0.5731025
0.0935925 0.0913187 0.4292977
0.1169186 0.0947781 0.4340407
0.1833438 0.1058192 0.4475694
0.2919231 0.1223659 0.4676519
0.4442514 0.1424454 0.4883732
0.5814089 0.1636484 0.5119859
0.6920364 0.1987961 0.5349496
0.7628740 0.2387460 0.5600694
0.8145104 0.2950394 0.5877966
0.1010440 0.1480359 0.4886793
0.1093316 0.1521760 0.4937736
0.1871872 0.1671142 0.5042707
0.3070435 0.1892852 0.5193698
0.4669906 0.2177699 0.5372393
0.6087789 0.2523080 0.5586479
0.7156669 0.2929881 0.5821121
0.7866020 0.3353102 0.6046429
0.8372054 0.3899414 0.6285114
0.1206358 0.2749532 0.5569399
0.1225049 0.2854410 0.5634522
0.1655528 0.3050635 0.5784023
0.3189144 0.3297576 0.5904853
0.4964552 0.3707194 0.6065333
0.6418934 0.4098856 0.6243533
0.7505667 0.4453370 0.6396606
0.8187787 0.4821195 0.6496149
0.8639553 0.5272829 0.6676328
0.1424357 0.4452285 0.6328940
0.1439681 0.4525838 0.6382332
0.1457186 0.4684774 0.6443322
0.3202384 0.5003044 0.6555108
0.5145791 0.5396535 0.6707436
0.6693645 0.5681795 0.6774504
0.7740705 0.6006855 0.6901701
0.8404031 0.6234006 0.6992537
0.8793147 0.6467313 0.7103640
0.1566198 0.5726386 0.6823133
0.1579780 0.5805519 0.6870456
0.1608652 0.6015418 0.6971048
0.3488819 0.6341647 0.7064970
0.5430586 0.6672624 0.7142836
0.6961293 0.6968529 0.7243672
0.7913927 0.7153189 0.7258266
0.8528875 0.7373500 0.7341489
0.8905013 0.7536561 0.7440102
0.1705974 0.6765330 0.7310134
0.1711052 0.6833302 0.7327826
0.1723626 0.7024103 0.7371636
0.3968584 0.7336981 0.7450552
0.5728548 0.7589235 0.7487559
0.7158580 0.7851542 0.7578448
0.8039165 0.8010875 0.7610816
0.8630249 0.8128920 0.7681210
0.8986668 0.8259038 0.7751559
0.1803044 0.7431892 0.7648340
0.1807878 0.7508512 0.7665182
0.2889861 0.7680251 0.7720002
0.4634331 0.7907018 0.7757962
0.6174607 0.8173451 0.7853315
0.7368139 0.8349513 0.7868966
0.8190646 0.8498040 0.7937905
0.8709964 0.8601338 0.8002869
0.9022719 0.8680984 0.8005904
0.2363134 0.7973701 0.7995641
0.3008660 0.8040600 0.8008185
0.4043462 0.8176404 0.8030890
0.5434467 0.8374770 0.8059573
0.6644866 0.8558038 0.8135492
0.7612118 0.8721341 0.8148549
0.8329166 0.8833656 0.8210303
0.8770877 0.8914853 0.8213806
0.9063967 0.8976527 0.8272225
0.1350088 0.1134217 0.5318052
0.1548691 0.1148755 0.5368704
0.2183506 0.1183102 0.5488372
0.3232311 0.1225273 0.5635303
0.4669555 0.1445211 0.5838606
0.6036788 0.1648154 0.6039397
0.7019744 0.1920298 0.6208063
0.7693538 0.2260627 0.6419275
0.8141673 0.2721156 0.6600733
0.1350088 0.1134217 0.5318052
0.1577073 0.1149741 0.5372137
0.2223320 0.1184220 0.5492269
0.3288631 0.1226394 0.5639210
0.4669555 0.1445211 0.5838606
0.6043953 0.1688877 0.6048311
0.7039635 0.2010878 0.6248438
0.7763293 0.2520484 0.6534188
0.8254195 0.3081425 0.6776832
0.1269109 0.1526467 0.5788033
0.1542363 0.1564797 0.5819495
0.2255409 0.1724302 0.5947600
0.3387242 0.1982022 0.6109915
0.4981828 0.2294339 0.6343063
0.6299540 0.2615975 0.6486419
0.7333267 0.3057055 0.6718928
0.7981431 0.3515984 0.6897138
0.8451950 0.4030336 0.7095654
0.1478105 0.2929901 0.6516207
0.1486659 0.2977335 0.6546009
0.2159469 0.3167306 0.6653168
0.3522702 0.3500185 0.6812940
0.5179808 0.3843252 0.6942813
0.6610482 0.4245223 0.7119139
0.7592542 0.4570860 0.7224143
0.8263698 0.4973406 0.7390238
0.8668679 0.5347083 0.7485471
0.1664544 0.4593274 0.7165787
0.1672436 0.4654198 0.7193282
0.1699191 0.4868847 0.7286500
0.3606068 0.5192527 0.7404516
0.5439939 0.5505050 0.7504976
0.6865749 0.5842572 0.7646373
0.7867973 0.6092750 0.7702215
0.8470560 0.6377178 0.7813348
0.8844065 0.6608857 0.7858484
0.1801701 0.5922256 0.7643660
0.1814166 0.5994975 0.7687091
0.1828410 0.6148092 0.7736719
0.3854811 0.6470220 0.7836505
0.5633422 0.6800948 0.7920558
0.7027664 0.7054341 0.8013503
0.7967943 0.7238764 0.8035585
0.8568571 0.7454441 0.8127738
0.8935056 0.7616220 0.8159786
0.1905135 0.6915807 0.8004038
0.1910858 0.6986170 0.8023980
0.2221934 0.7156572 0.8068710
0.4396995 0.7422171 0.8179797
0.5956185 0.7699842 0.8242202
0.7238367 0.7920188 0.8271008
0.8148978 0.8084211 0.8338240
0.8663608 0.8202290 0.8364806
0.8987545 0.8279619 0.8422237
0.1989809 0.7547371 0.8299056
0.1994170 0.7610213 0.8314251
0.3384181 0.7773788 0.8349730
0.5020568 0.8024725 0.8411047
0.6395724 0.8228235 0.8473904
0.7503204 0.8428757 0.8512471
0.8246858 0.8534974 0.8522428
0.8739615 0.8633684 0.8577939
0.9042869 0.8703048 0.8598654
0.3133510 0.8084483 0.8546399
0.3520287 0.8130758 0.8555886
0.4493670 0.8260362 0.8594595
0.5661951 0.8436592 0.8623550
0.6817086 0.8629147 0.8691739
0.7683696 0.8757248 0.8706093
0.8380220 0.8882712 0.8716703
0.8808855 0.8963418 0.8766178
0.9062952 0.8998895 0.8768382
0.1798614 0.1403778 0.6257241
0.1992921 0.1413591 0.6291430
0.2634336 0.1441378 0.6388242
0.3702987 0.1527585 0.6560907
0.5098537 0.1743707 0.6708831
0.6377364 0.1970685 0.6898460
0.7281640 0.2340384 0.7056544
0.7874401 0.2681968 0.7212789
0.8304504 0.3134338 0.7400725
0.1798614 0.1403778 0.6257241
0.2030380 0.1414862 0.6295856
0.2634336 0.1441378 0.6388242
0.3702987 0.1527585 0.6560907
0.5098537 0.1743707 0.6708831
0.6385928 0.2024409 0.6910368
0.7281640 0.2340384 0.7056544
0.7874401 0.2681968 0.7212789
0.8338512 0.3302110 0.7467510
0.1743425 0.1613929 0.6534951
0.2017026 0.1715500 0.6582512
0.2715066 0.1850468 0.6680890
0.3794283 0.2122854 0.6858853
0.5283092 0.2440955 0.7059149
0.6525629 0.2862205 0.7240120
0.7468544 0.3271770 0.7398489
0.8119695 0.3699464 0.7591979
0.8538204 0.4253084 0.7749528
0.1681816 0.3152415 0.7225965
0.1698654 0.3200202 0.7255465
0.2678633 0.3393905 0.7358026
0.4000267 0.3715505 0.7493147
0.5577191 0.4081645 0.7641723
0.6790661 0.4367082 0.7733618
0.7748699 0.4800624 0.7902032
0.8343168 0.5120724 0.7990835
0.8741279 0.5562077 0.8141385
0.1843464 0.4802995 0.7789168
0.1852308 0.4871228 0.7819980
0.2435773 0.5081724 0.7907903
0.4035706 0.5375243 0.8014210
0.5731226 0.5670307 0.8141980
0.7033622 0.5990748 0.8220655
0.7934467 0.6231380 0.8275523
0.8517592 0.6444417 0.8366858
0.8881278 0.6677266 0.8427278
0.1965538 0.6081709 0.8214490
0.1971945 0.6144364 0.8236814
0.2517711 0.6309897 0.8291875
0.4341167 0.6604074 0.8382934
0.5931172 0.6907874 0.8488793
0.7182549 0.7141106 0.8543372
0.8083904 0.7321390 0.8582851
0.8618064 0.7525123 0.8648102
0.8970154 0.7682669 0.8678456
0.2052362 0.7033405 0.8516999
0.2058499 0.7106638 0.8538382
0.3135517 0.7307107 0.8600602
0.4756402 0.7535843 0.8653212
0.6243874 0.7787340 0.8735813
0.7384648 0.7951356 0.8762282
0.8194311 0.8148300 0.8809334
0.8708247 0.8251460 0.8844782
0.9011030 0.8324872 0.8863969
0.2115617 0.7680489 0.8737388
0.2783422 0.7745377 0.8753514
0.4031843 0.7898487 0.8823494
0.5374920 0.8088362 0.8862393
0.6581615 0.8304356 0.8907901
0.7562810 0.8447824 0.8928351
0.8290817 0.8580580 0.8954384
0.8771319 0.8684713 0.8998685
0.9062877 0.8751900 0.9004232
0.3640752 0.8183990 0.8947127
0.4167186 0.8252749 0.8961750
0.4876834 0.8351738 0.8981506
0.6010309 0.8518147 0.9011158
0.6988138 0.8670045 0.9033769
0.7814612 0.8811058 0.9082568
0.8420775 0.8898700 0.9102724
0.8837180 0.8976355 0.9109578
0.9088178 0.9035627 0.9146539
0.2269937 0.1617624 0.7002309
0.2460225 0.1631392 0.7050280
0.3112404 0.1765005 0.7141604
0.4237339 0.1993226 0.7286072
0.5529291 0.2226317 0.7438424
0.6649283 0.2573636 0.7594934
0.7517958 0.2887706 0.7727955
0.8079178 0.3221404 0.7838036
0.8457690 0.3646645 0.8012551
0.2306898 0.1626569 0.7033476
0.2507907 0.1637946 0.7055377
0.3168815 0.1771975 0.7146685
0.4237339 0.1993226 0.7286072
0.5529291 0.2226317 0.7438424
0.6649283 0.2573636 0.7594934
0.7517958 0.2887706 0.7727955
0.8103004 0.3295714 0.7868267
0.8477629 0.3647542 0.8013027
0.2257409 0.1870560 0.7143186
0.2506291 0.1984975 0.7205080
0.3206576 0.2135809 0.7300460
0.4330816 0.2379114 0.7471442
0.5654374 0.2714677 0.7626082
0.6801572 0.3085675 0.7782688
0.7638489 0.3526519 0.7935663
0.8223949 0.4000663 0.8104226
0.8623298 0.4488637 0.8239315
0.1979154 0.3498033 0.7779237
0.2313345 0.3537495 0.7815070
0.3179012 0.3727093 0.7906858
0.4467808 0.3972455 0.8018032
0.5860947 0.4321870 0.8138163
0.7049801 0.4607218 0.8240489
0.7886015 0.4956878 0.8363327
0.8444921 0.5347441 0.8456439
0.8790562 0.5702922 0.8549163
0.1977470 0.5038031 0.8256065
0.2024110 0.5091799 0.8290897
0.3103854 0.5286552 0.8355565
0.4599608 0.5578324 0.8455520
0.6040683 0.5835626 0.8572470
0.7270435 0.6146691 0.8647132
0.8055650 0.6366209 0.8696008
0.8564875 0.6574352 0.8748926
0.8918940 0.6808739 0.8824741
0.2081497 0.6264719 0.8618507
0.2086541 0.6315081 0.8636084
0.3376947 0.6534330 0.8707895
0.4835908 0.6733193 0.8765327
0.6242367 0.7012361 0.8835680
0.7410809 0.7234074 0.8887043
0.8196298 0.7472939 0.8961784
0.8687438 0.7594411 0.8977336
0.8996496 0.7741628 0.9014512
0.2159852 0.7206406 0.8891509
0.2745750 0.7267739 0.8909088
0.3880565 0.7454966 0.8962499
0.5250267 0.7646915 0.9008334
0.6519533 0.7867342 0.9060279
0.7525235 0.8011349 0.9085106
0.8299028 0.8167021 0.9114520
0.8741359 0.8293411 0.9155933
0.9041625 0.8377858 0.9173730
0.3335431 0.7815358 0.9077356
0.3682576 0.7886920 0.9091160
0.4568805 0.8006465 0.9127899
0.5740047 0.8185425 0.9164124
0.6845470 0.8348606 0.9193380
0.7775618 0.8512702 0.9225768
0.8387167 0.8636113 0.9248328
0.8812227 0.8722755 0.9272738
0.9064411 0.8784908 0.9286266
0.4464523 0.8299525 0.9218614
0.4749956 0.8339592 0.9227054
0.5395789 0.8439101 0.9246320
0.6309808 0.8574813 0.9278562
0.7152097 0.8718708 0.9300142
0.7941949 0.8834726 0.9323819
0.8509035 0.8941240 0.9335445
0.8866150 0.8992059 0.9362208
0.9107646 0.9042985 0.9366770
