data/spectral_luts/fuji_pro_400h_ca_maxima.cube
TITLE "fuji_pro_400h_ca_maxima"
LUT_3D_SIZE 33
0.0529995 0.0850743 0.0960530
0.0525362 0.0850255 0.0960425
0.0529995 0.0850743 0.0960530
0.0539538 0.0851750 0.0960746
0.0572888 0.0855292 0.0961490
0.0612495 0.0859541 0.0962350
0.0674778 0.0866295 0.0963643
0.0791893 0.0874282 0.0962677
0.0962399 0.0890465 0.0962491
0.1181023 0.0914197 0.0964644
0.1441603 0.0941280 0.0965374
0.1744429 0.0971081 0.0968724
0.2079826 0.1000095 0.0966352
0.2401607 0.1026935 0.0965009
0.2774045 0.1052488 0.0959021
0.3227978 0.1075185 0.0945251
0.3629339 0.1094838 0.0933272
0.4067230 0.1104520 0.0910829
0.4492486 0.1114099 0.0897268
0.4827068 0.1120730 0.0993298
0.5217237 0.1130187 0.1105282
0.5522435 0.1192878 0.1192878
0.5816991 0.1277420 0.1277420
0.6022243 0.1336330 0.1336330
0.6270791 0.1407667 0.1407667
0.6460247 0.1462044 0.1462044
0.6681265 0.1525480 0.1525480
0.6853172 0.1574819 0.1574819
0.7024842 0.1624091 0.1624091
0.7181119 0.1668945 0.1668945
0.7310119 0.1705970 0.1705970
0.7445351 0.1744784 0.1744784
0.7579750 0.1839935 0.1783358
0.0531344 0.0846402 0.0959767
0.0522108 0.0845430 0.0959555
0.0532013 0.0844237 0.0959385
0.0546253 0.0845741 0.0959710
0.0574697 0.0848765 0.0960348
0.0619092 0.0853530 0.0961318
0.0681735 0.0859952 0.0960222
0.0804515 0.0873430 0.0962517
0.0986286 0.0893087 0.0962792
0.1181023 0.0914197 0.0964644
0.1474798 0.0944606 0.0965321
0.1744429 0.0971081 0.0968724
0.2079826 0.1000095 0.0966352
0.2401607 0.1026935 0.0965009
0.2774045 0.1052488 0.0959021
0.3227978 0.1075185 0.0945251
0.3629339 0.1094838 0.0933272
0.4067230 0.1104520 0.0910829
0.4492486 0.1114099 0.0897268
0.4827068 0.1120730 0.0993298
0.5217237 0.1130187 0.1105282
0.5522435 0.1192878 0.1192878
0.5816991 0.1277420 0.1277420
0.6022243 0.1336330 0.1336330
0.6270791 0.1407667 0.1407667
0.6460247 0.1462044 0.1462044
0.6681265 0.1525480 0.1525480
0.6853172 0.1574819 0.1574819
0.7024842 0.1624091 0.1624091
0.7181119 0.1668945 0.1668945
0.7310119 0.1705970 0.1705970
0.7445351 0.1744784 0.1744784
0.7579750 0.1839935 0.1783358
0.0532013 0.0844237 0.0959385
0.0527403 0.0843751 0.0959280
0.0532013 0.0844237 0.0959385
0.0546253 0.0845741 0.0959710
0.0579433 0.0849271 0.0960454
0.0624060 0.0854065 0.0961424
0.0687001 0.0860527 0.0960327
0.0804786 0.0873093 0.0960114
0.0986165 0.0895331 0.0963161
0.1217337 0.0920345 0.0965227
0.1474906 0.0947277 0.0968160
0.1745133 0.0975873 0.0969411
0.2080780 0.1005414 0.0970005
0.2402821 0.1032029 0.0965644
0.2775490 0.1057776 0.0959624
0.3229705 0.1080844 0.0945820
0.3630400 0.1098103 0.0933561
0.4067230 0.1104520 0.0910829
0.4492486 0.1114099 0.0897268
0.4827068 0.1120730 0.0993298
0.5217237 0.1130187 0.1105282
0.5522435 0.1192878 0.1192878
0.5816991 0.1277420 0.1277420
0.6022243 0.1336330 0.1336330
0.6270791 0.1407667 0.1407667
0.6504006 0.1474604 0.1474604
0.6681265 0.1525480 0.1525480
0.6853172 0.1574819 0.1574819
0.7024842 0.1624091 0.1624091
0.7181119 0.1668945 0.1668945
0.7323214 0.1709728 0.1709728
0.7445351 0.1744784 0.1744784
0.7579750 0.1839935 0.1783358
0.0530672 0.0848570 0.0960148
0.0526047 0.0848083 0.0960043
0.0535436 0.0849073 0.0960257
0.0549718 0.0850584 0.0960580
0.0583153 0.0854145 0.0961322
0.0622826 0.0860278 0.0960174
0.0696964 0.0868343 0.0961682
0.0816837 0.0881535 0.0963864
0.1001641 0.0904188 0.0966886
0.1208261 0.0928987 0.0969092
0.1475660 0.0957100 0.0972082
0.1796827 0.0990836 0.0972843
0.2083342 0.1018925 0.0974757
0.2471114 0.1050653 0.0968513
0.2780339 0.1075864 0.0964786
0.3236524 0.1103559 0.0954576
0.3637945 0.1121469 0.0938990
0.4075776 0.1129659 0.0921047
0.4502219 0.1141889 0.0904709
0.4835825 0.1145679 0.0995811
0.5224991 0.1152245 0.1107508
0.5524052 0.1193342 0.1193342
0.5816991 0.1277420 0.1277420
0.6022243 0.1336330 0.1336330
0.6270791 0.1407667 0.1407667
0.6504006 0.1474604 0.1474604
0.6681265 0.1525480 0.1525480
0.6853172 0.1574819 0.1574819
0.7024842 0.1624091 0.1624091
0.7181119 0.1668945 0.1668945
0.7323214 0.1709728 0.1709728
0.7445351 0.1744784 0.1744784
0.7579750 0.1839935 0.1783358
0.0515668 0.0864378 0.0965202
0.0525047 0.0865363 0.0965413
0.0529084 0.0868342 0.0965951
0.0553241 0.0870897 0.0966484
0.0587995 0.0874221 0.0964833
0.0622694 0.0880521 0.0966001
0.0697919 0.0891291 0.0967931
0.0827383 0.0905601 0.0970211
0.1024617 0.0930076 0.0973298
0.1237049 0.0955874 0.0975366
0.1511615 0.0987971 0.0981373
0.1800831 0.1019333 0.0982628
0.2133655 0.1054742 0.0981056
0.2479095 0.1085040 0.0981828
0.2864525 0.1119291 0.0975634
0.3228458 0.1147469 0.0966602
0.3653081 0.1168899 0.0950879
0.4095204 0.1187440 0.0933691
0.4521976 0.1198894 0.0917065
0.4945437 0.1208222 0.1027271
0.5267720 0.1216453 0.1119771
0.5551878 0.1223994 0.1201329
0.5844128 0.1285209 0.1285209
0.6106979 0.1360651 0.1360651
0.6293786 0.1414267 0.1414267
0.6519317 0.1478998 0.1478998
0.6691082 0.1528297 0.1528297
0.6862126 0.1577389 0.1577389
0.7024842 0.1624091 0.1624091
0.7181119 0.1668945 0.1668945
0.7323214 0.1709728 0.1709728
0.7445351 0.1744784 0.1744784
0.7579750 0.1839935 0.1783358
0.0504852 0.0907815 0.0978106
0.0510243 0.0907913 0.0975424
0.0520240 0.0908960 0.0975637
0.0545165 0.0911590 0.0976162
0.0579156 0.0920921 0.0977825
0.0621257 0.0925462 0.0978664
0.0711277 0.0938191 0.0980823
0.0855929 0.0954325 0.0983175
0.1038132 0.0980570 0.0986314
0.1267148 0.1009311 0.0991166
0.1515359 0.1036205 0.0994088
0.1847440 0.1076075 0.0998169
0.2144963 0.1116444 0.1000895
0.2494312 0.1152010 0.0998951
0.2882039 0.1185944 0.0992657
0.3334383 0.1217596 0.0979833
0.3766775 0.1241180 0.0962867
0.4210407 0.1269644 0.0949590
0.4550472 0.1282128 0.0935837
0.4979664 0.1306325 0.1037095
0.5302343 0.1314747 0.1129709
0.5614162 0.1344626 0.1219205
0.5913181 0.1375987 0.1305028
0.6157016 0.1384020 0.1375012
0.6348249 0.1429899 0.1429899
0.6596540 0.1501162 0.1501162
0.6758995 0.1547789 0.1547789
0.6924861 0.1595395 0.1595395
0.7076943 0.1639045 0.1639045
0.7199674 0.1674271 0.1674271
0.7335672 0.1713304 0.1713304
0.7457235 0.1759505 0.1748194
0.7579750 0.1839935 0.1783358
0.0479372 0.0972583 0.0991602
0.0489813 0.0973659 0.0991808
0.0505656 0.0975303 0.0992119
0.0529197 0.0985446 0.0993819
0.0561925 0.0988910 0.0994438
0.0618007 0.0994946 0.0995466
0.0712039 0.1013023 0.0998284
0.0858537 0.1030009 0.1003313
0.1058134 0.1061091 0.1009540
0.1297548 0.1088690 0.1013731
0.1556119 0.1129572 0.1017964
0.1846113 0.1170882 0.1022714
0.2205521 0.1205620 0.1019297
0.2566212 0.1253914 0.1018498
0.2966113 0.1295636 0.1012213
0.3368877 0.1339357 0.1006351
0.3807518 0.1373833 0.0989349
0.4256383 0.1411525 0.0976668
0.4691158 0.1435572 0.0960386
0.5038689 0.1479084 0.1054036
0.5368124 0.1505195 0.1148589
0.5678335 0.1529447 0.1237624
0.5971574 0.1543715 0.1321788
0.6246874 0.1595728 0.1400803
0.6433071 0.1622479 0.1454244
0.6653131 0.1637807 0.1517405
0.6833190 0.1702265 0.1569084
0.6990849 0.1735918 0.1614335
0.7145225 0.1796981 0.1658643
0.7279060 0.1834168 0.1697055
0.7416790 0.1914840 0.1736586
0.7534034 0.1960647 0.1770237
0.7654089 0.2037467 0.1804694
0.0425654 0.1095953 0.1019189
0.0437618 0.1097133 0.1019387
0.0455670 0.1110935 0.1021472
0.0485535 0.1113949 0.1021952
0.0522405 0.1117742 0.1022537
0.0591416 0.1125037 0.1023599
0.0705253 0.1138051 0.1028155
0.0864299 0.1174844 0.1035539
0.1062208 0.1198518 0.1040166
0.1315893 0.1228852 0.1043965
0.1587084 0.1279328 0.1048669
0.1917894 0.1336248 0.1054328
0.2231359 0.1369318 0.1051677
0.2599075 0.1419159 0.1053852
0.3008572 0.1475559 0.1047596
0.3413129 0.1505732 0.1035517
0.3860466 0.1556301 0.1023493
0.4315347 0.1602292 0.1005800
0.4755625 0.1635008 0.0988740
0.5102382 0.1671991 0.1072317
0.5435546 0.1706207 0.1167940
0.5749211 0.1738679 0.1257966
0.6049725 0.1772741 0.1344218
0.6314828 0.1794413 0.1420307
0.6551048 0.1828444 0.1488105
0.6730575 0.1864304 0.1539632
0.6915308 0.1944050 0.1592653
0.7075735 0.1987218 0.1638698
0.7268589 0.2032818 0.1694050
0.7398650 0.2069748 0.1731380
0.7487174 0.2124581 0.1756787
0.7621872 0.2226976 0.1795447
0.7736569 0.2289504 0.1828367
0.0337166 0.1260680 0.1050923
0.0357449 0.1262625 0.1051193
0.0378081 0.1264578 0.1051459
0.0413955 0.1267932 0.1051903
0.0451578 0.1293156 0.1058060
0.0532480 0.1301906 0.1062363
0.0682453 0.1317900 0.1063978
0.0870147 0.1339985 0.1069185
0.1095956 0.1381781 0.1075558
0.1339808 0.1419324 0.1079950
0.1627544 0.1455467 0.1085528
0.1974804 0.1511509 0.1085706
0.2302440 0.1549067 0.1085857
0.2685718 0.1614199 0.1083583
0.3106869 0.1654553 0.1074354
0.3532518 0.1717216 0.1067044
0.3992017 0.1778533 0.1052875
0.4443368 0.1806251 0.1032574
0.4823427 0.1856690 0.1021179
0.5266385 0.1909105 0.1119388
0.5597182 0.1955367 0.1214332
0.5903811 0.1964766 0.1302339
0.6127498 0.2008694 0.1366540
0.6397140 0.2042223 0.1443931
0.6654459 0.2091105 0.1517786
0.6838749 0.2143083 0.1570680
0.7012566 0.2196717 0.1620568
0.7212460 0.2254806 0.1677940
0.7361810 0.2315965 0.1720806
0.7499675 0.2378423 0.1760375
0.7627667 0.2443092 0.1797111
0.7721346 0.2507937 0.1823998
0.7854330 0.2634563 0.1862167
0.0217171 0.1449050 0.1087197
0.0238962 0.1451195 0.1087431
0.0261367 0.1453372 0.1087664
0.0291474 0.1457043 0.1091593
0.0367052 0.1464044 0.1092288
0.0467675 0.1501210 0.1099684
0.0630139 0.1518314 0.1104525
0.0848995 0.1543448 0.1109402
0.1115116 0.1576205 0.1113598
0.1396847 0.1612167 0.1116350
0.1705612 0.1682225 0.1119468
0.2031385 0.1723267 0.1117431
0.2375403 0.1765495 0.1116870
0.2774541 0.1844435 0.1113394
0.3150894 0.1884716 0.1105140
0.3586901 0.1963416 0.1101325
0.4048021 0.2003123 0.1079687
0.4517031 0.2077973 0.1063956
0.4975781 0.2151952 0.1049830
0.5323343 0.2173653 0.1135736
0.5683253 0.2238127 0.1239035
0.6008507 0.2302041 0.1332388
0.6294216 0.2315024 0.1414391
0.6503537 0.2378274 0.1474469
0.6766448 0.2443070 0.1549928
0.6954547 0.2507861 0.1603915
0.7184120 0.2571896 0.1669806
0.7329463 0.2584969 0.1711522
0.7479166 0.2652535 0.1754489
0.7617338 0.2721425 0.1794146
0.7744096 0.2788389 0.1830528
0.7829379 0.2858994 0.1855005
0.7943704 0.2929720 0.1887818
0.0156318 0.1687827 0.1129590
0.0156725 0.1690251 0.1129776
0.0157291 0.1693617 0.1130024
0.0158150 0.1698713 0.1130379
0.0198129 0.1705733 0.1134560
0.0340397 0.1757703 0.1142240
0.0560895 0.1777399 0.1142889
0.0805532 0.1804050 0.1147127
0.1126369 0.1843237 0.1150476
0.1401753 0.1879289 0.1152518
0.1734552 0.1963937 0.1158554
0.2084540 0.2010640 0.1154926
0.2449809 0.2058785 0.1152491
0.2888031 0.2155021 0.1145003
0.3266062 0.2199832 0.1134953
0.3712977 0.2249252 0.1122148
0.4221543 0.2344548 0.1100069
0.4688104 0.2388025 0.1087133
0.5057590 0.2466168 0.1080983
0.5415423 0.2510749 0.1162164
0.5781296 0.2586820 0.1267175
0.6097013 0.2608772 0.1357790
0.6402031 0.2681667 0.1445335
0.6681494 0.2754369 0.1525545
0.6863886 0.2770136 0.1577894
0.7111835 0.2844009 0.1649060
0.7287657 0.2918612 0.1699523
0.7432807 0.2930001 0.1741183
0.7584286 0.3005832 0.1784660
0.7724233 0.3083509 0.1824827
0.7858754 0.3180343 0.1863436
0.7981856 0.3264117 0.1898768
0.8043194 0.3274944 0.1916373
0.0209313 0.1977285 0.1167457
0.0209689 0.1979176 0.1167530
0.0210635 0.1983923 0.1167699
0.0214812 0.2004738 0.1172970
0.0217352 0.2017285 0.1177518
0.0220463 0.2032528 0.1177710
0.0464475 0.2059710 0.1181920
0.0791516 0.2091514 0.1180967
0.1124423 0.2132436 0.1187413
0.1427740 0.2215610 0.1189404
0.1751670 0.2260247 0.1187479
0.2128430 0.2313608 0.1186325
0.2536342 0.2370370 0.1180900
0.2976370 0.2474687 0.1170078
0.3399283 0.2529695 0.1160794
0.3867553 0.2586302 0.1144149
0.4363296 0.2691391 0.1125551
0.4743326 0.2749437 0.1113862
0.5230803 0.2796738 0.1109176
0.5596306 0.2886225 0.1214080
0.5929990 0.2916506 0.1309852
0.6279526 0.3002934 0.1410174
0.6494760 0.3024538 0.1471950
0.6778695 0.3109983 0.1553443
0.6962806 0.3126976 0.1606286
0.7215083 0.3215160 0.1678693
0.7400001 0.3325402 0.1731767
0.7548596 0.3345553 0.1774416
0.7701811 0.3430826 0.1818391
0.7844284 0.3521593 0.1859283
0.7956076 0.3536453 0.1891369
0.8080178 0.3628419 0.1926988
0.8170142 0.3718661 0.1952809
0.0274585 0.2279898 0.1204111
0.0275840 0.2285282 0.1204115
0.0276630 0.2288661 0.1204106
0.0283305 0.2317003 0.1209030
0.0286325 0.2329699 0.1208808
0.0291481 0.2351194 0.1208162
0.0298129 0.2378582 0.1211462
0.0667130 0.2412271 0.1213797
0.1098853 0.2460454 0.1213682
0.1457043 0.2507311 0.1211986
0.1821825 0.2612440 0.1212040
0.2217626 0.2670491 0.1208208
0.2596297 0.2726019 0.1201785
0.3059005 0.2791784 0.1187125
0.3503886 0.2853388 0.1174739
0.4001288 0.2995569 0.1156179
0.4422725 0.3049379 0.1143178
0.4907193 0.3106786 0.1122079
0.5292962 0.3212097 0.1127016
0.5677983 0.3254801 0.1237523
0.6017589 0.3291180 0.1334995
0.6353492 0.3393356 0.1431404
0.6673495 0.3450720 0.1523249
0.6886474 0.3543010 0.1584377
0.7138433 0.3572685 0.1656693
0.7330440 0.3669839 0.1711802
0.7492324 0.3688426 0.1758265
0.7660812 0.3786900 0.1806624
0.7796742 0.3803553 0.1845638
0.7946000 0.3926102 0.1888477
0.8077077 0.4018581 0.1926098
0.8183356 0.4041626 0.1956602
0.8304649 0.4132391 0.2007479
0.0357967 0.2610509 0.1229359
0.0359259 0.2615254 0.1233954
0.0361394 0.2623078 0.1233619
0.0364390 0.2634014 0.1233087
0.0369676 0.2653179 0.1236841
0.0377428 0.2680998 0.1234838
0.0385317 0.2708966 0.1237291
0.0580582 0.2749734 0.1237762
0.1052617 0.2798202 0.1235943
0.1444031 0.2908088 0.1235308
0.1888922 0.2971712 0.1231323
0.2261463 0.3026760 0.1220956
0.2644455 0.3105156 0.1211441
0.3159765 0.3183199 0.1196794
0.3637100 0.3317798 0.1187058
0.4040522 0.3374823 0.1165356
0.4555625 0.3446915 0.1151745
0.4971149 0.3500565 0.1128637
0.5468678 0.3652712 0.1177449
0.5856808 0.3702625 0.1288848
0.6197340 0.3742112 0.1386586
0.6448853 0.3843240 0.1458774
0.6769208 0.3884712 0.1550720
0.7037547 0.3916377 0.1627738
0.7244965 0.4041481 0.1687270
0.7421002 0.4064314 0.1737795
0.7659211 0.4170660 0.1806164
0.7805864 0.4192745 0.1848256
0.7956294 0.4290691 0.1891432
0.8082399 0.4335306 0.1927625
0.8180002 0.4427235 0.1955639
0.8286024 0.4450396 0.1986069
0.8398147 0.4545233 0.2065711
0.0453719 0.2947100 0.1250823
0.0457014 0.2958581 0.1255001
0.0459763 0.2968157 0.1254169
0.0463115 0.2979835 0.1253081
0.0469269 0.3001277 0.1256101
0.0477803 0.3031011 0.1257940
0.0487594 0.3065123 0.1258740
0.0501174 0.3112441 0.1256710
0.0958128 0.3178686 0.1252577
0.1445181 0.3298869 0.1240541
0.1857235 0.3357549 0.1236329
0.2358035 0.3433454 0.1223333
0.2772841 0.3499656 0.1216545
0.3227196 0.3573053 0.1211272
0.3730341 0.3671469 0.1188591
0.4179710 0.3802405 0.1159257
0.4708577 0.3881791 0.1144962
0.5105506 0.3937768 0.1125200
0.5520409 0.3996547 0.1192297
0.5905759 0.4139578 0.1302898
0.6277758 0.4193052 0.1409667
0.6604219 0.4236854 0.1503366
0.6902483 0.4280407 0.1588972
0.7118243 0.4401401 0.1650899
0.7324892 0.4436740 0.1710210
0.7579535 0.4540473 0.1783296
0.7741467 0.4564371 0.1829773
0.7890345 0.4593494 0.1872503
0.8044888 0.4713454 0.1916859
0.8166803 0.4735600 0.1951851
0.8292904 0.4832707 0.1988044
0.8369586 0.4850721 0.2048176
0.8484188 0.4962839 0.2142966
0.0559416 0.3315363 0.1272651
0.0561983 0.3324306 0.1271524
0.0566464 0.3339917 0.1269454
0.0571267 0.3356654 0.1267085
0.0578695 0.3382533 0.1269023
0.0587260 0.3412374 0.1270024
0.0604650 0.3472964 0.1266908
0.0618968 0.3522849 0.1262410
0.0957058 0.3575183 0.1249400
0.1437056 0.3633709 0.1252351
0.1894485 0.3699414 0.1252200
0.2365485 0.3770012 0.1233077
0.2831038 0.3845543 0.1223574
0.3313501 0.4006623 0.1195069
0.3846885 0.4092667 0.1168693
0.4280046 0.4165065 0.1170842
0.4845427 0.4252126 0.1142800
0.5251184 0.4313245 0.1128423
0.5679246 0.4458269 0.1237885
0.6054330 0.4518282 0.1345540
0.6401379 0.4569394 0.1445148
0.6665401 0.4609229 0.1520926
0.6982645 0.4744595 0.1611980
0.7183936 0.4778195 0.1669753
0.7443033 0.4815055 0.1744118
0.7648959 0.4918863 0.1803222
0.7813020 0.4947433 0.1850310
0.7966886 0.4994048 0.1894472
0.8116271 0.5094093 0.1937347
0.8239388 0.5118026 0.1972684
0.8361056 0.5141529 0.2007604
0.8481448 0.5255949 0.2093290
0.8542796 0.5273852 0.2206381
0.0647126 0.3620955 0.1279359
0.0651222 0.3635227 0.1283156
0.0654573 0.3646905 0.1281145
0.0660107 0.3666184 0.1277664
0.0669973 0.3700560 0.1277317
0.0677631 0.3727241 0.1284836
0.0697204 0.3795437 0.1278764
0.0709868 0.3839558 0.1282380
0.0865910 0.3897654 0.1273551
0.1460821 0.3962689 0.1260311
0.1964059 0.4034459 0.1258026
0.2469570 0.4112210 0.1241669
0.2954351 0.4270354 0.1218494
0.3369350 0.4340977 0.1209978
0.3926213 0.4434996 0.1192835
0.4405275 0.4514552 0.1176311
0.4948919 0.4603313 0.1162690
0.5388246 0.4692433 0.1154364
0.5793260 0.4822605 0.1270609
0.6190687 0.4884940 0.1384676
0.6448678 0.4927516 0.1458724
0.6806956 0.5006864 0.1561555
0.7036065 0.5108515 0.1627312
0.7311444 0.5150613 0.1706350
0.7502668 0.5184684 0.1761234
0.7702113 0.5243056 0.1818478
0.7934945 0.5345838 0.1885304
0.8080843 0.5374004 0.1927179
0.8168046 0.5395688 0.1952208
0.8307030 0.5509482 0.1992098
0.8429863 0.5534839 0.2041859
0.8533920 0.5558112 0.2153115
0.8606430 0.5641450 0.2263448
0.0736577 0.3932617 0.1300056
0.0746726 0.3967979 0.1309189
0.0751317 0.3983973 0.1305810
0.0756083 0.4000580 0.1302158
0.0764701 0.4030606 0.1302792
0.0776150 0.4070496 0.1292855
0.0789315 0.4116363 0.1296104
0.0803779 0.4166757 0.1289214
0.0945823 0.4230427 0.1277649
0.1488239 0.4291716 0.1274572
0.2037558 0.4369910 0.1272725
0.2573563 0.4472620 0.1250848
0.2978436 0.4601341 0.1250478
0.3539620 0.4697750 0.1236492
0.4033061 0.4780855 0.1209310
0.4491123 0.4880475 0.1208327
0.4960631 0.4960001 0.1198949
0.5491256 0.5048499 0.1197388
0.5814742 0.5104687 0.1276775
0.6201584 0.5249143 0.1387804
0.6582896 0.5310391 0.1497246
0.6910906 0.5363025 0.1591390
0.7148066 0.5405554 0.1659458
0.7351205 0.5440688 0.1717762
0.7625760 0.5569427 0.1796563
0.7802510 0.5603278 0.1847293
0.7978953 0.5634038 0.1897935
0.8138208 0.5751248 0.1943644
0.8271831 0.5779329 0.1981995
0.8392903 0.5805829 0.2059037
0.8475152 0.5827929 0.2176493
0.8592718 0.5934927 0.2283370
0.8685600 0.5958607 0.2407260
0.0831695 0.4264020 0.1326454
0.0836772 0.4281709 0.1322125
0.0839358 0.4290719 0.1319857
0.0845652 0.4312648 0.1332849
0.0854998 0.4345213 0.1324161
0.0865408 0.4381484 0.1323417
0.0880997 0.4435798 0.1326404
0.0896218 0.4488828 0.1308720
0.0916064 0.4547775 0.1307681
0.1615775 0.4646114 0.1311350
0.2109632 0.4716487 0.1308007
0.2565243 0.4788476 0.1301615
0.3132997 0.4882122 0.1279714
0.3630884 0.4969882 0.1275680
0.4103652 0.5075002 0.1288669
0.4604175 0.5214776 0.1247838
0.5047904 0.5294883 0.1264880
0.5503035 0.5374545 0.1279062
0.5940174 0.5468180 0.1312775
0.6319782 0.5532802 0.1421728
0.6699231 0.5592955 0.1530636
0.6945698 0.5696897 0.1601376
0.7246345 0.5766389 0.1687666
0.7468079 0.5808303 0.1751307
0.7660070 0.5843143 0.1806411
0.7838395 0.5878522 0.1857593
0.8013591 0.5992703 0.1907877
0.8176002 0.6025642 0.1954491
0.8310595 0.6055020 0.2001564
0.8432495 0.6082734 0.2117294
0.8556495 0.6192753 0.2223524
0.8632603 0.6215584 0.2352510
0.8726001 0.6240577 0.2483736
0.0908889 0.4532975 0.1382924
0.0911683 0.4542712 0.1380350
0.0914636 0.4553001 0.1377577
0.0921629 0.4577364 0.1370787
0.0933409 0.4618409 0.1384602
0.0944340 0.4656493 0.1372896
0.0957313 0.4701691 0.1371374
0.0979747 0.4779854 0.1374021
0.1124219 0.4848729 0.1375728
0.1706744 0.4911615 0.1348914
0.2218573 0.4988763 0.1363786
0.2673934 0.5120353 0.1366984
0.3183777 0.5224475 0.1352071
0.3678132 0.5310107 0.1337545
0.4334796 0.5428213 0.1336207
0.4804655 0.5509183 0.1313824
0.5278103 0.5594694 0.1329970
0.5621142 0.5677231 0.1361607
0.6030350 0.5744066 0.1342956
0.6436079 0.5814085 0.1455107
0.6701940 0.5923610 0.1531413
0.7054519 0.6006125 0.1632609
0.7272249 0.6046808 0.1695101
0.7478223 0.6082522 0.1754218
0.7756723 0.6129807 0.1834152
0.7941589 0.6250996 0.1887211
0.8102493 0.6285233 0.1933393
0.8248805 0.6314598 0.1987125
0.8346103 0.6340557 0.2109844
0.8479316 0.6454949 0.2246027
0.8592384 0.6483216 0.2374500
0.8704730 0.6511868 0.2511009
0.8763086 0.6524958 0.2565685
0.0987368 0.4806408 0.1437157
0.0990607 0.4817694 0.1433927
0.0993891 0.4829134 0.1430587
0.1001668 0.4856231 0.1422401
0.1011193 0.4889418 0.1444146
0.1041894 0.4996384 0.1418713
0.1056834 0.5048438 0.1433936
0.1076203 0.5115923 0.1443115
0.1090784 0.5166726 0.1422457
0.1757639 0.5243907 0.1424866
0.2308348 0.5322927 0.1424583
0.2849213 0.5409283 0.1417340
0.3350374 0.5518957 0.1440427
0.3900591 0.5614176 0.1421327
0.4405113 0.5702490 0.1401659
0.4909556 0.5796023 0.1421657
0.5389264 0.5878060 0.1398627
0.5704375 0.5960609 0.1463564
0.6146397 0.6094274 0.1452148
0.6524075 0.6162195 0.1493710
0.6810303 0.6209583 0.1562515
0.7052952 0.6278321 0.1632159
0.7372222 0.6334363 0.1723794
0.7575275 0.6376393 0.1782074
0.7767463 0.6410661 0.1837234
0.7969589 0.6530824 0.1895248
0.8131875 0.6566513 0.2004226
0.8279225 0.6599981 0.2124050
0.8424091 0.6633266 0.2249568
0.8546805 0.6674163 0.2288959
0.8624294 0.6761567 0.2449962
0.8737315 0.6791565 0.2593790
0.8795466 0.6815233 0.2750376
0.1083290 0.5140613 0.1517070
0.1086864 0.5153065 0.1513274
0.1090457 0.5165583 0.1509380
0.1101307 0.5203388 0.1548586
0.1109940 0.5233465 0.1538944
0.1120064 0.5268742 0.1527024
0.1139388 0.5336066 0.1541130
0.1154307 0.5388048 0.1521412
0.1349693 0.5467242 0.1526051
0.1886841 0.5533326 0.1535193
0.2456446 0.5615763 0.1535460
0.2997055 0.5702849 0.1531425
0.3567739 0.5817835 0.1513710
0.3956877 0.5887550 0.1514380
0.4505032 0.5983696 0.1493680
0.5013468 0.6078973 0.1519368
0.5466911 0.6160926 0.1528772
0.5816933 0.6222126 0.1527510
0.6251978 0.6379841 0.1567485
0.6532472 0.6428406 0.1576623
0.6915300 0.6500204 0.1651547
0.7153922 0.6565590 0.1718582
0.7390369 0.6608170 0.1764761
0.7667851 0.6661711 0.1862073
0.7856734 0.6702424 0.1975267
0.8039765 0.6806275 0.1989050
0.8213822 0.6844648 0.2109819
0.8304713 0.6872091 0.2246051
0.8451319 0.6900508 0.2316927
0.8571790 0.6932166 0.2458400
0.8685277 0.6981822 0.2601829
0.8764414 0.7066001 0.2753513
0.8854644 0.7088029 0.2849020
0.1152247 0.5380870 0.1635966
0.1157284 0.5398419 0.1630651
0.1161111 0.5411753 0.1626514
0.1179515 0.5475875 0.1612145
0.1190409 0.5513832 0.1636255
0.1205451 0.5566241 0.1618022
0.1216941 0.5606274 0.1641730
0.1232854 0.5661716 0.1620435
0.1494201 0.5745578 0.1629059
0.2163774 0.5830448 0.1632593
0.2601928 0.5890428 0.1603353
0.3208434 0.5988672 0.1594813
0.3616371 0.6060303 0.1598839
0.4194281 0.6164551 0.1604575
0.4703996 0.6272480 0.1586103
0.5081121 0.6350411 0.1658867
0.5575399 0.6436635 0.1643858
0.5923965 0.6498306 0.1646502
0.6327426 0.6594841 0.1715095
0.6633778 0.6647842 0.1724305
0.6990512 0.6761453 0.1738239
0.7243354 0.6814006 0.1840240
0.7460293 0.6851516 0.1864806
0.7683975 0.6915389 0.1971501
0.7874552 0.6957480 0.2089392
0.8051646 0.6991402 0.2155173
0.8227205 0.7027909 0.2252462
0.8378696 0.7126089 0.2310189
0.8508250 0.7160184 0.2456066
0.8593354 0.7191746 0.2642457
0.8706533 0.7213804 0.2700560
0.8809109 0.7262614 0.2864149
0.8876019 0.7343669 0.3062166
0.1233012 0.5662267 0.1740599
0.1238467 0.5681274 0.1734690
0.1242620 0.5695742 0.1730079
0.1248193 0.5715159 0.1723733
0.1258165 0.5749902 0.1711912
0.1270021 0.5791211 0.1737089
0.1281905 0.5832618 0.1721937
0.1300296 0.5896694 0.1738465
0.1865740 0.5964101 0.1731902
0.2336921 0.6030264 0.1746339
0.2813968 0.6120465 0.1752605
0.3386390 0.6266618 0.1760845
0.3850520 0.6340795 0.1718784
0.4395808 0.6436957 0.1708715
0.4802706 0.6510771 0.1710398
0.5309766 0.6625296 0.1769356
0.5677209 0.6691443 0.1774441
0.6111219 0.6767173 0.1769021
0.6431896 0.6827000 0.1805172
0.6731651 0.6889001 0.1900426
0.6991380 0.6949051 0.1916643
0.7309405 0.7005857 0.1957632
0.7543030 0.7055710 0.2069661
0.7749667 0.7135832 0.2090187
0.7955616 0.7196135 0.2211259
0.8127887 0.7230033 0.2281031
0.8283148 0.7268446 0.2422524
0.8388076 0.7293118 0.2508470
0.8518203 0.7328255 0.2661625
0.8649412 0.7368331 0.2716210
0.8722755 0.7445943 0.2916831
0.8824118 0.7477403 0.3084143
0.8887840 0.7492941 0.3149339
0.1298963 0.5892049 0.1847365
0.1304740 0.5912176 0.1841133
0.1310610 0.5932630 0.1834612
0.1316779 0.5954123 0.1868820
0.1328831 0.5996114 0.1855015
0.1339570 0.6033529 0.1841996
