data/spectral_luts/fuji_natura_1600_ca_dpii.cube
TITLE "fuji_natura_1600_ca_dpii"
LUT_3D_SIZE 5
0.0683694 0.0928136 0.1078402
0.1113585 0.0975871 0.1086318
0.3715678 0.1229370 0.1092456
0.6632610 0.1663832 0.1511515
0.8139746 0.3059244 0.1944085
0.0611147 0.1132467 0.1153657
0.1168713 0.1256563 0.1182621
0.3944381 0.1809979 0.1221699
0.6986503 0.2719756 0.1613087
0.8461692 0.4249943 0.2036488
0.0615600 0.3511117 0.1522130
0.0689406 0.3768267 0.1531447
0.4840533 0.4666680 0.1366225
0.7774502 0.5622301 0.1839255
0.8906572 0.6511055 0.2239957
0.1315262 0.5948839 0.2202628
0.1406547 0.6266889 0.2208625
0.5498075 0.7103941 0.2180062
0.8164056 0.7701651 0.2410445
0.9100645 0.8076059 0.3191997
0.1742605 0.7437763 0.3875638
0.3032572 0.7718031 0.3930623
0.6459424 0.8297361 0.4061120
0.8381329 0.8690704 0.4488396
0.9180673 0.8906175 0.5051932
0.0651895 0.0956052 0.1331565
0.1162570 0.1015270 0.1369056
0.3817649 0.1276643 0.1486343
0.6677929 0.1759508 0.1810913
0.8190738 0.3208693 0.2509377
0.0596058 0.1203771 0.1551710
0.1234177 0.1333808 0.1638887
0.4145871 0.1914681 0.1862531
0.7095785 0.2885796 0.2188730
0.8486976 0.4361964 0.2778431
0.0681893 0.3742091 0.2495733
0.0759577 0.4012753 0.2557102
0.4892521 0.4915840 0.2681039
0.7775084 0.5846859 0.2933460
0.8905745 0.6667589 0.3641808
0.1398937 0.6240372 0.3712343
0.1493140 0.6568589 0.3795046
0.5489970 0.7351515 0.3889324
0.8119658 0.7923108 0.4215814
0.9101607 0.8297013 0.4819960
0.1801354 0.7642449 0.5251942
0.2942025 0.7906120 0.5335664
0.6372634 0.8447819 0.5472336
0.8398593 0.8824551 0.5760477
0.9165394 0.9001220 0.6164626
0.0793841 0.0996399 0.3164465
0.1459478 0.1067407 0.3316908
0.4221457 0.1303293 0.3704197
0.6924867 0.1890043 0.4459815
0.8324408 0.3417498 0.5292370
0.0743965 0.1280416 0.3777932
0.1530724 0.1440213 0.3963806
0.4463954 0.2083322 0.4454419
0.7258440 0.3093825 0.4993322
0.8602715 0.4692559 0.5729103
0.1146685 0.4197158 0.5361490
0.1198326 0.4500854 0.5541415
0.5094552 0.5388865 0.5826058
0.7895555 0.6195945 0.6116030
0.8938586 0.6969773 0.6583931
0.1516842 0.6651171 0.6589298
0.1615923 0.6996384 0.6683282
0.5659373 0.7716050 0.6902047
0.8124000 0.8198951 0.7088600
0.9073183 0.8488796 0.7331661
0.1878217 0.7910253 0.7553609
0.3432322 0.8181955 0.7598136
0.6584056 0.8660210 0.7734057
0.8411118 0.8978956 0.7900814
0.9159825 0.9124184 0.8026525
0.1488542 0.1197357 0.5538039
0.2262912 0.1243987 0.5700506
0.4889950 0.1358379 0.6099063
0.7244828 0.1858833 0.6631187
0.8487540 0.3622533 0.7426887
0.1484753 0.1319982 0.5965281
0.2372085 0.1386084 0.6163022
0.5126665 0.2107107 0.6641228
0.7549351 0.3320068 0.7210770
0.8738023 0.4915397 0.7811227
0.1763802 0.4490240 0.7511615
0.1802067 0.4782203 0.7644937
0.5614872 0.5612285 0.7972072
0.8030906 0.6368852 0.8214388
0.9009728 0.7165168 0.8450682
0.2016519 0.6980440 0.8392116
0.2065368 0.7289439 0.8500655
0.6081797 0.7898935 0.8680018
0.8280475 0.8330826 0.8800210
0.9114989 0.8586096 0.8884768
0.2637245 0.8180997 0.8932929
0.4388295 0.8393892 0.8988753
0.6850127 0.8780675 0.9062419
0.8493021 0.9043556 0.9124157
0.9178820 0.9194021 0.9218536
0.2498078 0.1705071 0.7306986
0.3424389 0.1744421 0.7444090
0.5851629 0.1983724 0.7760528
0.7688962 0.2634513 0.8027764
0.8688086 0.4113503 0.8491642
0.2596331 0.1716520 0.7346877
0.3481220 0.1763864 0.7511830
0.5908464 0.2457720 0.7923919
0.7881731 0.3747225 0.8357689
0.8855551 0.5236765 0.8777440
0.2069593 0.4996221 0.8577034
0.3426302 0.5247394 0.8686690
0.6413372 0.5896975 0.8894984
0.8258431 0.6598154 0.9072427
0.9072193 0.7319157 0.9221743
0.2268033 0.7354746 0.9172720
0.4136467 0.7618429 0.9244631
0.6798398 0.8045425 0.9357769
0.8434080 0.8392022 0.9418607
0.9158193 0.8640494 0.9477506
0.4537012 0.8446078 0.9464714
0.5504358 0.8590335 0.9494044
0.7380436 0.8890857 0.9564261
0.8624761 0.9091121 0.9595060
0.9217144 0.9224111 0.9630636
