data/spectral_luts/fuji_c200_ca_dpii.cube
TITLE "fuji_c200_ca_dpii"
LUT_3D_SIZE 5
0.0271782 0.0821711 0.0927542
0.1110869 0.0916172 0.0948243
0.3567356 0.1163901 0.0953216
0.6361857 0.1433805 0.1433805
0.7721558 0.2177437 0.1824059
0.0189570 0.1146985 0.1013970
0.1249174 0.1316815 0.1043075
0.3946128 0.1802046 0.1037751
0.6742961 0.2414097 0.1543187
0.8133565 0.3373971 0.1942311
0.0604676 0.3473057 0.1350794
0.1054536 0.3763480 0.1341380
0.4818170 0.4552379 0.1157188
0.7582154 0.5256443 0.1784048
0.8730293 0.5947076 0.2169917
0.1304831 0.5912494 0.2293823
0.1442136 0.6250871 0.2279543
0.5596910 0.6941109 0.2258892
0.8007594 0.7476002 0.2502887
0.8982210 0.7824529 0.3165821
0.1749178 0.7460664 0.4261589
0.3560551 0.7712420 0.4298393
0.6505715 0.8213931 0.4399347
0.8302341 0.8544592 0.4625922
0.9088082 0.8719558 0.4976776
0.0266900 0.0866404 0.1219073
0.1168581 0.0969864 0.1286690
0.3670093 0.1224244 0.1417483
0.6419450 0.1486181 0.1675612
0.7768344 0.2276518 0.2196827
0.0138478 0.1279137 0.1577638
0.1266808 0.1460222 0.1660676
0.4059026 0.1939695 0.1832183
0.6844231 0.2528033 0.2081571
0.8166928 0.3476267 0.2584099
0.0711166 0.3844080 0.2577415
0.0803656 0.4166328 0.2641638
0.4859012 0.4856906 0.2741188
0.7587006 0.5517389 0.2984939
0.8736175 0.6093869 0.3458005
0.1401402 0.6248961 0.3956953
0.1486479 0.6545382 0.3961031
0.5464770 0.7196725 0.4040829
0.7981259 0.7692329 0.4265001
0.8967593 0.7991478 0.4719445
0.1796918 0.7626995 0.5382318
0.3522062 0.7855767 0.5387269
0.6441578 0.8326401 0.5528426
0.8272174 0.8647106 0.5710479
0.9069982 0.8808367 0.5969322
0.0558472 0.0970317 0.3081838
0.1467530 0.1069161 0.3277505
0.4080535 0.1312794 0.3660675
0.6620855 0.1590406 0.4107454
0.7941012 0.2467943 0.4700945
0.0720094 0.1444932 0.3875187
0.1535261 0.1642952 0.4018929
0.4370074 0.2129419 0.4351622
0.7038317 0.2814861 0.4740902
0.8306895 0.3788041 0.5208797
0.1118375 0.4244772 0.5262854
0.1149689 0.4541497 0.5371957
0.4956410 0.5207596 0.5568019
0.7661309 0.5899593 0.5789428
0.8784248 0.6434653 0.6069714
0.1500020 0.6592562 0.6326507
0.1591823 0.6912415 0.6408113
0.5663543 0.7532178 0.6555632
0.8048065 0.7959818 0.6723945
0.8968294 0.8172968 0.6854865
0.1858604 0.7841917 0.7228215
0.3771709 0.8086360 0.7283950
0.6553628 0.8502319 0.7390139
0.8295920 0.8782849 0.7444578
0.9049508 0.8939165 0.7582559
0.1350088 0.1134217 0.5318052
0.2183506 0.1183102 0.5488372
0.4669555 0.1445211 0.5838606
0.7019744 0.1920298 0.6208063
0.8141673 0.2721156 0.6600733
0.1269109 0.1526467 0.5788033
0.2255409 0.1724302 0.5947600
0.4981828 0.2294339 0.6343063
0.7333267 0.3057055 0.6718928
0.8451950 0.4030336 0.7095654
0.1664544 0.4593274 0.7165787
0.1699191 0.4868847 0.7286500
0.5439939 0.5505050 0.7504976
0.7867973 0.6092750 0.7702215
0.8844065 0.6608857 0.7858484
0.1905135 0.6915807 0.8004038
0.2221934 0.7156572 0.8068710
0.5956185 0.7699842 0.8242202
0.8148978 0.8084211 0.8338240
0.8987545 0.8279619 0.8422237
0.3133510 0.8084483 0.8546399
0.4493670 0.8260362 0.8594595
0.6817086 0.8629147 0.8691739
0.8380220 0.8882712 0.8716703
0.9062952 0.8998895 0.8768382
0.2269937 0.1617624 0.7002309
0.3112404 0.1765005 0.7141604
0.5529291 0.2226317 0.7438424
0.7517958 0.2887706 0.7727955
0.8457690 0.3646645 0.8012551
0.2257409 0.1870560 0.7143186
0.3206576 0.2135809 0.7300460
0.5654374 0.2714677 0.7626082
0.7638489 0.3526519 0.7935663
0.8623298 0.4488637 0.8239315
0.1977470 0.5038031 0.8256065
0.3103854 0.5286552 0.8355565
0.6040683 0.5835626 0.8572470
0.8055650 0.6366209 0.8696008
0.8918940 0.6808739 0.8824741
0.2159852 0.7206406 0.8891509
0.3880565 0.7454966 0.8962499
0.6519533 0.7867342 0.9060279
0.8299028 0.8167021 0.9114520
0.9041625 0.8377858 0.9173730
0.4464523 0.8299525 0.9218614
0.5395789 0.8439101 0.9246320
0.7152097 0.8718708 0.9300142
0.8509035 0.8941240 0.9335445
0.9107646 0.9042985 0.9366770
