data/spectral_luts/fuji_superia_reala_ca_pro_pdii.cube
TITLE "fuji_superia_reala_ca_pro_pdii"
LUT_3D_SIZE 5
0.0269105 0.0581586 0.0955902
0.0577980 0.0634096 0.0979365
0.3467209 0.0958404 0.1035550
0.5874361 0.1293886 0.1293886
0.7080868 0.1640171 0.1640171
0.0174991 0.0882715 0.1046676
0.0602700 0.0941715 0.1077089
0.3723761 0.1288923 0.1108926
0.5996312 0.1328888 0.1328888
0.7091698 0.1643280 0.1643280
0.0496712 0.3096894 0.1380343
0.0559253 0.3314793 0.1390041
0.4779370 0.4171995 0.1161800
0.7105260 0.4553091 0.1647172
0.8172232 0.4757023 0.1953409
0.0980752 0.4783358 0.1842460
0.1514707 0.5226139 0.1791395
0.5764149 0.6096532 0.1535094
0.7615777 0.6505496 0.1793698
0.8621833 0.6818832 0.2466535
0.3083392 0.6600151 0.3311901
0.4454283 0.6877490 0.3330489
0.6564951 0.7346316 0.3468705
0.7900665 0.7642011 0.3749819
0.8764556 0.7866776 0.4199631
0.0237135 0.0643214 0.1303336
0.0582238 0.0693989 0.1343471
0.3584133 0.1034513 0.1496631
0.5915002 0.1305551 0.1671350
0.7142578 0.1657883 0.2140106
0.0137181 0.1020711 0.1569313
0.0561153 0.1085204 0.1612749
0.3824972 0.1422480 0.1702989
0.6058167 0.1409803 0.1776229
0.7142578 0.1657883 0.2140106
0.0604796 0.3473475 0.2291883
0.0669338 0.3698345 0.2338546
0.4836267 0.4561174 0.2418919
0.7172056 0.4959502 0.2583006
0.8189293 0.5036185 0.3056153
0.1100707 0.5201298 0.3335145
0.1235833 0.5672095 0.3397654
0.5726802 0.6492988 0.3493925
0.7543302 0.6868260 0.3750391
0.8576655 0.7086127 0.4213131
0.3056620 0.6928250 0.4821147
0.4335595 0.7154967 0.4816036
0.6447849 0.7573233 0.4913047
0.7881269 0.7866090 0.5065964
0.8720965 0.8037691 0.5356849
0.0587506 0.0714372 0.3413233
0.0748165 0.0769423 0.3443151
0.3912575 0.1122304 0.3810823
0.6174064 0.1379905 0.4224167
0.7356328 0.1818385 0.4713909
0.0776732 0.1288496 0.4072523
0.0791607 0.1378558 0.4124349
0.4228474 0.1776171 0.4372624
0.6307960 0.1752377 0.4506174
0.7356328 0.1818385 0.4713909
0.1111449 0.4158462 0.5238726
0.1141940 0.4463591 0.5344959
0.4922535 0.5264896 0.5537209
0.7192435 0.5545110 0.5621417
0.8254753 0.5612756 0.5750396
0.1331024 0.5818983 0.6003755
0.1410953 0.6282238 0.6095052
0.5682455 0.6964235 0.6188197
0.7503335 0.7283543 0.6274796
0.8551757 0.7433647 0.6414777
0.3178167 0.7275400 0.6617676
0.4487879 0.7499587 0.6677406
0.6446975 0.7857285 0.6736146
0.7845153 0.8115755 0.6777795
0.8666354 0.8247391 0.6893673
0.1168340 0.1168340 0.5436939
0.1314350 0.1190402 0.5513806
0.4485389 0.1275317 0.5809663
0.6474774 0.1614134 0.6053413
0.7666582 0.2551631 0.6437772
0.1333798 0.2190809 0.6013420
0.1368442 0.2384652 0.6134125
0.4852565 0.2811062 0.6373757
0.6767978 0.2750431 0.6414159
0.7666582 0.2551631 0.6437772
0.1576079 0.4684545 0.6857562
0.1615401 0.5072682 0.6994563
0.5338529 0.5841920 0.7199310
0.7302373 0.6081556 0.7252428
0.8335462 0.6153848 0.7314330
0.1732812 0.6317729 0.7403641
0.2799603 0.6743044 0.7502553
0.5947716 0.7262945 0.7613755
0.7609471 0.7543969 0.7668110
0.8560474 0.7666871 0.7687659
0.3876219 0.7559013 0.7801858
0.4998618 0.7752588 0.7829564
0.6601847 0.8046275 0.7886462
0.7845309 0.8264087 0.7927397
0.8659871 0.8399544 0.7958689
0.1601953 0.2541946 0.6947710
0.2312754 0.2637197 0.7042058
0.5383327 0.2932347 0.7220306
0.6959715 0.2927151 0.7278346
0.8047078 0.3920967 0.7559544
0.1705099 0.3699777 0.7307084
0.2054867 0.3980205 0.7444692
0.5546170 0.4397193 0.7612904
0.7201490 0.4494221 0.7665184
0.8125970 0.4400792 0.7668080
0.1855175 0.5445882 0.7829971
0.2666124 0.5860704 0.7956141
0.5925066 0.6375498 0.8083134
0.7513046 0.6566480 0.8129969
0.8450384 0.6689095 0.8147064
0.2602867 0.6911159 0.8238818
0.4187539 0.7151294 0.8290937
0.6347390 0.7519961 0.8355258
0.7738082 0.7762557 0.8404142
0.8606737 0.7864730 0.8404838
0.4926053 0.7868387 0.8500595
0.5601431 0.7989144 0.8519201
0.6868762 0.8218452 0.8540511
0.7963975 0.8384287 0.8557584
0.8696907 0.8511981 0.8584663
