data/spectral_luts/fuji_natura_1600_ca_dpii.cube
TITLE "fuji_natura_1600_ca_dpii"
LUT_3D_SIZE 9
0.0683694 0.0928136 0.1078402
0.0744855 0.0934761 0.1079759
0.1113585 0.0975871 0.1086318
0.2091665 0.1091422 0.1101349
0.3715678 0.1229370 0.1092456
0.5417201 0.1382192 0.1162675
0.6632610 0.1663832 0.1511515
0.7487732 0.2248010 0.1756947
0.8139746 0.3059244 0.1944085
0.0678979 0.0944737 0.1087203
0.0762264 0.0958930 0.1091897
0.1132766 0.1013715 0.1106515
0.2140078 0.1146456 0.1127645
0.3749839 0.1342498 0.1125196
0.5500885 0.1567100 0.1186693
0.6732684 0.1960166 0.1540238
0.7592543 0.2575139 0.1787030
0.8239187 0.3406665 0.1972626
0.0611147 0.1132467 0.1153657
0.0753185 0.1166755 0.1161529
0.1168713 0.1256563 0.1182621
0.2255732 0.1475335 0.1213797
0.3944381 0.1809979 0.1221699
0.5781971 0.2195023 0.1267369
0.6986503 0.2719756 0.1613087
0.7877394 0.3419138 0.1868786
0.8461692 0.4249943 0.2036488
0.0204577 0.1953297 0.1329534
0.0375343 0.2026741 0.1338284
0.1126776 0.2203501 0.1365484
0.2502921 0.2532694 0.1378396
0.4420601 0.2999336 0.1331826
0.6180708 0.3536557 0.1381812
0.7406132 0.4144364 0.1733527
0.8201918 0.4752143 0.1961929
0.8735150 0.5416455 0.2114975
0.0615600 0.3511117 0.1522130
0.0628608 0.3556439 0.1529767
0.0689406 0.3768267 0.1531447
0.2637573 0.4181527 0.1487277
0.4840533 0.4666680 0.1366225
0.6591656 0.5149629 0.1499760
0.7774502 0.5622301 0.1839255
0.8465576 0.6050313 0.2037603
0.8906572 0.6511055 0.2239957
0.0978770 0.4776453 0.1715243
0.1018546 0.4915037 0.1718688
0.1076998 0.5118691 0.1709790
0.2921364 0.5523920 0.1677990
0.5200324 0.6057923 0.1591088
0.6849256 0.6466801 0.1573695
0.7965019 0.6808715 0.1893936
0.8674328 0.7148660 0.2097518
0.9038540 0.7486190 0.2588450
0.1315262 0.5948839 0.2202628
0.1343801 0.6048270 0.2221165
0.1406547 0.6266889 0.2208625
0.3356208 0.6676383 0.2206787
0.5498075 0.7103941 0.2180062
0.7173726 0.7441133 0.2212894
0.8164056 0.7701651 0.2410445
0.8753400 0.7904577 0.2691503
0.9100645 0.8076059 0.3191997
0.1543080 0.6742588 0.2910331
0.1564184 0.6816117 0.2899226
0.1631633 0.7051117 0.2927294
0.4046482 0.7416383 0.2965206
0.5949714 0.7776486 0.2987702
0.7356007 0.8059425 0.3093509
0.8264061 0.8271880 0.3395183
0.8826036 0.8448416 0.3721988
0.9149310 0.8577265 0.4149682
0.1742605 0.7437763 0.3875638
0.1769333 0.7530885 0.3951679
0.3032572 0.7718031 0.3930623
0.4771235 0.7995844 0.4033999
0.6459424 0.8297361 0.4061120
0.7585741 0.8521380 0.4251818
0.8381329 0.8690704 0.4488396
0.8878999 0.8809081 0.4738021
0.9180673 0.8906175 0.5051932
0.0679299 0.0932310 0.1111149
0.0758368 0.0941412 0.1117219
0.1131828 0.0983704 0.1131121
0.2131071 0.1102166 0.1157120
0.3718059 0.1238161 0.1160188
0.5421305 0.1390787 0.1163852
0.6636150 0.1670476 0.1512531
0.7489054 0.2250736 0.1757327
0.8139746 0.3059244 0.1944085
0.0672739 0.0951703 0.1129735
0.0770141 0.0967732 0.1137455
0.1159422 0.1024701 0.1161305
0.2180224 0.1158983 0.1191829
0.3841377 0.1354798 0.1206579
0.5505050 0.1576798 0.1200301
0.6737189 0.1969776 0.1541531
0.7594138 0.2578875 0.1787487
0.8239187 0.3406665 0.1972626
0.0607449 0.1155799 0.1227670
0.0755327 0.1182507 0.1242069
0.1202973 0.1277472 0.1270909
0.2311796 0.1495077 0.1319008
0.4040016 0.1830782 0.1338538
0.5789313 0.2219964 0.1318303
0.6990926 0.2733165 0.1614357
0.7880485 0.3429427 0.1869673
0.8461692 0.4249943 0.2036488
0.0211797 0.1989736 0.1460865
0.0326452 0.2064719 0.1472366
0.1114105 0.2243612 0.1508204
0.2544317 0.2579636 0.1537122
0.4420103 0.3043306 0.1522854
0.6187156 0.3583904 0.1474067
0.7415175 0.4198204 0.1736123
0.8204771 0.4773206 0.1962748
0.8735855 0.5423360 0.2115177
0.0632300 0.3569301 0.1717342
0.0646554 0.3618965 0.1732430
0.0708193 0.3833722 0.1749550
0.2691044 0.4258403 0.1753090
0.4824973 0.4755667 0.1718168
0.6587598 0.5228269 0.1740345
0.7776335 0.5687515 0.1839781
0.8465597 0.6082889 0.2079276
0.8906484 0.6521424 0.2344068
0.1021398 0.4924974 0.2089908
0.1048585 0.5019698 0.2111601
0.1105140 0.5216742 0.2114984
0.2824154 0.5624981 0.2131825
0.5165868 0.6141450 0.2114558
0.6905100 0.6577552 0.2115766
0.8006276 0.6891415 0.2233851
0.8670622 0.7220129 0.2552236
0.9037086 0.7528275 0.2866087
0.1341337 0.6039686 0.2646845
0.1372874 0.6149566 0.2634298
0.1435094 0.6366350 0.2640733
0.3265640 0.6759199 0.2662350
0.5462763 0.7169399 0.2642485
0.7153547 0.7511317 0.2759956
0.8151459 0.7768101 0.2958016
0.8742784 0.7975942 0.3303012
0.9116291 0.8139157 0.3709143
0.1562892 0.6811618 0.3368633
0.1592431 0.6914533 0.3359926
0.1658771 0.7145672 0.3419830
0.3964044 0.7489914 0.3513208
0.5905803 0.7851263 0.3585843
0.7329924 0.8131195 0.3702635
0.8249543 0.8329890 0.3895444
0.8814794 0.8512577 0.4236149
0.9141635 0.8621958 0.4558716
0.1765196 0.7516472 0.4371019
0.1784065 0.7582214 0.4368569
0.2932451 0.7774922 0.4356305
0.4868146 0.8078104 0.4495775
0.6429239 0.8349623 0.4539824
0.7568033 0.8566437 0.4676894
0.8369552 0.8730835 0.4882560
0.8870051 0.8851861 0.5124438
0.9174414 0.8937027 0.5370758
0.0651895 0.0956052 0.1331565
0.0777037 0.0969085 0.1335402
0.1162570 0.1015270 0.1369056
0.2169577 0.1136461 0.1425108
0.3817649 0.1276643 0.1486343
0.5468386 0.1449639 0.1600312
0.6677929 0.1759508 0.1810913
0.7522500 0.2315722 0.2099472
0.8190738 0.3208693 0.2509377
0.0650284 0.0981884 0.1367953
0.0780761 0.1002078 0.1388057
0.1189646 0.1060756 0.1422530
0.2219355 0.1198909 0.1494128
0.3854982 0.1405958 0.1580832
0.5611952 0.1637838 0.1701447
0.6776333 0.2059896 0.1936516
0.7680952 0.2705864 0.2221237
0.8270999 0.3502817 0.2598032
0.0596058 0.1203771 0.1551710
0.0748742 0.1240822 0.1568434
0.1234177 0.1333808 0.1638887
0.2410766 0.1570657 0.1743657
0.4145871 0.1914681 0.1862531
0.5821572 0.2331894 0.1975608
0.7095785 0.2885796 0.2188730
0.7921640 0.3538017 0.2450363
0.8486976 0.4361964 0.2778431
0.0239257 0.2122080 0.1991354
0.0256283 0.2199721 0.2003034
0.1101768 0.2347094 0.2059990
0.2570551 0.2687170 0.2162248
0.4514308 0.3164633 0.2276135
0.6283112 0.3713926 0.2362486
0.7493296 0.4328501 0.2515151
0.8267000 0.4924642 0.2770722
0.8748926 0.5548017 0.3119877
0.0681893 0.3742091 0.2495733
0.0695144 0.3788258 0.2499696
0.0759577 0.4012753 0.2557102
0.2621778 0.4433051 0.2633477
0.4892521 0.4915840 0.2681039
0.6668952 0.5460769 0.2762952
0.7775084 0.5846859 0.2933460
0.8509504 0.6240072 0.3191072
0.8905745 0.6667589 0.3641808
0.1082361 0.5137377 0.3026907
0.1102784 0.5208533 0.3029233
0.1182455 0.5486119 0.3089047
0.2723571 0.5882895 0.3128687
0.5209906 0.6329376 0.3201875
0.6887931 0.6755249 0.3364500
0.7988172 0.7119333 0.3567416
0.8656291 0.7382007 0.3861949
0.9023481 0.7686204 0.4222859
0.1398937 0.6240372 0.3712343
0.1424349 0.6328913 0.3714316
0.1493140 0.6568589 0.3795046
0.3201229 0.6963080 0.3858299
0.5489970 0.7351515 0.3889324
0.7099844 0.7671614 0.4089399
0.8119658 0.7923108 0.4215814
0.8719265 0.8112282 0.4545121
0.9101607 0.8297013 0.4819960
0.1619046 0.7007264 0.4482971
0.1639218 0.7077548 0.4485205
0.1709361 0.7321934 0.4565605
0.3970034 0.7660416 0.4634572
0.5950668 0.7998368 0.4685774
0.7365319 0.8267021 0.4815335
0.8276827 0.8452488 0.4957954
0.8793629 0.8611391 0.5196648
0.9125670 0.8708507 0.5438059
0.1801354 0.7642449 0.5251942
0.1822538 0.7716259 0.5331535
0.2942025 0.7906120 0.5335664
0.4776457 0.8169810 0.5382574
0.6372634 0.8447819 0.5472336
0.7612176 0.8674096 0.5612527
0.8398593 0.8824551 0.5760477
0.8889744 0.8923461 0.5915245
0.9165394 0.9001220 0.6164626
0.0661056 0.1007070 0.2019643
0.0806399 0.1023946 0.2027422
0.1253746 0.1076371 0.2099501
0.2314120 0.1190579 0.2230176
0.3913382 0.1328543 0.2398607
0.5575886 0.1508205 0.2637054
0.6798532 0.1850440 0.2998196
0.7628793 0.2473328 0.3402354
0.8249218 0.3345022 0.3941706
0.0663674 0.1034062 0.2088333
0.0811398 0.1054951 0.2148248
0.1285289 0.1118927 0.2213880
0.2384511 0.1267465 0.2371718
0.4045719 0.1478540 0.2580473
0.5663319 0.1721973 0.2834969
0.6888812 0.2144621 0.3155605
0.7746823 0.2849787 0.3601776
0.8326156 0.3651785 0.4048351
0.0570398 0.1289151 0.2488545
0.0749854 0.1317637 0.2514777
0.1316146 0.1423882 0.2584084
0.2501254 0.1676196 0.2752174
0.4238536 0.2003971 0.2978494
0.5943591 0.2445799 0.3243812
0.7146100 0.3023692 0.3563196
0.7978479 0.3723156 0.3942959
0.8556184 0.4545283 0.4331077
0.0507726 0.2285270 0.3135267
0.0513832 0.2370060 0.3156542
0.1085135 0.2513038 0.3283763
0.2698084 0.2881073 0.3450942
0.4609316 0.3358440 0.3628064
0.6391782 0.3933181 0.3881516
0.7525064 0.4550936 0.4106216
0.8299037 0.5149629 0.4433993
0.8774738 0.5766687 0.4769326
0.0759552 0.4012664 0.3902674
0.0775543 0.4068381 0.3916731
0.0843737 0.4305978 0.4052194
0.2611744 0.4721680 0.4200532
0.4902686 0.5188035 0.4325895
0.6638612 0.5639377 0.4502505
0.7833212 0.6088801 0.4678212
0.8513005 0.6460589 0.4884311
0.8928948 0.6809757 0.5148809
0.1151668 0.5378853 0.4548807
0.1174237 0.5457486 0.4587557
0.1254777 0.5738099 0.4698669
0.2687412 0.6107865 0.4806939
0.5222743 0.6550391 0.4920191
0.6905105 0.6932822 0.5012132
0.7975771 0.7296758 0.5181133
0.8641759 0.7592564 0.5408633
0.9035291 0.7811374 0.5588607
0.1461587 0.6458655 0.5210642
0.1492325 0.6565749 0.5225789
0.1567567 0.6827903 0.5279008
0.3081329 0.7144138 0.5350793
0.5509750 0.7546143 0.5456694
0.7108622 0.7874681 0.5600374
0.8147445 0.8073690 0.5689988
0.8736625 0.8243963 0.5923015
0.9083521 0.8402088 0.6110898
0.1670763 0.7187455 0.5800066
0.1697889 0.7281964 0.5812426
0.1761947 0.7505152 0.5908799
0.3939090 0.7805566 0.5929173
0.5957282 0.8147619 0.6038353
0.7314171 0.8399634 0.6194094
0.8244271 0.8574154 0.6267786
0.8811403 0.8721734 0.6429824
0.9108102 0.8824463 0.6625366
0.1842881 0.7787137 0.6435539
0.1864654 0.7862995 0.6470258
0.3133281 0.8056530 0.6489486
0.4934129 0.8330494 0.6586871
0.6425707 0.8562499 0.6674560
0.7574880 0.8762947 0.6751412
0.8373263 0.8907614 0.6854417
0.8870491 0.9008808 0.7007441
0.9151124 0.9071082 0.7156590
0.0793841 0.0996399 0.3164465
0.0954245 0.1013822 0.3198838
0.1459478 0.1067407 0.3316908
0.2567766 0.1174024 0.3444890
0.4221457 0.1303293 0.3704197
0.5780246 0.1483244 0.4031600
0.6924867 0.1890043 0.4459815
0.7726715 0.2483000 0.4818664
0.8324408 0.3417498 0.5292370
0.0807670 0.1007805 0.3210356
0.0976306 0.1022034 0.3302219
0.1492276 0.1090700 0.3427668
0.2630580 0.1252548 0.3614053
0.4264710 0.1463612 0.3916007
0.5875008 0.1747575 0.4242264
0.7019261 0.2179782 0.4626245
0.7837954 0.2903131 0.5050728
0.8404012 0.3742165 0.5387915
0.0743965 0.1280416 0.3777932
0.0938366 0.1314809 0.3817681
0.1530724 0.1440213 0.3963806
0.2777402 0.1730435 0.4165524
0.4463954 0.2083322 0.4454419
0.6149767 0.2531632 0.4735701
0.7258440 0.3093825 0.4993322
0.8058543 0.3824784 0.5356334
0.8602715 0.4692559 0.5729103
0.0913148 0.2414794 0.4547816
0.0936814 0.2446821 0.4630270
0.1302047 0.2681099 0.4755751
0.2903689 0.3044697 0.4912290
0.4812337 0.3566335 0.5140504
0.6503414 0.4061623 0.5354884
0.7618331 0.4691640 0.5643170
0.8366934 0.5288621 0.5848848
0.8806305 0.5829771 0.6125658
0.1146685 0.4197158 0.5361490
0.1152594 0.4251296 0.5382081
0.1198326 0.4500854 0.5541415
0.2802731 0.4840332 0.5623788
0.5094552 0.5388865 0.5826058
0.6791129 0.5827349 0.5990999
0.7895555 0.6195945 0.6116030
0.8556479 0.6563903 0.6346932
0.8938586 0.6969773 0.6583931
0.1336663 0.5611453 0.6023403
0.1343219 0.5690472 0.6046242
0.1365900 0.5911699 0.6125266
0.2972066 0.6278010 0.6269366
0.5243498 0.6748904 0.6375058
0.6966587 0.7133625 0.6504275
0.8007300 0.7410678 0.6671942
0.8663159 0.7695247 0.6810853
0.9027821 0.7905652 0.6993414
0.1516842 0.6651171 0.6589298
0.1555364 0.6785387 0.6640201
0.1615923 0.6996384 0.6683282
0.3417823 0.7357615 0.6763371
0.5659373 0.7716050 0.6902047
0.7161435 0.7983023 0.6986693
0.8124000 0.8198951 0.7088600
0.8722733 0.8368388 0.7235526
0.9073183 0.8488796 0.7331661
0.1727701 0.7385834 0.7096486
0.1750732 0.7466076 0.7112843
0.1805823 0.7658021 0.7147816
0.4158586 0.7977671 0.7280421
0.6022678 0.8258930 0.7307473
0.7345825 0.8486387 0.7389039
0.8282622 0.8657641 0.7462418
0.8796266 0.8793429 0.7625276
0.9120939 0.8891560 0.7717047
0.1878217 0.7910253 0.7553609
0.1900279 0.7987118 0.7566950
0.3432322 0.8181955 0.7598136
0.5016834 0.8422136 0.7649465
0.6584056 0.8660210 0.7734057
0.7609791 0.8837321 0.7808364
0.8411118 0.8978956 0.7900814
0.8896553 0.9066220 0.7963995
0.9159825 0.9124184 0.8026525
0.1101968 0.0872951 0.4407764
0.1268602 0.0879042 0.4428984
0.1803410 0.0947593 0.4527694
0.2936618 0.1067645 0.4742859
0.4460106 0.1193361 0.4918160
0.5937116 0.1379240 0.5248560
0.7061520 0.1854866 0.5652339
0.7859622 0.2577952 0.6067105
0.8405631 0.3535731 0.6500455
0.1108223 0.0873158 0.4408486
0.1284243 0.0879533 0.4430697
0.1839816 0.0952841 0.4551734
0.2927587 0.1114436 0.4818318
0.4566532 0.1345474 0.5086684
0.6085409 0.1676794 0.5452591
0.7146035 0.2209863 0.5819662
0.7949749 0.2964808 0.6235391
0.8502169 0.3892215 0.6628471
0.1080112 0.1189602 0.4942447
0.1273337 0.1245308 0.4993773
0.1917436 0.1410902 0.5145816
0.3100950 0.1702283 0.5345590
0.4796626 0.2092041 0.5675895
0.6294980 0.2557636 0.5926008
0.7427955 0.3168118 0.6246506
0.8163657 0.3956103 0.6594532
0.8663725 0.4772542 0.6941803
0.1260263 0.2506977 0.5757212
0.1274599 0.2547792 0.5807162
0.1710075 0.2777052 0.5988342
0.3246480 0.3099254 0.6159968
0.5130197 0.3639233 0.6425512
0.6697336 0.4217863 0.6632451
0.7697750 0.4775603 0.6857013
0.8427447 0.5378023 0.7070006
0.8832906 0.5919732 0.7287761
0.1509333 0.4353958 0.6625009
0.1517283 0.4414229 0.6652708
0.1547434 0.4653889 0.6757758
0.3204311 0.4984069 0.6877870
0.5287889 0.5506986 0.7093709
0.6885994 0.5952934 0.7206421
0.7955353 0.6294910 0.7353606
0.8601399 0.6662327 0.7499348
0.8978180 0.7088481 0.7664353
0.1669870 0.5730256 0.7184342
0.1680759 0.5882108 0.7222282
0.1705306 0.6086013 0.7307805
0.3342008 0.6455271 0.7458146
0.5560386 0.6899922 0.7575447
0.7110372 0.7272472 0.7702805
0.8067232 0.7534081 0.7810857
0.8705010 0.7791777 0.7909258
0.9054891 0.8004775 0.8023831
0.1808467 0.6838382 0.7667233
0.1815675 0.6926503 0.7692348
0.1835733 0.7123325 0.7762231
0.3853477 0.7471397 0.7889787
0.5882338 0.7807567 0.7961400
0.7317259 0.8060929 0.8048699
0.8178205 0.8257995 0.8101363
0.8759397 0.8410869 0.8183947
0.9095094 0.8528920 0.8300671
0.1915348 0.7512535 0.8039622
0.1921102 0.7594138 0.8059669
0.2299379 0.7778133 0.8153685
0.4563459 0.8087924 0.8209192
0.6200247 0.8362947 0.8265050
0.7494500 0.8589061 0.8356093
0.8316469 0.8741843 0.8419460
0.8829103 0.8838305 0.8477785
0.9140022 0.8940042 0.8548527
0.2014930 0.8044406 0.8386579
0.2425154 0.8118784 0.8402386
0.3716562 0.8285984 0.8432713
0.5282728 0.8504308 0.8484696
0.6673146 0.8713042 0.8543997
0.7755367 0.8894967 0.8577545
0.8457351 0.9019752 0.8651666
0.8892297 0.9102490 0.8701580
0.9156929 0.9173878 0.8764247
0.1488542 0.1197357 0.5538039
0.1677189 0.1211193 0.5586247
0.2262912 0.1243987 0.5700506
0.3404717 0.1303431 0.5907616
0.4889950 0.1358379 0.6099063
0.6246139 0.1409208 0.6276158
0.7244828 0.1858833 0.6631187
0.7975304 0.2686267 0.7031221
0.8487540 0.3622533 0.7426887
0.1504504 0.1197996 0.5540267
0.1705150 0.1212232 0.5589866
0.2302249 0.1245160 0.5704591
0.3404717 0.1303431 0.5907616
0.4899174 0.1367656 0.6131384
0.6311366 0.1681893 0.6447219
0.7334251 0.2218726 0.6787688
0.8066414 0.3079622 0.7188804
0.8565378 0.4007526 0.7553878
0.1484753 0.1319982 0.5965281
0.1735057 0.1336958 0.6024430
0.2372085 0.1386084 0.6163022
0.3516033 0.1674727 0.6377205
0.5126665 0.2107107 0.6641228
0.6571651 0.2655806 0.6938669
0.7549351 0.3320068 0.7210770
0.8266103 0.4106380 0.7532672
0.8738023 0.4915397 0.7811227
0.1539619 0.2582025 0.6730529
0.1557771 0.2683126 0.6793774
0.2299641 0.2885373 0.6909747
0.3693021 0.3302089 0.7119066
0.5428709 0.3765359 0.7353436
0.6889318 0.4385795 0.7568520
0.7849956 0.4952005 0.7777678
0.8508855 0.5544140 0.7991030
0.8893509 0.6087516 0.8131873
0.1763802 0.4490240 0.7511615
0.1773133 0.4556652 0.7544124
0.1802067 0.4782203 0.7644937
0.3680028 0.5196771 0.7800413
0.5614872 0.5612285 0.7972072
0.7052496 0.6038781 0.8082770
0.8030906 0.6368852 0.8214388
0.8657980 0.6760402 0.8312584
0.9009728 0.7165168 0.8450682
0.1913917 0.5939428 0.8034637
0.1922130 0.6015950 0.8063252
0.1947568 0.6274561 0.8151880
0.3890693 0.6600423 0.8253760
0.5895233 0.6961671 0.8375708
0.7283356 0.7291265 0.8456888
0.8179416 0.7615489 0.8570664
0.8749165 0.7811841 0.8604676
0.9078868 0.8076137 0.8699790
0.2016519 0.6980440 0.8392116
0.2028927 0.7104880 0.8435348
0.2065368 0.7289439 0.8500655
0.4290271 0.7597720 0.8610781
0.6081797 0.7898935 0.8680018
0.7375085 0.8130159 0.8727105
0.8280475 0.8330826 0.8800210
0.8791754 0.8472829 0.8863024
0.9114989 0.8586096 0.8884768
0.2101372 0.7643039 0.8687756
0.2112105 0.7754973 0.8725153
0.3163806 0.7925386 0.8766429
0.4971933 0.8174857 0.8829954
0.6535631 0.8440160 0.8907784
0.7631978 0.8626069 0.8943152
0.8369426 0.8764926 0.8968787
0.8856947 0.8885618 0.9025425
0.9140574 0.8954233 0.9065536
0.2637245 0.8180997 0.8932929
0.3313178 0.8255317 0.8959821
0.4388295 0.8393892 0.8988753
0.5658906 0.8581969 0.9022823
0.6850127 0.8780675 0.9062419
0.7824700 0.8941440 0.9113739
0.8493021 0.9043556 0.9124157
0.8915869 0.9137540 0.9174994
0.9178820 0.9194021 0.9218536
0.1977454 0.1479400 0.6520718
0.2192111 0.1495734 0.6577628
0.2832989 0.1524221 0.6676881
0.3946317 0.1574069 0.6850558
0.5323219 0.1620420 0.7012051
0.6518438 0.1682110 0.7216923
0.7394527 0.2004358 0.7374752
0.8083183 0.2813176 0.7681597
0.8584782 0.3850185 0.8053777
0.1977454 0.1479400 0.6520718
0.2228652 0.1497070 0.6582283
0.2832989 0.1524221 0.6676881
0.3946317 0.1574069 0.6850558
0.5323219 0.1620420 0.7012051
0.6589248 0.1681963 0.7219572
0.7515171 0.2372324 0.7516626
0.8167673 0.3247687 0.7859707
0.8653918 0.4258890 0.8171210
0.1982936 0.1539366 0.6729648
0.2269337 0.1557890 0.6794189
0.2872950 0.1592312 0.6914120
0.4052379 0.1730673 0.7124074
0.5525280 0.2239394 0.7379666
0.6769680 0.2768044 0.7640793
0.7715715 0.3508061 0.7904419
0.8381397 0.4241510 0.8164856
0.8802347 0.5062985 0.8389856
0.1748121 0.2788250 0.7456980
0.2021614 0.2903546 0.7520850
0.2893128 0.3110840 0.7628983
0.4210628 0.3446369 0.7817187
0.5849018 0.4026345 0.8040265
0.7061203 0.4527194 0.8199406
0.7998542 0.5098299 0.8388341
0.8559908 0.5607431 0.8521332
0.8936446 0.6150863 0.8683547
0.1946343 0.4724523 0.8147614
0.1955232 0.4789206 0.8178582
0.2589923 0.5017971 0.8268808
0.4298038 0.5333079 0.8395430
0.6015260 0.5789693 0.8529699
0.7289038 0.6126289 0.8644460
0.8151951 0.6526780 0.8740031
0.8700694 0.6826894 0.8837153
0.9044830 0.7234463 0.8929365
0.2070291 0.6118219 0.8579464
0.2085789 0.6279561 0.8633464
0.2632317 0.6444956 0.8690295
0.4570547 0.6775416 0.8787730
0.6210098 0.7068641 0.8863991
0.7428142 0.7390385 0.8936307
0.8284798 0.7686138 0.9026545
0.8785628 0.7882795 0.9059365
0.9105975 0.8071334 0.9127466
0.2160073 0.7166151 0.8892277
0.2165602 0.7229188 0.8911542
0.3096418 0.7451056 0.8976205
0.4865726 0.7685885 0.9043624
0.6398976 0.7952216 0.9103863
0.7597581 0.8200497 0.9149755
0.8379055 0.8351136 0.9206036
0.8859091 0.8488162 0.9229584
0.9139976 0.8635511 0.9282092
0.2221231 0.7813690 0.9105361
0.2720429 0.7894508 0.9125161
0.4056808 0.8055406 0.9164198
0.5503360 0.8294471 0.9218857
0.6721029 0.8499273 0.9261270
0.7786896 0.8664148 0.9308619
0.8462901 0.8815507 0.9333093
0.8895224 0.8904768 0.9349272
0.9158619 0.8988910 0.9381797
0.3672058 0.8311954 0.9261409
0.4064796 0.8362730 0.9272750
0.4990572 0.8491364 0.9299731
0.6011299 0.8662130 0.9335986
0.7140033 0.8831174 0.9382001
0.7952364 0.8971847 0.9406396
0.8542568 0.9076217 0.9424224
0.8948984 0.9148239 0.9448935
0.9200638 0.9202324 0.9459546
0.2498078 0.1705071 0.7306986
0.2758613 0.1713726 0.7337142
0.3424389 0.1744421 0.7444090
0.4503496 0.1789205 0.7600123
0.5851629 0.1983724 0.7760528
0.6913455 0.2244622 0.7889686
0.7688962 0.2634513 0.8027764
0.8230088 0.3093777 0.8211002
0.8688086 0.4113503 0.8491642
0.2542073 0.1706580 0.7312244
0.2807183 0.1715267 0.7342511
0.3424389 0.1744421 0.7444090
0.4503496 0.1789205 0.7600123
0.5851629 0.1983724 0.7760528
0.6913455 0.2244622 0.7889686
0.7702242 0.2709822 0.8054492
0.8293865 0.3460393 0.8317179
0.8735386 0.4411765 0.8577937
0.2596331 0.1716520 0.7346877
0.2866458 0.1732060 0.7401021
0.3481220 0.1763864 0.7511830
0.4619576 0.1962149 0.7703295
0.5908464 0.2457720 0.7923919
0.7033711 0.3045647 0.8140481
0.7881731 0.3747225 0.8357689
0.8465326 0.4507577 0.8592060
0.8855551 0.5236765 0.8777440
0.2384604 0.3035413 0.7991521
0.2736455 0.3183898 0.8056768
0.3552599 0.3395794 0.8154867
0.4812448 0.3740467 0.8299279
0.6217281 0.4199744 0.8453500
0.7292627 0.4688289 0.8607801
0.8119707 0.5251424 0.8771985
0.8650584 0.5752175 0.8893254
0.8974559 0.6285180 0.9012938
0.2069593 0.4996221 0.8577034
0.2427392 0.5054666 0.8603449
0.3426302 0.5247394 0.8686690
0.4972406 0.5549139 0.8790810
0.6413372 0.5896975 0.8894984
0.7508438 0.6272945 0.9004540
0.8258431 0.6598154 0.9072427
0.8788504 0.6964839 0.9146227
0.9072193 0.7319157 0.9221743
0.2178466 0.6402888 0.8956361
0.2183800 0.6455333 0.8974949
0.3571708 0.6617564 0.9029016
0.5187021 0.6922134 0.9111905
0.6500506 0.7242606 0.9187241
0.7643214 0.7530330 0.9247292
0.8396087 0.7771363 0.9304724
0.8853855 0.7939607 0.9330761
0.9126655 0.8130149 0.9368301
0.2268033 0.7354746 0.9172720
0.2877702 0.7417375 0.9190913
0.4136467 0.7618429 0.9244631
0.5501072 0.7812436 0.9308208
0.6798398 0.8045425 0.9357769
0.7750543 0.8255460 0.9400454
0.8434080 0.8392022 0.9418607
0.8897857 0.8526029 0.9460924
0.9158193 0.8640494 0.9477506
0.3284583 0.7987221 0.9338673
0.3850209 0.8057657 0.9356173
0.4796639 0.8187172 0.9386333
0.5968933 0.8366402 0.9422866
0.7000652 0.8543963 0.9474351
0.7912597 0.8709971 0.9503428
0.8550420 0.8830936 0.9523421
0.8952524 0.8937602 0.9554214
0.9181356 0.8995096 0.9564742
0.4537012 0.8446078 0.9464714
0.4825893 0.8486761 0.9473455
0.5504358 0.8590335 0.9494044
0.6460240 0.8732700 0.9525306
0.7380436 0.8890857 0.9564261
0.8070937 0.8992296 0.9578596
0.8624761 0.9091121 0.9595060
0.9002396 0.9158899 0.9620304
0.9217144 0.9224111 0.9630636
