data/spectral_luts/fuji_superia_reala_ca_pro_pdii.cube
TITLE "fuji_superia_reala_ca_pro_pdii"
LUT_3D_SIZE 33
0.0269105 0.0581586 0.0955902
0.0278345 0.0582984 0.0956374
0.0290896 0.0584856 0.0957000
0.0305729 0.0587154 0.0957744
0.0326955 0.0590910 0.0959434
0.0357492 0.0596449 0.0962162
0.0410912 0.0605458 0.0966422
0.0489395 0.0618822 0.0972443
0.0577980 0.0634096 0.0979365
0.0703646 0.0654635 0.0987486
0.0867169 0.0680902 0.0997690
0.1100164 0.0716271 0.1009730
0.1462655 0.0766949 0.1023477
0.1732758 0.0805441 0.1037270
0.2286841 0.0868566 0.1045693
0.2826949 0.0917345 0.1045190
0.3467209 0.0958404 0.1035550
0.3829313 0.0980306 0.1034594
0.4245273 0.0999199 0.1029108
0.4612443 0.1009010 0.1023290
0.4944791 0.1027086 0.1027086
0.5235277 0.1110460 0.1110460
0.5447150 0.1171270 0.1171270
0.5682491 0.1238817 0.1238817
0.5874361 0.1293886 0.1293886
0.6045183 0.1342915 0.1342915
0.6228246 0.1395456 0.1395456
0.6404648 0.1446086 0.1446086
0.6534594 0.1483383 0.1483383
0.6692379 0.1528669 0.1528669
0.6816247 0.1564221 0.1564221
0.6926482 0.1595861 0.1595861
0.7080868 0.1640171 0.1640171
0.0266443 0.0588591 0.0959491
0.0277746 0.0590066 0.0960018
0.0290330 0.0591942 0.0960642
0.0305034 0.0593623 0.0961256
0.0327006 0.0596624 0.0962807
0.0358956 0.0600575 0.0964120
0.0410408 0.0607094 0.0967329
0.0489395 0.0618822 0.0972443
0.0577980 0.0634096 0.0979365
0.0703560 0.0655016 0.0988206
0.0867169 0.0680902 0.0997690
0.1100152 0.0716745 0.1010560
0.1462781 0.0767948 0.1024479
0.1732758 0.0805441 0.1037270
0.2286841 0.0868566 0.1045693
0.2906826 0.0922095 0.1042576
0.3467991 0.0960631 0.1038660
0.3829313 0.0980306 0.1034594
0.4245273 0.0999199 0.1029108
0.4612443 0.1009010 0.1023290
0.4944791 0.1027086 0.1027086
0.5235277 0.1110460 0.1110460
0.5447150 0.1171270 0.1171270
0.5682491 0.1238817 0.1238817
0.5874361 0.1293886 0.1293886
0.6045183 0.1342915 0.1342915
0.6228246 0.1395456 0.1395456
0.6404648 0.1446086 0.1446086
0.6534594 0.1483383 0.1483383
0.6692379 0.1528669 0.1528669
0.6816247 0.1564221 0.1564221
0.6926482 0.1595861 0.1595861
0.7080868 0.1640171 0.1640171
0.0265346 0.0598916 0.0963270
0.0276630 0.0600263 0.0963766
0.0288117 0.0601976 0.0964331
0.0303847 0.0604021 0.0965624
0.0324458 0.0607072 0.0967188
0.0358159 0.0611479 0.0969205
0.0412999 0.0618267 0.0972523
0.0495220 0.0629169 0.0977494
0.0587589 0.0640911 0.0981993
0.0703424 0.0656864 0.0988545
0.0867169 0.0680902 0.0997690
0.1100152 0.0716745 0.1010560
0.1462781 0.0767948 0.1024479
0.1732758 0.0805441 0.1037270
0.2286841 0.0868566 0.1045693
0.2906826 0.0922095 0.1042576
0.3467991 0.0960631 0.1038660
0.3888993 0.0980818 0.1031115
0.4245273 0.0999199 0.1029108
0.4612443 0.1009010 0.1023290
0.4944791 0.1027086 0.1027086
0.5235277 0.1110460 0.1110460
0.5447150 0.1171270 0.1171270
0.5682491 0.1238817 0.1238817
0.5874361 0.1293886 0.1293886
0.6045183 0.1342915 0.1342915
0.6228246 0.1395456 0.1395456
0.6404648 0.1446086 0.1446086
0.6534594 0.1483383 0.1483383
0.6692379 0.1528669 0.1528669
0.6816247 0.1564221 0.1564221
0.6926482 0.1595861 0.1595861
0.7091698 0.1643280 0.1643280
0.0262852 0.0614406 0.0969290
0.0274847 0.0616220 0.0969886
0.0285226 0.0617767 0.0970390
0.0300731 0.0620143 0.0971738
0.0322806 0.0622273 0.0972540
0.0357233 0.0627242 0.0975259
0.0412540 0.0633203 0.0978443
0.0497201 0.0644779 0.0983665
0.0595890 0.0657460 0.0989052
0.0722065 0.0674278 0.0995823
0.0886985 0.0696672 0.1004961
0.1100709 0.0725700 0.1014505
0.1463402 0.0771813 0.1025941
0.1732758 0.0805441 0.1037270
0.2286841 0.0868566 0.1045693
0.2907364 0.0923833 0.1045311
0.3467991 0.0960631 0.1038660
0.3888993 0.0980818 0.1031115
0.4245273 0.0999199 0.1029108
0.4612443 0.1009010 0.1023290
0.4944791 0.1027086 0.1027086
0.5235277 0.1110460 0.1110460
0.5496354 0.1185393 0.1185393
0.5682491 0.1238817 0.1238817
0.5874361 0.1293886 0.1293886
0.6045183 0.1342915 0.1342915
0.6228246 0.1395456 0.1395456
0.6404648 0.1446086 0.1446086
0.6534594 0.1483383 0.1483383
0.6692379 0.1528669 0.1528669
0.6816247 0.1564221 0.1564221
0.6926482 0.1595861 0.1595861
0.7091698 0.1643280 0.1643280
0.0256841 0.0642446 0.0978390
0.0269306 0.0642731 0.0978681
0.0279128 0.0644198 0.0979148
0.0294766 0.0646610 0.0980536
0.0317979 0.0649255 0.0982080
0.0355735 0.0654594 0.0984335
0.0417478 0.0661352 0.0987752
0.0499412 0.0671786 0.0992651
0.0591535 0.0683192 0.0998596
0.0719559 0.0700552 0.1005675
0.0886571 0.0722840 0.1014164
0.1143807 0.0758745 0.1026523
0.1489174 0.0801922 0.1038643
0.1807391 0.0838618 0.1047893
0.2324859 0.0888613 0.1051838
0.2909826 0.0931087 0.1047412
0.3467991 0.0960631 0.1038660
0.3889968 0.0983463 0.1034584
0.4245273 0.0999199 0.1029108
0.4612443 0.1009010 0.1023290
0.4944791 0.1027086 0.1027086
0.5235277 0.1110460 0.1110460
0.5496354 0.1185393 0.1185393
0.5682491 0.1238817 0.1238817
0.5874361 0.1293886 0.1293886
0.6045183 0.1342915 0.1342915
0.6228246 0.1395456 0.1395456
0.6404648 0.1446086 0.1446086
0.6534594 0.1483383 0.1483383
0.6692379 0.1528669 0.1528669
0.6816247 0.1564221 0.1564221
0.6959482 0.1605332 0.1605332
0.7091698 0.1643280 0.1643280
0.0249804 0.0676677 0.0988776
0.0259330 0.0678243 0.0989894
0.0270785 0.0679960 0.0990425
0.0286841 0.0682444 0.0991817
0.0311762 0.0686286 0.0994364
0.0348877 0.0691565 0.0996629
0.0416901 0.0699650 0.1000462
0.0499224 0.0708593 0.1004500
0.0592208 0.0721763 0.1010739
0.0731117 0.0740642 0.1019116
0.0915230 0.0765212 0.1029802
0.1146211 0.0797900 0.1041060
0.1553540 0.0848764 0.1053830
0.1816388 0.0881155 0.1063609
0.2455868 0.0944149 0.1065994
0.2956917 0.0978875 0.1062023
0.3509629 0.1003889 0.1048717
0.3900141 0.1010412 0.1043357
0.4271595 0.1008702 0.1030087
0.4612443 0.1009010 0.1023290
0.4944791 0.1027086 0.1027086
0.5235277 0.1110460 0.1110460
0.5498710 0.1186069 0.1186069
0.5682491 0.1238817 0.1238817
0.5874361 0.1293886 0.1293886
0.6045183 0.1342915 0.1342915
0.6228246 0.1395456 0.1395456
0.6404648 0.1446086 0.1446086
0.6534594 0.1483383 0.1483383
0.6692379 0.1528669 0.1528669
0.6816247 0.1564221 0.1564221
0.6959482 0.1605332 0.1605332
0.7091698 0.1643280 0.1643280
0.0233096 0.0732256 0.1005353
0.0242697 0.0733723 0.1005789
0.0253439 0.0735486 0.1007021
0.0270255 0.0738122 0.1008505
0.0298278 0.0740571 0.1010105
0.0338483 0.0746313 0.1012458
0.0412105 0.0751308 0.1015835
0.0501136 0.0763548 0.1021353
0.0605597 0.0778402 0.1028096
0.0740517 0.0798164 0.1037523
0.0936637 0.0821686 0.1046350
0.1185754 0.0857785 0.1060021
0.1620843 0.0916505 0.1073498
0.1902836 0.0946331 0.1080406
0.2473844 0.1007045 0.1085377
0.3108988 0.1051540 0.1075486
0.3627426 0.1078677 0.1064805
0.3947456 0.1083208 0.1060264
0.4391255 0.1081135 0.1043942
0.4728746 0.1077555 0.1037720
0.5041679 0.1060092 0.1054894
0.5242173 0.1112439 0.1112439
0.5498710 0.1186069 0.1186069
0.5682491 0.1238817 0.1238817
0.5874361 0.1293886 0.1293886
0.6045183 0.1342915 0.1342915
0.6228246 0.1395456 0.1395456
0.6404648 0.1446086 0.1446086
0.6534594 0.1483383 0.1483383
0.6692379 0.1528669 0.1528669
0.6816247 0.1564221 0.1564221
0.6959482 0.1605332 0.1605332
0.7091698 0.1643280 0.1643280
0.0209775 0.0798150 0.1023176
0.0219588 0.0799829 0.1024436
0.0230923 0.0801552 0.1024917
0.0249940 0.0804561 0.1026537
0.0278517 0.0809050 0.1029341
0.0323469 0.0813398 0.1032289
0.0400451 0.0817107 0.1035511
0.0498527 0.0830671 0.1042252
0.0599617 0.0844965 0.1048078
0.0749645 0.0867076 0.1058104
0.0957874 0.0898057 0.1070128
0.1228895 0.0931321 0.1082494
0.1631402 0.0987022 0.1093867
0.1944243 0.1027540 0.1103240
0.2621667 0.1101328 0.1103192
0.3171137 0.1140506 0.1096749
0.3683183 0.1171311 0.1084988
0.4070932 0.1178962 0.1076947
0.4453375 0.1183775 0.1065448
0.4787881 0.1175702 0.1058032
0.5103782 0.1170245 0.1072719
0.5302264 0.1155515 0.1129686
0.5550833 0.1201029 0.1201029
0.5723527 0.1250595 0.1250595
0.5884165 0.1296700 0.1296700
0.6045183 0.1342915 0.1342915
0.6228246 0.1395456 0.1395456
0.6404648 0.1446086 0.1446086
0.6571792 0.1494059 0.1494059
0.6692379 0.1528669 0.1528669
0.6816247 0.1564221 0.1564221
0.6959482 0.1605332 0.1605332
0.7091698 0.1643280 0.1643280
0.0174991 0.0882715 0.1046676
0.0185346 0.0884521 0.1048013
0.0198247 0.0886697 0.1049444
0.0220091 0.0890376 0.1052124
0.0252101 0.0892289 0.1053727
0.0307230 0.0900615 0.1058536
0.0384290 0.0911152 0.1062877
0.0486715 0.0924967 0.1068751
0.0602700 0.0941715 0.1077089
0.0773263 0.0966665 0.1085734
0.0981212 0.0989217 0.1095620
0.1274050 0.1032971 0.1107276
0.1705822 0.1094814 0.1119826
0.2043431 0.1140107 0.1129164
0.2648483 0.1199913 0.1125844
0.3310801 0.1260267 0.1117743
0.3723761 0.1288923 0.1108926
0.4142593 0.1310714 0.1098432
0.4500686 0.1311669 0.1093798
0.4841236 0.1317841 0.1085669
0.5174801 0.1304799 0.1093102
0.5427887 0.1301445 0.1165741
0.5621183 0.1282357 0.1221220
0.5792569 0.1272334 0.1270411
0.5996312 0.1328888 0.1328888
0.6153815 0.1374094 0.1374094
0.6259940 0.1404553 0.1404553
0.6414378 0.1448879 0.1448879
0.6571792 0.1494059 0.1494059
0.6692379 0.1528669 0.1528669
0.6816247 0.1564221 0.1564221
0.6966888 0.1607457 0.1607457
0.7091698 0.1643280 0.1643280
0.0111096 0.1009731 0.1079577
0.0123815 0.1011742 0.1080049
0.0137779 0.1014391 0.1082577
0.0158529 0.1017816 0.1084382
0.0198212 0.1024449 0.1088942
0.0266123 0.1016342 0.1089383
0.0353327 0.1028830 0.1096149
0.0464857 0.1043628 0.1102395
0.0599422 0.1062379 0.1109237
0.0770973 0.1087899 0.1119116
0.0999648 0.1122886 0.1129994
0.1324565 0.1172912 0.1142058
0.1769058 0.1238903 0.1151755
0.2158672 0.1274527 0.1156977
0.2778188 0.1349393 0.1153037
0.3355978 0.1407545 0.1144363
0.3846274 0.1447078 0.1131487
0.4191023 0.1449966 0.1124815
0.4650916 0.1471491 0.1109652
0.4989995 0.1482594 0.1104214
0.5242749 0.1488016 0.1112604
0.5506917 0.1468862 0.1188424
0.5706529 0.1468484 0.1245716
0.5917856 0.1443366 0.1306370
0.6081815 0.1440063 0.1353429
0.6232383 0.1414404 0.1396644
0.6398480 0.1444316 0.1444316
0.6498011 0.1472883 0.1472883
0.6650637 0.1516689 0.1516689
0.6740919 0.1542601 0.1542601
0.6862897 0.1577611 0.1577611
0.6966888 0.1607457 0.1607457
0.7091698 0.1643280 0.1643280
0.0080764 0.1149529 0.1116647
0.0081051 0.1152049 0.1118317
0.0081364 0.1154786 0.1118883
0.0085718 0.1159316 0.1122104
0.0134821 0.1166960 0.1124776
0.0195319 0.1176489 0.1130147
0.0290386 0.1190147 0.1136440
0.0431015 0.1195315 0.1142943
0.0580205 0.1215538 0.1149992
0.0782036 0.1244879 0.1158109
0.1050808 0.1262809 0.1165225
0.1393342 0.1316405 0.1174224
0.1795930 0.1378112 0.1180311
0.2287056 0.1449586 0.1186024
0.2898185 0.1528716 0.1182927
0.3495423 0.1593968 0.1168258
0.3997733 0.1640324 0.1156156
0.4333170 0.1654531 0.1151359
0.4723096 0.1679787 0.1141704
0.5066215 0.1697239 0.1130856
0.5400785 0.1710524 0.1157963
0.5589510 0.1695909 0.1212130
0.5840003 0.1701472 0.1284025
0.6029320 0.1705571 0.1338362
0.6186217 0.1684458 0.1383393
0.6345820 0.1685036 0.1429202
0.6491182 0.1662425 0.1470923
0.6611606 0.1663723 0.1505486
0.6765060 0.1662542 0.1549530
0.6856467 0.1646638 0.1575765
0.6982402 0.1637348 0.1611910
0.7067241 0.1636260 0.1636260
0.7157462 0.1662155 0.1662155
0.0115665 0.1423888 0.1170293
0.0116032 0.1426496 0.1170714
0.0116736 0.1431488 0.1174264
0.0116098 0.1426964 0.1175445
0.0117290 0.1435396 0.1176733
0.0119119 0.1448238 0.1184314
0.0128793 0.1462372 0.1187684
0.0313537 0.1454182 0.1191652
0.0507050 0.1478223 0.1199056
0.0766571 0.1514403 0.1207084
0.1040201 0.1557009 0.1216122
0.1457299 0.1624664 0.1222551
0.1826907 0.1686095 0.1229457
0.2440979 0.1782999 0.1227831
0.3052623 0.1871296 0.1217669
0.3695236 0.1953059 0.1197068
0.4091622 0.1962049 0.1189119
0.4544751 0.2006891 0.1173131
0.4907371 0.2039170 0.1164632
0.5285613 0.2081480 0.1150655
0.5533267 0.2099247 0.1195987
0.5788507 0.2074243 0.1269245
0.5990929 0.2086352 0.1327343
0.6166596 0.2095811 0.1377762
0.6334916 0.2105495 0.1426072
0.6482068 0.2069058 0.1468307
0.6651472 0.2076221 0.1516929
0.6811930 0.2081890 0.1562982
0.6917363 0.2057468 0.1593243
0.7051292 0.2061891 0.1631683
0.7130113 0.2021416 0.1654305
0.7222824 0.2027166 0.1680915
0.7322295 0.2029401 0.1709464
0.0170191 0.1768527 0.1224776
0.0170990 0.1773061 0.1225270
0.0171872 0.1778045 0.1229020
0.0173350 0.1786364 0.1229879
0.0175197 0.1796706 0.1234139
0.0177652 0.1810348 0.1237022
0.0181107 0.1829367 0.1241996
0.0175341 0.1797508 0.1245274
0.0349394 0.1831294 0.1249230
0.0678292 0.1871580 0.1256448
0.1037792 0.1925804 0.1264923
0.1582336 0.2016782 0.1267878
0.1838226 0.2062433 0.1272831
0.2593120 0.2191691 0.1264057
0.3244157 0.2295150 0.1242241
0.3790002 0.2376350 0.1225685
0.4276069 0.2442336 0.1204882
0.4660291 0.2423608 0.1192842
0.5032048 0.2466505 0.1183395
0.5414652 0.2506279 0.1168386
0.5723352 0.2536203 0.1250544
0.5950125 0.2582197 0.1315631
0.6157097 0.2602186 0.1375036
0.6360502 0.2546606 0.1433416
0.6529376 0.2560938 0.1481885
0.6664408 0.2573899 0.1520641
0.6835749 0.2587421 0.1569819
0.6973503 0.2522895 0.1609356
0.7086322 0.2556911 0.1641737
0.7234435 0.2568284 0.1684247
0.7305050 0.2501062 0.1704515
0.7399120 0.2511618 0.1731514
0.7499612 0.2518687 0.1760357
0.0241240 0.2131285 0.1271918
0.0242240 0.2135908 0.1274094
0.0243610 0.2142228 0.1274461
0.0245554 0.2151159 0.1274944
0.0248650 0.2165296 0.1279533
0.0252130 0.2181067 0.1284454
0.0256630 0.2201274 0.1287298
0.0259358 0.2213420 0.1291673
0.0267973 0.2251303 0.1298594
0.0480873 0.2302300 0.1302405
0.1000735 0.2371554 0.1306762
0.1679447 0.2486576 0.1305900
0.1991351 0.2544224 0.1305233
0.2729917 0.2679619 0.1287081
0.3414847 0.2736320 0.1258351
0.3961755 0.2846986 0.1229678
0.4443308 0.2922528 0.1209024
0.4867079 0.2984530 0.1185766
0.5248301 0.3038042 0.1169397
0.5633509 0.3088742 0.1224758
0.5884954 0.3122444 0.1296927
0.6145141 0.3083415 0.1371604
0.6360229 0.3133308 0.1433337
0.6556140 0.3157052 0.1489567
0.6728635 0.3179138 0.1539075
0.6895078 0.3199344 0.1586847
0.7045951 0.3141018 0.1630150
0.7170396 0.3157811 0.1665867
0.7327859 0.3177628 0.1711061
0.7436311 0.3218401 0.1742189
0.7508752 0.3147123 0.1762980
0.7616354 0.3163952 0.1793864
0.7741502 0.3181891 0.1829783
0.0319743 0.2465246 0.1310240
0.0321164 0.2470821 0.1310345
0.0323189 0.2478742 0.1315314
0.0326178 0.2490382 0.1315469
0.0329921 0.2504873 0.1320474
0.0335020 0.2524457 0.1322975
0.0341510 0.2549134 0.1322793
0.0349963 0.2580870 0.1327192
0.0363579 0.2631060 0.1335725
0.0378195 0.2683732 0.1335461
0.0996857 0.2774759 0.1338610
0.1662274 0.2884770 0.1328834
0.2050239 0.2958629 0.1327288
0.2894503 0.3119489 0.1294032
0.3577383 0.3180395 0.1264550
0.4106555 0.3274400 0.1234090
0.4588245 0.3355021 0.1197724
0.5031791 0.3426113 0.1164064
0.5444988 0.3490726 0.1170650
0.5736756 0.3536653 0.1254392
0.6058451 0.3606892 0.1346723
0.6285169 0.3640915 0.1411794
0.6498221 0.3672709 0.1472943
0.6678742 0.3625099 0.1524755
0.6854132 0.3650904 0.1575095
0.7030280 0.3703606 0.1625652
0.7206548 0.3726587 0.1676244
0.7333338 0.3749032 0.1712634
0.7472358 0.3693941 0.1752535
0.7586699 0.3712114 0.1785352
0.7685868 0.3732516 0.1813815
0.7817032 0.3750629 0.1851461
0.7906103 0.3721034 0.1877026
0.0416538 0.2817556 0.1350113
0.0418851 0.2825613 0.1349953
0.0421359 0.2834351 0.1349750
0.0424949 0.2846861 0.1352205
0.0428765 0.2860155 0.1351786
0.0436237 0.2886188 0.1356438
0.0430594 0.2866528 0.1361662
0.0441369 0.2904069 0.1359644
0.0454573 0.2950073 0.1358479
0.0473044 0.3014429 0.1365282
0.1087649 0.3121730 0.1357575
0.1607741 0.3207448 0.1348998
0.2262364 0.3331931 0.1334724
0.3109912 0.3498591 0.1292048
0.3734372 0.3619018 0.1246598
0.4238229 0.3714753 0.1212535
0.4737221 0.3805729 0.1173250
0.5109805 0.3891264 0.1141403
0.5534101 0.3963142 0.1196226
0.5901264 0.4026211 0.1301608
0.6142668 0.4003963 0.1370894
0.6428401 0.4050257 0.1452904
0.6645464 0.4109433 0.1515204
0.6846879 0.4140638 0.1573013
0.7023976 0.4171034 0.1623843
0.7209696 0.4203676 0.1677147
0.7342675 0.4227323 0.1715314
0.7500447 0.4208165 0.1760597
0.7620651 0.4230334 0.1795097
0.7761273 0.4256728 0.1835458
0.7860427 0.4276899 0.1863917
0.7957466 0.4300751 0.1891768
0.8041999 0.4243489 0.1916030
0.0496712 0.3096894 0.1380343
0.0499643 0.3107104 0.1379834
0.0501718 0.3114335 0.1379451
0.0506446 0.3130808 0.1385022
0.0511067 0.3146907 0.1384036
0.0519200 0.3175244 0.1388690
0.0528461 0.3207512 0.1386147
0.0543231 0.3258972 0.1388750
0.0559253 0.3314793 0.1390041
0.0577026 0.3376718 0.1388164
0.1159907 0.3473009 0.1371576
0.1628285 0.3552560 0.1370715
0.2403191 0.3698897 0.1338810
0.3203907 0.3859729 0.1287326
0.3856360 0.3992286 0.1242892
0.4354365 0.4091564 0.1206649
0.4779370 0.4171995 0.1161800
0.5241861 0.4259306 0.1124342
0.5667659 0.4336071 0.1234560
0.6035004 0.4400427 0.1339993
0.6304301 0.4447389 0.1417285
0.6514077 0.4488496 0.1477494
0.6734375 0.4547536 0.1540723
0.6925744 0.4520575 0.1595649
0.7105260 0.4553091 0.1647172
0.7293353 0.4588427 0.1701158
0.7472360 0.4620854 0.1752535
0.7604277 0.4672604 0.1790397
0.7726080 0.4696207 0.1825357
0.7868491 0.4728393 0.1866231
0.7953542 0.4683432 0.1890642
0.8062980 0.4704812 0.1922052
0.8172232 0.4757023 0.1953409
0.0573398 0.3364077 0.1418973
0.0575857 0.3372647 0.1418336
0.0567449 0.3343351 0.1415677
0.0571577 0.3357733 0.1414551
0.0577172 0.3377227 0.1420702
0.0586506 0.3409748 0.1417739
0.0599339 0.3454461 0.1421466
0.0613766 0.3504727 0.1424010
0.0631516 0.3566570 0.1415407
0.0661415 0.3670740 0.1406469
0.1253442 0.3791401 0.1389403
0.1802446 0.3883836 0.1374475
0.2637632 0.4048455 0.1341380
0.3294733 0.4183708 0.1294888
0.4098016 0.4347590 0.1216154
0.4562607 0.4443299 0.1179644
0.5022334 0.4536702 0.1146676
0.5363234 0.4601650 0.1147185
0.5792550 0.4683032 0.1270405
0.6086413 0.4738837 0.1354748
0.6418630 0.4797980 0.1450099
0.6650684 0.4859376 0.1516702
0.6838139 0.4843351 0.1570505
0.7043107 0.4881224 0.1629333
0.7222965 0.4920104 0.1680955
0.7367975 0.4969535 0.1722575
0.7549297 0.5003419 0.1774617
0.7677551 0.5036271 0.1811428
0.7841250 0.5069697 0.1858412
0.7944437 0.5094832 0.1888028
0.8049940 0.5084404 0.1918310
0.8147891 0.5110764 0.1946423
0.8252770 0.5138025 0.1976524
0.0636695 0.3584613 0.1451586
0.0639678 0.3595006 0.1450596
0.0643316 0.3607683 0.1449339
0.0647388 0.3621869 0.1457169
0.0655575 0.3650393 0.1454091
0.0665291 0.3684247 0.1450072
0.0677090 0.3725356 0.1454283
0.0694567 0.3786246 0.1455159
0.0712784 0.3849720 0.1443442
0.0745933 0.3965213 0.1430024
0.1122198 0.4051231 0.1419573
0.2035340 0.4202109 0.1386628
0.2882612 0.4371157 0.1334144
0.3543139 0.4528635 0.1297161
0.4194818 0.4664938 0.1230660
0.4652148 0.4744813 0.1184312
0.5132080 0.4859133 0.1136612
0.5469971 0.4880798 0.1177820
0.5905130 0.4966230 0.1302717
0.6190369 0.5019715 0.1384585
0.6457825 0.5073651 0.1461349
0.6745988 0.5128880 0.1544056
0.6943688 0.5164756 0.1600799
0.7099311 0.5218716 0.1645465
0.7281476 0.5257763 0.1697749
0.7472399 0.5295585 0.1752547
0.7607482 0.5327387 0.1791317
0.7779950 0.5369106 0.1840818
0.7895525 0.5361353 0.1873990
0.7999433 0.5388266 0.1903813
0.8152081 0.5424044 0.1947625
0.8248273 0.5458377 0.1975234
0.8350812 0.5485548 0.2004664
0.0696180 0.3791867 0.1493500
0.0699743 0.3804283 0.1492110
0.0702512 0.3813930 0.1501748
0.0709498 0.3838271 0.1498883
0.0717355 0.3865646 0.1495426
0.0729704 0.3908671 0.1500581
0.0743670 0.3957330 0.1493259
0.0761017 0.4017771 0.1494507
0.0785729 0.4103868 0.1476579
0.0832172 0.4236468 0.1456978
0.1311067 0.4300027 0.1453052
0.2317777 0.4475518 0.1409092
0.3120346 0.4640004 0.1354192
0.3839500 0.4794356 0.1296577
0.4282961 0.4889208 0.1254111
0.4736379 0.4984709 0.1204519
0.5231864 0.5104432 0.1156137
0.5576018 0.5174140 0.1208257
0.6008121 0.5258388 0.1332277
0.6286075 0.5318567 0.1412054
0.6554852 0.5370119 0.1489197
0.6778965 0.5370294 0.1553521
0.6980135 0.5430577 0.1611260
0.7187409 0.5469260 0.1670750
0.7368649 0.5509966 0.1722769
0.7511313 0.5546919 0.1763715
0.7692039 0.5587318 0.1815587
0.7821593 0.5619488 0.1852770
0.7987403 0.5674553 0.1900360
0.8091776 0.5702139 0.1930317
0.8205908 0.5734566 0.1963074
0.8305746 0.5716820 0.1991729
0.8410078 0.5773066 0.2021674
0.0753095 0.3990166 0.1543797
0.0756136 0.4000763 0.1542474
0.0765067 0.4031879 0.1551487
0.0767767 0.4041287 0.1549704
0.0777136 0.4073929 0.1545105
0.0788004 0.4111797 0.1539328
0.0804180 0.4168155 0.1542985
0.0824594 0.4239282 0.1529693
0.0862262 0.4370520 0.1514253
0.0882258 0.4440188 0.1511386
0.1559940 0.4553089 0.1477872
0.2626496 0.4749607 0.1421647
0.3204514 0.4871389 0.1383638
0.3929840 0.5028851 0.1325434
0.4466522 0.5144328 0.1269155
0.4832437 0.5223528 0.1234395
0.5330577 0.5327570 0.1170820
0.5673194 0.5404706 0.1236148
0.6098177 0.5489733 0.1358125
0.6393362 0.5548871 0.1442847
0.6638273 0.5604452 0.1513140
0.6869722 0.5665224 0.1579569
0.7060694 0.5662299 0.1634381
0.7267088 0.5702261 0.1693619
0.7399400 0.5736591 0.1731595
0.7591901 0.5796360 0.1786845
0.7728345 0.5828580 0.1826007
0.7913977 0.5872820 0.1879286
0.8022361 0.5905237 0.1910394
0.8139859 0.5940352 0.1944118
0.8244584 0.5986595 0.1974175
0.8354219 0.6021631 0.2005642
0.8456395 0.6056326 0.2034968
0.0814364 0.4203637 0.1601647
0.0817096 0.4213157 0.1600322
0.0819945 0.4223083 0.1598910
0.0827137 0.4248141 0.1595208
0.0839947 0.4292774 0.1602760
0.0852057 0.4334965 0.1595652
0.0868531 0.4392362 0.1584216
0.0894068 0.4481339 0.1580830
0.0923386 0.4583486 0.1555845
0.0945414 0.4660234 0.1552099
0.1949604 0.4810893 0.1523083
0.2868164 0.4985362 0.1452445
0.3465104 0.5115784 0.1421849
0.4131298 0.5260523 0.1361076
0.4537738 0.5350055 0.1325855
0.5026585 0.5455707 0.1274331
0.5422784 0.5540555 0.1232700
0.5877004 0.5637161 0.1294645
0.6186708 0.5718502 0.1383534
0.6469927 0.5738969 0.1464822
0.6712390 0.5788503 0.1534413
0.6938568 0.5841834 0.1599329
0.7136407 0.5881897 0.1656112
0.7291450 0.5916629 0.1700612
0.7475874 0.5971960 0.1753544
0.7619308 0.6004375 0.1794712
0.7815409 0.6049630 0.1850996
0.7943065 0.6086368 0.1887635
0.8051713 0.6121745 0.1918818
0.8210838 0.6178596 0.1964490
0.8312469 0.6210174 0.1993659
0.8421464 0.6247081 0.2024942
0.8516051 0.6254545 0.2061179
0.0869313 0.4395087 0.1675321
0.0872631 0.4406648 0.1673628
0.0881476 0.4437466 0.1668915
0.0889617 0.4465830 0.1664319
0.0898236 0.4495859 0.1659177
0.0906607 0.4525025 0.1669639
0.0931732 0.4612566 0.1652056
0.0954388 0.4691502 0.1633864
0.0969954 0.4745736 0.1640049
0.1280503 0.4859187 0.1607971
0.2443404 0.5055544 0.1562883
0.3075356 0.5189148 0.1543842
0.3734267 0.5326450 0.1474746
0.4343717 0.5460253 0.1422962
0.4720686 0.5544315 0.1395822
0.5115543 0.5631267 0.1363878
0.5594659 0.5736386 0.1330382
0.5965484 0.5815020 0.1320040
0.6264124 0.5878082 0.1405754
0.6544245 0.5936451 0.1486153
0.6783760 0.5994386 0.1554897
0.7010885 0.6041199 0.1620085
0.7153884 0.6074936 0.1661128
0.7361738 0.6140178 0.1720785
0.7544438 0.6178570 0.1773223
0.7686874 0.6209590 0.1814104
0.7836471 0.6252798 0.1857041
0.8008779 0.6289066 0.1906495
0.8115728 0.6325374 0.1937191
0.8228868 0.6338583 0.1969664
0.8330800 0.6371235 0.1998920
0.8440027 0.6409525 0.2070600
0.8541457 0.6459662 0.2210756
0.0925220 0.4589876 0.1746340
0.0929606 0.4605159 0.1743909
0.0934022 0.4620543 0.1741392
0.0941801 0.4647648 0.1736177
0.0957963 0.4703958 0.1757972
0.0974813 0.4762665 0.1746700
0.0997505 0.4841728 0.1717786
0.1011713 0.4891229 0.1705748
0.1038209 0.4983544 0.1716742
0.1977357 0.5144207 0.1667022
0.2750250 0.5292801 0.1638479
0.3386970 0.5428180 0.1607644
0.3972818 0.5551305 0.1543746
0.4422708 0.5652299 0.1516162
0.4906893 0.5762506 0.1494378
0.5324438 0.5854596 0.1463259
0.5681884 0.5932894 0.1438435
0.6043559 0.6013375 0.1428536
0.6334910 0.6075841 0.1426071
0.6615476 0.6147209 0.1506597
0.6852138 0.6163347 0.1574523
0.7020231 0.6204420 0.1622768
0.7218611 0.6247217 0.1679706
0.7424131 0.6301801 0.1738693
0.7555603 0.6332625 0.1776427
0.7762351 0.6376229 0.1835767
0.7895843 0.6430624 0.1874081
0.8023148 0.6464679 0.1910619
0.8132396 0.6491340 0.1941975
0.8249876 0.6531803 0.1975694
0.8388959 0.6576275 0.2106419
0.8463519 0.6618230 0.2220974
0.8562725 0.6658820 0.2387148
0.0980752 0.4783358 0.1842460
0.0986292 0.4802658 0.1839289
0.0992514 0.4824339 0.1835596
0.1001052 0.4854085 0.1830301
0.1019913 0.4919798 0.1841855
0.1045437 0.5008730 0.1823157
