data/spectral_luts/fuji_pro_400h_ca_maxima.cube
TITLE "fuji_pro_400h_ca_maxima"
LUT_3D_SIZE 5
0.0529995 0.0850743 0.0960530
0.0962399 0.0890465 0.0962491
0.3629339 0.1094838 0.0933272
0.6270791 0.1407667 0.1407667
0.7579750 0.1839935 0.1783358
0.0337166 0.1260680 0.1050923
0.1095956 0.1381781 0.1075558
0.3992017 0.1778533 0.1052875
0.6654459 0.2091105 0.1517786
0.7854330 0.2634563 0.1862167
0.0647126 0.3620955 0.1279359
0.0865910 0.3897654 0.1273551
0.4948919 0.4603313 0.1162690
0.7502668 0.5184684 0.1761234
0.8606430 0.5641450 0.2263448
0.1298963 0.5892049 0.1847365
0.2001560 0.6210126 0.1886082
0.5752097 0.6857907 0.1937302
0.7959774 0.7345896 0.2402291
0.8928065 0.7654061 0.3338979
0.3167556 0.7404298 0.3288043
0.4557640 0.7629485 0.3299016
0.6795781 0.8040159 0.3536060
0.8293752 0.8329097 0.3932337
0.9030901 0.8545545 0.4617589
0.0461800 0.0892620 0.1451978
0.0987863 0.0951860 0.1521520
0.3747217 0.1174028 0.1661471
0.6347369 0.1429646 0.1956940
0.7644514 0.1962609 0.2502198
0.0171241 0.1391737 0.1774475
0.1060335 0.1506878 0.1840879
0.4107965 0.1916228 0.2011818
0.6714851 0.2239114 0.2257711
0.7891243 0.2706140 0.2747166
0.0737641 0.3936323 0.2588867
0.0830646 0.4260367 0.2658672
0.4877104 0.4934921 0.2755508
0.7522095 0.5396098 0.3006647
0.8615317 0.5787854 0.3563228
0.1392198 0.6216895 0.3476694
0.1532205 0.6507226 0.3549479
0.5758332 0.7156870 0.3684986
0.7971210 0.7540404 0.3978817
0.8914114 0.7765325 0.4388357
0.3161834 0.7601666 0.4543018
0.4399821 0.7783604 0.4586072
0.6734381 0.8169732 0.4679865
0.8265558 0.8436202 0.4923910
0.9018285 0.8607780 0.5277173
0.0611560 0.0842225 0.3497038
0.1290579 0.0941618 0.3610158
0.4047091 0.1225319 0.3932483
0.6608196 0.1597441 0.4373004
0.7848333 0.2300279 0.4833375
0.0759327 0.1484394 0.4011882
0.1298010 0.1624815 0.4164830
0.4378491 0.2049099 0.4461170
0.6890905 0.2377328 0.4706346
0.8038099 0.2873879 0.5027669
0.1101689 0.4292376 0.5204720
0.1148312 0.4621619 0.5367161
0.5006390 0.5272456 0.5568233
0.7576303 0.5661501 0.5748901
0.8670884 0.6034427 0.6011677
0.1494711 0.6574062 0.6105661
0.1581057 0.6874903 0.6181028
0.5763099 0.7436667 0.6318176
0.7937319 0.7797175 0.6460786
0.8892773 0.7982606 0.6595213
0.3234381 0.7863773 0.6757889
0.4504893 0.8034199 0.6774043
0.6743390 0.8373361 0.6866555
0.8275223 0.8636096 0.6995931
0.9017155 0.8747386 0.7117381
0.1251605 0.1175524 0.5461969
0.1880594 0.1214831 0.5598921
0.4607904 0.1485306 0.5986646
0.6968127 0.2011788 0.6281984
0.8124793 0.2842381 0.6708989
0.1282809 0.1569585 0.5835765
0.1900209 0.1730101 0.5960504
0.4786617 0.2121257 0.6269320
0.7147446 0.2557005 0.6528887
0.8199731 0.3087986 0.6779568
0.1636622 0.4642290 0.7068500
0.1667859 0.4897064 0.7177335
0.5354978 0.5490095 0.7393629
0.7739664 0.5847681 0.7523314
0.8738366 0.6203963 0.7689994
0.1840387 0.6810817 0.7778447
0.2482960 0.7118061 0.7868572
0.6049833 0.7597275 0.8017057
0.8041330 0.7931001 0.8112550
0.8919919 0.8087838 0.8178598
0.3917438 0.8042375 0.8251250
0.4906792 0.8179839 0.8274836
0.6906565 0.8507174 0.8369674
0.8317356 0.8714089 0.8439471
0.9009302 0.8842338 0.8481832
0.2215917 0.1779311 0.7058948
0.2581869 0.1894201 0.7129243
0.5362725 0.2405287 0.7430255
0.7433383 0.3082587 0.7698105
0.8436702 0.3843382 0.7957317
0.2166252 0.1992370 0.7142643
0.2704962 0.2128767 0.7227678
0.5376462 0.2543550 0.7478070
0.7433383 0.3082587 0.7698105
0.8436702 0.3843382 0.7957317
0.1937085 0.5019988 0.8115358
0.2600929 0.5224151 0.8214656
0.5942446 0.5757771 0.8392977
0.7901280 0.6061167 0.8500022
0.8797804 0.6316052 0.8592345
0.2104015 0.7086044 0.8696964
0.3717386 0.7322590 0.8760162
0.6503034 0.7717710 0.8858969
0.8168610 0.8003029 0.8935396
0.8954936 0.8145853 0.8962780
0.4753123 0.8210573 0.9018145
0.5620158 0.8336439 0.9042385
0.7182437 0.8568007 0.9089921
0.8408555 0.8776174 0.9144843
0.9061214 0.8867137 0.9153717
