data/spectral_luts/fuji_superia_xtra_400_ca_dpii.cube
TITLE "fuji_superia_xtra_400_ca_dpii"
LUT_3D_SIZE 5
0.0284332 0.0828911 0.0943248
0.1038873 0.0915099 0.0962075
0.3700881 0.1179602 0.0941397
0.6366932 0.1559874 0.1435261
0.7826238 0.2681201 0.1854104
0.0199479 0.1129429 0.1019984
0.1144737 0.1299309 0.1045584
0.4000890 0.1835072 0.1016913
0.6795241 0.2639611 0.1558192
0.8190224 0.3826452 0.1958573
0.0599482 0.3454958 0.1311074
0.0726431 0.3798622 0.1278052
0.4855370 0.4643865 0.1034695
0.7530879 0.5451704 0.1769331
0.8712493 0.6258700 0.2148424
0.1298289 0.5889701 0.2208814
0.1392100 0.6216553 0.2191798
0.5448541 0.6988749 0.2109968
0.7883310 0.7519524 0.2272825
0.8900458 0.7918964 0.3229124
0.1740582 0.7430713 0.4181952
0.3110933 0.7685798 0.4246323
0.6255625 0.8200803 0.4285757
0.8119808 0.8550869 0.4570446
0.8992214 0.8761077 0.4919422
0.0279976 0.0870550 0.1216318
0.1108215 0.0965836 0.1281720
0.3778223 0.1220084 0.1383720
0.6392075 0.1596692 0.1609525
0.7837144 0.2687308 0.2191308
0.0160849 0.1218939 0.1514013
0.1178085 0.1401583 0.1616344
0.4107792 0.1947151 0.1783138
0.6837252 0.2775242 0.2051640
0.8215548 0.3924416 0.2498789
0.0701773 0.3811354 0.2496807
0.0795708 0.4138638 0.2560282
0.4893173 0.4976002 0.2679336
0.7549543 0.5725463 0.2810430
0.8705571 0.6335521 0.3326395
0.1394904 0.6226321 0.3875831
0.1479724 0.6521848 0.3880495
0.5424899 0.7285370 0.4008783
0.7830993 0.7760102 0.4206496
0.8904344 0.8073685 0.4630915
0.1785703 0.7587920 0.5353930
0.3082555 0.7844467 0.5438959
0.6291959 0.8349587 0.5529891
0.8102496 0.8661708 0.5658313
0.8971322 0.8859821 0.5970840
0.0509497 0.0942594 0.3112943
0.1431666 0.1045288 0.3289385
0.4143366 0.1265614 0.3694178
0.6544573 0.1578382 0.4172129
0.7964794 0.2785382 0.4915195
0.0684094 0.1234333 0.3749757
0.1533655 0.1430686 0.3982799
0.4423239 0.1988640 0.4388369
0.6971757 0.2848954 0.4840088
0.8279548 0.4064195 0.5387734
0.1143916 0.4172626 0.5351842
0.1179178 0.4501942 0.5474702
0.4979727 0.5282505 0.5742427
0.7586091 0.6004395 0.5949645
0.8715238 0.6640505 0.6271492
0.1500843 0.6595429 0.6469257
0.1585170 0.6889235 0.6555001
0.5486999 0.7567798 0.6738595
0.7842348 0.8007860 0.6859457
0.8884299 0.8268539 0.7035574
0.1860583 0.7848814 0.7400929
0.3387475 0.8074073 0.7436764
0.6285939 0.8514655 0.7548627
0.8106890 0.8814452 0.7653025
0.8970452 0.8984287 0.7787683
0.1351582 0.1185193 0.5495659
0.2279157 0.1239213 0.5683870
0.4785137 0.1332111 0.6007543
0.6960482 0.1813809 0.6412698
0.8085842 0.2666799 0.6833909
0.1405280 0.1220656 0.5619217
0.2315268 0.1282941 0.5836226
0.4945835 0.1759087 0.6256517
0.7148979 0.2659695 0.6755204
0.8391820 0.3987565 0.7287229
0.1686730 0.4328961 0.7243084
0.1852621 0.4636758 0.7396480
0.5508133 0.5351252 0.7690663
0.7720857 0.6031638 0.7864712
0.8793245 0.6689233 0.8068463
0.1957482 0.6864569 0.8186421
0.1977873 0.7112948 0.8257470
0.5891462 0.7706146 0.8407633
0.7951755 0.8097186 0.8520033
0.8906616 0.8350284 0.8621395
0.2607026 0.8059464 0.8700531
0.4219501 0.8253304 0.8741175
0.6570079 0.8621547 0.8849917
0.8204935 0.8887452 0.8892408
0.8994797 0.9040875 0.8954561
0.2394127 0.1671972 0.7191664
0.3304949 0.1715036 0.7341708
0.5658542 0.2215751 0.7623160
0.7476102 0.2877766 0.7928101
0.8411394 0.3654677 0.8175465
0.2453899 0.1673949 0.7198554
0.3381749 0.1721109 0.7348567
0.5658542 0.2215751 0.7623160
0.7476102 0.2877766 0.7928101
0.8464302 0.3970966 0.8261116
0.1987633 0.4581241 0.8291472
0.3396688 0.4761398 0.8384752
0.6109397 0.5378276 0.8597806
0.7918708 0.6017099 0.8754970
0.8834596 0.6688619 0.8935326
0.2186750 0.7121978 0.8985224
0.3908323 0.7384642 0.9061724
0.6498966 0.7806114 0.9160364
0.8135830 0.8133893 0.9240135
0.8966314 0.8369164 0.9281771
0.4198180 0.8271099 0.9302085
0.5205122 0.8437839 0.9340395
0.7031731 0.8708814 0.9388827
0.8364756 0.8928094 0.9423511
0.9045294 0.9064978 0.9460708
