data/spectral_luts/fuji_pro_160s_ca_dpii.cube
TITLE "fuji_pro_160s_ca_dpii"
LUT_3D_SIZE 33
0.0419316 0.0882271 0.1021529
0.0427890 0.0883124 0.1021740
0.0453916 0.0885734 0.1022376
0.0477770 0.0888156 0.1022955
0.0544754 0.0895087 0.1024552
0.0667964 0.0908230 0.1027333
0.0825259 0.0925899 0.1029558
0.0984158 0.0944803 0.1033379
0.1191832 0.0968875 0.1037116
0.1418465 0.0995167 0.1042131
0.1691250 0.1025870 0.1046882
0.1986300 0.1056468 0.1049940
0.2266834 0.1085142 0.1053387
0.2599418 0.1119542 0.1056712
0.2898874 0.1150184 0.1062293
0.3247122 0.1181445 0.1067809
0.3581135 0.1211384 0.1077516
0.3984946 0.1240174 0.1080179
0.4356501 0.1273370 0.1088383
0.4715817 0.1312288 0.1100757
0.5008602 0.1345625 0.1127883
0.5282227 0.1398684 0.1155173
0.5617728 0.1442282 0.1220229
0.5864480 0.1490143 0.1291050
0.6065710 0.1541484 0.1348806
0.6290529 0.1596905 0.1413333
0.6526857 0.1690125 0.1481162
0.6691169 0.1777242 0.1528322
0.6848649 0.1860334 0.1573521
0.7027861 0.1988435 0.1624958
0.7214221 0.2091365 0.1714172
0.7352265 0.2194066 0.1830686
0.7457812 0.2318431 0.1941608
0.0419062 0.0882846 0.1021632
0.0435953 0.0885128 0.1022155
0.0456192 0.0887763 0.1022757
0.0486229 0.0891420 0.1023592
0.0550686 0.0898709 0.1025226
0.0675409 0.0912640 0.1028121
0.0824396 0.0930337 0.1032404
0.0994976 0.0950571 0.1035394
0.1191651 0.0974498 0.1040256
0.1418724 0.1001871 0.1045439
0.1692059 0.1033702 0.1050352
0.1988113 0.1068354 0.1055979
0.2269976 0.1101514 0.1061787
0.2603388 0.1136750 0.1064643
0.2920322 0.1168172 0.1070128
0.3252394 0.1200249 0.1079047
0.3653294 0.1236652 0.1086277
0.4016474 0.1268508 0.1092163
0.4368906 0.1311006 0.1104022
0.4726986 0.1345482 0.1110770
0.5022795 0.1387535 0.1135374
0.5294166 0.1433779 0.1162627
0.5630308 0.1479085 0.1223840
0.5897461 0.1530944 0.1300516
0.6078611 0.1579305 0.1352509
0.6330993 0.1665505 0.1424946
0.6546351 0.1747946 0.1486757
0.6708888 0.1828835 0.1533408
0.6869227 0.1922158 0.1579427
0.7078346 0.2021057 0.1639448
0.7222291 0.2115645 0.1729995
0.7363970 0.2230891 0.1832579
0.7471229 0.2360531 0.1959894
0.0416460 0.0888339 0.1023692
0.0439138 0.0891284 0.1024368
0.0456990 0.0893080 0.1024801
0.0490394 0.0897168 0.1025726
0.0562450 0.0906041 0.1027661
0.0694363 0.0921742 0.1031921
0.0837290 0.0938828 0.1034930
0.1012341 0.0961377 0.1039310
0.1214620 0.0988598 0.1045669
0.1446917 0.1019554 0.1052337
0.1693759 0.1051004 0.1058627
0.1990990 0.1087333 0.1064484
0.2287784 0.1121251 0.1069622
0.2607749 0.1156066 0.1074806
0.2926627 0.1192886 0.1081863
0.3280222 0.1229857 0.1088309
0.3663378 0.1269989 0.1094734
0.4029606 0.1309985 0.1101645
0.4403837 0.1352765 0.1108949
0.4740793 0.1386804 0.1125221
0.5038546 0.1434276 0.1147875
0.5391389 0.1481879 0.1174641
0.5644165 0.1519405 0.1227816
0.5914719 0.1581240 0.1305469
0.6099901 0.1642231 0.1358619
0.6349429 0.1720558 0.1430238
0.6562278 0.1795754 0.1491328
0.6728944 0.1889028 0.1539164
0.6904209 0.1984639 0.1589468
0.7099695 0.2086984 0.1645575
0.7245991 0.2188905 0.1748252
0.7389807 0.2311934 0.1852016
0.7531072 0.2451745 0.1978304
0.0417831 0.0904372 0.1029839
0.0441384 0.0906714 0.1030402
0.0455934 0.0909765 0.1031034
0.0492938 0.0915121 0.1032189
0.0577744 0.0926532 0.1035674
0.0698437 0.0941125 0.1038543
0.0848155 0.0963460 0.1043455
0.1016413 0.0985599 0.1047688
0.1222316 0.1014518 0.1054201
0.1447846 0.1043166 0.1063014
0.1741745 0.1081100 0.1069319
0.2007955 0.1117025 0.1075173
0.2337356 0.1157768 0.1082537
0.2631990 0.1193765 0.1089526
0.2936635 0.1232468 0.1095306
0.3294190 0.1280368 0.1105490
0.3700679 0.1322930 0.1109064
0.4047093 0.1366091 0.1118667
0.4423637 0.1414156 0.1128425
0.4784693 0.1453645 0.1146238
0.5059167 0.1496037 0.1166606
0.5409589 0.1535836 0.1188542
0.5692168 0.1603815 0.1241594
0.5943850 0.1667644 0.1313831
0.6208163 0.1748994 0.1389692
0.6384476 0.1825302 0.1440297
0.6592852 0.1886405 0.1500104
0.6773878 0.1980655 0.1552061
0.6932749 0.2071960 0.1597659
0.7132303 0.2185904 0.1699061
0.7271839 0.2268217 0.1796984
0.7417823 0.2399424 0.1903126
0.7560169 0.2546681 0.1982714
0.0417588 0.0936524 0.1041009
0.0432310 0.0939915 0.1041690
0.0454320 0.0942113 0.1042195
0.0499240 0.0950007 0.1044892
0.0589640 0.0961562 0.1047248
0.0716359 0.0978435 0.1050381
0.0867733 0.0997762 0.1054884
0.1050565 0.1025700 0.1062835
0.1245973 0.1055119 0.1070101
0.1487799 0.1093484 0.1078792
0.1746725 0.1131236 0.1086967
0.2054338 0.1173450 0.1093022
0.2363936 0.1221634 0.1100426
0.2695346 0.1262423 0.1106734
0.3024891 0.1310561 0.1112344
0.3373544 0.1353089 0.1122380
0.3723410 0.1400924 0.1129898
0.4094885 0.1448090 0.1143035
0.4470225 0.1493312 0.1147631
0.4809594 0.1530227 0.1169883
0.5109100 0.1580807 0.1196115
0.5465318 0.1642170 0.1214696
0.5730942 0.1720169 0.1252723
0.5996196 0.1767102 0.1328855
0.6242173 0.1851726 0.1399454
0.6423875 0.1944207 0.1451605
0.6647549 0.2008146 0.1515802
0.6814220 0.2103264 0.1563639
0.6979563 0.2216036 0.1628161
0.7169023 0.2301436 0.1718474
0.7310862 0.2392299 0.1817736
0.7473127 0.2541283 0.1924278
0.7604116 0.2655294 0.2036237
0.0399236 0.0998292 0.1058148
0.0416000 0.0999912 0.1058505
0.0439642 0.1002470 0.1060415
0.0490969 0.1012048 0.1062245
0.0597688 0.1025484 0.1064809
0.0737395 0.1045640 0.1069629
0.0887820 0.1070091 0.1076065
0.1057671 0.1097049 0.1082236
0.1294913 0.1138202 0.1093318
0.1521253 0.1172469 0.1100597
0.1789463 0.1216536 0.1109101
0.2105695 0.1258719 0.1115219
0.2424235 0.1308752 0.1122366
0.2730985 0.1352662 0.1129835
0.3045200 0.1394958 0.1135322
0.3417822 0.1443969 0.1142942
0.3773226 0.1499954 0.1152100
0.4195151 0.1551582 0.1160875
0.4568330 0.1598766 0.1170871
0.4870717 0.1653328 0.1200245
0.5223190 0.1736598 0.1220568
0.5512384 0.1786866 0.1244250
0.5772207 0.1846669 0.1279510
0.6051663 0.1936760 0.1344775
0.6290642 0.2000149 0.1413365
0.6488697 0.2091755 0.1470210
0.6698718 0.2166120 0.1530489
0.6859927 0.2246819 0.1576758
0.7084645 0.2376909 0.1657574
0.7236319 0.2477597 0.1753297
0.7382472 0.2585371 0.1854999
0.7521375 0.2700586 0.1962705
0.7648040 0.2802398 0.2075737
0.0362194 0.1087528 0.1082638
0.0384102 0.1089632 0.1083064
0.0426576 0.1093682 0.1083866
0.0494888 0.1109894 0.1088395
0.0608849 0.1122050 0.1092274
0.0750378 0.1147009 0.1097852
0.0904313 0.1164756 0.1101893
0.1091077 0.1196240 0.1108979
0.1318579 0.1233667 0.1119359
0.1555097 0.1268043 0.1124629
0.1846054 0.1322000 0.1134105
0.2133143 0.1366306 0.1142916
0.2440751 0.1406494 0.1149196
0.2804207 0.1468119 0.1153816
0.3149427 0.1534719 0.1165734
0.3451503 0.1577816 0.1174770
0.3878810 0.1643040 0.1182083
0.4264529 0.1712496 0.1197488
0.4622220 0.1778911 0.1209168
0.4929133 0.1844735 0.1236445
0.5296319 0.1903663 0.1254023
0.5569896 0.1969782 0.1281110
0.5852606 0.2038459 0.1309760
0.6106508 0.2110268 0.1360516
0.6366702 0.2187380 0.1435195
0.6591300 0.2270335 0.1499658
0.6775044 0.2361421 0.1552396
0.6940461 0.2460140 0.1616930
0.7143214 0.2567682 0.1706620
0.7293068 0.2664623 0.1804255
0.7441625 0.2783316 0.1908633
0.7581933 0.2906677 0.2018911
0.7714009 0.3030738 0.2134742
0.0311847 0.1201065 0.1114283
0.0347487 0.1204854 0.1116760
0.0400683 0.1209837 0.1117640
0.0486492 0.1218430 0.1120946
0.0614536 0.1237012 0.1123732
0.0757145 0.1269356 0.1130125
0.0929348 0.1289405 0.1134262
0.1122102 0.1329460 0.1142294
0.1368303 0.1370934 0.1148898
0.1623300 0.1420963 0.1157074
0.1893391 0.1472758 0.1165931
0.2192967 0.1527372 0.1174990
0.2530422 0.1584128 0.1178927
0.2835621 0.1637023 0.1189789
0.3182981 0.1692168 0.1198914
0.3580928 0.1771981 0.1206771
0.3925082 0.1823483 0.1215870
0.4316051 0.1902650 0.1235487
0.4694203 0.1954469 0.1251471
0.5072510 0.2032360 0.1269522
0.5348524 0.2078710 0.1294763
0.5646612 0.2155640 0.1309396
0.5913874 0.2240285 0.1350429
0.6188640 0.2315670 0.1390471
0.6422601 0.2369917 0.1451239
0.6668047 0.2470581 0.1521686
0.6841798 0.2582508 0.1602654
0.7054712 0.2698720 0.1690842
0.7217415 0.2819081 0.1786901
0.7357904 0.2886321 0.1872106
0.7506784 0.3009880 0.1979295
0.7657718 0.3134246 0.2056884
0.7789288 0.3264616 0.2174359
0.0231631 0.1368567 0.1155643
0.0283008 0.1373553 0.1156403
0.0356658 0.1380844 0.1159525
0.0472539 0.1391462 0.1160962
0.0605359 0.1425165 0.1167191
0.0766358 0.1442536 0.1168895
0.0950577 0.1471279 0.1175640
0.1146800 0.1508818 0.1180446
0.1383357 0.1559331 0.1187377
0.1668989 0.1602252 0.1191232
0.1939975 0.1658622 0.1202040
0.2253581 0.1719565 0.1208533
0.2605345 0.1783995 0.1214366
0.2939738 0.1845536 0.1222617
0.3282081 0.1908822 0.1236621
0.3623534 0.1970174 0.1247882
0.4068894 0.2038568 0.1256022
0.4434780 0.2100241 0.1273886
0.4826753 0.2195867 0.1292205
0.5133305 0.2252811 0.1309707
0.5414319 0.2311736 0.1330898
0.5784346 0.2416833 0.1354865
0.6062190 0.2478286 0.1374770
0.6323635 0.2591822 0.1431317
0.6522706 0.2655485 0.1479971
0.6756471 0.2775714 0.1547065
0.6918044 0.2848170 0.1663791
0.7132457 0.2972628 0.1753282
0.7309366 0.3099544 0.1851099
0.7448488 0.3167300 0.1906032
0.7597237 0.3299379 0.2015177
0.7723038 0.3376211 0.2129991
0.7850617 0.3496151 0.2249883
0.0168466 0.1547938 0.1197045
0.0226818 0.1553502 0.1197722
0.0299176 0.1585305 0.1203498
0.0430514 0.1605044 0.1205542
0.0598496 0.1620953 0.1206884
0.0768058 0.1639330 0.1210356
0.0955837 0.1686669 0.1218335
0.1196852 0.1716370 0.1221134
0.1427346 0.1746224 0.1225530
0.1737116 0.1813702 0.1230246
0.2041079 0.1881437 0.1235405
0.2359833 0.1932451 0.1242829
0.2679259 0.2002334 0.1253400
0.3026748 0.2077635 0.1263118
0.3403805 0.2156511 0.1274647
0.3740044 0.2230634 0.1290908
0.4127252 0.2309653 0.1304563
0.4525813 0.2389616 0.1311380
0.4917328 0.2469198 0.1328876
0.5274835 0.2545516 0.1349996
0.5582334 0.2617338 0.1363794
0.5879208 0.2690822 0.1397037
0.6139398 0.2761499 0.1425194
0.6422032 0.2885534 0.1467443
0.6657009 0.2959038 0.1530799
0.6826462 0.3032908 0.1630556
0.7064694 0.3164833 0.1716418
0.7218630 0.3239833 0.1813299
0.7382467 0.3377081 0.1915764
0.7523131 0.3451800 0.1972274
0.7657689 0.3532924 0.2085141
0.7801760 0.3685511 0.2202633
0.7919499 0.3770816 0.2306888
0.0174197 0.1791112 0.1243131
0.0175765 0.1799872 0.1246308
0.0241630 0.1809439 0.1247028
0.0359653 0.1819957 0.1250201
0.0545173 0.1847228 0.1252017
0.0747943 0.1904470 0.1260633
0.0962425 0.1928466 0.1260833
0.1205248 0.1958982 0.1265582
0.1496210 0.2034747 0.1271784
0.1801278 0.2076486 0.1276708
0.2081004 0.2153405 0.1282370
0.2435786 0.2201743 0.1286377
0.2755458 0.2298770 0.1296100
0.3113516 0.2346174 0.1306081
0.3507981 0.2438358 0.1315933
0.3882493 0.2528407 0.1331637
0.4257691 0.2616918 0.1340968
0.4654700 0.2660271 0.1352825
0.4977780 0.2739952 0.1364682
0.5367256 0.2842946 0.1384777
0.5655611 0.2920648 0.1403545
0.5955842 0.2999639 0.1424867
0.6219566 0.3080650 0.1487312
0.6505731 0.3218762 0.1544992
0.6743733 0.3301337 0.1607583
0.6931318 0.3383830 0.1697885
0.7141072 0.3467522 0.1772544
0.7297296 0.3553251 0.1873341
0.7458450 0.3685403 0.1978796
0.7601074 0.3769523 0.2037177
0.7749309 0.3861284 0.2152573
0.7876480 0.3953362 0.2273985
0.8011422 0.4116028 0.2359688
0.0231393 0.2085129 0.1298439
0.0233460 0.2094912 0.1301746
0.0235506 0.2104542 0.1302097
0.0240691 0.2117543 0.1302451
0.0451044 0.2148363 0.1306442
0.0714472 0.2173557 0.1312323
0.0934588 0.2240152 0.1320785
0.1223653 0.2275317 0.1322515
0.1539181 0.2316761 0.1322562
0.1854796 0.2403060 0.1325686
0.2161088 0.2446965 0.1329449
0.2489377 0.2492901 0.1327387
0.2843722 0.2602759 0.1337650
0.3198006 0.2654118 0.1355802
0.3543198 0.2746934 0.1364546
0.4001330 0.2853538 0.1369962
0.4403793 0.2903399 0.1377175
0.4716080 0.2991882 0.1396926
0.5116674 0.3090406 0.1410901
0.5438110 0.3180639 0.1426797
0.5828053 0.3296652 0.1439808
0.6091616 0.3326105 0.1470789
0.6376635 0.3418076 0.1514305
0.6572284 0.3506800 0.1588922
0.6831310 0.3601262 0.1655102
0.7053266 0.3696062 0.1743978
0.7215681 0.3786524 0.1826040
0.7373301 0.3880257 0.1930871
0.7598153 0.4051175 0.2033118
0.7737368 0.4140655 0.2093425
0.7869589 0.4236961 0.2214102
0.7993352 0.4332058 0.2339723
0.8077114 0.4416986 0.2411375
0.0297287 0.2375132 0.1360573
0.0299966 0.2386088 0.1360683
0.0302293 0.2395554 0.1360710
0.0305358 0.2407962 0.1360649
0.0345319 0.2444560 0.1364889
0.0640914 0.2517857 0.1374042
0.0953167 0.2549079 0.1372147
0.1242159 0.2584770 0.1378062
0.1556059 0.2626061 0.1377888
0.1918624 0.2726001 0.1379619
0.2235047 0.2773979 0.1389837
0.2590650 0.2824831 0.1382503
0.2966702 0.2931073 0.1386898
0.3299761 0.2996433 0.1385986
0.3641863 0.3101941 0.1399012
0.4112463 0.3167100 0.1403807
0.4455882 0.3271534 0.1415070
0.4869522 0.3325046 0.1423522
0.5248079 0.3432475 0.1433706
0.5579040 0.3557191 0.1451185
0.5899009 0.3661479 0.1473467
0.6167058 0.3696913 0.1522250
0.6456515 0.3802712 0.1586904
0.6733240 0.3906698 0.1651068
0.6916524 0.4004488 0.1744508
0.7140506 0.4105584 0.1820517
0.7320499 0.4206010 0.1924122
0.7523122 0.4299742 0.1974582
0.7670613 0.4396249 0.2090587
0.7810574 0.4493712 0.2211589
0.7941262 0.4583715 0.2277251
0.8064326 0.4679386 0.2406129
0.8178767 0.4769766 0.2477164
0.0387357 0.2716143 0.1423259
0.0390674 0.2727769 0.1432700
0.0394060 0.2739576 0.1432347
0.0398569 0.2755206 0.1431743
0.0404131 0.2774347 0.1430789
0.0599615 0.2825332 0.1433755
0.0916481 0.2856915 0.1441182
0.1258507 0.2952567 0.1436488
0.1603504 0.2998646 0.1440282
0.1960748 0.3049769 0.1441795
0.2327604 0.3103106 0.1435344
0.2622672 0.3208499 0.1444257
0.3023028 0.3288258 0.1436091
0.3374206 0.3340163 0.1428424
0.3833379 0.3471403 0.1433647
0.4143542 0.3519199 0.1451616
0.4575963 0.3644071 0.1459524
0.4994175 0.3700261 0.1454953
0.5332808 0.3834618 0.1473659
0.5738242 0.3956540 0.1491705
0.6022207 0.3997845 0.1541915
0.6324914 0.4108847 0.1610999
0.6593610 0.4211097 0.1643214
0.6796640 0.4243296 0.1723552
0.7036424 0.4349357 0.1815345
0.7222800 0.4448811 0.1900610
0.7434518 0.4547958 0.1968357
0.7580366 0.4597353 0.2068738
0.7727647 0.4692446 0.2149328
0.7867178 0.4789078 0.2253709
0.7997411 0.4879407 0.2341257
0.8119754 0.4974513 0.2474039
0.8243890 0.5064870 0.2546632
0.0484228 0.3053397 0.1496084
0.0487754 0.3065684 0.1495406
0.0490543 0.3075400 0.1494809
0.0502089 0.3115627 0.1493177
0.0509489 0.3141412 0.1501853
0.0535379 0.3231613 0.1503260
0.0874758 0.3267713 0.1504382
0.1262669 0.3308821 0.1498263
0.1676363 0.3363110 0.1500338
0.1989752 0.3408522 0.1503155
0.2388088 0.3488697 0.1499975
0.2730947 0.3601093 0.1493870
0.3136769 0.3663647 0.1485364
0.3512682 0.3721160 0.1475869
0.3923013 0.3846900 0.1472472
0.4356898 0.3912580 0.1469785
0.4689424 0.4029736 0.1489222
0.5116233 0.4113243 0.1486354
0.5456960 0.4230016 0.1517397
0.5782023 0.4280596 0.1565634
0.6080257 0.4392267 0.1607608
0.6376297 0.4438820 0.1678206
0.6669219 0.4552218 0.1743950
0.6918013 0.4610719 0.1786327
0.7097905 0.4710389 0.1891484
0.7335332 0.4810335 0.1937148
0.7497213 0.4910229 0.2053601
0.7639886 0.4933536 0.2120426
0.7786705 0.5030389 0.2245553
0.7938607 0.5118756 0.2310728
0.8067414 0.5212479 0.2443932
0.8176013 0.5232051 0.2521645
0.8288108 0.5321071 0.2619579
0.0590923 0.3425136 0.1568750
0.0594234 0.3436675 0.1567757
0.0599649 0.3455541 0.1565984
0.0605357 0.3475428 0.1563911
0.0611314 0.3496182 0.1561517
0.0622444 0.3534963 0.1569069
0.0833330 0.3626825 0.1561481
0.1262923 0.3672706 0.1567563
0.1658858 0.3723593 0.1571767
0.2100132 0.3804352 0.1555958
0.2450157 0.3856568 0.1548849
0.2825438 0.3915417 0.1545488
0.3198790 0.4039119 0.1541618
0.3573935 0.4098872 0.1535399
0.4005564 0.4164604 0.1512848
0.4454281 0.4297984 0.1517014
0.4818820 0.4376629 0.1526396
0.5248784 0.4442922 0.1537836
0.5564352 0.4559470 0.1584231
0.5892926 0.4610415 0.1616733
0.6214714 0.4731014 0.1695770
0.6491486 0.4794689 0.1734156
0.6781287 0.4903409 0.1805609
0.6966156 0.4933578 0.1861912
0.7217886 0.5040724 0.1965558
0.7384918 0.5135030 0.2042814
0.7536448 0.5165262 0.2151491
0.7751504 0.5261388 0.2208543
0.7895351 0.5352049 0.2296060
0.8020520 0.5378878 0.2414328
0.8145936 0.5468708 0.2508766
0.8227453 0.5551855 0.2587351
0.8342158 0.5664615 0.2735678
0.0695041 0.3787900 0.1634449
0.0699170 0.3802285 0.1632738
0.0703410 0.3817058 0.1630874
0.0708166 0.3833628 0.1636995
0.0717272 0.3865356 0.1632443
0.0724618 0.3890950 0.1628385
0.0926137 0.3942396 0.1636513
0.1295582 0.3999057 0.1627687
0.1732984 0.4054964 0.1632925
0.2126176 0.4166481 0.1622777
0.2531471 0.4228685 0.1623016
0.2909866 0.4287403 0.1612645
0.3313570 0.4352876 0.1609114
0.3742108 0.4422677 0.1604703
0.4079191 0.4538301 0.1610447
0.4542634 0.4631386 0.1595331
0.4914974 0.4689632 0.1588188
0.5351272 0.4821295 0.1600408
0.5691733 0.4881933 0.1669021
0.5997992 0.4931773 0.1707160
0.6319779 0.5044948 0.1754671
0.6526629 0.5105302 0.1842943
0.6819633 0.5213073 0.1881099
0.7083204 0.5256611 0.1953143
0.7260283 0.5355550 0.2050765
0.7469940 0.5389412 0.2113283
0.7645137 0.5482954 0.2195856
0.7796537 0.5578953 0.2327210
0.7934436 0.5624934 0.2400503
0.8070053 0.5713404 0.2472026
0.8185780 0.5738129 0.2576405
0.8301575 0.5826421 0.2703160
0.8377036 0.5907903 0.2815080
0.0779909 0.4083592 0.1710175
0.0785664 0.4103644 0.1729945
0.0790459 0.4120349 0.1727578
0.0795471 0.4137810 0.1724963
0.0804230 0.4168330 0.1720033
0.0817519 0.4214629 0.1713721
0.0923627 0.4258403 0.1728890
0.1383981 0.4303053 0.1719369
0.1829727 0.4419213 0.1724423
0.2253731 0.4476634 0.1708455
0.2603326 0.4532051 0.1717191
0.3026711 0.4600698 0.1720900
0.3426301 0.4687056 0.1724701
0.3798511 0.4744778 0.1699421
0.4267671 0.4883468 0.1703340
0.4625577 0.4942835 0.1706211
0.5003255 0.5003972 0.1705938
0.5361019 0.5123475 0.1732277
0.5789838 0.5193797 0.1760615
0.6123677 0.5268914 0.1796921
0.6348003 0.5371329 0.1861084
0.6646355 0.5420312 0.1908856
0.6908151 0.5463553 0.1962750
0.7118686 0.5563793 0.2036965
0.7345079 0.5625748 0.2139679
0.7527490 0.5719020 0.2223465
0.7678366 0.5746851 0.2296970
0.7830125 0.5834634 0.2364914
0.7965636 0.5867602 0.2512231
0.8101115 0.5954446 0.2587402
0.8225380 0.6038134 0.2691439
0.8332901 0.6060627 0.2781620
0.8450751 0.6142067 0.2868105
0.0868100 0.4390863 0.1829748
0.0879806 0.4431647 0.1853424
0.0882537 0.4441161 0.1851987
0.0889186 0.4464328 0.1848322
0.0897986 0.4494989 0.1843093
0.0907024 0.4526479 0.1837259
0.1108434 0.4578017 0.1856578
0.1549777 0.4623058 0.1846632
0.1931317 0.4732793 0.1858919
0.2326867 0.4786094 0.1844277
0.2664652 0.4858453 0.1858161
0.3117228 0.4926779 0.1834969
0.3460059 0.4985198 0.1846413
0.3939943 0.5065332 0.1847362
0.4334595 0.5189424 0.1861373
0.4730389 0.5255491 0.1864480
0.5109823 0.5317938 0.1867652
0.5529271 0.5403786 0.1863114
0.5801665 0.5486320 0.1868611
0.6141877 0.5558886 0.1869565
0.6433758 0.5611836 0.1940229
0.6737729 0.5725470 0.2025416
0.6934916 0.5761739 0.2090847
0.7201797 0.5827340 0.2169964
0.7375411 0.5915388 0.2234002
0.7552289 0.5947700 0.2306003
0.7760656 0.6042992 0.2392566
0.7902448 0.6070433 0.2472150
0.8042745 0.6157738 0.2571187
0.8180220 0.6184444 0.2655832
0.8301516 0.6266803 0.2739952
0.8372622 0.6288271 0.2861542
0.8478307 0.6375753 0.3012777
0.0962986 0.4721460 0.1974818
0.0966001 0.4731961 0.1973190
0.0972182 0.4753499 0.1969706
0.0979831 0.4780147 0.1995684
0.0986192 0.4802310 0.1991837
0.0997045 0.4840124 0.1984769
0.1178079 0.4875244 0.1977611
0.1676560 0.4932625 0.1996778
0.1979124 0.4986502 0.1986183
0.2483573 0.5060351 0.1999641
0.2875320 0.5117486 0.1982578
0.3213921 0.5229557 0.2009532
0.3617652 0.5289400 0.1969480
0.4024054 0.5361461 0.1996040
0.4402405 0.5426164 0.2005765
0.4896549 0.5525876 0.2002625
0.5276899 0.5619851 0.1964896
0.5640547 0.5697828 0.1967851
0.5886158 0.5739261 0.1984734
0.6224759 0.5793335 0.1992252
0.6544372 0.5906562 0.2057163
0.6821579 0.5955262 0.2115791
0.7038359 0.5994935 0.2182369
0.7224034 0.6088573 0.2268217
0.7469187 0.6149921 0.2332344
0.7626455 0.6180487 0.2409681
0.7782868 0.6270938 0.2505700
0.7925766 0.6299348 0.2588670
0.8081123 0.6387284 0.2666989
0.8204863 0.6415968 0.2783713
0.8326393 0.6499922 0.2872274
0.8434600 0.6544114 0.2973168
0.8506092 0.6626443 0.3104183
0.1037148 0.4979849 0.2136755
0.1040421 0.4991254 0.2135008
0.1043711 0.5002716 0.2133201
0.1051510 0.5029888 0.2128705
0.1058323 0.5053626 0.2124528
0.1065305 0.5077953 0.2119997
0.1311833 0.5173569 0.2140358
0.1795161 0.5242137 0.2127408
0.2157881 0.5286750 0.2116541
0.2551849 0.5346313 0.2136534
0.2962887 0.5406027 0.2119166
0.3337914 0.5468880 0.2136506
0.3760163 0.5534568 0.2113246
0.4182054 0.5606681 0.2124284
0.4595826 0.5734439 0.2146313
0.4971543 0.5793143 0.2118244
0.5350630 0.5875522 0.2125169
0.5719016 0.5936853 0.2134835
0.6074136 0.5994968 0.2144759
0.6306905 0.6092381 0.2179128
0.6625783 0.6143554 0.2192455
0.6832709 0.6183389 0.2262278
0.7117999 0.6246849 0.2276520
0.7302860 0.6339548 0.2342067
0.7486888 0.6377564 0.2442090
0.7703244 0.6474988 0.2509727
0.7853843 0.6505393 0.2593641
0.8009969 0.6539169 0.2706406
0.8146323 0.6625329 0.2791442
0.8269315 0.6671392 0.2886837
0.8348470 0.6734628 0.3018138
0.8457146 0.6779515 0.3123666
0.8555658 0.6798036 0.3178623
0.1124213 0.5283194 0.2277076
0.1127744 0.5295498 0.2275125
0.1131294 0.5307867 0.2273108
0.1138551 0.5333150 0.2268799
0.1153450 0.5385062 0.2296954
0.1165608 0.5411458 0.2292026
0.1600014 0.5451909 0.2283914
0.2007723 0.5497876 0.2273837
0.2329431 0.5545142 0.2300279
0.2773871 0.5606503 0.2284605
0.3072565 0.5650277 0.2272255
0.3501929 0.5721693 0.2289785
0.3939645 0.5808240 0.2264107
0.4333455 0.5915990 0.2294718
0.4755570 0.6007028 0.2305122
0.5068115 0.6056109 0.2282921
0.5423172 0.6116983 0.2298074
0.5796474 0.6179713 0.2311188
0.6152405 0.6293443 0.2316437
0.6387269 0.6328253 0.2295260
0.6702182 0.6379594 0.2310992
0.6932443 0.6420670 0.2358208
0.7192552 0.6524438 0.2418854
0.7389826 0.6581753 0.2493753
0.7556135 0.6609998 0.2526919
0.7714360 0.6645107 0.2636800
0.7886879 0.6737386 0.2717115
0.8028766 0.6767421 0.2809774
0.8161735 0.6815321 0.2907025
0.8287351 0.6877681 0.2978328
0.8401660 0.6923063 0.3083256
0.8477084 0.7005242 0.3228630
0.8575566 0.7030666 0.3350073
0.1198162 0.5540845 0.2431501
0.1201939 0.5554003 0.2429430
0.1211794 0.5588341 0.2425193
0.1215684 0.5601892 0.2422887
0.1225064 0.5634574 0.2454983
0.1353859 0.5662506 0.2449931
0.1827519 0.5709824 0.2440674
0.2194433 0.5753087 0.2431408
0.2556633 0.5806966 0.2458571
0.2874798 0.5851436 0.2447608
0.3330501 0.5918776 0.2429204
0.3637248 0.5990189 0.2452619
0.4085177 0.6099914 0.2445346
0.4424002 0.6177226 0.2464911
0.4824810 0.6240756 0.2440060
0.5227719 0.6310130 0.2455458
0.5611486 0.6375702 0.2471393
0.5871725 0.6415735 0.2451459
0.6225848 0.6475086 0.2468086
0.6483193 0.6572810 0.2484894
0.6774901 0.6621431 0.2506840
0.7006919 0.6673205 0.2483093
0.7200033 0.6706452 0.2513879
0.7457542 0.6812039 0.2605883
0.7621498 0.6846423 0.2694921
0.7779652 0.6873932 0.2733334
0.7948959 0.6967388 0.2845532
0.8088564 0.6998451 0.2948639
0.8221233 0.7039751 0.2993700
0.8303286 0.7101449 0.3133273
0.8417948 0.7147436 0.3250940
0.8522109 0.7174152 0.3373472
0.8591892 0.7253050 0.3525166
0.1278627 0.5821198 0.2593031
0.1282674 0.5835295 0.2590795
0.1286783 0.5849612 0.2588452
0.1290914 0.5864006 0.2586025
0.1454671 0.5903348 0.2618749
0.1756994 0.5932831 0.2613395
0.2026779 0.5962516 0.2607673
0.2432783 0.6012393 0.2597282
0.2772398 0.6058096 0.2586864
0.3128470 0.6133318 0.2612672
0.3460512 0.6182855 0.2599532
0.3820773 0.6244552 0.2625125
0.4250830 0.6311989 0.2604015
0.4589927 0.6420737 0.2600571
0.5014154 0.6494220 0.2619207
0.5291761 0.6544126 0.2646506
0.5683597 0.6605529 0.2620003
0.5970351 0.6655837 0.2645853
0.6299583 0.6706129 0.2620931
0.6554559 0.6767325 0.2646315
0.6872637 0.6871910 0.2662458
0.7076206 0.6907715 0.2696526
0.7286785 0.6944109 0.2730503
0.7462960 0.6969276 0.2715165
0.7630568 0.7060378 0.2826303
0.7807477 0.7091359 0.2867920
0.7956657 0.7124488 0.2971343
0.8098384 0.7174194 0.3075259
0.8232452 0.7236251 0.3155222
0.8354763 0.7282231 0.3273834
0.8464659 0.7310248 0.3397402
0.8547682 0.7379888 0.3483873
0.8643293 0.7405435 0.3608421
0.1352209 0.6077567 0.2767117
0.1357940 0.6097533 0.2763985
0.1357940 0.6097533 0.2763985
0.1539106 0.6127774 0.2758983
0.1698387 0.6142974 0.2756350
0.1974994 0.6179103 0.2792162
