data/spectral_luts/fuji_superia_reala_ca_pro_pdii.cube
TITLE "fuji_superia_reala_ca_pro_pdii"
LUT_3D_SIZE 9
0.0269105 0.0581586 0.0955902
0.0326955 0.0590910 0.0959434
0.0577980 0.0634096 0.0979365
0.1462655 0.0766949 0.1023477
0.3467209 0.0958404 0.1035550
0.4944791 0.1027086 0.1027086
0.5874361 0.1293886 0.1293886
0.6534594 0.1483383 0.1483383
0.7080868 0.1640171 0.1640171
0.0256841 0.0642446 0.0978390
0.0317979 0.0649255 0.0982080
0.0591535 0.0683192 0.0998596
0.1489174 0.0801922 0.1038643
0.3467991 0.0960631 0.1038660
0.4944791 0.1027086 0.1027086
0.5874361 0.1293886 0.1293886
0.6534594 0.1483383 0.1483383
0.7091698 0.1643280 0.1643280
0.0174991 0.0882715 0.1046676
0.0252101 0.0892289 0.1053727
0.0602700 0.0941715 0.1077089
0.1705822 0.1094814 0.1119826
0.3723761 0.1288923 0.1108926
0.5174801 0.1304799 0.1093102
0.5996312 0.1328888 0.1328888
0.6571792 0.1494059 0.1494059
0.7091698 0.1643280 0.1643280
0.0170191 0.1768527 0.1224776
0.0175197 0.1796706 0.1234139
0.0349394 0.1831294 0.1249230
0.1838226 0.2062433 0.1272831
0.4276069 0.2442336 0.1204882
0.5723352 0.2536203 0.1250544
0.6529376 0.2560938 0.1481885
0.7086322 0.2556911 0.1641737
0.7499612 0.2518687 0.1760357
0.0496712 0.3096894 0.1380343
0.0511067 0.3146907 0.1384036
0.0559253 0.3314793 0.1390041
0.2403191 0.3698897 0.1338810
0.4779370 0.4171995 0.1161800
0.6304301 0.4447389 0.1417285
0.7105260 0.4553091 0.1647172
0.7726080 0.4696207 0.1825357
0.8172232 0.4757023 0.1953409
0.0753095 0.3990166 0.1543797
0.0777136 0.4073929 0.1545105
0.0862262 0.4370520 0.1514253
0.3204514 0.4871389 0.1383638
0.5330577 0.5327570 0.1170820
0.6638273 0.5604452 0.1513140
0.7399400 0.5736591 0.1731595
0.8022361 0.5905237 0.1910394
0.8456395 0.6056326 0.2034968
0.0980752 0.4783358 0.1842460
0.1019913 0.4919798 0.1841855
0.1514707 0.5226139 0.1791395
0.4161474 0.5740659 0.1638857
0.5764149 0.6096532 0.1535094
0.6918899 0.6368748 0.1593684
0.7615777 0.6505496 0.1793698
0.8185927 0.6667572 0.2042687
0.8621833 0.6818832 0.2466535
0.1223022 0.5627461 0.2356273
0.1410813 0.5815985 0.2388082
0.3450398 0.6167753 0.2345335
0.4900601 0.6478009 0.2285085
0.6233380 0.6787424 0.2348929
0.7118805 0.6987994 0.2415777
0.7787806 0.7170383 0.2716098
0.8290323 0.7323883 0.3031751
0.8684881 0.7442185 0.3346953
0.3083392 0.6600151 0.3311901
0.3586897 0.6693394 0.3296649
0.4454283 0.6877490 0.3330489
0.5590830 0.7120832 0.3344576
0.6564951 0.7346316 0.3468705
0.7290597 0.7507128 0.3550486
0.7900665 0.7642011 0.3749819
0.8397667 0.7771621 0.3997290
0.8764556 0.7866776 0.4199631
0.0260631 0.0596967 0.1041008
0.0320070 0.0607115 0.1046947
0.0577077 0.0651703 0.1076062
0.1460240 0.0784230 0.1127317
0.3472827 0.0977908 0.1144295
0.4952725 0.1035813 0.1129708
0.5881459 0.1295923 0.1295923
0.6544380 0.1486191 0.1486191
0.7094586 0.1644109 0.1644109
0.0243423 0.0667171 0.1082134
0.0303504 0.0674820 0.1089447
0.0598735 0.0711871 0.1112371
0.1545369 0.0831268 0.1147230
0.3472827 0.0977908 0.1144295
0.4953010 0.1036529 0.1136663
0.5881866 0.1296040 0.1296040
0.6544983 0.1486365 0.1486365
0.7094586 0.1644109 0.1644109
0.0132429 0.0928967 0.1185629
0.0215173 0.0941702 0.1191304
0.0594729 0.0980452 0.1212989
0.1751732 0.1133607 0.1254482
0.3802763 0.1326159 0.1249527
0.5190015 0.1347652 0.1214245
0.6014574 0.1334129 0.1334129
0.6582240 0.1497058 0.1497058
0.7095425 0.1644349 0.1644349
0.0190144 0.1878136 0.1392307
0.0192283 0.1889483 0.1401121
0.0210321 0.1982348 0.1423876
0.1892624 0.2213405 0.1453518
0.4283836 0.2521389 0.1403354
0.5762762 0.2692487 0.1370106
0.6581309 0.2691668 0.1496791
0.7091155 0.2578079 0.1643124
0.7503995 0.2535149 0.1761615
0.0525944 0.3198741 0.1587349
0.0540672 0.3250058 0.1597481
0.0590805 0.3424727 0.1611685
0.2486448 0.3866059 0.1578003
0.4887188 0.4286996 0.1465997
0.6304504 0.4543124 0.1417343
0.7119871 0.4691319 0.1651366
0.7770774 0.4764493 0.1838185
0.8172650 0.4790733 0.1953529
0.0785499 0.4103067 0.1827512
0.0808813 0.4184298 0.1821090
0.0892554 0.4476063 0.1826892
0.3280202 0.5010202 0.1733933
0.5302793 0.5427071 0.1624990
0.6626503 0.5718091 0.1611658
0.7397775 0.5888550 0.1745883
0.8016204 0.5989074 0.1987270
0.8452845 0.6128541 0.2338939
0.1010187 0.4885913 0.2220677
0.1058356 0.5053740 0.2202211
0.1244293 0.5337202 0.2192685
0.4085489 0.5862806 0.2150860
0.5724337 0.6206016 0.2097018
0.6890115 0.6488138 0.2236316
0.7600996 0.6650207 0.2367103
0.8168049 0.6770535 0.2707402
0.8609023 0.6906428 0.3023453
0.1272000 0.5798107 0.2873620
0.1307224 0.5920831 0.2859461
0.3331654 0.6275315 0.2859807
0.4824407 0.6593680 0.2880810
0.6187786 0.6895462 0.2934453
0.7078201 0.7111531 0.3133344
0.7759892 0.7277817 0.3343081
0.8270715 0.7403565 0.3543984
0.8699508 0.7522748 0.3839334
0.3171175 0.6722522 0.3749307
0.3604444 0.6812796 0.3799355
0.4379893 0.6961637 0.3779787
0.5539999 0.7203779 0.3800875
0.6527213 0.7428495 0.3938136
0.7258636 0.7592608 0.4057668
0.7878670 0.7706982 0.4177548
0.8380333 0.7831068 0.4397267
0.8748755 0.7936384 0.4629810
0.0237135 0.0643214 0.1303336
0.0295947 0.0651589 0.1310935
0.0582238 0.0693989 0.1343471
0.1515694 0.0835379 0.1426996
0.3584133 0.1034513 0.1496631
0.5039319 0.1101821 0.1555527
0.5915002 0.1305551 0.1671350
0.6623710 0.1508961 0.1842279
0.7142578 0.1657883 0.2140106
0.0199055 0.0725557 0.1394125
0.0266617 0.0734034 0.1398101
0.0594274 0.0772627 0.1418761
0.1598448 0.0897073 0.1473925
0.3587709 0.1044923 0.1498097
0.5039319 0.1101821 0.1555527
0.5958475 0.1318028 0.1668811
0.6623710 0.1508961 0.1842279
0.7142578 0.1657883 0.2140106
0.0137181 0.1020711 0.1569313
0.0140161 0.1036762 0.1588375
0.0561153 0.1085204 0.1612749
0.1750873 0.1229967 0.1677472
0.3824972 0.1422480 0.1702989
0.5287282 0.1453608 0.1732497
0.6058167 0.1409803 0.1776229
0.6623710 0.1508961 0.1842279
0.7142578 0.1657883 0.2140106
0.0241677 0.2133309 0.1914950
0.0248591 0.2165029 0.1921614
0.0267149 0.2247713 0.1955612
0.1937066 0.2436874 0.2017047
0.4377179 0.2815864 0.2030734
0.5795568 0.2890305 0.2065477
0.6626993 0.2896320 0.2170138
0.7206916 0.2863245 0.2287099
0.7620737 0.2817723 0.2493476
0.0604796 0.3473475 0.2291883
0.0619768 0.3525636 0.2296661
0.0669338 0.3698345 0.2338546
0.2441050 0.4151069 0.2360999
0.4836267 0.4561174 0.2418919
0.6354619 0.4826997 0.2416604
0.7172056 0.4959502 0.2583006
0.7780054 0.5014419 0.2808840
0.8189293 0.5036185 0.3056153
0.0869417 0.4395450 0.2745011
0.0896360 0.4489324 0.2750166
0.0986462 0.4803252 0.2803045
0.3221188 0.5318564 0.2814510
0.5299394 0.5741755 0.2843311
0.6630818 0.5949360 0.2896185
0.7407435 0.6118453 0.3095337
0.7993447 0.6256411 0.3373225
0.8465899 0.6336135 0.3635816
0.1100707 0.5201298 0.3335145
0.1148081 0.5366355 0.3398483
0.1235833 0.5672095 0.3397654
0.4029692 0.6138843 0.3419973
0.5726802 0.6492988 0.3493925
0.6814879 0.6711002 0.3601421
0.7543302 0.6868260 0.3750391
0.8130133 0.7003902 0.3976982
0.8576655 0.7086127 0.4213131
0.1353138 0.6080804 0.4014256
0.1394039 0.6223307 0.4082478
0.3177119 0.6546529 0.4074304
0.4766040 0.6848180 0.4120309
0.6157259 0.7131131 0.4155268
0.7005410 0.7290936 0.4296965
0.7707563 0.7437961 0.4404839
0.8226255 0.7561627 0.4627094
0.8664218 0.7666983 0.4852099
0.3056620 0.6928250 0.4821147
0.3422480 0.6989567 0.4820668
0.4335595 0.7154967 0.4816036
0.5521604 0.7385730 0.4869719
0.6447849 0.7573233 0.4913047
0.7258853 0.7733790 0.4946316
0.7881269 0.7866090 0.5065964
0.8344179 0.7973695 0.5251178
0.8720965 0.8037691 0.5356849
0.0215325 0.0720125 0.2007279
0.0256593 0.0728121 0.1999107
0.0599695 0.0764624 0.2036172
0.1694092 0.0921066 0.2178780
0.3685157 0.1110851 0.2330230
0.5173588 0.1200917 0.2519619
0.6026654 0.1337596 0.2825519
0.6697935 0.1530264 0.3082663
0.7227780 0.1722739 0.3442260
0.0252423 0.0821339 0.2182391
0.0261077 0.0831821 0.2221037
0.0587987 0.0871154 0.2230727
0.1713304 0.1004847 0.2328324
0.3721353 0.1150684 0.2391266
0.5173588 0.1200917 0.2519619
0.6026654 0.1337596 0.2825519
0.6699826 0.1530807 0.3136561
0.7227780 0.1722739 0.3442260
0.0362224 0.1198363 0.2626115
0.0365304 0.1217071 0.2637338
0.0459843 0.1270316 0.2668638
0.1762664 0.1406149 0.2758618
0.4027011 0.1612387 0.2840652
0.5411460 0.1630675 0.2940473
0.6192064 0.1561462 0.3024471
0.6725174 0.1538082 0.3169284
0.7227780 0.1722739 0.3442260
0.0545040 0.2521314 0.3265274
0.0548001 0.2536912 0.3275590
0.0556724 0.2590050 0.3305982
0.1957822 0.2867357 0.3434470
0.4442394 0.3217198 0.3526965
0.5915019 0.3325524 0.3614351
0.6738957 0.3295426 0.3694959
0.7304652 0.3258874 0.3861369
0.7727245 0.3199205 0.3971760
0.0718118 0.3868303 0.3852998
0.0720601 0.3876954 0.3834150
0.0775977 0.4069892 0.3880814
0.2459717 0.4548218 0.4013018
0.4915597 0.4976879 0.4092686
0.6307627 0.5202839 0.4240254
0.7150787 0.5281288 0.4343721
0.7788428 0.5380550 0.4455077
0.8238867 0.5369968 0.4662847
0.0972267 0.4753795 0.4326244
0.1000600 0.4852509 0.4401090
0.1084040 0.5143227 0.4452316
0.3113932 0.5684621 0.4564813
0.5238283 0.6074802 0.4629060
0.6544668 0.6273314 0.4676985
0.7349567 0.6411794 0.4827684
0.7998849 0.6527002 0.4925185
0.8440869 0.6566082 0.5099211
0.1208425 0.5576602 0.4895571
0.1234337 0.5666885 0.4911110
0.1330048 0.6000355 0.4953566
0.3884416 0.6447632 0.5030428
0.5684511 0.6775628 0.5078989
0.6786647 0.6983183 0.5119242
0.7546709 0.7129315 0.5214663
0.8125185 0.7206976 0.5342001
0.8543486 0.7274938 0.5442562
0.1440618 0.6385597 0.5370869
0.1472341 0.6496121 0.5382794
0.3022691 0.6775880 0.5404503
0.4700225 0.7077127 0.5467231
0.6043531 0.7326821 0.5512902
0.6986006 0.7507513 0.5554087
0.7697695 0.7644465 0.5620794
0.8226366 0.7748329 0.5714664
0.8631929 0.7799993 0.5805914
0.2994828 0.7096270 0.5781904
0.3509370 0.7178744 0.5786855
0.4306090 0.7327762 0.5864101
0.5522590 0.7543539 0.5843660
0.6438834 0.7725517 0.5914145
0.7196364 0.7872164 0.5958042
0.7834327 0.7993335 0.5998020
0.8308561 0.8087862 0.6086628
0.8691195 0.8156803 0.6177582
0.0587506 0.0714372 0.3413233
0.0584329 0.0725572 0.3402163
0.0748165 0.0769423 0.3443151
0.1775673 0.0899421 0.3562274
0.3912575 0.1122304 0.3810823
0.5328716 0.1211263 0.4018485
0.6174064 0.1379905 0.4224167
0.6835168 0.1569652 0.4448181
0.7356328 0.1818385 0.4713909
0.0652068 0.0841444 0.3638175
0.0649439 0.0858433 0.3629014
0.0744786 0.0899528 0.3720521
0.1877640 0.1044104 0.3801024
0.3957054 0.1207905 0.3934199
0.5331935 0.1224101 0.4021129
0.6174064 0.1379905 0.4224167
0.6835168 0.1569652 0.4448181
0.7356328 0.1818385 0.4713909
0.0776732 0.1288496 0.4072523
0.0782082 0.1311554 0.4091162
0.0791607 0.1378558 0.4124349
0.2028942 0.1568910 0.4284073
0.4228474 0.1776171 0.4372624
0.5565645 0.1806023 0.4441665
0.6307960 0.1752377 0.4506174
0.6876087 0.1663250 0.4519494
0.7356328 0.1818385 0.4713909
0.0966444 0.2855735 0.4733505
0.0962474 0.2834212 0.4719675
0.0982046 0.2975541 0.4787866
0.2256673 0.3305725 0.4963332
0.4644043 0.3636661 0.5074825
0.6029840 0.3739392 0.5140868
0.6838857 0.3718134 0.5157923
0.7444562 0.3682407 0.5192530
0.7840353 0.3623364 0.5270305
0.1111449 0.4158462 0.5238726
0.1118342 0.4223400 0.5262740
0.1141940 0.4463591 0.5344959
0.2470259 0.4858522 0.5429339
0.4922535 0.5264896 0.5537209
0.6337080 0.5478432 0.5600819
0.7192435 0.5545110 0.5621417
0.7830169 0.5620111 0.5734034
0.8254753 0.5612756 0.5750396
0.1219891 0.5019343 0.5616550
0.1228300 0.5119136 0.5645848
0.1248573 0.5386017 0.5716485
0.3188213 0.5938119 0.5862885
0.5270469 0.6282140 0.5875636
0.6549665 0.6508994 0.5931551
0.7367755 0.6634414 0.5976070
0.7973648 0.6694962 0.6062769
0.8430978 0.6768242 0.6106426
0.1331024 0.5818983 0.6003755
0.1336296 0.5899755 0.6022123
0.1410953 0.6282238 0.6095052
0.3932180 0.6655939 0.6121598
0.5682455 0.6964235 0.6188197
0.6787758 0.7166527 0.6234357
0.7503335 0.7283543 0.6274796
0.8095134 0.7350030 0.6312487
0.8551757 0.7433647 0.6414777
0.1503438 0.6604471 0.6331762
0.1543298 0.6743348 0.6353530
0.3337276 0.7004293 0.6386812
0.4851405 0.7270990 0.6449001
0.6124379 0.7496594 0.6460296
0.6991228 0.7658850 0.6503081
0.7655286 0.7754679 0.6541821
0.8193282 0.7851735 0.6580608
0.8606735 0.7915931 0.6619012
0.3178167 0.7275400 0.6617676
0.3643299 0.7349390 0.6625491
0.4487879 0.7499587 0.6677406
0.5536343 0.7691324 0.6690185
0.6446975 0.7857285 0.6736146
0.7210250 0.7997476 0.6738111
0.7845153 0.8115755 0.6777795
0.8320490 0.8180275 0.6815944
0.8666354 0.8247391 0.6893673
0.0913312 0.0913312 0.4548387
0.0912573 0.0912573 0.4545813
0.1030470 0.0940036 0.4641497
0.2198633 0.0973127 0.4756792
0.4134814 0.1096526 0.4889963
0.5471290 0.1241949 0.5069599
0.6307387 0.1418171 0.5245532
0.6942683 0.1688201 0.5438616
0.7487426 0.2141672 0.5627527
0.0970931 0.0970931 0.4749138
0.0971075 0.0971075 0.4749641
0.0995082 0.0988821 0.4811472
0.2300883 0.1137766 0.4938391
0.4273099 0.1297291 0.5081285
0.5536475 0.1285989 0.5101408
0.6307387 0.1418171 0.5245532
0.6942683 0.1688201 0.5438616
0.7487426 0.2141672 0.5627527
0.1079385 0.1628854 0.5127007
0.1080775 0.1657707 0.5131853
0.1103465 0.1762322 0.5210906
0.2513945 0.1953679 0.5333320
0.4509239 0.2118923 0.5475210
0.5778759 0.2206551 0.5556784
0.6490147 0.2106947 0.5530950
0.7074164 0.2029065 0.5543917
0.7488766 0.2138155 0.5663436
0.1246851 0.3191549 0.5710484
0.1253671 0.3221763 0.5734248
0.1276441 0.3410752 0.5813578
0.2670154 0.3773002 0.5964418
0.4827717 0.4101577 0.6095868
0.6197594 0.4165410 0.6099042
0.6965168 0.4163412 0.6136679
0.7551829 0.4131020 0.6149788
0.7972217 0.4054461 0.6173930
0.1368896 0.4413812 0.6135705
0.1379694 0.4506118 0.6173329
0.1405285 0.4715985 0.6262491
0.3072805 0.5210094 0.6384880
0.5064339 0.5523887 0.6483837
0.6447545 0.5746680 0.6514342
0.7243559 0.5791075 0.6555077
0.7844568 0.5877790 0.6599166
0.8311969 0.5882146 0.6615388
0.1461648 0.5254315 0.6458868
0.1476794 0.5418758 0.6511636
0.1498192 0.5677288 0.6586190
0.3521659 0.6160835 0.6726373
0.5402617 0.6469138 0.6755077
0.6641046 0.6685105 0.6812533
0.7398000 0.6767793 0.6817154
0.8004459 0.6851402 0.6857203
0.8457212 0.6922972 0.6896477
0.1553026 0.6013743 0.6777239
0.1564596 0.6167478 0.6817551
0.1934220 0.6497457 0.6870978
0.4235667 0.6837878 0.6926440
0.5802099 0.7108555 0.6994758
0.6813020 0.7287764 0.7008516
0.7526917 0.7413809 0.7050654
0.8117893 0.7503940 0.7089245
0.8536796 0.7539948 0.7124757
0.1638158 0.6847221 0.7073853
0.2155715 0.6970308 0.7095935
0.3526302 0.7161984 0.7126059
0.4994963 0.7411148 0.7209440
0.6143840 0.7618379 0.7212582
0.7014005 0.7766773 0.7221867
0.7675721 0.7859792 0.7257049
0.8212506 0.7956122 0.7306355
0.8616058 0.8026579 0.7338758
0.3515143 0.7447734 0.7337359
0.3789328 0.7491904 0.7343450
0.4652506 0.7639890 0.7361883
0.5699207 0.7805753 0.7363799
0.6545382 0.7953610 0.7374934
0.7212484 0.8079103 0.7426998
0.7817350 0.8185908 0.7416409
0.8297057 0.8265865 0.7461248
0.8673232 0.8332899 0.7491085
0.1168340 0.1168340 0.5436939
0.1173323 0.1173323 0.5454302
0.1314350 0.1190402 0.5513806
0.2792562 0.1247358 0.5712250
0.4485389 0.1275317 0.5809663
0.5691373 0.1368813 0.5893449
0.6474774 0.1614134 0.6053413
0.7129366 0.2069519 0.6248134
0.7666582 0.2551631 0.6437772
0.1206568 0.1206568 0.5570132
0.1212964 0.1212964 0.5592416
0.1329880 0.1231286 0.5656252
0.2892995 0.1438993 0.5855953
0.4629212 0.1578842 0.5949552
0.5787958 0.1596286 0.5993893
0.6474774 0.1614134 0.6053413
0.7129366 0.2069519 0.6248134
0.7666582 0.2551631 0.6437772
0.1333798 0.2190809 0.6013420
0.1343649 0.2236389 0.6047743
0.1368442 0.2384652 0.6134125
0.3046287 0.2577341 0.6264647
0.4852565 0.2811062 0.6373757
0.6025150 0.2795546 0.6426656
0.6767978 0.2750431 0.6414159
0.7292431 0.2642391 0.6433201
0.7666582 0.2551631 0.6437772
0.1470661 0.3618089 0.6490270
0.1481111 0.3673253 0.6526681
0.1509646 0.3904292 0.6626099
0.3157097 0.4237468 0.6770689
0.5119378 0.4518094 0.6886408
0.6362838 0.4668462 0.6910716
0.7118226 0.4687923 0.6947001
0.7682835 0.4665225 0.6931133
0.8119926 0.4594797 0.6949850
0.1576079 0.4684545 0.6857562
0.1589171 0.4793990 0.6903177
0.1615401 0.5072682 0.6994563
0.3553245 0.5544646 0.7135053
0.5338529 0.5841920 0.7199310
0.6560728 0.5968524 0.7237113
0.7302373 0.6081556 0.7252428
0.7897007 0.6092466 0.7280823
0.8335462 0.6153848 0.7314330
0.1662018 0.5588725 0.7156984
0.1667501 0.5640631 0.7176087
0.1697040 0.5974041 0.7279007
0.3947136 0.6364102 0.7368497
0.5645227 0.6641861 0.7403536
0.6679250 0.6820753 0.7454780
0.7435697 0.6945738 0.7467675
0.8040780 0.7000508 0.7498437
0.8485095 0.7055731 0.7528726
0.1732812 0.6317729 0.7403641
0.1743984 0.6471666 0.7442567
0.2799603 0.6743044 0.7502553
0.4574964 0.7027956 0.7553729
0.5947716 0.7262945 0.7613755
0.6884956 0.7428256 0.7631598
0.7609471 0.7543969 0.7668110
0.8147300 0.7598034 0.7657814
0.8560474 0.7666871 0.7687659
0.2226746 0.7071891 0.7660187
0.2915451 0.7160466 0.7677062
0.3876729 0.7308196 0.7702793
0.5167357 0.7522591 0.7722243
0.6283627 0.7724264 0.7745769
0.7045518 0.7863156 0.7784542
0.7706192 0.7971005 0.7792193
0.8239005 0.8037469 0.7821965
0.8629458 0.8102990 0.7824639
0.3876219 0.7559013 0.7801858
0.4214471 0.7615479 0.7810465
0.4998618 0.7752588 0.7829564
0.5830371 0.7905409 0.7872437
0.6601847 0.8046275 0.7886462
0.7246521 0.8155492 0.7895280
0.7845309 0.8264087 0.7927397
0.8323571 0.8347545 0.7931383
0.8659871 0.8399544 0.7958689
0.1391129 0.1418253 0.6213167
0.1396059 0.1438804 0.6230347
0.1780981 0.1578130 0.6333794
0.3431824 0.1774473 0.6473143
0.4932867 0.1913543 0.6568944
0.5990992 0.1916392 0.6592794
0.6703420 0.2122245 0.6708187
0.7308317 0.2600762 0.6848900
0.7860726 0.3218900 0.7046251
0.1434273 0.1857676 0.6363490
0.1433290 0.1815236 0.6360063
0.1664807 0.1966239 0.6470954
0.3589564 0.2224257 0.6640625
0.4978923 0.2296486 0.6696638
0.6083231 0.2351537 0.6741271
0.6740677 0.2317324 0.6763217
0.7345116 0.2601989 0.6849943
0.7860726 0.3218900 0.7046251
0.1531031 0.2915912 0.6700609
0.1540523 0.2952930 0.6733677
0.1569382 0.3122590 0.6834227
0.3616152 0.3418543 0.6986290
0.5269044 0.3623685 0.7072660
0.6326444 0.3660225 0.7123512
0.7039855 0.3698992 0.7129207
0.7555501 0.3645340 0.7125155
0.7933800 0.3541695 0.7121838
0.1637539 0.4077768 0.7071695
0.1650411 0.4168562 0.7116545
0.1677137 0.4402507 0.7209662
0.3742150 0.4739838 0.7348241
0.5373478 0.4998895 0.7447262
0.6529282 0.5146465 0.7472489
0.7233887 0.5165986 0.7480941
0.7835837 0.5216056 0.7516299
0.8245050 0.5186767 0.7500787
0.1732899 0.5091031 0.7403945
0.1739657 0.5151533 0.7427489
0.1773592 0.5483006 0.7545725
0.3962058 0.5845345 0.7647458
0.5591025 0.6101188 0.7694129
0.6675564 0.6226256 0.7719570
0.7409103 0.6341009 0.7761160
0.7986069 0.6407911 0.7770258
0.8389749 0.6408688 0.7782569
0.1796816 0.5841762 0.7626640
0.1811373 0.6005369 0.7677360
0.2413121 0.6283371 0.7753361
0.4418036 0.6580740 0.7844331
0.5896664 0.6836854 0.7891043
0.6847113 0.6998632 0.7903307
0.7547827 0.7100820 0.7915955
0.8080756 0.7145857 0.7944080
0.8487784 0.7208834 0.7949708
0.1866405 0.6623088 0.7869097
0.1880151 0.6741515 0.7897846
0.3531190 0.6960981 0.7945737
0.4876350 0.7176456 0.7986636
0.6148584 0.7403549 0.8043308
0.6988124 0.7551177 0.8061705
0.7647996 0.7652856 0.8061249
0.8182690 0.7710704 0.8088428
0.8584375 0.7765031 0.8092238
0.3010539 0.7240373 0.8046350
0.3500131 0.7313239 0.8060488
0.4382325 0.7449529 0.8085554
0.5482404 0.7645190 0.8138046
0.6400050 0.7810510 0.8159792
0.7148265 0.7935707 0.8173670
0.7790275 0.8048190 0.8183771
0.8270432 0.8132070 0.8212411
0.8621241 0.8182403 0.8215433
0.4428199 0.7715881 0.8207498
0.4719172 0.7766325 0.8215498
0.5295899 0.7868776 0.8230700
0.6045648 0.8004632 0.8248647
0.6692848 0.8114798 0.8261481
0.7363214 0.8235570 0.8273192
0.7926394 0.8336912 0.8302654
0.8352986 0.8403454 0.8307077
0.8675977 0.8460268 0.8331878
0.1601953 0.2541946 0.6947710
0.1599570 0.2456693 0.6939408
0.2312754 0.2637197 0.7042058
0.4066295 0.2897923 0.7182019
0.5383327 0.2932347 0.7220306
0.6308677 0.3021722 0.7263013
0.6959715 0.2927151 0.7278346
0.7549364 0.3392790 0.7396707
0.8047078 0.3920967 0.7559544
0.1634623 0.2886275 0.7061535
0.1640394 0.2918587 0.7081644
0.2156978 0.3069975 0.7178487
0.4049588 0.3356404 0.7308779
0.5423076 0.3417670 0.7360430
0.6429006 0.3529526 0.7394500
0.7066282 0.3491706 0.7419590
0.7549364 0.3392790 0.7396707
0.8047078 0.3920967 0.7559544
0.1705099 0.3699777 0.7307084
0.1712907 0.3751306 0.7334290
0.2054867 0.3980205 0.7444692
0.4161243 0.4219106 0.7547612
0.5546170 0.4397193 0.7612904
0.6530874 0.4528722 0.7673330
0.7201490 0.4494221 0.7665184
0.7731662 0.4464911 0.7655062
0.8125970 0.4400792 0.7668080
0.1780255 0.4615817 0.7568938
0.1788389 0.4680979 0.7597278
0.2207028 0.4988863 0.7717561
0.4182138 0.5271565 0.7832585
0.5701179 0.5517763 0.7899113
0.6719334 0.5588581 0.7911812
0.7371621 0.5681674 0.7930881
0.7927200 0.5689520 0.7945729
0.8351713 0.5720983 0.7951857
0.1855175 0.5445882 0.7829971
0.1870701 0.5599672 0.7884066
0.2666124 0.5860704 0.7956141
0.4506895 0.6135524 0.8030668
0.5925066 0.6375498 0.8083134
0.6828704 0.6507690 0.8108386
0.7513046 0.6566480 0.8129969
0.8038758 0.6645807 0.8141326
0.8450384 0.6689095 0.8147064
0.1915513 0.6225411 0.8040197
0.1923172 0.6313348 0.8066883
0.3409067 0.6551651 0.8128331
0.4833241 0.6788180 0.8180599
0.6103372 0.6997119 0.8239196
0.6934648 0.7139294 0.8261514
0.7640465 0.7256475 0.8277265
0.8122654 0.7280321 0.8271125
0.8521343 0.7343548 0.8297241
0.2602867 0.6911159 0.8238818
0.3188259 0.6992550 0.8257401
0.4187539 0.7151294 0.8290937
0.5314450 0.7346691 0.8327270
0.6347390 0.7519961 0.8355258
0.7093448 0.7650223 0.8363003
0.7738082 0.7762557 0.8404142
0.8219494 0.7832336 0.8402065
0.8606737 0.7864730 0.8404838
0.3769891 0.7430076 0.8379303
0.4206854 0.7501739 0.8392994
0.4872056 0.7608166 0.8412586
0.5819650 0.7777137 0.8439527
0.6588157 0.7915407 0.8458574
0.7230355 0.8029870 0.8472214
0.7828157 0.8127622 0.8500818
0.8305087 0.8209426 0.8508055
0.8641103 0.8239127 0.8500933
0.4926053 0.7868387 0.8500595
0.5153276 0.7908676 0.8507018
0.5601431 0.7989144 0.8519201
0.6253906 0.8107517 0.8535537
0.6868762 0.8218452 0.8540511
0.7460417 0.8317711 0.8551199
0.7963975 0.8384287 0.8557584
0.8383635 0.8458382 0.8580906
0.8696907 0.8511981 0.8584663
