data/spectral_luts/fuji_natura_1600_ca_dpii.cube
TITLE "fuji_natura_1600_ca_dpii"
LUT_3D_SIZE 33
0.0683694 0.0928136 0.1078402
0.0683694 0.0928136 0.1078402
0.0683694 0.0928136 0.1078402
0.0696562 0.0929524 0.1078693
0.0744855 0.0934761 0.1079759
0.0808703 0.0941735 0.1081099
0.0886614 0.0950289 0.1082615
0.0984562 0.0961057 0.1084321
0.1113585 0.0975871 0.1086318
0.1285121 0.0996883 0.1090561
0.1491879 0.1022565 0.1094385
0.1771158 0.1055136 0.1096902
0.2091665 0.1091422 0.1101349
0.2462968 0.1130125 0.1102422
0.2835317 0.1164673 0.1102532
0.3270779 0.1197351 0.1099163
0.3715678 0.1229370 0.1092456
0.4194061 0.1260975 0.1079762
0.4583042 0.1300996 0.1077867
0.4961685 0.1337191 0.1071794
0.5417201 0.1382192 0.1162675
0.5712925 0.1437997 0.1247552
0.6066855 0.1500456 0.1349135
0.6326908 0.1569276 0.1423774
0.6632610 0.1663832 0.1511515
0.6872001 0.1785238 0.1580224
0.7097182 0.1914908 0.1644854
0.7312797 0.2068605 0.1706738
0.7487732 0.2248010 0.1756947
0.7657678 0.2397045 0.1805724
0.7830086 0.2642603 0.1855208
0.7983076 0.2856554 0.1899118
0.8139746 0.3059244 0.1944085
0.0683694 0.0928136 0.1078402
0.0683694 0.0928136 0.1078402
0.0683694 0.0928136 0.1078402
0.0700923 0.0929996 0.1078791
0.0749344 0.0935250 0.1079856
0.0808703 0.0941735 0.1081099
0.0886614 0.0950289 0.1082615
0.0984438 0.0962484 0.1084563
0.1120267 0.0980682 0.1089077
0.1285066 0.1001788 0.1093371
0.1522192 0.1031577 0.1097426
0.1771882 0.1062465 0.1102151
0.2093027 0.1099639 0.1104627
0.2464161 0.1136111 0.1107683
0.2836933 0.1171385 0.1107955
0.3273683 0.1207627 0.1102775
0.3720047 0.1243631 0.1099146
0.4201545 0.1283959 0.1087633
0.4590379 0.1322935 0.1082672
0.5058635 0.1365334 0.1069909
0.5429570 0.1417996 0.1166225
0.5740924 0.1465289 0.1255588
0.6079687 0.1537396 0.1352818
0.6343864 0.1618981 0.1428640
0.6655647 0.1731417 0.1518127
0.6895761 0.1855464 0.1587043
0.7122443 0.1990262 0.1652104
0.7328921 0.2117102 0.1711366
0.7500777 0.2288260 0.1760691
0.7686270 0.2459735 0.1813931
0.7852978 0.2716229 0.1861778
0.8022736 0.2914847 0.1910501
0.8157237 0.3118790 0.1949105
0.0683694 0.0928136 0.1078402
0.0683694 0.0928136 0.1078402
0.0683694 0.0928136 0.1078402
0.0705285 0.0930467 0.1078889
0.0749208 0.0935930 0.1079976
0.0812773 0.0944655 0.1083577
0.0891062 0.0955536 0.1085488
0.0995300 0.0969578 0.1089704
0.1119907 0.0986350 0.1092018
0.1310613 0.1011235 0.1096684
0.1522589 0.1038523 0.1100556
0.1807685 0.1073784 0.1105239
0.2134136 0.1109732 0.1109327
0.2466270 0.1146033 0.1111220
0.2839552 0.1181903 0.1111532
0.3278092 0.1223380 0.1109594
0.3725495 0.1261443 0.1103516
0.4208285 0.1304788 0.1095542
0.4599249 0.1349564 0.1091044
0.5071188 0.1402170 0.1079946
0.5459067 0.1444289 0.1174691
0.5751174 0.1495048 0.1258530
0.6093059 0.1576311 0.1356656
0.6422554 0.1669374 0.1451226
0.6675751 0.1790334 0.1523897
0.6906592 0.1887096 0.1590151
0.7136921 0.2033903 0.1656260
0.7353246 0.2190949 0.1718348
0.7519385 0.2345576 0.1766032
0.7724063 0.2579163 0.1824778
0.7869878 0.2771544 0.1866629
0.8039438 0.2970982 0.1915295
0.8179724 0.3196878 0.1955559
0.0682370 0.0932741 0.1081169
0.0682190 0.0933480 0.1081300
0.0682190 0.0933480 0.1081300
0.0707895 0.0937776 0.1082147
0.0756231 0.0944838 0.1085480
0.0815956 0.0952948 0.1086992
0.0894891 0.0964323 0.1090951
0.1000552 0.0979197 0.1093303
0.1133837 0.0998182 0.1097908
0.1301906 0.1020752 0.1102351
0.1513092 0.1048972 0.1106425
0.1808890 0.1084752 0.1111044
0.2136220 0.1122843 0.1117748
0.2469430 0.1161519 0.1119995
0.2844682 0.1202933 0.1121117
0.3283845 0.1244047 0.1116950
0.3735155 0.1293316 0.1111881
0.4221315 0.1345395 0.1105053
0.4612904 0.1390900 0.1100947
0.5082723 0.1436298 0.1085839
0.5473405 0.1486105 0.1178806
0.5824280 0.1544274 0.1279512
0.6109806 0.1625302 0.1361462
0.6445619 0.1736653 0.1457846
0.6698967 0.1859179 0.1530560
0.6941518 0.1991625 0.1600176
0.7164624 0.2116883 0.1664211
0.7384126 0.2285243 0.1727211
0.7554330 0.2454737 0.1776062
0.7742097 0.2635617 0.1829954
0.7887469 0.2829045 0.1871678
0.8062400 0.3048454 0.1921885
0.8198415 0.3261160 0.1960924
0.0678979 0.0944737 0.1087203
0.0678502 0.0945781 0.1089352
0.0678303 0.0946570 0.1089491
0.0713222 0.0951155 0.1090414
0.0762264 0.0958930 0.1091897
0.0822518 0.0967454 0.1095442
0.0897943 0.0979035 0.1097436
0.0998770 0.0993724 0.1101744
0.1132766 0.1013715 0.1106515
0.1327797 0.1039665 0.1111246
0.1544262 0.1068313 0.1115231
0.1810929 0.1104459 0.1122577
0.2140078 0.1146456 0.1127645
0.2521406 0.1192155 0.1129214
0.2920986 0.1240448 0.1130273
0.3296174 0.1288990 0.1132052
0.3749839 0.1342498 0.1125196
0.4237674 0.1397045 0.1118533
0.4717694 0.1448608 0.1105678
0.5105314 0.1503565 0.1105534
0.5500885 0.1567100 0.1186693
0.5853626 0.1630344 0.1287935
0.6167224 0.1741045 0.1377942
0.6477643 0.1831721 0.1467037
0.6732684 0.1960166 0.1540238
0.6966941 0.2068359 0.1607473
0.7205716 0.2242415 0.1676005
0.7428530 0.2387618 0.1739956
0.7592543 0.2575139 0.1787030
0.7781492 0.2763504 0.1841261
0.7935253 0.2961349 0.1885393
0.8110764 0.3188719 0.1935767
0.8239187 0.3406665 0.1972626
0.0669064 0.0962726 0.1098228
0.0668835 0.0963589 0.1098379
0.0677443 0.0964516 0.1098572
0.0712699 0.0970106 0.1099662
0.0762104 0.0978459 0.1103220
0.0823539 0.0986994 0.1104773
0.0910646 0.0999778 0.1108994
0.1015051 0.1017760 0.1111786
0.1139010 0.1036276 0.1116348
0.1318928 0.1064556 0.1121585
0.1545791 0.1098809 0.1128418
0.1850656 0.1143866 0.1136279
0.2187902 0.1191598 0.1139349
0.2530949 0.1238498 0.1144743
0.2935277 0.1299324 0.1147054
0.3312263 0.1348810 0.1146399
0.3770193 0.1412302 0.1146561
0.4258673 0.1464489 0.1133629
0.4739099 0.1514513 0.1125237
0.5132516 0.1585859 0.1123849
0.5530585 0.1655871 0.1195217
0.5919348 0.1770153 0.1306798
0.6207967 0.1862951 0.1389636
0.6520995 0.1961510 0.1479480
0.6768520 0.2068338 0.1550523
0.7036257 0.2239650 0.1627367
0.7263862 0.2384392 0.1692694
0.7479971 0.2550147 0.1754720
0.7647615 0.2754030 0.1802836
0.7837562 0.2950191 0.1857354
0.7997963 0.3175937 0.1903391
0.8150880 0.3330305 0.1947281
0.8280780 0.3559053 0.1984564
0.0655702 0.0991482 0.1111314
0.0655702 0.0991482 0.1111314
0.0677190 0.0996534 0.1112263
0.0718241 0.1000980 0.1113147
0.0764124 0.1009209 0.1116712
0.0826351 0.1023489 0.1119195
0.0915563 0.1037448 0.1123565
0.1016750 0.1058484 0.1126772
0.1167312 0.1086779 0.1132642
0.1336187 0.1117199 0.1138067
0.1569058 0.1152743 0.1144771
0.1845230 0.1205746 0.1154269
0.2183938 0.1253804 0.1159857
0.2545445 0.1312000 0.1166017
0.2952895 0.1375015 0.1168761
0.3416063 0.1438941 0.1165808
0.3884941 0.1502175 0.1161549
0.4381509 0.1569687 0.1153239
0.4780639 0.1645647 0.1153562
0.5202067 0.1736740 0.1148182
0.5584686 0.1821457 0.1210745
0.5968149 0.1918973 0.1320805
0.6302497 0.1990958 0.1416767
0.6582242 0.2101267 0.1497058
0.6838305 0.2236967 0.1570552
0.7081103 0.2379840 0.1640239
0.7313933 0.2543960 0.1707065
0.7540494 0.2746520 0.1772091
0.7714333 0.2943354 0.1821985
0.7886517 0.3086832 0.1871404
0.8037685 0.3316563 0.1914792
0.8210111 0.3545893 0.1964281
0.8331500 0.3725639 0.1999121
0.0632500 0.1048540 0.1129240
0.0646218 0.1050004 0.1129530
0.0674048 0.1053320 0.1132247
0.0710206 0.1064439 0.1134184
0.0762373 0.1077496 0.1136413
0.0827747 0.1090521 0.1140658
0.0915178 0.1108554 0.1143456
0.1027489 0.1129885 0.1148590
0.1169655 0.1164081 0.1155249
0.1352641 0.1191620 0.1162321
0.1604626 0.1238916 0.1170393
0.1889513 0.1289035 0.1176599
0.2253236 0.1346604 0.1182080
0.2609761 0.1401631 0.1185298
0.3027841 0.1477272 0.1191430
0.3442075 0.1541559 0.1190515
0.3920905 0.1632005 0.1189560
0.4423310 0.1710796 0.1177131
0.4827919 0.1800565 0.1175249
0.5245490 0.1875689 0.1173264
0.5634440 0.1978785 0.1225025
0.6022877 0.2091011 0.1336512
0.6378849 0.2177372 0.1438682
0.6648625 0.2309961 0.1516111
0.6914929 0.2481307 0.1592544
0.7151656 0.2607297 0.1660488
0.7389874 0.2793409 0.1728861
0.7617880 0.3007434 0.1794302
0.7803313 0.3152590 0.1847524
0.7966542 0.3369894 0.1894373
0.8130786 0.3535675 0.1941513
0.8272339 0.3781937 0.1982141
0.8393552 0.3968942 0.2016931
0.0611147 0.1132467 0.1153657
0.0632675 0.1143998 0.1155546
0.0657913 0.1146693 0.1156023
0.0698797 0.1151109 0.1156781
0.0753185 0.1166755 0.1161529
0.0815940 0.1183930 0.1166431
0.0908265 0.1204763 0.1171720
0.1034095 0.1229688 0.1177252
0.1168713 0.1256563 0.1182621
0.1367417 0.1292783 0.1190511
0.1630079 0.1348603 0.1196609
0.1936114 0.1400025 0.1204940
0.2255732 0.1475335 0.1213797
0.2686075 0.1558048 0.1216872
0.3062299 0.1641933 0.1222236
0.3463615 0.1719701 0.1223568
0.3944381 0.1809979 0.1221699
0.4450871 0.1892041 0.1215630
0.4969467 0.1981670 0.1198766
0.5379562 0.2110476 0.1200472
0.5781971 0.2195023 0.1267369
0.6084296 0.2291461 0.1354141
0.6466421 0.2463046 0.1463816
0.6733356 0.2588571 0.1540430
0.6986503 0.2719756 0.1613087
0.7241595 0.2911600 0.1686303
0.7465264 0.3052715 0.1750499
0.7672908 0.3200784 0.1810096
0.7877394 0.3419138 0.1868786
0.8025476 0.3588777 0.1911288
0.8217358 0.3868346 0.1966361
0.8349102 0.4058025 0.2004173
0.8461692 0.4249943 0.2036488
0.0571395 0.1259750 0.1186830
0.0599221 0.1262620 0.1187295
0.0632487 0.1266102 0.1187845
0.0664958 0.1286660 0.1193165
0.0728190 0.1293503 0.1194143
0.0804583 0.1326658 0.1203479
0.0903006 0.1337836 0.1204768
0.1032096 0.1372157 0.1211416
0.1184992 0.1409846 0.1217856
0.1397477 0.1455544 0.1226651
0.1665574 0.1514638 0.1234965
0.1987289 0.1593692 0.1242356
0.2319613 0.1652989 0.1244836
0.2715266 0.1748045 0.1253406
0.3151093 0.1823650 0.1251434
0.3589976 0.1914455 0.1254831
0.4088415 0.2020569 0.1249027
0.4607848 0.2130420 0.1241071
0.5040089 0.2237286 0.1231064
0.5448620 0.2355372 0.1230880
0.5864456 0.2481408 0.1291043
0.6255218 0.2613187 0.1403198
0.6548994 0.2748862 0.1487516
0.6818495 0.2885179 0.1564866
0.7132549 0.3028615 0.1655005
0.7369874 0.3175344 0.1723121
0.7553634 0.3326862 0.1775862
0.7780437 0.3560586 0.1840958
0.7970943 0.3738950 0.1895636
0.8111203 0.3924967 0.1935893
0.8277873 0.4114756 0.1983730
0.8408952 0.4309841 0.2021351
0.8518961 0.4499379 0.2052925
0.0502871 0.1440185 0.1229340
0.0517355 0.1462264 0.1232192
0.0557618 0.1466197 0.1232694
0.0610086 0.1471982 0.1236066
0.0677117 0.1478958 0.1236874
0.0762974 0.1516735 0.1244003
0.0882653 0.1530671 0.1247950
0.1011323 0.1568101 0.1254309
0.1187913 0.1620051 0.1264144
0.1396742 0.1669025 0.1270093
0.1682712 0.1738487 0.1278828
0.2035450 0.1808257 0.1283948
0.2384464 0.1876855 0.1286278
0.2794694 0.1962535 0.1284563
0.3192675 0.2078449 0.1294875
0.3705695 0.2166473 0.1285444
0.4148957 0.2295862 0.1286747
0.4672499 0.2397777 0.1272423
0.5092584 0.2535785 0.1267558
0.5529290 0.2665178 0.1263272
0.5939348 0.2761156 0.1312538
0.6334231 0.2904591 0.1425876
0.6630065 0.3048686 0.1510784
0.6968004 0.3202374 0.1607778
0.7220735 0.3358174 0.1680315
0.7462803 0.3527555 0.1749792
0.7689345 0.3703819 0.1814813
0.7863402 0.3890832 0.1864770
0.8055258 0.4083054 0.1919836
0.8203540 0.4275998 0.1962395
0.8367485 0.4466164 0.2009449
0.8486790 0.4658847 0.2043692
0.8601182 0.4850689 0.2076524
0.0369802 0.1665560 0.1275587
0.0413016 0.1669166 0.1275958
0.0453648 0.1673328 0.1279564
0.0495016 0.1714330 0.1283851
0.0587600 0.1723684 0.1287859
0.0699117 0.1734927 0.1288687
0.0821044 0.1777058 0.1295544
0.0968099 0.1794424 0.1299584
0.1174060 0.1862828 0.1310552
0.1427575 0.1928339 0.1316119
0.1728620 0.2014214 0.1327951
0.2062485 0.2095703 0.1329587
0.2448637 0.2198753 0.1336426
0.2880739 0.2294326 0.1337547
0.3294345 0.2400458 0.1331113
0.3761766 0.2498376 0.1322577
0.4282535 0.2615510 0.1311150
0.4749194 0.2756059 0.1303739
0.5261594 0.2869075 0.1281157
0.5704649 0.3027770 0.1271474
0.6112125 0.3134246 0.1362128
0.6426266 0.3273869 0.1452291
0.6798549 0.3446444 0.1559142
0.7056311 0.3554923 0.1633123
0.7314249 0.3736627 0.1707155
0.7559509 0.3925406 0.1777548
0.7771372 0.4045770 0.1838356
0.7988331 0.4240751 0.1900627
0.8128837 0.4406021 0.1940954
0.8302013 0.4597749 0.1990658
0.8437514 0.4793243 0.2029549
0.8538336 0.4905866 0.2058486
0.8649830 0.5092340 0.2090487
0.0204577 0.1953297 0.1329534
0.0205216 0.1956553 0.1329756
0.0237123 0.1961612 0.1330082
0.0269124 0.2018376 0.1337886
0.0375343 0.2026741 0.1338284
0.0533126 0.2040482 0.1342649
0.0682465 0.2097074 0.1354094
0.0887498 0.2118505 0.1354255
0.1126776 0.2203501 0.1365484
0.1428605 0.2242188 0.1367828
0.1732372 0.2325414 0.1374834
0.2090059 0.2431690 0.1379031
0.2502921 0.2532694 0.1378396
0.2959261 0.2655263 0.1377453
0.3392158 0.2758448 0.1367388
0.3884560 0.2884741 0.1354166
0.4420601 0.2999336 0.1331826
0.4887381 0.3123840 0.1320649
0.5334521 0.3226996 0.1300985
0.5786480 0.3412721 0.1278736
0.6180708 0.3536557 0.1381812
0.6572478 0.3662774 0.1494256
0.6885976 0.3831281 0.1584235
0.7146701 0.3950276 0.1659066
0.7406132 0.4144364 0.1733527
0.7635420 0.4266375 0.1799336
0.7874928 0.4461965 0.1868078
0.8077981 0.4657864 0.1926358
0.8201918 0.4752143 0.1961929
0.8372238 0.4939397 0.2010814
0.8503315 0.5124559 0.2048435
0.8602617 0.5235269 0.2076936
0.8735150 0.5416455 0.2114975
0.0281789 0.2310599 0.1386218
0.0283150 0.2316348 0.1386384
0.0284311 0.2321243 0.1386506
0.0289722 0.2343884 0.1391653
0.0292340 0.2354750 0.1391795
0.0306279 0.2411676 0.1398164
0.0490094 0.2432859 0.1402254
0.0786271 0.2460350 0.1405984
0.1029541 0.2550267 0.1411353
0.1401806 0.2597468 0.1417277
0.1760329 0.2695450 0.1422100
0.2152890 0.2818048 0.1423100
0.2546134 0.2875333 0.1420670
0.3027222 0.2997310 0.1410423
0.3482468 0.3134889 0.1395284
0.3997831 0.3262621 0.1376667
0.4474984 0.3404871 0.1353197
0.5025557 0.3536368 0.1324572
0.5484064 0.3677850 0.1296870
0.5927279 0.3795274 0.1309074
0.6256225 0.3923554 0.1403487
0.6666027 0.4127496 0.1521106
0.6972225 0.4255583 0.1608989
0.7279124 0.4361809 0.1697074
0.7550734 0.4557905 0.1775030
0.7776670 0.4682215 0.1839877
0.7956402 0.4871014 0.1891463
0.8139328 0.4969785 0.1943965
0.8307041 0.5084215 0.1992101
0.8443254 0.5265716 0.2031196
0.8545765 0.5353603 0.2060618
0.8685872 0.5536399 0.2100831
0.8786919 0.5713881 0.2129833
0.0379168 0.2687194 0.1437556
0.0380428 0.2691672 0.1437514
0.0382362 0.2698527 0.1437427
0.0384995 0.2707832 0.1442141
0.0388602 0.2720515 0.1441853
0.0413461 0.2806835 0.1447519
0.0420147 0.2830131 0.1451373
0.0497539 0.2860430 0.1454471
0.0929780 0.2958019 0.1455955
0.1333081 0.3006015 0.1460733
0.1755777 0.3142453 0.1460951
0.2148792 0.3198677 0.1454764
0.2630163 0.3351523 0.1449696
0.3084488 0.3420022 0.1438744
0.3564953 0.3552568 0.1417942
0.4108016 0.3716348 0.1390779
0.4599800 0.3848056 0.1362244
0.5084910 0.3997326 0.1317063
0.5549704 0.4125009 0.1286620
0.6004328 0.4271964 0.1331189
0.6422479 0.4391213 0.1451204
0.6735792 0.4523909 0.1541130
0.7096319 0.4636963 0.1644606
0.7353190 0.4762924 0.1718332
0.7623253 0.4953223 0.1795844
0.7848701 0.5075026 0.1860551
0.8047897 0.5174005 0.1917723
0.8196644 0.5286943 0.1960416
0.8376144 0.5472348 0.2011935
0.8494852 0.5563419 0.2046006
0.8633680 0.5672036 0.2085851
0.8737508 0.5844227 0.2115652
0.8822421 0.5931498 0.2140023
0.0485285 0.3057078 0.1481865
0.0486748 0.3062177 0.1481637
0.0510299 0.3144234 0.1486101
0.0512734 0.3152717 0.1485594
0.0517815 0.3170420 0.1489785
0.0523121 0.3188906 0.1488401
0.0529900 0.3212524 0.1491821
0.0562267 0.3325296 0.1497235
0.0684280 0.3370593 0.1496972
0.1245649 0.3426993 0.1493684
0.1677034 0.3544149 0.1491371
0.2207939 0.3619404 0.1478997
0.2641700 0.3768555 0.1472073
0.3127329 0.3844103 0.1457767
0.3637327 0.4006462 0.1435007
0.4123402 0.4142993 0.1394549
0.4713840 0.4293784 0.1352794
0.5200536 0.4385031 0.1320668
0.5670391 0.4514697 0.1287128
0.6125697 0.4662845 0.1366023
0.6478652 0.4775058 0.1467327
0.6875253 0.4913049 0.1581157
0.7157732 0.5018554 0.1662232
0.7415302 0.5141236 0.1736159
0.7671094 0.5246304 0.1809575
0.7897314 0.5370443 0.1874504
0.8110325 0.5549958 0.1935641
0.8258816 0.5664471 0.1978260
0.8422309 0.5756273 0.2025185
0.8543773 0.5867294 0.2060046
0.8678920 0.5958365 0.2098836
0.8786525 0.6119128 0.2129720
0.8866481 0.6223342 0.2188249
0.0615600 0.3511117 0.1522130
0.0617654 0.3518274 0.1527434
0.0619922 0.3526173 0.1526729
0.0623199 0.3537591 0.1525657
0.0628608 0.3556439 0.1529767
0.0635466 0.3580331 0.1527140
0.0644698 0.3612496 0.1529289
0.0675853 0.3721045 0.1526597
0.0689406 0.3768267 0.1531447
0.1130458 0.3834291 0.1524976
0.1641673 0.3955410 0.1511975
0.2157018 0.4050103 0.1510625
0.2637573 0.4181527 0.1487277
0.3158171 0.4262823 0.1462094
0.3700062 0.4427163 0.1434156
0.4207568 0.4508938 0.1413857
0.4840533 0.4666680 0.1366225
0.5336913 0.4821806 0.1322487
0.5815958 0.4950950 0.1277124
0.6164046 0.5002400 0.1377030
0.6591656 0.5149629 0.1499760
0.6924756 0.5278263 0.1595365
0.7281627 0.5395837 0.1697792
0.7536510 0.5520717 0.1770947
0.7774502 0.5622301 0.1839255
0.7951915 0.5731477 0.1890175
0.8155011 0.5850094 0.1948466
0.8346173 0.5943050 0.2003332
0.8465576 0.6050313 0.2037603
0.8611141 0.6137583 0.2079382
0.8720626 0.6241927 0.2110806
0.8827388 0.6411173 0.2141448
0.8906572 0.6511055 0.2239957
0.0721406 0.3879761 0.1558407
0.0723940 0.3888589 0.1557346
0.0725843 0.3895217 0.1563133
0.0730265 0.3910626 0.1561187
0.0735095 0.3927453 0.1558937
0.0741990 0.3951476 0.1562687
0.0752972 0.3989739 0.1564026
0.0770889 0.4052163 0.1554769
0.0801906 0.4160233 0.1554027
0.0989923 0.4223779 0.1546826
0.1630173 0.4294363 0.1535509
0.2181247 0.4448106 0.1517311
0.2739891 0.4535723 0.1511168
0.3285258 0.4680068 0.1473172
0.3785904 0.4782680 0.1458126
0.4315868 0.4925627 0.1416372
0.4935049 0.5025509 0.1378973
0.5434734 0.5183771 0.1340272
0.5814039 0.5300611 0.1302522
0.6293875 0.5374210 0.1414293
0.6628518 0.5504263 0.1510340
0.7026066 0.5624790 0.1624442
0.7307391 0.5744245 0.1705187
0.7580579 0.5867490 0.1783596
0.7812322 0.5911099 0.1850109
0.8043628 0.6006089 0.1916498
0.8242133 0.6120780 0.1973471
0.8384813 0.6232147 0.2014423
0.8542390 0.6319507 0.2059650
0.8659118 0.6428729 0.2093153
0.8756596 0.6511869 0.2121130
0.8854477 0.6620926 0.2199272
0.8965697 0.6782975 0.2293114
0.0810467 0.4190059 0.1599514
0.0812815 0.4198239 0.1598339
0.0815173 0.4206457 0.1597130
0.0820761 0.4225927 0.1601713
0.0827034 0.4247782 0.1598224
0.0849423 0.4325790 0.1596623
0.0864190 0.4377240 0.1597472
0.0880128 0.4432769 0.1595124
0.0898319 0.4496150 0.1580185
0.0915507 0.4556035 0.1583469
0.1611692 0.4688149 0.1571979
0.2221306 0.4787690 0.1550549
0.2737437 0.4865494 0.1529292
0.3310186 0.5017500 0.1523455
0.3842314 0.5104562 0.1490460
0.4389887 0.5269203 0.1447354
0.4933255 0.5361211 0.1429393
0.5442041 0.5518667 0.1414107
0.5933759 0.5650969 0.1367604
0.6391782 0.5724812 0.1442394
0.6722947 0.5854573 0.1537443
0.7058208 0.5960755 0.1633668
0.7406546 0.6015016 0.1733646
0.7661690 0.6136261 0.1806876
0.7852036 0.6251943 0.1861508
0.8085120 0.6349288 0.1928407
0.8284569 0.6467752 0.1985651
0.8417826 0.6497759 0.2023898
0.8578020 0.6610209 0.2069876
0.8692139 0.6695412 0.2102630
0.8791659 0.6804438 0.2142773
0.8910279 0.6907445 0.2247472
0.8989071 0.6992887 0.2419010
0.0897773 0.4494247 0.1647626
0.0900541 0.4503889 0.1646037
0.0903786 0.4515198 0.1653341
0.0921731 0.4577719 0.1655031
0.0929597 0.4605126 0.1649996
0.0937885 0.4634001 0.1644341
0.0951506 0.4681461 0.1643934
0.0971640 0.4751610 0.1653612
0.0988290 0.4809619 0.1638869
0.1024691 0.4936447 0.1622464
0.1600239 0.5010101 0.1625442
0.2303520 0.5102923 0.1604807
0.2797281 0.5249740 0.1587864
0.3332381 0.5337982 0.1575533
0.4019169 0.5453511 0.1545907
0.4581797 0.5623162 0.1524201
0.5011367 0.5696975 0.1511379
0.5527375 0.5837331 0.1469058
0.6020231 0.5938341 0.1455808
0.6409427 0.6056108 0.1447458
0.6831719 0.6127523 0.1568662
0.7141921 0.6256705 0.1657695
0.7437122 0.6362054 0.1742422
0.7689084 0.6422830 0.1814738
0.7940965 0.6523423 0.1887032
0.8158540 0.6641917 0.1949479
0.8312446 0.6737272 0.1993652
0.8489780 0.6845115 0.2044550
0.8607006 0.6876711 0.2078196
0.8751316 0.6984124 0.2119615
0.8855661 0.7082450 0.2188236
0.8944698 0.7166654 0.2362061
0.9017661 0.7265122 0.2511757
0.0978770 0.4776453 0.1715243
0.0982726 0.4790235 0.1712787
0.1005611 0.4869971 0.1727538
0.1009845 0.4884721 0.1724731
0.1018546 0.4915037 0.1718688
0.1028590 0.4950033 0.1711240
0.1041552 0.4995192 0.1727291
0.1058462 0.5054111 0.1712896
0.1076998 0.5118691 0.1709790
0.1117097 0.5258404 0.1710157
0.1628966 0.5336980 0.1683253
0.2245929 0.5419974 0.1686437
0.2921364 0.5523920 0.1677990
0.3475940 0.5688670 0.1655077
0.4068175 0.5787159 0.1618776
0.4652007 0.5893221 0.1634004
0.5200324 0.6057923 0.1591088
0.5606076 0.6127638 0.1580130
0.6132438 0.6293090 0.1574055
0.6488512 0.6352510 0.1567132
0.6849256 0.6466801 0.1573695
0.7238401 0.6534083 0.1685386
0.7512630 0.6655896 0.1764093
0.7782773 0.6754000 0.1841629
0.7965019 0.6808715 0.1893936
0.8182104 0.6900564 0.1956242
0.8376830 0.7015947 0.2012132
0.8515313 0.7116334 0.2051878
0.8674328 0.7148660 0.2097518
0.8776484 0.7250700 0.2216949
0.8878253 0.7326949 0.2335567
0.8968790 0.7418986 0.2456591
0.9038540 0.7486190 0.2588450
0.1070485 0.5096000 0.1814211
0.1072247 0.5102140 0.1813069
0.1076674 0.5117564 0.1810138
0.1089947 0.5163808 0.1833575
0.1098530 0.5193712 0.1827520
0.1121164 0.5272574 0.1814445
0.1135643 0.5323020 0.1835468
0.1153987 0.5386931 0.1819475
0.1172194 0.5450367 0.1835936
0.1193498 0.5524593 0.1813685
0.1641014 0.5622334 0.1801188
0.2313567 0.5762572 0.1794201
0.2896426 0.5851946 0.1794339
0.3500175 0.5968634 0.1783001
0.4107808 0.6124535 0.1756332
0.4710844 0.6228993 0.1735726
0.5271786 0.6325883 0.1714158
0.5708531 0.6472252 0.1684431
0.6209617 0.6556792 0.1661863
0.6591190 0.6696847 0.1710241
0.6927043 0.6750428 0.1684508
0.7254353 0.6858835 0.1696315
0.7527406 0.6927359 0.1768334
0.7799689 0.7022601 0.1846484
0.8029647 0.7069311 0.1912485
0.8259009 0.7170379 0.1978315
0.8395593 0.7251692 0.2017517
0.8573826 0.7303659 0.2068672
0.8693253 0.7379220 0.2165827
0.8795146 0.7463821 0.2283863
0.8897722 0.7549384 0.2405449
0.8981087 0.7581630 0.2606030
0.9076645 0.7661054 0.2743173
0.1160424 0.5409361 0.1946810
0.1165245 0.5426158 0.1943684
0.1168154 0.5436293 0.1941751
0.1177190 0.5467775 0.1935514
0.1183483 0.5489702 0.1930959
0.1201713 0.5553218 0.1935022
0.1217031 0.5606588 0.1922358
0.1234127 0.5666152 0.1906854
0.1265763 0.5776377 0.1934863
0.1291553 0.5866231 0.1944628
0.1675834 0.5950307 0.1918779
0.2379846 0.6041724 0.1924011
0.3033547 0.6138092 0.1904157
0.3660859 0.6294924 0.1906932
0.4300209 0.6415122 0.1846823
0.4807713 0.6504547 0.1838616
0.5367184 0.6647406 0.1808935
0.5779890 0.6741495 0.1849452
0.6281371 0.6827104 0.1833848
0.6666642 0.6939586 0.1818438
0.7020124 0.6999487 0.1819598
0.7322214 0.7121332 0.1892173
0.7610061 0.7169696 0.1904342
0.7862020 0.7270181 0.1934703
0.8042703 0.7307730 0.2020600
0.8271880 0.7387959 0.2031964
0.8458963 0.7482693 0.2135247
0.8588223 0.7506520 0.2175287
0.8708227 0.7586981 0.2293824
0.8848071 0.7670926 0.2414293
0.8941317 0.7698907 0.2555283
0.9016663 0.7759671 0.2697168
0.9089230 0.7830499 0.2843677
0.1236880 0.5675744 0.2060881
0.1240026 0.5686705 0.2058815
0.1246521 0.5709335 0.2054423
0.1253281 0.5732886 0.2049669
0.1273367 0.5802869 0.2073817
0.1284268 0.5840852 0.2065559
0.1301827 0.5902028 0.2051154
0.1324259 0.5980185 0.2070207
0.1343337 0.6046656 0.2051847
0.1364847 0.6121598 0.2068568
0.1933197 0.6214050 0.2037801
0.2509810 0.6292961 0.2050433
0.3173867 0.6450474 0.2040891
0.3703612 0.6532620 0.2003024
0.4356887 0.6644754 0.1991594
0.4865913 0.6791174 0.1998545
0.5432249 0.6890436 0.1986149
0.5880664 0.6969436 0.1983610
0.6381074 0.7109438 0.1958073
0.6734960 0.7171162 0.1963888
0.7086425 0.7240457 0.2050428
0.7405308 0.7342591 0.2048563
0.7670413 0.7388078 0.2067005
0.7867684 0.7462478 0.2114051
0.8115366 0.7522639 0.2190908
0.8321537 0.7596716 0.2240663
0.8465747 0.7623144 0.2279661
0.8597714 0.7700915 0.2400814
0.8746584 0.7727842 0.2442639
0.8855049 0.7802926 0.2572744
0.8951131 0.7864192 0.2715843
0.9024330 0.7900882 0.2869806
0.9094971 0.7962028 0.3065355
0.1315262 0.5948839 0.2202628
0.1318754 0.5961004 0.2200381
0.1327578 0.5991749 0.2232229
0.1331256 0.6004563 0.2229811
0.1343801 0.6048270 0.2221165
0.1357992 0.6097714 0.2210620
