data/spectral_luts/gold_200_endura_premier.cube
TITLE "gold_200_endura_premier"
LUT_3D_SIZE 9
0.0383859 0.0609799 0.0728467
0.0400134 0.0612077 0.0728984
0.0698364 0.0653972 0.0736909
0.1757445 0.0781872 0.0733849
0.3336081 0.0886338 0.0665580
0.4938202 0.1025195 0.1025195
0.6139352 0.1369943 0.1369943
0.7070448 0.1637181 0.1637181
0.7701820 0.1818394 0.1818394
0.0379525 0.0627757 0.0732472
0.0398767 0.0632166 0.0733362
0.0711018 0.0680720 0.0741751
0.1788028 0.0824225 0.0739138
0.3357541 0.0945751 0.0670956
0.5011626 0.1046268 0.1046268
0.6202894 0.1388180 0.1388180
0.7092468 0.1643501 0.1643501
0.7701820 0.1818394 0.1818394
0.0319235 0.0827598 0.0766690
0.0347714 0.0836113 0.0765755
0.0720649 0.0904190 0.0771203
0.1890340 0.1095272 0.0767338
0.3589759 0.1306490 0.0681325
0.5264435 0.1463704 0.1118829
0.6453512 0.1575595 0.1460111
0.7450514 0.1895380 0.1746265
0.8056266 0.2244840 0.1920125
0.0135886 0.1560951 0.0832949
0.0142422 0.1602677 0.0834916
0.0596727 0.1678286 0.0834480
0.2148258 0.2012518 0.0791835
0.4027985 0.2395641 0.0763949
0.5810486 0.2714030 0.1275553
0.7072677 0.3026892 0.1637820
0.8002302 0.3373061 0.1904637
0.8605905 0.3784325 0.2077880
0.0384984 0.2707790 0.0828625
0.0390502 0.2727168 0.0828088
0.0452788 0.2943857 0.0793763
0.2295410 0.3385080 0.0630730
0.4468782 0.3890423 0.0890464
0.6370247 0.4298418 0.1436213
0.7590185 0.4654954 0.1786353
0.8508959 0.4975654 0.2050055
0.9075040 0.5295013 0.2212528
0.0695778 0.3790466 0.0718462
0.0702392 0.3813513 0.0717961
0.0786724 0.4107336 0.0786724
0.2411362 0.4596437 0.0927103
0.4877525 0.5197797 0.1099702
0.6735749 0.5650904 0.1541117
0.7993435 0.5989035 0.1902092
0.8884405 0.6280951 0.2157813
0.9394410 0.6597155 0.2304192
0.0934917 0.4623661 0.0934917
0.0934917 0.4623661 0.0934917
0.1031033 0.4958543 0.1031033
0.2601521 0.5519538 0.1192047
0.5107136 0.6114917 0.1362929
0.6966979 0.6591023 0.1607484
0.8243533 0.6972433 0.1973873
0.9118860 0.7294760 0.2225105
0.9563717 0.7534814 0.2352785
0.1147266 0.5363516 0.1147266
0.1147266 0.5363516 0.1147266
0.1236132 0.5673137 0.1236132
0.2840112 0.6277269 0.1409527
0.5311283 0.6883974 0.1583660
0.7176948 0.7370076 0.1723178
0.8396649 0.7698837 0.2017820
0.9182741 0.7962127 0.2243440
0.9666258 0.8201060 0.2382216
0.1355157 0.6087839 0.1560824
0.1355157 0.6087839 0.1560824
0.1428461 0.6343238 0.1546685
0.2999184 0.6870838 0.1579890
0.5491421 0.7454995 0.1747551
0.7287561 0.7882251 0.1870180
0.8447654 0.8184281 0.2032459
0.9252689 0.8460591 0.2308587
0.9708060 0.8656421 0.3026477
0.0383746 0.0610843 0.0733127
0.0410254 0.0614426 0.0735267
0.0741725 0.0661678 0.0747271
0.1842082 0.0795246 0.0756233
0.3443775 0.0898266 0.0705986
0.5017498 0.1047954 0.1047954
0.6212262 0.1390869 0.1390869
0.7112089 0.1649132 0.1649132
0.7720871 0.1823862 0.1823862
0.0376526 0.0636487 0.0740140
0.0406696 0.0642851 0.0742605
0.0756469 0.0699349 0.0757604
0.1898011 0.0850258 0.0768709
0.3505963 0.0972476 0.0718375
0.5160731 0.1089064 0.1089064
0.6249056 0.1401429 0.1401429
0.7133711 0.1655338 0.1655338
0.7731733 0.1826979 0.1826979
0.0309202 0.0852637 0.0784287
0.0348260 0.0863915 0.0789061
0.0774971 0.0953006 0.0806490
0.2032523 0.1147076 0.0813040
0.3675574 0.1357453 0.0758996
0.5383801 0.1511162 0.1153088
0.6587809 0.1695832 0.1498656
0.7488019 0.2008744 0.1757030
0.8103144 0.2350703 0.1933580
0.0150490 0.1652676 0.0878365
0.0158640 0.1701614 0.0883507
0.0647951 0.1792783 0.0892372
0.2227729 0.2145011 0.0868812
0.4118051 0.2473647 0.0789799
0.5882713 0.2852275 0.1296283
0.7133514 0.3153702 0.1655282
0.8036164 0.3446634 0.1914355
0.8620386 0.3832814 0.2082036
0.0426855 0.2853502 0.0902627
0.0434722 0.2880912 0.0904563
0.0486425 0.3061053 0.0883551
0.2364018 0.3509974 0.0746691
0.4513016 0.3985936 0.0903160
0.6378710 0.4396707 0.1438642
0.7686413 0.4737035 0.1813972
0.8558638 0.5060518 0.2064313
0.9115001 0.5423433 0.2223997
0.0728570 0.3904720 0.0826468
0.0737569 0.3936072 0.0821389
0.0817729 0.4215362 0.0817729
0.2447562 0.4714258 0.0960919
0.4860871 0.5285056 0.1124747
0.6763399 0.5729001 0.1549053
0.8019397 0.6070194 0.1909543
0.8878145 0.6361229 0.2156016
0.9400065 0.6633295 0.2305815
0.0959042 0.4707715 0.0959042
0.0961307 0.4715606 0.0961307
0.1063095 0.5070252 0.1063095
0.2594044 0.5590286 0.1212352
0.5133601 0.6209903 0.1390192
0.6953409 0.6654287 0.1603589
0.8236015 0.7028803 0.1971716
0.9113183 0.7313469 0.2223476
0.9571295 0.7557764 0.2354961
0.1156784 0.5396678 0.1156784
0.1156784 0.5396678 0.1156784
0.1252657 0.5730712 0.1252657
0.2802787 0.6300709 0.1416254
0.5291700 0.6910157 0.1591175
0.7168791 0.7386271 0.1727827
0.8395953 0.7742255 0.2017620
0.9182741 0.7962127 0.2243440
0.9666258 0.8201060 0.2382216
0.1355157 0.6087839 0.1560824
0.1355157 0.6087839 0.1560824
0.1434662 0.6364843 0.1536628
0.3134022 0.6896195 0.1587168
0.5491421 0.7454995 0.1747551
0.7287561 0.7882251 0.1870180
0.8504151 0.8211505 0.2048674
0.9252689 0.8460591 0.2308587
0.9709575 0.8666631 0.3024360
0.0361720 0.0640490 0.0931616
0.0424665 0.0651248 0.0944641
0.0863913 0.0714931 0.0970635
0.2014586 0.0853982 0.1023745
0.3634473 0.0952593 0.1056400
0.5244702 0.1113165 0.1113165
0.6361684 0.1433755 0.1433755
0.7196602 0.1673389 0.1673389
0.7796528 0.1845576 0.1960910
0.0342008 0.0691662 0.0980956
0.0414562 0.0706426 0.0984885
0.0858918 0.0780756 0.1029360
0.2076077 0.0937557 0.1081085
0.3751776 0.1076738 0.1104403
0.5338897 0.1140200 0.1150926
0.6411766 0.1448129 0.1448129
0.7244442 0.1687120 0.1687120
0.7832292 0.1855841 0.1993749
0.0217672 0.0980751 0.1095507
0.0303331 0.0996192 0.1115846
0.0875399 0.1107555 0.1153658
0.2196432 0.1312666 0.1211338
0.3941063 0.1546783 0.1278134
0.5581139 0.1708943 0.1334526
0.6717545 0.1952028 0.1535892
0.7612956 0.2304381 0.1799740
0.8206562 0.2637552 0.2202793
0.0197332 0.1915970 0.1327649
0.0202380 0.1942060 0.1330343
0.0625118 0.2130717 0.1397635
0.2366517 0.2435412 0.1427109
0.4357816 0.2852215 0.1505750
0.6077356 0.3180475 0.1567378
0.7308245 0.3516206 0.1762065
0.8155811 0.3795116 0.2030167
0.8725301 0.4184466 0.2461332
0.0521119 0.3181930 0.1531682
0.0537807 0.3240074 0.1571269
0.0612300 0.3499618 0.1599725
0.2470756 0.3905151 0.1600379
0.4678890 0.4412276 0.1701484
0.6524109 0.4859797 0.1735400
0.7747484 0.5139934 0.1944009
0.8605065 0.5431484 0.2199595
0.9131007 0.5784051 0.2669160
0.0831297 0.4262633 0.1816459
0.0847713 0.4319831 0.1811905
0.0949069 0.4672968 0.1834354
0.2464400 0.5180523 0.1819708
0.4990003 0.5748594 0.1789851
0.6788887 0.6170245 0.1871712
0.8061792 0.6484415 0.2100685
0.8929968 0.6732845 0.2479773
0.9376079 0.6975907 0.2947150
0.1080544 0.5131047 0.2131069
0.1093933 0.5177696 0.2126335
0.1197107 0.5537169 0.2103978
0.2464247 0.6099589 0.2105358
0.5161331 0.6662429 0.2123311
0.6975173 0.7087007 0.2130317
0.8267654 0.7412078 0.2479293
0.9060404 0.7650363 0.2824026
0.9540628 0.7853979 0.3349872
0.1285475 0.5845057 0.2529144
0.1285475 0.5845057 0.2529144
0.1393586 0.6221730 0.2516398
0.2649454 0.6810002 0.2551839
0.5289716 0.7343079 0.2548025
0.7128022 0.7750212 0.2675032
0.8371898 0.8080602 0.2927222
0.9177548 0.8327147 0.3370980
0.9590749 0.8475619 0.3895401
0.1470412 0.6489402 0.3021131
0.1470412 0.6489402 0.3021131
0.1553797 0.6779928 0.3031489
0.2955301 0.7297722 0.3027815
0.5503780 0.7833326 0.3189044
0.7236586 0.8202913 0.3279762
0.8416465 0.8517836 0.3620863
0.9211617 0.8730217 0.4062182
0.9639568 0.8883482 0.4479492
0.0318893 0.0735542 0.2028735
0.0462890 0.0754579 0.2017221
0.1106661 0.0843255 0.2134275
0.2340358 0.0979469 0.2267960
0.3943030 0.1084492 0.2437398
0.5451885 0.1172630 0.2625847
0.6511494 0.1476753 0.2899014
0.7368681 0.1722778 0.3332869
0.7938110 0.1886213 0.3766364
0.0258377 0.0839617 0.2151496
0.0418862 0.0862661 0.2213892
0.1095594 0.0957448 0.2262457
0.2364173 0.1115385 0.2459986
0.4059733 0.1244706 0.2586616
0.5604986 0.1304676 0.2821476
0.6684822 0.1526500 0.3122911
0.7443436 0.1744234 0.3403745
0.8008617 0.1924296 0.3838701
0.0324984 0.1237613 0.2485742
0.0328138 0.1255712 0.2497983
0.1096994 0.1384304 0.2611398
0.2484818 0.1613770 0.2744368
0.4254766 0.1857120 0.2920498
0.5851265 0.2127055 0.3125308
0.7018728 0.2400916 0.3412262
0.7806466 0.2693831 0.3706149
0.8352121 0.3034317 0.4108716
0.0458799 0.2402181 0.2964800
0.0462353 0.2426176 0.2977180
0.0527899 0.2608030 0.3097514
0.2562099 0.2995194 0.3239771
0.4604273 0.3319379 0.3418053
0.6260799 0.3648813 0.3616443
0.7477149 0.3995713 0.3859008
0.8302990 0.4273197 0.4157664
0.8795116 0.4661311 0.4572487
0.0682817 0.3745310 0.3475024
0.0703661 0.3817934 0.3491302
0.0790005 0.4118766 0.3620351
0.2456865 0.4507922 0.3738793
0.4826377 0.4965233 0.3825316
0.6617662 0.5402825 0.4062620
0.7863995 0.5624086 0.4211438
0.8670934 0.5919515 0.4613953
0.9163798 0.6246670 0.4937338
0.1008304 0.4879352 0.3887526
0.1037430 0.4980831 0.3903677
0.1133693 0.5316224 0.4025652
0.2154876 0.5800352 0.4139262
0.4937290 0.6282314 0.4304500
0.6839835 0.6679143 0.4457379
0.8040470 0.6943167 0.4613873
0.8863130 0.7160135 0.4923884
0.9354537 0.7392563 0.5294580
0.1252650 0.5730688 0.4361628
0.1288278 0.5854819 0.4378158
0.1388137 0.6202743 0.4368382
0.1986306 0.6749569 0.4617201
0.5054266 0.7217194 0.4642023
0.6938037 0.7629935 0.4835975
0.8199440 0.7879748 0.5093036
0.9001535 0.8072267 0.5261790
0.9450465 0.8225868 0.5594011
0.1458463 0.6447769 0.4798527
0.1474889 0.6505001 0.4805079
0.1580805 0.6874027 0.4924751
0.2293575 0.7376497 0.4987342
0.5156935 0.7885301 0.5112189
0.7065302 0.8253649 0.5265541
0.8286281 0.8506282 0.5431290
0.9101825 0.8688436 0.5652555
0.9522911 0.8818820 0.5938700
0.1618099 0.7003964 0.5272201
0.1618099 0.7003964 0.5272201
0.1710354 0.7325395 0.5299782
0.2538064 0.7798144 0.5407735
0.5433475 0.8275594 0.5489734
0.7107300 0.8619995 0.5654673
0.8341361 0.8859938 0.5820320
0.9146901 0.9043791 0.6045751
0.9565794 0.9146253 0.6314527
0.0738203 0.0738203 0.3938283
0.0897512 0.0747457 0.3970523
0.1621165 0.0825157 0.4123808
0.2792159 0.0981363 0.4223805
0.4441002 0.1072980 0.4415883
0.5786217 0.1268588 0.4626188
0.6831868 0.1568705 0.4797963
0.7567143 0.1779740 0.5001257
0.8121626 0.1977481 0.5330569
0.0780331 0.0838689 0.4085061
0.0876605 0.0878797 0.4119253
0.1610086 0.1001083 0.4275203
0.2917793 0.1210711 0.4391921
0.4501288 0.1371053 0.4554949
0.5899287 0.1498251 0.4772397
0.6932747 0.1696918 0.4945244
0.7741958 0.2014605 0.5169256
0.8263717 0.2472355 0.5489576
0.0895406 0.1520185 0.4485999
0.0918970 0.1612715 0.4568100
0.1508460 0.1798184 0.4667224
0.2969774 0.2055017 0.4860073
0.4713415 0.2312499 0.5029635
0.6143483 0.2556846 0.5133786
0.7299531 0.2842611 0.5351029
0.8044612 0.3106441 0.5558448
0.8528678 0.3505044 0.5737082
0.1065660 0.2887340 0.5079189
0.1076293 0.2960901 0.5116237
0.1114324 0.3190816 0.5248743
0.2956317 0.3526399 0.5357540
0.4976952 0.3869694 0.5479466
0.6540422 0.4163102 0.5692843
0.7659765 0.4515437 0.5814313
0.8436472 0.4751402 0.5957286
0.8899257 0.5093261 0.6117216
0.1212047 0.4298846 0.5589222
0.1225046 0.4441839 0.5634513
0.1258246 0.4694039 0.5750185
0.2772047 0.5129608 0.5850232
0.5104550 0.5565095 0.5994909
0.6804180 0.5853658 0.6059839
0.7931741 0.6092216 0.6195937
0.8712096 0.6352661 0.6337184
0.9198457 0.6566213 0.6458961
0.1316895 0.5428404 0.5954529
0.1328672 0.5576077 0.5995559
0.1360285 0.5872254 0.6105704
0.2509037 0.6333791 0.6186448
0.5129499 0.6742591 0.6315019
0.6932631 0.7072725 0.6456118
0.8115593 0.7313874 0.6495779
0.8915786 0.7499840 0.6607221
0.9346268 0.7699533 0.6765298
0.1417779 0.6296042 0.6306021
0.1457946 0.6445968 0.6340966
0.1544495 0.6747517 0.6403337
0.2493603 0.7205427 0.6540976
0.5245697 0.7624919 0.6613073
0.7013996 0.7966035 0.6660048
0.8231488 0.8217492 0.6773059
0.8990411 0.8364505 0.6846294
0.9434605 0.8493307 0.7018415
0.1586929 0.6895365 0.6592560
0.1626151 0.7032018 0.6620520
0.1713510 0.7336391 0.6674305
0.2708757 0.7802572 0.6770194
0.5391020 0.8233419 0.6875418
0.7069418 0.8522786 0.6916899
0.8341902 0.8767219 0.6979560
0.9061695 0.8893561 0.7076588
0.9495051 0.8998931 0.7178341
0.1723163 0.7370022 0.6861483
0.1748357 0.7457800 0.6877488
0.1833560 0.7754660 0.6893259
0.3090945 0.8176496 0.7005166
0.5590079 0.8569906 0.7062347
0.7260419 0.8872793 0.7134246
0.8398999 0.9067257 0.7163377
0.9137237 0.9198788 0.7263110
0.9530218 0.9291947 0.7371897
0.1328110 0.1151661 0.5378827
0.1625060 0.1163561 0.5420291
0.2295966 0.1197509 0.5538570
0.3484920 0.1238770 0.5682329
0.4998027 0.1319240 0.5825140
0.6216182 0.1475912 0.5960560
0.7210094 0.1775685 0.6133605
0.7902200 0.2188211 0.6344422
0.8366476 0.2599074 0.6520101
0.1251409 0.1198784 0.5543012
0.1565350 0.1213869 0.5595571
0.2329080 0.1276079 0.5685784
0.3589254 0.1509273 0.5866714
0.5071344 0.1785807 0.5985090
0.6325313 0.2034824 0.6130664
0.7340192 0.2371727 0.6307811
0.8015598 0.2678199 0.6497635
0.8487908 0.3065374 0.6638533
0.1305640 0.2048315 0.5915315
0.1322085 0.2167379 0.5972610
0.2185813 0.2297498 0.6081327
0.3627438 0.2576320 0.6204850
0.5225200 0.2870950 0.6369160
0.6562082 0.3112404 0.6500622
0.7577671 0.3479825 0.6674232
0.8266510 0.3722043 0.6786938
0.8744207 0.4097112 0.6918485
0.1452587 0.3431751 0.6427296
0.1468372 0.3582292 0.6482294
0.1790164 0.3766043 0.6564429
0.3626197 0.4094684 0.6674803
0.5443163 0.4419321 0.6824505
0.6796885 0.4702840 0.6914477
0.7872778 0.4989430 0.7026996
0.8605409 0.5302202 0.7138343
0.9042278 0.5594462 0.7314805
0.1574664 0.4935438 0.6852630
0.1585822 0.5042679 0.6891506
0.1624658 0.5243285 0.7026816
0.3547826 0.5646252 0.7128506
0.5550966 0.5950839 0.7224576
0.7000483 0.6303318 0.7272940
0.8125123 0.6536998 0.7437123
0.8830406 0.6744823 0.7520989
0.9251036 0.6927479 0.7601748
0.1681124 0.5983953 0.7223554
0.1690913 0.6098428 0.7257660
0.1710873 0.6357954 0.7327201
0.3326933 0.6700377 0.7438849
0.5645063 0.7119028 0.7502579
0.7145289 0.7421796 0.7598606
0.8239636 0.7648649 0.7646832
0.8935927 0.7781270 0.7718828
0.9358006 0.7906857 0.7859986
0.1751291 0.6754693 0.7468024
0.1759339 0.6865118 0.7496064
0.1779466 0.7194363 0.7566191
0.3453265 0.7582716 0.7698807
0.5771529 0.7944306 0.7744620
0.7219693 0.8227607 0.7799995
0.8325960 0.8386340 0.7873486
0.9053364 0.8547926 0.7947479
0.9442721 0.8655386 0.8044043
0.1819419 0.7327429 0.7705393
0.1827141 0.7446501 0.7732297
0.1852364 0.7724259 0.7820178
0.3530891 0.8123953 0.7882910
0.5797260 0.8485067 0.7988754
0.7283208 0.8718439 0.8004707
0.8392091 0.8931057 0.8072706
0.9112473 0.9074359 0.8105702
0.9481246 0.9142597 0.8228900
0.1888232 0.7739568 0.7945147
0.1894284 0.7841304 0.7966231
0.1933013 0.8101169 0.8014441
0.3878649 0.8454670 0.8066631
0.6091274 0.8810019 0.8132187
0.7438939 0.9060422 0.8207976
0.8448188 0.9229158 0.8243885
0.9149993 0.9347244 0.8307164
0.9515576 0.9417925 0.8365610
0.2130806 0.1519845 0.6661635
0.2384121 0.1528071 0.6690295
0.3157850 0.1652027 0.6784351
0.4319611 0.1910148 0.6953281
0.5660915 0.2133933 0.7054139
0.6730122 0.2369666 0.7216261
0.7601907 0.2655818 0.7296639
0.8236082 0.3071640 0.7472603
0.8649626 0.3426331 0.7621479
0.2038463 0.1868617 0.6819659
0.2374957 0.1919413 0.6854663
0.3140149 0.2089118 0.6940688
0.4346891 0.2352717 0.7108871
0.5725771 0.2609847 0.7212620
0.6819767 0.2898981 0.7355381
0.7720655 0.3141533 0.7449829
0.8361813 0.3508398 0.7586054
0.8753344 0.3883715 0.7731804
0.1764652 0.2794421 0.7131321
0.2100103 0.2917178 0.7178411
0.3119955 0.3056727 0.7307570
0.4453333 0.3310097 0.7411697
0.5839763 0.3627437 0.7513820
0.6974989 0.3902178 0.7643042
0.7911158 0.4195949 0.7757195
0.8567889 0.4515380 0.7843755
0.8931026 0.4813794 0.7993913
0.1793171 0.4224283 0.7613940
0.1795635 0.4294456 0.7622526
0.2876404 0.4466632 0.7693532
0.4529825 0.4780765 0.7793543
0.6056678 0.5028293 0.7910268
0.7173750 0.5329722 0.7996460
0.8112810 0.5595676 0.8092643
0.8776515 0.5831141 0.8179203
0.9139104 0.6039000 0.8259611
0.1885420 0.5508527 0.7935348
0.1894579 0.5599979 0.7967261
0.2354470 0.5828344 0.8035214
0.4453945 0.6124809 0.8164791
0.6055831 0.6437126 0.8229252
0.7336782 0.6683132 0.8270124
0.8322861 0.6881672 0.8347475
0.8925904 0.7090417 0.8421485
0.9312533 0.7235472 0.8483534
0.1975530 0.6518045 0.8249304
0.1982818 0.6604910 0.8274696
0.1999937 0.6826912 0.8334343
0.4349796 0.7137374 0.8381830
0.6198159 0.7454622 0.8436652
0.7437660 0.7705926 0.8516122
0.8385578 0.7907336 0.8583724
0.9056632 0.8064892 0.8644778
0.9411185 0.8175433 0.8701679
0.2027143 0.7264129 0.8429132
0.2034203 0.7361805 0.8453730
0.2050039 0.7602488 0.8508906
0.4385081 0.7913441 0.8591487
0.6210804 0.8223791 0.8637156
0.7502901 0.8435524 0.8708057
0.8467545 0.8627269 0.8724091
0.9094282 0.8725885 0.8778340
0.9455459 0.8824940 0.8832154
0.2074903 0.7776547 0.8595535
0.2081437 0.7877654 0.8618301
0.2273314 0.8093458 0.8663642
0.4512630 0.8388054 0.8761193
0.6335515 0.8707134 0.8803213
0.7563652 0.8908182 0.8822932
0.8528849 0.9092467 0.8879641
0.9146404 0.9190474 0.8905065
0.9501768 0.9271585 0.8950562
0.2119832 0.8114144 0.8752074
0.2126025 0.8217741 0.8773650
0.2777477 0.8428051 0.8813481
0.4857774 0.8712747 0.8838802
0.6489505 0.8981456 0.8911874
0.7709525 0.9198630 0.8931319
0.8610088 0.9348005 0.8982147
0.9204701 0.9453636 0.9029002
0.9531789 0.9506143 0.9051843
0.3103202 0.2522554 0.7752838
0.3419932 0.2566810 0.7779834
0.4175494 0.2741934 0.7856109
0.5177001 0.2933001 0.7937505
0.6261897 0.3198029 0.8028287
0.7187986 0.3392730 0.8128459
0.7996657 0.3712806 0.8227691
0.8574858 0.4120992 0.8372225
0.8916352 0.4422134 0.8461775
0.3043480 0.2903752 0.7863451
0.3367698 0.3030437 0.7909443
0.4165471 0.3137971 0.7967370
0.5198561 0.3344413 0.8049134
0.6342754 0.3632885 0.8141569
0.7315294 0.3847195 0.8261269
0.8073395 0.4180376 0.8338903
0.8639489 0.4499509 0.8443664
0.8982588 0.4803738 0.8545992
0.2926759 0.3797930 0.8112806
0.3300238 0.3936426 0.8176163
0.4099168 0.4051179 0.8209215
0.5310120 0.4297684 0.8312113
0.6492093 0.4525834 0.8381440
0.7463011 0.4762310 0.8478503
0.8197202 0.5019909 0.8533003
0.8769585 0.5327814 0.8619974
0.9122956 0.5619945 0.8714848
0.2584035 0.4971745 0.8432750
0.3057898 0.5115144 0.8473532
0.4024792 0.5254685 0.8523478
0.5269529 0.5517187 0.8596702
0.6550029 0.5737066 0.8683131
0.7573526 0.5953469 0.8728732
0.8402736 0.6139729 0.8762817
0.8906707 0.6376094 0.8830081
0.9261739 0.6658275 0.8901454
0.2120245 0.6183553 0.8700725
0.2668015 0.6214816 0.8714705
0.3869780 0.6379172 0.8762604
0.5263107 0.6653181 0.8856713
0.6627366 0.6859321 0.8902001
0.7703064 0.7072774 0.8938487
0.8496435 0.7242441 0.8994142
0.9062552 0.7438845 0.9019120
0.9375872 0.7511604 0.9059087
0.2167567 0.7077364 0.8918390
0.2401801 0.7145532 0.8936310
0.3809390 0.7324998 0.8980234
0.5368713 0.7562082 0.9030901
0.6663593 0.7793657 0.9070806
0.7716710 0.7957643 0.9124709
0.8596129 0.8139449 0.9146283
0.9121371 0.8268666 0.9186296
0.9456407 0.8368619 0.9195862
0.2205483 0.7702304 0.9050493
0.2576799 0.7800606 0.9073177
0.3842180 0.8001953 0.9112568
0.5373851 0.8234546 0.9155629
0.6693594 0.8448761 0.9215007
0.7824550 0.8649911 0.9239617
0.8640419 0.8778307 0.9279350
0.9188052 0.8902209 0.9289925
0.9492280 0.8984360 0.9323763
0.2243208 0.8178585 0.9181932
0.2704208 0.8256493 0.9198240
0.4133848 0.8440990 0.9233835
0.5534057 0.8656627 0.9269890
0.6736822 0.8875075 0.9299419
0.7882165 0.9050412 0.9332656
0.8701108 0.9180159 0.9343944
0.9216054 0.9285518 0.9379261
0.9540821 0.9358681 0.9384152
0.2756796 0.8512715 0.9256102
0.3349575 0.8582958 0.9269407
0.4339301 0.8719440 0.9293535
0.5723817 0.8929622 0.9352473
0.6886038 0.9119802 0.9377066
0.8015749 0.9304358 0.9396015
0.8756492 0.9441131 0.9429526
0.9251866 0.9518865 0.9434477
0.9547566 0.9582019 0.9449691
0.4237230 0.3790176 0.8495669
0.4510365 0.3913587 0.8532444
0.5137082 0.3995595 0.8569250
0.6031008 0.4147348 0.8624477
0.6880720 0.4329954 0.8679695
0.7753028 0.4595936 0.8777142
0.8387910 0.4838757 0.8830988
0.8840747 0.5154985 0.8913286
0.9140648 0.5444848 0.8976133
0.4308655 0.4146615 0.8587691
0.4578734 0.4269675 0.8622549
0.5131525 0.4344369 0.8653628
0.6047230 0.4503870 0.8708084
0.6912775 0.4693390 0.8762020
0.7797624 0.4971898 0.8848256
0.8437945 0.5204263 0.8907731
0.8879148 0.5420682 0.8970128
0.9178767 0.5707185 0.9020018
0.4211774 0.4886614 0.8761888
0.4511941 0.4930180 0.8778387
0.5196390 0.5069385 0.8821886
0.6062515 0.5187428 0.8861614
0.6960303 0.5382012 0.8911483
0.7867666 0.5652762 0.8990256
0.8512276 0.5808747 0.9021778
0.8984312 0.6120137 0.9106362
0.9281191 0.6331566 0.9140053
0.4127737 0.5844401 0.8974786
0.4474284 0.5859063 0.8984513
0.5109054 0.6028240 0.9026180
0.6142710 0.6180246 0.9068144
0.7073793 0.6387801 0.9123196
0.7938274 0.6581647 0.9170855
0.8661879 0.6828560 0.9210696
0.9074894 0.6944883 0.9247991
0.9380798 0.7113799 0.9271570
0.4010051 0.6709151 0.9151416
0.4378490 0.6823403 0.9175508
0.5088888 0.6931769 0.9202912
0.6186628 0.7100942 0.9250519
0.7074410 0.7298267 0.9295332
0.8077433 0.7508353 0.9329273
0.8721703 0.7663795 0.9350901
0.9173428 0.7759028 0.9381124
0.9450585 0.7863367 0.9402686
0.3989740 0.7577625 0.9325286
0.4269990 0.7618709 0.9334694
0.5182256 0.7757752 0.9355891
0.6199991 0.7892562 0.9383695
0.7176955 0.8097910 0.9415965
0.8091835 0.8238131 0.9436089
0.8777679 0.8394135 0.9472750
0.9220986 0.8504212 0.9484406
0.9502918 0.8591791 0.9511584
0.4077187 0.8137628 0.9419108
0.4351780 0.8212095 0.9431565
0.5187476 0.8340164 0.9455944
0.6216344 0.8504493 0.9483936
0.7235146 0.8668424 0.9507998
0.8158855 0.8850787 0.9548116
0.8837825 0.8937963 0.9557070
0.9289509 0.9042690 0.9584336
0.9562575 0.9118975 0.9590842
0.4231099 0.8523883 0.9495249
0.4528170 0.8567792 0.9503397
0.5373860 0.8721910 0.9528811
0.6356133 0.8881602 0.9569610
0.7389422 0.9049761 0.9591904
0.8213908 0.9182205 0.9606531
0.8888948 0.9312701 0.9626548
0.9299867 0.9364197 0.9630359
0.9574954 0.9430424 0.9651601
0.4600094 0.8798531 0.9562172
0.4896975 0.8843765 0.9569913
0.5572528 0.8950149 0.9587101
0.6553825 0.9125797 0.9611742
0.7455418 0.9273515 0.9629899
0.8269721 0.9406769 0.9659706
0.8936810 0.9512797 0.9668735
0.9335790 0.9582543 0.9673825
0.9602942 0.9624337 0.9684608
