data/spectral_luts/gold_200_endura_premier.cube
TITLE "gold_200_endura_premier"
LUT_3D_SIZE 33
0.0383859 0.0609799 0.0728467
0.0383859 0.0609799 0.0728467
0.0384580 0.0609901 0.0728490
0.0388927 0.0610514 0.0728630
0.0400134 0.0612077 0.0728984
0.0424275 0.0615451 0.0729735
0.0477684 0.0622966 0.0731338
0.0564108 0.0635156 0.0733731
0.0698364 0.0653972 0.0736909
0.0882597 0.0678814 0.0740080
0.1126146 0.0710589 0.0739253
0.1452753 0.0749520 0.0737776
0.1757445 0.0781872 0.0733849
0.2104866 0.0814116 0.0725824
0.2443891 0.0840410 0.0714104
0.2872403 0.0866456 0.0694289
0.3336081 0.0886338 0.0665580
0.3736732 0.0895790 0.0680355
0.4168869 0.0898294 0.0804385
0.4594938 0.0926673 0.0926673
0.4938202 0.1025195 0.1025195
0.5292460 0.1126872 0.1126872
0.5600846 0.1215383 0.1215383
0.5888823 0.1298037 0.1298037
0.6139352 0.1369943 0.1369943
0.6439576 0.1456111 0.1456111
0.6666536 0.1521252 0.1521252
0.6876849 0.1581615 0.1581615
0.7070448 0.1637181 0.1637181
0.7222471 0.1680814 0.1680814
0.7409170 0.1734399 0.1734399
0.7542120 0.1772557 0.1772557
0.7701820 0.1818394 0.1818394
0.0383859 0.0609799 0.0728467
0.0383859 0.0609799 0.0728467
0.0384580 0.0609901 0.0728490
0.0388927 0.0610514 0.0728630
0.0401194 0.0612223 0.0729017
0.0426314 0.0615738 0.0729798
0.0477684 0.0622966 0.0731338
0.0564108 0.0635156 0.0733731
0.0698353 0.0654302 0.0736962
0.0882666 0.0679787 0.0739930
0.1126228 0.0711284 0.0739352
0.1452892 0.0750243 0.0737869
0.1757705 0.0782942 0.0733974
0.2105184 0.0815234 0.0725938
0.2443891 0.0840410 0.0714104
0.2872403 0.0866456 0.0694289
0.3336081 0.0886338 0.0665580
0.3736732 0.0895790 0.0680355
0.4168869 0.0898294 0.0804385
0.4594938 0.0926673 0.0926673
0.4938202 0.1025195 0.1025195
0.5292460 0.1126872 0.1126872
0.5600846 0.1215383 0.1215383
0.5888823 0.1298037 0.1298037
0.6139352 0.1369943 0.1369943
0.6439576 0.1456111 0.1456111
0.6666536 0.1521252 0.1521252
0.6876849 0.1581615 0.1581615
0.7070448 0.1637181 0.1637181
0.7222471 0.1680814 0.1680814
0.7409170 0.1734399 0.1734399
0.7542120 0.1772557 0.1772557
0.7701820 0.1818394 0.1818394
0.0383714 0.0610435 0.0728576
0.0383714 0.0610435 0.0728576
0.0384435 0.0610537 0.0728599
0.0389438 0.0611570 0.0728817
0.0400983 0.0613178 0.0729181
0.0426061 0.0617015 0.0730016
0.0483305 0.0625073 0.0731724
0.0563903 0.0637105 0.0734053
0.0698280 0.0656426 0.0737301
0.0882827 0.0682521 0.0739842
0.1126702 0.0715312 0.0739923
0.1453743 0.0754768 0.0738658
0.1758902 0.0787958 0.0734769
0.2107176 0.0822287 0.0726877
0.2504441 0.0852063 0.0712792
0.2875801 0.0876370 0.0695291
0.3339095 0.0894658 0.0666416
0.3739330 0.0902775 0.0681101
0.4171282 0.0904678 0.0805077
0.4596522 0.0927127 0.0927127
0.4938202 0.1025195 0.1025195
0.5292460 0.1126872 0.1126872
0.5600846 0.1215383 0.1215383
0.5888823 0.1298037 0.1298037
0.6139352 0.1369943 0.1369943
0.6439576 0.1456111 0.1456111
0.6666536 0.1521252 0.1521252
0.6876849 0.1581615 0.1581615
0.7070448 0.1637181 0.1637181
0.7222471 0.1680814 0.1680814
0.7409170 0.1734399 0.1734399
0.7542120 0.1772557 0.1772557
0.7701820 0.1818394 0.1818394
0.0382738 0.0614478 0.0729582
0.0382633 0.0614933 0.0729661
0.0383356 0.0615035 0.0729684
0.0388337 0.0616209 0.0729925
0.0400815 0.0618472 0.0730719
0.0429106 0.0622433 0.0731590
0.0482284 0.0631009 0.0733348
0.0563184 0.0643125 0.0735675
0.0711513 0.0666029 0.0739445
0.0903881 0.0693469 0.0740844
0.1159324 0.0727703 0.0741211
0.1455676 0.0765022 0.0740175
0.1782890 0.0802727 0.0736238
0.2110899 0.0835560 0.0728773
0.2539132 0.0869843 0.0713341
0.2944793 0.0895680 0.0693256
0.3345602 0.0912647 0.0668138
0.3786067 0.0925645 0.0694515
0.4180596 0.0929377 0.0807751
0.4607720 0.0930342 0.0930342
0.4988028 0.1039496 0.1039496
0.5341278 0.1140883 0.1140883
0.5613120 0.1218906 0.1218906
0.5899553 0.1301117 0.1301117
0.6148619 0.1372602 0.1372602
0.6444384 0.1457491 0.1457491
0.6666536 0.1521252 0.1521252
0.6876849 0.1581615 0.1581615
0.7070448 0.1637181 0.1637181
0.7222471 0.1680814 0.1680814
0.7409170 0.1734399 0.1734399
0.7542120 0.1772557 0.1772557
0.7701820 0.1818394 0.1818394
0.0379525 0.0627757 0.0732472
0.0379525 0.0627757 0.0732472
0.0380980 0.0627964 0.0732519
0.0386019 0.0629529 0.0732823
0.0398767 0.0632166 0.0733362
0.0426141 0.0636852 0.0734334
0.0479903 0.0645296 0.0736039
0.0570373 0.0659995 0.0739079
0.0711018 0.0680720 0.0741751
0.0904686 0.0709968 0.0742539
0.1161466 0.0745436 0.0743863
0.1459443 0.0785385 0.0743360
0.1788028 0.0824225 0.0739138
0.2117243 0.0858289 0.0731579
0.2547268 0.0895482 0.0716301
0.2986856 0.0925839 0.0694250
0.3357541 0.0945751 0.0670956
0.3798959 0.0960299 0.0698215
0.4232457 0.0969741 0.0822636
0.4625549 0.0974542 0.0935459
0.5011626 0.1046268 0.1046268
0.5366504 0.1148124 0.1148124
0.5668299 0.1234743 0.1234743
0.5954332 0.1316839 0.1316839
0.6202894 0.1388180 0.1388180
0.6468055 0.1464285 0.1464285
0.6691942 0.1528544 0.1528544
0.6903756 0.1589338 0.1589338
0.7092468 0.1643501 0.1643501
0.7234835 0.1684362 0.1684362
0.7419036 0.1737231 0.1737231
0.7552755 0.1775610 0.1775610
0.7701820 0.1818394 0.1818394
0.0373464 0.0652046 0.0737177
0.0373464 0.0652046 0.0737177
0.0374936 0.0652258 0.0737223
0.0380782 0.0654346 0.0737613
0.0393010 0.0656075 0.0737982
0.0422926 0.0661628 0.0739081
0.0478368 0.0671104 0.0741220
0.0567176 0.0686915 0.0744014
0.0710049 0.0708410 0.0744570
0.0905792 0.0738759 0.0746727
0.1165055 0.0776428 0.0748300
0.1465470 0.0818657 0.0747962
0.1838507 0.0861081 0.0742538
0.2149987 0.0896651 0.0735409
0.2560390 0.0937245 0.0720566
0.3002428 0.0971350 0.0698144
0.3410830 0.0997516 0.0671992
0.3822896 0.1024843 0.0705086
0.4259655 0.1041857 0.0830442
0.4689728 0.1046196 0.0953879
0.5043063 0.1061363 0.1055291
0.5394942 0.1156286 0.1156286
0.5696846 0.1242937 0.1242937
0.5985458 0.1325773 0.1325773
0.6229093 0.1395700 0.1395700
0.6529116 0.1481810 0.1481810
0.6750598 0.1545379 0.1545379
0.6967806 0.1607721 0.1607721
0.7140607 0.1657317 0.1657317
0.7294534 0.1701497 0.1701497
0.7471060 0.1752162 0.1752162
0.7596577 0.1788187 0.1788187
0.7745431 0.1830911 0.1830911
0.0362914 0.0691532 0.0744572
0.0362153 0.0694294 0.0745015
0.0364406 0.0694622 0.0745082
0.0370793 0.0695549 0.0745271
0.0383854 0.0700301 0.0746110
0.0415026 0.0704685 0.0746968
0.0475503 0.0719072 0.0749467
0.0571345 0.0729614 0.0749348
0.0723537 0.0757059 0.0751223
0.0907118 0.0785993 0.0753349
0.1170547 0.0827949 0.0755484
0.1475422 0.0876164 0.0755469
0.1852850 0.0922279 0.0749589
0.2213725 0.0964494 0.0740267
0.2613052 0.1011741 0.0725699
0.3028761 0.1049442 0.0703937
0.3438504 0.1075302 0.0677145
0.3929570 0.1102883 0.0735703
0.4289717 0.1121888 0.0839070
0.4721768 0.1130858 0.0963075
0.5106663 0.1138767 0.1073545
0.5461175 0.1175296 0.1175296
0.5767130 0.1263109 0.1263109
0.6028108 0.1338014 0.1338014
0.6282646 0.1411070 0.1411070
0.6585068 0.1497870 0.1497870
0.6812769 0.1563223 0.1563223
0.7026746 0.1624638 0.1624638
0.7224216 0.1681315 0.1681315
0.7378336 0.1725549 0.1725549
0.7553119 0.1775714 0.1775714
0.7686079 0.1813876 0.1813876
0.7821884 0.1852854 0.1852854
0.0343381 0.0757792 0.0755576
0.0343381 0.0757792 0.0755576
0.0346470 0.0758252 0.0755662
0.0351503 0.0764628 0.0756657
0.0367118 0.0766915 0.0757073
0.0405103 0.0769358 0.0756900
0.0465213 0.0783264 0.0757504
0.0567354 0.0794917 0.0757477
0.0719248 0.0822753 0.0760418
0.0931578 0.0856457 0.0762931
0.1210723 0.0901440 0.0764563
0.1520807 0.0948435 0.0763198
0.1869475 0.0996476 0.0757692
0.2233337 0.1037907 0.0747919
0.2633842 0.1080378 0.0731526
0.3051249 0.1117552 0.0709279
0.3468275 0.1160301 0.0681868
0.3995810 0.1190830 0.0754714
0.4362794 0.1223415 0.0860044
0.4762290 0.1237912 0.0974705
0.5157014 0.1271520 0.1087997
0.5512457 0.1281950 0.1190014
0.5824720 0.1314372 0.1279639
0.6121262 0.1364750 0.1364750
0.6382530 0.1439738 0.1439738
0.6648014 0.1515936 0.1515936
0.6878366 0.1582050 0.1582050
0.7099268 0.1645452 0.1645452
0.7296041 0.1701929 0.1701929
0.7463502 0.1749993 0.1749993
0.7644466 0.1801932 0.1801932
0.7823271 0.1853252 0.1853252
0.7952692 0.1962165 0.1890398
0.0319235 0.0827598 0.0766690
0.0320029 0.0827719 0.0766710
0.0320864 0.0837254 0.0768070
0.0329171 0.0838252 0.0766967
0.0347714 0.0836113 0.0765755
0.0386272 0.0841299 0.0764635
0.0454365 0.0855556 0.0766126
0.0554118 0.0869973 0.0767484
0.0720649 0.0904190 0.0771203
0.0931556 0.0935649 0.0773359
0.1235536 0.0989433 0.0774691
0.1534483 0.1036939 0.0773053
0.1890340 0.1095272 0.0767338
0.2258712 0.1136663 0.0755848
0.2666272 0.1190984 0.0739385
0.3124487 0.1243448 0.0713401
0.3589759 0.1306490 0.0681325
0.4052265 0.1347139 0.0770918
0.4490228 0.1380519 0.0896620
0.4867499 0.1418202 0.1004902
0.5264435 0.1463704 0.1118829
0.5589610 0.1485568 0.1212158
0.5897017 0.1505206 0.1300389
0.6196501 0.1548441 0.1386345
0.6453512 0.1575595 0.1460111
0.6772082 0.1652687 0.1551545
0.6998109 0.1691061 0.1616418
0.7227993 0.1781768 0.1682398
0.7450514 0.1895380 0.1746265
0.7597406 0.1957046 0.1788425
0.7777812 0.2080461 0.1840204
0.7952679 0.2184743 0.1890394
0.8056266 0.2244840 0.1920125
0.0271197 0.0955008 0.0781015
0.0272132 0.0955081 0.0780696
0.0276429 0.0955684 0.0780450
0.0286129 0.0957054 0.0779978
0.0305316 0.0959937 0.0780031
0.0350160 0.0959313 0.0779427
0.0419845 0.0983499 0.0782041
0.0539171 0.1000810 0.0784023
0.0724139 0.1028643 0.0786031
0.0953548 0.1071205 0.0788464
0.1280588 0.1120658 0.0787722
0.1571368 0.1177792 0.0785650
0.1964735 0.1246300 0.0777516
0.2294832 0.1286931 0.0766936
0.2774248 0.1355390 0.0743976
0.3176284 0.1410468 0.0720232
0.3683244 0.1477856 0.0681762
0.4114472 0.1524759 0.0788772
0.4562492 0.1579817 0.0917360
0.4945501 0.1629716 0.1027290
0.5414771 0.1678473 0.1161977
0.5767850 0.1722734 0.1263316
0.6023561 0.1767296 0.1336709
0.6318297 0.1871626 0.1421302
0.6649501 0.1926558 0.1516363
0.6897088 0.1984552 0.1587424
0.7140881 0.2071141 0.1657396
0.7373123 0.2169942 0.1724053
0.7572233 0.2221936 0.1781200
0.7735142 0.2327604 0.1827958
0.7909697 0.2390466 0.1878058
0.8086010 0.2510985 0.1928662
0.8177814 0.2576527 0.1955011
0.0208421 0.1094778 0.0795723
0.0208421 0.1094778 0.0795723
0.0213866 0.1095582 0.0795471
0.0224301 0.1097192 0.0795327
0.0246028 0.1100649 0.0795678
0.0293140 0.1107966 0.0796696
0.0376409 0.1119991 0.0797736
0.0507274 0.1164276 0.0801787
0.0698598 0.1180139 0.0802169
0.0972328 0.1223194 0.0802970
0.1288778 0.1299543 0.0803045
0.1635316 0.1352683 0.0797108
0.2021741 0.1436391 0.0788283
0.2399252 0.1515956 0.0773137
0.2835096 0.1587015 0.0750396
0.3322708 0.1679233 0.0716388
0.3773862 0.1764212 0.0691012
0.4243250 0.1803810 0.0825733
0.4666628 0.1879226 0.0947249
0.5060012 0.1950930 0.1060156
0.5540757 0.2024171 0.1198137
0.5900060 0.2082027 0.1301262
0.6224922 0.2159694 0.1394502
0.6475712 0.2214545 0.1466483
0.6806670 0.2271722 0.1561473
0.7053786 0.2329790 0.1632398
0.7258325 0.2388139 0.1691104
0.7496548 0.2505232 0.1759478
0.7699631 0.2568508 0.1817766
0.7890143 0.2636572 0.1872445
0.8025467 0.2709694 0.1911285
0.8206921 0.2847466 0.1963365
0.8327131 0.2956287 0.1997867
0.0104346 0.1340979 0.0817925
0.0104346 0.1340979 0.0817925
0.0104463 0.1341861 0.0817976
0.0104759 0.1344096 0.0818100
0.0112716 0.1348433 0.0818684
0.0168827 0.1357538 0.0819473
0.0266268 0.1372175 0.0820026
0.0433828 0.1412556 0.0822285
0.0654803 0.1444565 0.0822808
0.0943454 0.1490416 0.0821570
0.1330269 0.1584669 0.0817521
0.1659259 0.1639246 0.0810135
0.2065687 0.1735407 0.0795641
0.2486122 0.1815168 0.0775346
0.2910303 0.1908385 0.0747431
0.3401353 0.1971907 0.0709794
0.3860801 0.2061395 0.0715965
0.4340238 0.2111214 0.0853570
0.4806467 0.2194361 0.0987385
0.5247157 0.2274387 0.1113869
0.5662293 0.2374308 0.1233020
0.6029057 0.2448203 0.1338286
0.6334961 0.2469056 0.1426085
0.6590489 0.2535793 0.1499425
0.6928123 0.2608215 0.1596331
0.7180567 0.2680925 0.1668787
0.7426318 0.2781975 0.1739321
0.7646194 0.2858401 0.1802428
0.7851681 0.2935529 0.1861406
0.8024780 0.3013386 0.1911088
0.8186009 0.3164930 0.1957363
0.8347664 0.3248785 0.2003760
0.8458484 0.3338035 0.2035567
0.0135886 0.1560951 0.0832949
0.0135886 0.1560951 0.0832949
0.0136051 0.1562019 0.0832968
0.0141510 0.1596927 0.0834500
0.0142422 0.1602677 0.0834916
0.0141410 0.1596294 0.0834621
0.0144136 0.1613437 0.0834916
0.0323588 0.1641618 0.0835117
0.0596727 0.1678286 0.0834480
0.0925639 0.1765906 0.0832783
0.1318951 0.1832650 0.0824283
0.1722466 0.1921295 0.0811889
0.2148258 0.2012518 0.0791835
0.2531781 0.2094549 0.0768893
0.3005721 0.2209899 0.0732149
0.3475477 0.2277635 0.0689351
0.4027985 0.2395641 0.0763949
0.4514100 0.2454164 0.0903471
0.4922884 0.2573591 0.1020798
0.5398530 0.2622727 0.1157316
0.5810486 0.2714030 0.1275553
0.6178450 0.2802470 0.1381164
0.6477111 0.2886609 0.1466884
0.6728635 0.2938144 0.1539075
0.7072677 0.3026892 0.1637820
0.7329821 0.3111013 0.1711625
0.7569488 0.3197824 0.1780413
0.7793175 0.3283492 0.1844614
0.8002302 0.3373061 0.1904637
0.8200399 0.3466426 0.1961493
0.8336521 0.3557743 0.2000562
0.8509103 0.3689408 0.2050096
0.8605905 0.3784325 0.2077880
0.0180520 0.1826153 0.0843616
0.0180520 0.1826153 0.0843616
0.0180695 0.1827114 0.0843589
0.0181305 0.1830455 0.0844038
0.0186145 0.1856728 0.0844641
0.0188451 0.1869106 0.0844683
0.0192381 0.1890000 0.0844157
0.0198236 0.1920670 0.0843174
0.0482603 0.1962968 0.0840923
0.0893654 0.2045200 0.0833908
0.1336534 0.2143478 0.0821250
0.1722954 0.2235879 0.0804371
0.2172426 0.2317396 0.0781359
0.2641686 0.2446441 0.0742360
0.3134153 0.2528862 0.0698283
0.3658490 0.2611004 0.0657898
0.4109996 0.2727643 0.0787487
0.4614189 0.2823723 0.0932198
0.5102803 0.2941652 0.1072437
0.5509267 0.2990716 0.1189099
0.5929028 0.3097756 0.1309576
0.6303979 0.3198970 0.1417193
0.6627759 0.3265644 0.1510123
0.6896259 0.3358457 0.1587186
0.7243240 0.3461417 0.1686774
0.7452623 0.3484112 0.1746871
0.7695747 0.3580604 0.1816651
0.7932953 0.3712270 0.1884732
0.8143991 0.3809105 0.1945304
0.8343724 0.3906552 0.2002630
0.8456546 0.3926489 0.2035011
0.8617171 0.4029762 0.2081113
0.8729139 0.4132186 0.2113250
0.0242876 0.2138846 0.0847107
0.0242876 0.2138846 0.0847107
0.0243023 0.2139522 0.0847053
0.0243925 0.2143679 0.0846716
0.0245823 0.2152392 0.0846565
0.0249349 0.2168477 0.0846275
0.0254456 0.2191539 0.0844886
0.0263173 0.2230285 0.0842180
0.0340920 0.2280690 0.0836680
0.0832419 0.2370601 0.0824728
0.1337751 0.2481696 0.0805319
0.1768220 0.2561433 0.0783305
0.2243660 0.2650781 0.0749839
0.2675592 0.2784988 0.0708925
0.3187591 0.2876903 0.0652801
0.3729215 0.2968364 0.0678198
0.4241622 0.3137981 0.0825266
0.4749651 0.3214824 0.0971078
0.5208201 0.3339812 0.1102688
0.5622817 0.3398242 0.1221689
0.6059202 0.3547762 0.1346938
0.6421259 0.3595276 0.1450854
0.6759986 0.3702632 0.1548074
0.7077610 0.3741028 0.1639237
0.7372960 0.3882488 0.1724006
0.7637758 0.3984334 0.1800007
0.7857673 0.4013572 0.1863126
0.8082025 0.4115617 0.1927518
0.8270608 0.4214621 0.1981644
0.8448420 0.4245239 0.2032679
0.8585336 0.4344837 0.2071976
0.8758323 0.4493228 0.2121626
0.8867581 0.4590348 0.2152984
0.0313446 0.2440360 0.0841128
0.0313446 0.2440360 0.0841128
0.0313446 0.2440360 0.0841128
0.0314792 0.2445702 0.0840424
0.0317411 0.2456061 0.0840054
0.0321993 0.2474069 0.0839569
0.0329341 0.2502634 0.0835117
0.0340209 0.2544208 0.0831037
0.0356512 0.2605148 0.0821272
0.0718843 0.2730111 0.0801615
0.1316469 0.2825443 0.0773617
0.1803417 0.2916720 0.0742945
0.2306005 0.3014946 0.0701034
0.2768847 0.3104964 0.0651916
0.3314640 0.3265616 0.0561607
0.3798635 0.3383956 0.0698122
0.4307532 0.3473231 0.0844183
0.4840149 0.3620180 0.0997052
0.5334369 0.3698140 0.1138901
0.5783668 0.3861844 0.1267856
0.6237239 0.3928446 0.1398037
0.6525275 0.3969870 0.1480708
0.6868217 0.4084284 0.1579137
0.7200429 0.4165120 0.1674487
0.7488075 0.4279173 0.1757046
0.7753329 0.4382747 0.1833178
0.7975779 0.4417687 0.1897024
0.8200156 0.4520686 0.1961424
0.8400292 0.4587931 0.2018865
0.8599747 0.4690840 0.2076112
0.8752052 0.4790251 0.2119826
0.8852380 0.4823064 0.2148621
0.8961584 0.4926199 0.2179965
0.0384984 0.2707790 0.0828625
0.0384984 0.2707790 0.0828625
0.0384984 0.2707790 0.0828625
0.0386665 0.2713712 0.0829056
0.0390502 0.2727168 0.0828088
0.0411074 0.2798520 0.0820318
0.0420593 0.2831684 0.0814691
0.0434449 0.2879959 0.0806304
0.0452788 0.2943857 0.0793763
0.0596898 0.3028856 0.0770211
0.1288072 0.3132289 0.0735717
0.1834137 0.3234529 0.0694554
0.2295410 0.3385080 0.0630730
0.2785352 0.3511252 0.0615639
0.3349409 0.3624568 0.0648162
0.3929873 0.3735463 0.0735790
0.4468782 0.3890423 0.0890464
0.4995328 0.3983750 0.1041591
0.5420392 0.4086608 0.1163590
0.5958518 0.4233653 0.1318040
0.6370247 0.4298418 0.1436213
0.6697631 0.4381838 0.1530177
0.7006821 0.4496379 0.1618919
0.7301790 0.4543272 0.1703579
0.7590185 0.4654954 0.1786353
0.7906253 0.4736366 0.1877069
0.8148534 0.4838374 0.1946607
0.8348006 0.4874777 0.2003859
0.8508959 0.4975654 0.2050055
0.8708546 0.5083811 0.2107339
0.8859224 0.5123709 0.2150586
0.8985685 0.5265640 0.2186882
0.9075040 0.5295013 0.2212528
0.0475082 0.3021532 0.0804635
0.0475082 0.3021532 0.0804635
0.0475082 0.3021532 0.0804635
0.0476948 0.3028032 0.0804720
0.0481267 0.3043081 0.0802833
0.0488248 0.3067404 0.0798728
0.0498841 0.3104312 0.0790852
0.0513551 0.3155563 0.0780006
0.0533747 0.3225928 0.0760993
0.0561181 0.3321514 0.0730516
0.1164987 0.3447258 0.0686366
0.1777324 0.3557088 0.0628921
0.2339588 0.3723089 0.0676440
0.2866266 0.3833812 0.0708219
0.3454838 0.3954382 0.0742824
0.3971842 0.4086654 0.0780788
0.4523311 0.4250872 0.0906115
0.5062065 0.4352278 0.1060745
0.5576154 0.4443753 0.1208296
0.6028605 0.4551916 0.1338156
0.6460660 0.4687377 0.1462163
0.6819384 0.4747677 0.1565122
0.7161068 0.4870661 0.1663190
0.7438662 0.4951381 0.1742864
0.7708428 0.4999561 0.1820290
0.8006296 0.5115547 0.1905783
0.8231876 0.5158028 0.1970528
0.8451899 0.5272377 0.2033677
0.8604475 0.5344726 0.2077469
0.8805137 0.5465286 0.2135062
0.8958203 0.5498021 0.2178994
0.9074515 0.5616003 0.2212377
0.9189872 0.5658486 0.2245487
0.0543938 0.3261435 0.0782550
0.0543938 0.3261435 0.0782550
0.0543938 0.3261435 0.0782550
0.0545477 0.3266797 0.0781007
0.0550190 0.3283218 0.0778397
0.0572245 0.3360060 0.0764957
0.0584025 0.3401104 0.0753455
0.0601158 0.3460799 0.0741658
0.0624312 0.3541470 0.0711814
0.0652140 0.3638426 0.0676184
0.1096212 0.3744693 0.0682640
0.1823290 0.3873018 0.0719471
0.2418932 0.3993846 0.0754151
0.2987998 0.4170912 0.0804971
0.3515044 0.4312525 0.0845616
0.4138640 0.4442882 0.0883031
0.4656519 0.4545879 0.0944348
0.5113237 0.4667010 0.1075432
0.5648817 0.4830110 0.1229152
0.6102484 0.4914667 0.1359361
0.6526042 0.4992704 0.1480928
0.6912645 0.5163532 0.1591889
0.7243310 0.5222408 0.1686794
0.7515140 0.5274470 0.1764814
0.7867563 0.5405601 0.1865964
0.8122270 0.5486546 0.1939069
0.8367627 0.5594649 0.2009490
0.8566746 0.5639749 0.2066640
0.8730501 0.5686762 0.2113640
0.8884883 0.5784766 0.2157950
0.9044912 0.5869813 0.2203881
0.9159964 0.5973002 0.2236903
0.9275122 0.6020788 0.2269955
0.0625484 0.3545553 0.0750157
0.0625484 0.3545553 0.0750157
0.0625484 0.3545553 0.0750157
0.0626177 0.3547969 0.0749309
0.0631871 0.3567805 0.0745662
0.0640289 0.3597135 0.0734770
0.0654101 0.3645257 0.0722888
0.0674273 0.3715542 0.0704160
0.0696126 0.3791679 0.0696126
0.0730429 0.3911196 0.0730429
0.1090695 0.4074696 0.0777356
0.1814284 0.4225480 0.0820633
0.2374967 0.4339105 0.0853245
0.2975886 0.4468428 0.0890363
0.3611776 0.4604802 0.0929504
0.4164280 0.4750076 0.0971200
0.4750281 0.4928255 0.1022340
0.5301065 0.5039608 0.1129342
0.5695180 0.5120227 0.1242459
0.6257517 0.5255396 0.1403857
0.6690122 0.5399039 0.1528022
0.6972290 0.5454231 0.1609008
0.7305486 0.5520587 0.1704640
0.7667350 0.5649778 0.1808500
0.7941751 0.5733578 0.1887258
0.8190004 0.5789745 0.1958510
0.8434337 0.5887714 0.2028637
0.8633421 0.5942432 0.2085777
0.8830809 0.6009553 0.2142430
0.8975232 0.6115658 0.2183882
0.9109616 0.6156271 0.2222452
0.9219320 0.6259322 0.2253938
0.9335861 0.6302649 0.2287387
0.0695778 0.3790466 0.0718462
0.0695778 0.3790466 0.0718462
0.0695778 0.3790466 0.0718462
0.0695778 0.3790466 0.0718462
0.0702392 0.3813513 0.0717961
0.0712397 0.3848371 0.0712397
0.0739147 0.3941569 0.0739147
0.0761565 0.4019677 0.0761565
0.0786724 0.4107336 0.0786724
0.0820916 0.4226467 0.0820916
0.1089698 0.4355210 0.0857868
0.1824107 0.4477891 0.0893079
0.2411362 0.4596437 0.0927103
0.3049855 0.4757248 0.0973258
0.3613147 0.4880671 0.1008682
0.4278314 0.5070844 0.1063265
0.4877525 0.5197797 0.1099702
0.5337123 0.5318259 0.1139691
0.5875161 0.5429918 0.1294116
0.6342248 0.5523773 0.1428177
0.6735749 0.5650904 0.1541117
0.7097327 0.5751753 0.1644895
0.7361849 0.5806991 0.1720817
0.7710994 0.5879306 0.1821027
0.7993435 0.5989035 0.1902092
0.8249696 0.6073548 0.1975642
0.8481517 0.6126670 0.2042178
0.8694179 0.6230628 0.2103215
0.8884405 0.6280951 0.2157813
0.9068519 0.6385753 0.2210657
0.9182925 0.6429619 0.2243493
0.9281973 0.6497307 0.2271921
0.9394410 0.6597155 0.2304192
0.0752004 0.3986368 0.0752004
0.0752004 0.3986368 0.0752004
0.0752004 0.3986368 0.0752004
0.0752004 0.3986368 0.0752004
0.0763500 0.4026420 0.0763500
0.0780815 0.4086747 0.0780815
0.0795138 0.4136653 0.0795138
0.0817325 0.4213955 0.0817325
0.0844669 0.4309226 0.0844669
0.0885861 0.4452744 0.0885861
0.1052881 0.4590615 0.0925432
0.1835144 0.4717773 0.0961928
0.2456700 0.4842938 0.0997853
0.3126045 0.4989548 0.1039932
0.3702992 0.5139267 0.1082904
0.4286646 0.5287924 0.1125570
0.4894956 0.5447643 0.1171412
0.5448888 0.5565693 0.1205294
0.5904136 0.5663036 0.1302432
0.6381208 0.5782944 0.1439359
0.6815664 0.5919298 0.1564054
0.7172555 0.5996885 0.1666487
0.7505664 0.6067366 0.1762094
0.7799132 0.6150309 0.1846324
0.8075822 0.6268764 0.1925738
0.8295196 0.6322523 0.1988701
0.8529699 0.6373207 0.2056007
0.8735090 0.6464705 0.2114957
0.8940141 0.6566439 0.2173810
0.9113370 0.6619333 0.2223529
0.9226183 0.6672321 0.2255908
0.9364194 0.6774813 0.2295520
0.9448116 0.6810913 0.2319607
0.0811894 0.4195034 0.0811894
0.0811894 0.4195034 0.0811894
0.0811894 0.4195034 0.0811894
0.0811894 0.4195034 0.0811894
0.0816137 0.4209815 0.0816137
0.0828602 0.4253246 0.0828602
0.0848459 0.4322431 0.0848459
0.0879541 0.4430723 0.0879541
0.0910507 0.4538614 0.0910507
0.0949824 0.4675600 0.0949824
0.1033086 0.4796210 0.0984441
0.1853641 0.4927477 0.1022116
0.2503463 0.5080757 0.1066110
0.3102343 0.5209903 0.1103177
0.3794998 0.5364693 0.1147604
0.4387613 0.5501459 0.1186858
0.4997691 0.5662236 0.1233003
0.5471995 0.5814471 0.1276697
0.5932544 0.5917950 0.1310586
0.6497816 0.6034884 0.1472827
0.6913128 0.6124182 0.1592028
0.7206106 0.6216082 0.1676117
0.7553565 0.6338859 0.1775842
0.7839708 0.6414773 0.1857970
0.8177486 0.6485410 0.1954917
0.8420001 0.6545222 0.2024522
0.8634398 0.6684298 0.2086058
0.8784353 0.6738509 0.2129097
0.8975393 0.6797450 0.2183928
0.9160834 0.6909203 0.2237152
0.9277502 0.6949219 0.2270638
0.9406427 0.7030220 0.2307641
0.9501363 0.7119222 0.2334889
0.0877233 0.4422683 0.0877233
0.0877233 0.4422683 0.0877233
0.0877233 0.4422683 0.0877233
0.0877233 0.4422683 0.0877233
0.0879147 0.4429350 0.0879147
0.0892545 0.4476030 0.0892545
0.0912176 0.4544427 0.0912176
0.0934672 0.4622808 0.0934672
0.0969512 0.4744196 0.0969512
0.1005361 0.4869100 0.1005361
0.1042400 0.4998146 0.1042400
0.1867875 0.5129814 0.1080190
0.2547371 0.5318552 0.1134361
0.3171017 0.5454516 0.1173385
0.3776126 0.5619966 0.1220871
0.4389605 0.5755079 0.1259650
0.5008008 0.5899470 0.1301093
0.5575583 0.6026095 0.1337436
0.6048923 0.6156750 0.1374936
0.6528646 0.6309224 0.1481676
0.6949991 0.6399820 0.1602608
0.7308300 0.6481981 0.1705448
0.7579530 0.6545359 0.1783295
0.7950351 0.6653154 0.1889726
0.8222640 0.6769170 0.1967877
0.8467844 0.6828733 0.2038254
0.8687888 0.6903270 0.2101410
0.8892927 0.6959015 0.2160259
0.9046317 0.7088347 0.2204284
0.9196536 0.7141278 0.2247399
0.9312945 0.7184716 0.2280810
0.9441515 0.7223533 0.2317712
0.9532164 0.7327974 0.2343730
0.0934917 0.4623661 0.0934917
0.0934917 0.4623661 0.0934917
0.0934917 0.4623661 0.0934917
0.0934917 0.4623661 0.0934917
0.0934917 0.4623661 0.0934917
0.0952009 0.4683211 0.0952009
