data/spectral_luts/gold_200_endura_premier.cube
TITLE "gold_200_endura_premier"
LUT_3D_SIZE 5
0.0383859 0.0609799 0.0728467
0.0698364 0.0653972 0.0736909
0.3336081 0.0886338 0.0665580
0.6139352 0.1369943 0.1369943
0.7701820 0.1818394 0.1818394
0.0319235 0.0827598 0.0766690
0.0720649 0.0904190 0.0771203
0.3589759 0.1306490 0.0681325
0.6453512 0.1575595 0.1460111
0.8056266 0.2244840 0.1920125
0.0384984 0.2707790 0.0828625
0.0452788 0.2943857 0.0793763
0.4468782 0.3890423 0.0890464
0.7590185 0.4654954 0.1786353
0.9075040 0.5295013 0.2212528
0.0934917 0.4623661 0.0934917
0.1031033 0.4958543 0.1031033
0.5107136 0.6114917 0.1362929
0.8243533 0.6972433 0.1973873
0.9563717 0.7534814 0.2352785
0.1355157 0.6087839 0.1560824
0.1428461 0.6343238 0.1546685
0.5491421 0.7454995 0.1747551
0.8447654 0.8184281 0.2032459
0.9708060 0.8656421 0.3026477
0.0361720 0.0640490 0.0931616
0.0863913 0.0714931 0.0970635
0.3634473 0.0952593 0.1056400
0.6361684 0.1433755 0.1433755
0.7796528 0.1845576 0.1960910
0.0217672 0.0980751 0.1095507
0.0875399 0.1107555 0.1153658
0.3941063 0.1546783 0.1278134
0.6717545 0.1952028 0.1535892
0.8206562 0.2637552 0.2202793
0.0521119 0.3181930 0.1531682
0.0612300 0.3499618 0.1599725
0.4678890 0.4412276 0.1701484
0.7747484 0.5139934 0.1944009
0.9131007 0.5784051 0.2669160
0.1080544 0.5131047 0.2131069
0.1197107 0.5537169 0.2103978
0.5161331 0.6662429 0.2123311
0.8267654 0.7412078 0.2479293
0.9540628 0.7853979 0.3349872
0.1470412 0.6489402 0.3021131
0.1553797 0.6779928 0.3031489
0.5503780 0.7833326 0.3189044
0.8416465 0.8517836 0.3620863
0.9639568 0.8883482 0.4479492
0.0738203 0.0738203 0.3938283
0.1621165 0.0825157 0.4123808
0.4441002 0.1072980 0.4415883
0.6831868 0.1568705 0.4797963
0.8121626 0.1977481 0.5330569
0.0895406 0.1520185 0.4485999
0.1508460 0.1798184 0.4667224
0.4713415 0.2312499 0.5029635
0.7299531 0.2842611 0.5351029
0.8528678 0.3505044 0.5737082
0.1212047 0.4298846 0.5589222
0.1258246 0.4694039 0.5750185
0.5104550 0.5565095 0.5994909
0.7931741 0.6092216 0.6195937
0.9198457 0.6566213 0.6458961
0.1417779 0.6296042 0.6306021
0.1544495 0.6747517 0.6403337
0.5245697 0.7624919 0.6613073
0.8231488 0.8217492 0.6773059
0.9434605 0.8493307 0.7018415
0.1723163 0.7370022 0.6861483
0.1833560 0.7754660 0.6893259
0.5590079 0.8569906 0.7062347
0.8398999 0.9067257 0.7163377
0.9530218 0.9291947 0.7371897
0.2130806 0.1519845 0.6661635
0.3157850 0.1652027 0.6784351
0.5660915 0.2133933 0.7054139
0.7601907 0.2655818 0.7296639
0.8649626 0.3426331 0.7621479
0.1764652 0.2794421 0.7131321
0.3119955 0.3056727 0.7307570
0.5839763 0.3627437 0.7513820
0.7911158 0.4195949 0.7757195
0.8931026 0.4813794 0.7993913
0.1885420 0.5508527 0.7935348
0.2354470 0.5828344 0.8035214
0.6055831 0.6437126 0.8229252
0.8322861 0.6881672 0.8347475
0.9312533 0.7235472 0.8483534
0.2027143 0.7264129 0.8429132
0.2050039 0.7602488 0.8508906
0.6210804 0.8223791 0.8637156
0.8467545 0.8627269 0.8724091
0.9455459 0.8824940 0.8832154
0.2119832 0.8114144 0.8752074
0.2777477 0.8428051 0.8813481
0.6489505 0.8981456 0.8911874
0.8610088 0.9348005 0.8982147
0.9531789 0.9506143 0.9051843
0.4237230 0.3790176 0.8495669
0.5137082 0.3995595 0.8569250
0.6880720 0.4329954 0.8679695
0.8387910 0.4838757 0.8830988
0.9140648 0.5444848 0.8976133
0.4211774 0.4886614 0.8761888
0.5196390 0.5069385 0.8821886
0.6960303 0.5382012 0.8911483
0.8512276 0.5808747 0.9021778
0.9281191 0.6331566 0.9140053
0.4010051 0.6709151 0.9151416
0.5088888 0.6931769 0.9202912
0.7074410 0.7298267 0.9295332
0.8721703 0.7663795 0.9350901
0.9450585 0.7863367 0.9402686
0.4077187 0.8137628 0.9419108
0.5187476 0.8340164 0.9455944
0.7235146 0.8668424 0.9507998
0.8837825 0.8937963 0.9557070
0.9562575 0.9118975 0.9590842
0.4600094 0.8798531 0.9562172
0.5572528 0.8950149 0.9587101
0.7455418 0.9273515 0.9629899
0.8936810 0.9512797 0.9668735
0.9602942 0.9624337 0.9684608
