data/spectral_luts/instax_color_fujiflex_new.cube
TITLE "instax_color_fujiflex_new"
LUT_3D_SIZE 33
0.9473780 0.9588225 0.9973989
0.9473780 0.9588225 0.9973989
0.9473780 0.9588225 0.9973989
0.9466553 0.9587207 0.9973902
0.9444889 0.9584154 0.9973640
0.9415236 0.9579971 0.9973279
0.9351255 0.9570931 0.9972485
0.9209794 0.9550855 0.9970664
0.8957644 0.9514790 0.9967198
0.8487237 0.9446618 0.9959984
0.7859271 0.9354083 0.9948866
0.7166933 0.9250636 0.9934720
0.6435510 0.9140771 0.9917814
0.5768098 0.9041269 0.9900901
0.5152353 0.8951444 0.9884373
0.4536293 0.8864983 0.9867362
0.3855276 0.8775501 0.9848642
0.3224849 0.8700627 0.9832121
0.2491226 0.8626128 0.9814916
0.2420132 0.8557370 0.9798363
0.2416480 0.8506238 0.9785636
0.2413882 0.8480771 0.9776586
0.2410861 0.8440877 0.9766060
0.2407288 0.8370390 0.9753610
0.2403198 0.8284770 0.9739362
0.2400091 0.8208448 0.9728535
0.2395371 0.8082921 0.9712090
0.2388395 0.7892594 0.9687786
0.2380641 0.7676058 0.9660770
0.2376101 0.7421182 0.9644952
0.2358757 0.7066640 0.9584520
0.2320019 0.6626747 0.9449553
0.2264242 0.6131583 0.9255220
0.9473780 0.9588225 0.9973989
0.9473780 0.9588225 0.9973989
0.9473780 0.9588225 0.9973989
0.9466553 0.9587207 0.9973902
0.9444889 0.9584154 0.9973640
0.9415236 0.9579971 0.9973279
0.9343274 0.9569800 0.9972385
0.9209794 0.9550855 0.9970664
0.8957644 0.9514790 0.9967198
0.8506104 0.9449372 0.9960293
0.7859271 0.9354083 0.9948866
0.7166933 0.9250636 0.9934720
0.6435510 0.9140771 0.9917814
0.5768098 0.9041269 0.9900901
0.5152353 0.8951444 0.9884373
0.4536293 0.8864983 0.9867362
0.3855276 0.8775501 0.9848642
0.3224849 0.8700627 0.9832121
0.2491226 0.8626128 0.9814916
0.2420132 0.8557370 0.9798363
0.2416480 0.8506238 0.9785636
0.2413393 0.8476909 0.9774883
0.2410585 0.8431579 0.9765099
0.2406799 0.8354178 0.9751907
0.2402705 0.8268709 0.9737642
0.2399106 0.8176973 0.9725102
0.2394172 0.8045640 0.9707913
0.2387413 0.7863185 0.9684363
0.2379259 0.7636472 0.9655952
0.2373844 0.7354202 0.9637088
0.2353711 0.6993004 0.9566939
0.2311987 0.6510790 0.9421569
0.2259809 0.6075366 0.9239774
0.9473780 0.9588225 0.9973989
0.9473780 0.9588225 0.9973989
0.9473780 0.9588225 0.9973989
0.9466553 0.9587207 0.9973902
0.9444889 0.9584154 0.9973640
0.9415236 0.9579971 0.9973279
0.9343274 0.9569800 0.9972385
0.9209794 0.9550855 0.9970664
0.8957644 0.9514790 0.9967198
0.8506104 0.9449372 0.9960293
0.7859271 0.9354083 0.9948866
0.7166933 0.9250636 0.9934720
0.6435510 0.9140771 0.9917814
0.5768098 0.9041269 0.9900901
0.5152353 0.8951444 0.9884373
0.4536293 0.8864983 0.9867362
0.3855276 0.8775501 0.9848642
0.3224849 0.8700627 0.9832121
0.2491226 0.8626128 0.9814916
0.2420132 0.8557370 0.9798363
0.2416798 0.8517161 0.9786745
0.2413418 0.8477762 0.9774970
0.2410204 0.8418741 0.9763770
0.2405621 0.8327506 0.9747801
0.2402167 0.8251271 0.9735768
0.2398045 0.8143321 0.9721408
0.2392006 0.7990560 0.9700366
0.2385033 0.7792691 0.9676073
0.2376816 0.7567276 0.9647441
0.2370900 0.7272749 0.9626829
0.2348413 0.6881388 0.9548483
0.2306402 0.6414790 0.9402109
0.2251390 0.5978956 0.9210440
0.9473780 0.9588225 0.9973989
0.9473780 0.9588225 0.9973989
0.9473780 0.9588225 0.9973989
0.9466553 0.9587207 0.9973902
0.9444889 0.9584154 0.9973640
0.9407225 0.9578841 0.9973181
0.9343274 0.9569800 0.9972385
0.9209794 0.9550855 0.9970664
0.8957644 0.9514790 0.9967198
0.8506104 0.9449372 0.9960293
0.7859271 0.9354083 0.9948866
0.7166933 0.9250636 0.9934720
0.6435510 0.9140771 0.9917814
0.5802296 0.9046329 0.9901796
0.5152353 0.8951444 0.9884373
0.4492866 0.8859061 0.9866158
0.3855276 0.8775501 0.9848642
0.3224849 0.8700627 0.9832121
0.2491226 0.8626128 0.9814916
0.2420132 0.8557370 0.9798363
0.2417097 0.8527438 0.9787785
0.2413096 0.8466804 0.9773848
0.2409444 0.8393312 0.9761124
0.2404856 0.8302428 0.9745139
0.2401075 0.8216061 0.9731963
0.2395869 0.8086716 0.9713826
0.2389998 0.7929461 0.9693371
0.2382584 0.7721151 0.9667539
0.2373979 0.7481763 0.9637557
0.2367240 0.7172664 0.9614078
0.2340635 0.6756443 0.9521384
0.2297789 0.6300672 0.9372102
0.2244252 0.5877926 0.9185572
0.9473780 0.9588225 0.9973989
0.9473780 0.9588225 0.9973989
0.9473780 0.9588225 0.9973989
0.9466553 0.9587207 0.9973902
0.9444889 0.9584154 0.9973640
0.9415236 0.9579971 0.9973279
0.9343274 0.9569800 0.9972385
0.9209794 0.9550855 0.9970664
0.8957644 0.9514790 0.9967198
0.8487237 0.9446618 0.9959984
0.7881548 0.9357390 0.9949289
0.7197236 0.9255185 0.9935378
0.6435510 0.9140771 0.9917814
0.5802296 0.9046329 0.9901796
0.5152353 0.8951444 0.9884373
0.4492866 0.8859061 0.9866158
0.3855276 0.8775501 0.9848642
0.3224849 0.8700627 0.9832121
0.2491226 0.8626128 0.9814916
0.2420700 0.8577113 0.9800340
0.2416953 0.8522496 0.9787285
0.2412274 0.8438985 0.9770985
0.2408438 0.8359827 0.9757618
0.2403762 0.8266761 0.9741328
0.2398952 0.8148369 0.9724566
0.2393466 0.8012199 0.9705452
0.2386369 0.7820898 0.9680726
0.2378407 0.7601423 0.9652984
0.2370905 0.7354237 0.9626846
0.2361168 0.7015501 0.9592923
0.2328139 0.6548386 0.9477843
0.2283754 0.6110862 0.9323201
0.2230605 0.5721038 0.9138024
0.9473780 0.9588225 0.9973989
0.9473780 0.9588225 0.9973989
0.9473780 0.9588225 0.9973989
0.9466553 0.9587207 0.9973902
0.9444889 0.9584154 0.9973640
0.9415236 0.9579971 0.9973279
0.9343274 0.9569800 0.9972385
0.9209794 0.9550855 0.9970664
0.8957644 0.9514790 0.9967198
0.8487237 0.9446618 0.9959984
0.7859271 0.9354083 0.9948866
0.7197236 0.9255185 0.9935378
0.6435510 0.9140771 0.9917814
0.5768098 0.9041269 0.9900901
0.5191259 0.8957034 0.9885435
0.4492866 0.8859061 0.9866158
0.3855276 0.8775501 0.9848642
0.3149373 0.8692285 0.9830232
0.2469594 0.8646771 0.9816949
0.2420602 0.8573710 0.9800000
0.2416024 0.8490641 0.9784049
0.2410917 0.8393381 0.9766253
0.2406374 0.8303850 0.9750426
0.2401324 0.8188242 0.9732833
0.2396323 0.8065847 0.9715407
0.2389037 0.7877818 0.9690022
0.2381624 0.7682441 0.9664195
0.2372921 0.7448320 0.9633871
0.2364989 0.7158419 0.9606236
0.2350647 0.6774393 0.9556265
0.2314240 0.6318353 0.9429420
0.2269063 0.5919304 0.9272016
0.2213613 0.5540971 0.9078820
0.9481013 0.9589242 0.9974077
0.9481013 0.9589242 0.9974077
0.9473780 0.9588225 0.9973989
0.9466553 0.9587207 0.9973902
0.9444889 0.9584154 0.9973640
0.9415236 0.9579971 0.9973279
0.9343274 0.9569800 0.9972385
0.9209794 0.9550855 0.9970664
0.8957644 0.9514790 0.9967198
0.8487237 0.9446618 0.9959984
0.7859271 0.9354083 0.9948866
0.7166933 0.9250636 0.9934720
0.6435510 0.9140771 0.9917814
0.5768098 0.9041269 0.9900901
0.5152353 0.8951444 0.9884373
0.4492866 0.8859061 0.9866158
0.3849663 0.8785523 0.9849594
0.3132022 0.8715047 0.9832436
0.2479415 0.8637438 0.9816030
0.2419438 0.8533313 0.9795942
0.2413857 0.8429591 0.9776499
0.2409242 0.8337759 0.9760419
0.2403659 0.8215773 0.9740967
0.2398486 0.8098434 0.9722943
0.2391014 0.7914653 0.9696910
0.2383430 0.7712738 0.9670487
0.2375385 0.7505937 0.9642456
0.2364794 0.7229449 0.9605557
0.2356116 0.6903514 0.9575320
0.2334889 0.6470730 0.9501363
0.2298817 0.6090454 0.9375684
0.2253507 0.5723883 0.9217817
0.2298639 0.5334311 0.9017268
0.9481013 0.9589242 0.9974077
0.9481013 0.9589242 0.9974077
0.9473780 0.9588225 0.9973989
0.9466553 0.9587207 0.9973902
0.9444889 0.9584154 0.9973640
0.9415236 0.9579971 0.9973279
0.9351255 0.9570931 0.9972485
0.9209794 0.9550855 0.9970664
0.8957644 0.9514790 0.9967198
0.8487237 0.9446618 0.9959984
0.7859271 0.9354083 0.9948866
0.7197236 0.9255185 0.9935378
0.6435510 0.9140771 0.9917814
0.5768098 0.9041269 0.9900901
0.5152353 0.8951444 0.9884373
0.4483822 0.8879923 0.9868093
0.3843951 0.8795680 0.9850556
0.3154581 0.8685404 0.9829563
0.2444892 0.8573931 0.9808580
0.2417679 0.8473002 0.9789814
0.2411678 0.8356709 0.9768904
0.2406089 0.8234831 0.9749434
0.2400312 0.8109388 0.9729304
0.2392287 0.7907952 0.9701346
0.2384406 0.7719219 0.9673887
0.2376284 0.7509864 0.9645588
0.2366381 0.7261354 0.9611086
0.2355179 0.6951434 0.9572057
0.2342914 0.6573155 0.9529322
0.2316263 0.6164813 0.9436468
0.2280613 0.5819710 0.9312257
0.2230778 0.5477601 0.9138624
0.2442509 0.5118585 0.8934362
0.9488246 0.9590260 0.9974163
0.9488246 0.9590260 0.9974163
0.9481013 0.9589242 0.9974077
0.9473780 0.9588225 0.9973989
0.9452108 0.9585172 0.9973727
0.9423249 0.9581101 0.9973378
0.9351255 0.9570931 0.9972485
0.9209794 0.9550855 0.9970664
0.8957644 0.9514790 0.9967198
0.8487237 0.9446618 0.9959984
0.7859271 0.9354083 0.9948866
0.7166933 0.9250636 0.9934720
0.6435510 0.9140771 0.9917814
0.5763569 0.9058531 0.9902424
0.5144511 0.8974878 0.9886491
0.4491079 0.8863194 0.9866542
0.3813097 0.8736965 0.9844059
0.3202262 0.8621328 0.9823288
0.2521191 0.8500161 0.9801151
0.2414728 0.8373576 0.9779533
0.2408446 0.8250743 0.9757647
0.2400762 0.8077658 0.9730874
0.2392269 0.7874018 0.9701283
0.2384358 0.7685314 0.9673719
0.2375719 0.7473274 0.9643618
0.2366072 0.7243093 0.9610010
0.2352972 0.6926163 0.9564366
0.2341671 0.6573238 0.9524990
0.2326880 0.6221414 0.9473457
0.2297305 0.5877595 0.9370415
0.2258859 0.5540012 0.9236465
0.2391898 0.5203021 0.9054517
0.2601998 0.4842292 0.8838479
0.9488246 0.9590260 0.9974163
0.9488246 0.9590260 0.9974163
0.9488246 0.9590260 0.9974163
0.9473780 0.9588225 0.9973989
0.9452108 0.9585172 0.9973727
0.9423249 0.9581101 0.9973378
0.9351255 0.9570931 0.9972485
0.9209794 0.9550855 0.9970664
0.8957644 0.9514790 0.9967198
0.8467755 0.9443771 0.9959664
0.7835727 0.9350585 0.9948417
0.7165341 0.9261761 0.9935643
0.6398112 0.9159656 0.9919056
0.5765010 0.9053050 0.9901941
0.5121405 0.8922107 0.9881142
0.4478130 0.8786877 0.9858730
0.3857049 0.8658211 0.9836438
0.3264279 0.8535041 0.9814691
0.2632032 0.8386366 0.9789448
0.2409953 0.8228693 0.9762896
0.2401266 0.8023490 0.9732630
0.2392685 0.7831705 0.9702733
0.2384352 0.7642438 0.9673698
0.2374799 0.7416981 0.9640413
0.2363902 0.7156320 0.9602447
0.2351670 0.6874828 0.9559828
0.2337288 0.6521662 0.9509720
0.2326598 0.6208249 0.9472476
0.2308075 0.5876244 0.9407937
0.2275382 0.5558012 0.9294031
0.2382466 0.5221777 0.9134290
0.2570815 0.4907442 0.8955788
0.2721505 0.4601963 0.8749146
0.9488246 0.9590260 0.9974163
0.9488246 0.9590260 0.9974163
0.9488246 0.9590260 0.9974163
0.9473780 0.9588225 0.9973989
0.9452108 0.9585172 0.9973727
0.9423249 0.9581101 0.9973378
0.9343274 0.9569800 0.9972385
0.9198588 0.9549259 0.9970515
0.8943148 0.9512705 0.9966990
0.8448295 0.9440926 0.9959344
0.7833513 0.9372473 0.9950172
0.7164202 0.9269692 0.9936298
0.6438062 0.9127888 0.9916704
0.5781416 0.8989871 0.9896330
0.5143720 0.8855031 0.9874967
0.4513170 0.8704293 0.9850845
0.3918684 0.8543675 0.9825103
0.3301890 0.8369586 0.9796644
0.2744196 0.8159614 0.9764035
0.2401271 0.7956256 0.9732648
0.2391951 0.7754596 0.9700174
0.2382903 0.7549263 0.9668652
0.2371960 0.7299800 0.9630523
0.2360026 0.7027476 0.9588942
0.2346901 0.6739733 0.9543216
0.2333294 0.6437714 0.9495806
0.2323492 0.6157045 0.9461654
0.2310671 0.5861886 0.9416984
0.2285130 0.5535910 0.9327996
0.2372663 0.5240421 0.9204342
0.2564055 0.4926334 0.9044162
0.2718025 0.4619501 0.8852455
0.2837679 0.4334127 0.8658072
0.9488246 0.9590260 0.9974163
0.9488246 0.9590260 0.9974163
0.9488246 0.9590260 0.9974163
0.9473780 0.9588225 0.9973989
0.9452108 0.9585172 0.9973727
0.9423249 0.9581101 0.9973378
0.9343274 0.9569800 0.9972385
0.9198588 0.9549259 0.9970515
0.8928662 0.9510622 0.9966782
0.8427227 0.9461461 0.9960842
0.7810326 0.9359131 0.9948930
0.7140944 0.9216312 0.9931573
0.6418530 0.9057270 0.9910189
0.5767532 0.8906597 0.9888341
0.5180197 0.8742189 0.9864354
0.4572436 0.8559200 0.9836619
0.3973573 0.8319688 0.9801167
0.3475252 0.8098308 0.9767485
0.2972175 0.7874797 0.9731946
0.2492558 0.7654379 0.9695835
0.2379792 0.7410684 0.9657812
0.2368173 0.7160754 0.9617328
0.2355096 0.6866326 0.9571767
0.2341555 0.6585313 0.9524588
0.2328687 0.6315978 0.9479756
0.2317776 0.6054143 0.9441738
0.2306226 0.5767969 0.9401497
0.2290548 0.5494012 0.9346871
0.2451920 0.5198331 0.9240994
0.2583109 0.4898142 0.9103213
0.2725455 0.4613272 0.8938435
0.2844886 0.4327434 0.8740666
0.2895401 0.4087770 0.8566977
0.9481013 0.9589242 0.9974077
0.9481013 0.9589242 0.9974077
0.9481013 0.9589242 0.9974077
0.9473780 0.9588225 0.9973989
0.9452108 0.9585172 0.9973727
0.9415236 0.9579971 0.9973279
0.9334573 0.9568569 0.9972275
0.9187015 0.9558476 0.9971178
0.8913071 0.9532516 0.9968393
0.8408980 0.9441602 0.9959195
0.7791963 0.9299279 0.9943910
0.7120370 0.9144816 0.9925234
0.6404543 0.8958469 0.9901034
0.5767792 0.8766811 0.9874894
0.5202162 0.8544928 0.9844547
0.4634528 0.8282372 0.9807469
0.4108472 0.8034117 0.9770146
0.3586239 0.7788202 0.9730951
0.3133332 0.7535612 0.9690006
0.2793902 0.7292076 0.9650283
0.2566259 0.7010952 0.9604951
0.2363208 0.6722192 0.9556351
0.2336641 0.6436237 0.9507467
0.2323721 0.6180504 0.9462454
0.2310941 0.5930448 0.9417925
0.2301296 0.5674903 0.9384319
0.2356854 0.5415592 0.9339477
0.2497716 0.5128520 0.9258516
0.2654081 0.4851988 0.9141784
0.2742533 0.4584176 0.8993273
0.2852668 0.4320216 0.8826450
0.2910354 0.4057418 0.8627939
0.2982278 0.3824443 0.8453310
0.9473780 0.9588225 0.9973989
0.9473780 0.9588225 0.9973989
0.9473780 0.9588225 0.9973989
0.9473780 0.9588225 0.9973989
0.9444805 0.9587684 0.9973903
0.9414964 0.9590820 0.9974083
0.9333988 0.9588987 0.9973793
0.9175318 0.9570876 0.9972076
0.8899295 0.9515651 0.9967063
0.8393345 0.9384916 0.9954635
0.7774801 0.9227740 0.9937839
0.7104427 0.9040539 0.9915922
0.6430888 0.8818409 0.9888226
0.5822014 0.8539026 0.9852789
0.5279894 0.8277193 0.9817029
0.4731365 0.8008669 0.9777598
0.4188600 0.7722248 0.9733165
0.3757067 0.7454694 0.9690302
0.3352791 0.7171849 0.9643255
0.3093594 0.6845807 0.9589739
0.2827951 0.6560030 0.9539196
0.2693784 0.6293772 0.9492040
0.2569014 0.6049519 0.9446709
0.2509959 0.5808764 0.9401577
0.2513163 0.5567985 0.9366866
0.2509684 0.5340828 0.9328127
0.2570453 0.5087340 0.9273730
0.2694744 0.4777829 0.9162374
0.2781281 0.4506764 0.9028534
0.2878710 0.4265321 0.8881387
0.2958580 0.4030730 0.8695820
0.2996882 0.3792600 0.8520504
0.3043979 0.3605379 0.8342552
0.9466060 0.9608502 0.9975473
0.9466060 0.9608502 0.9975473
0.9466060 0.9608502 0.9975473
0.9466053 0.9608782 0.9975495
0.9444332 0.9607121 0.9975337
0.9406596 0.9603280 0.9974989
0.9324833 0.9590867 0.9973913
0.9164780 0.9550906 0.9970553
0.8872419 0.9468913 0.9963379
0.8358477 0.9324887 0.9949626
0.7759433 0.9137833 0.9930094
0.7121972 0.8910496 0.9904335
0.6438996 0.8591211 0.9866133
0.5840399 0.8306422 0.9828543
0.5313659 0.8013695 0.9787762
0.4792994 0.7684219 0.9739180
0.4330449 0.7352919 0.9687472
0.3942457 0.7035495 0.9635378
0.3574068 0.6735990 0.9582924
0.3267035 0.6425269 0.9526787
0.3061747 0.6170917 0.9479374
0.2912706 0.5942175 0.9435666
0.2798007 0.5690776 0.9386781
0.2719289 0.5481510 0.9352606
0.2664894 0.5244520 0.9312286
0.2706070 0.5007116 0.9266008
0.2761035 0.4731472 0.9184811
0.2844297 0.4457262 0.9064967
0.2912872 0.4185736 0.8914332
0.2983196 0.3973545 0.8761740
0.3011294 0.3760769 0.8584324
0.3066221 0.3545234 0.8415725
0.3102810 0.3360752 0.8208951
0.9451534 0.9609063 0.9975492
0.9451534 0.9609063 0.9975492
0.9451542 0.9608797 0.9975472
0.9451542 0.9608797 0.9975472
0.9444336 0.9606984 0.9975327
0.9398751 0.9595783 0.9974421
0.9316361 0.9569426 0.9972299
0.9154807 0.9515051 0.9967817
0.8860111 0.9421836 0.9959672
0.8324640 0.9252151 0.9943488
0.7746177 0.9024603 0.9920132
0.7117921 0.8707303 0.9885182
0.6442413 0.8377648 0.9844269
0.5863577 0.8034804 0.9798723
0.5391082 0.7697511 0.9751199
0.4862485 0.7304577 0.9691148
0.4423805 0.6935034 0.9630806
0.4051201 0.6611505 0.9574234
0.3692118 0.6335305 0.9521939
0.3434769 0.6071847 0.9471406
0.3232825 0.5832410 0.9424079
0.3039201 0.5610185 0.9378091
0.2967668 0.5374624 0.9335700
0.2854797 0.5146410 0.9296520
0.2837357 0.4919411 0.9252219
0.2885166 0.4639571 0.9184417
0.2914675 0.4383554 0.9080731
0.2945256 0.4106720 0.8939458
0.3005487 0.3917683 0.8803644
0.3063566 0.3706822 0.8633879
0.3085614 0.3487661 0.8460956
0.3123932 0.3298275 0.8286099
0.3144495 0.3146136 0.8057963
0.9444686 0.9592633 0.9974268
0.9444686 0.9592633 0.9974268
0.9444710 0.9591622 0.9974194
0.9444710 0.9591622 0.9974194
0.9437516 0.9589595 0.9974031
0.9391318 0.9572644 0.9972690
0.9299183 0.9535553 0.9969723
0.9133835 0.9473441 0.9964580
0.8831415 0.9373712 0.9955770
0.8289836 0.9161054 0.9935673
0.7714317 0.8851438 0.9904253
0.7109789 0.8528591 0.9867532
0.6445279 0.8156933 0.9820587
0.5883890 0.7753425 0.9766011
0.5429747 0.7365518 0.9709654
0.4954531 0.6946726 0.9643357
0.4535483 0.6554226 0.9576219
0.4169604 0.6254110 0.9520068
0.3827393 0.5974914 0.9464632
0.3568563 0.5745133 0.9417263
0.3369629 0.5518389 0.9370028
0.3188522 0.5287184 0.9322773
0.3072526 0.5054205 0.9283481
0.3009783 0.4813827 0.9235488
0.2991423 0.4574144 0.9180191
0.2971932 0.4335926 0.9095071
0.2999641 0.4058031 0.8964681
0.3034021 0.3838350 0.8826481
0.3091277 0.3623032 0.8667192
0.3104385 0.3428939 0.8497295
0.3136830 0.3263614 0.8346663
0.3165052 0.3081375 0.8144193
0.3174564 0.2960085 0.7919240
0.9430847 0.9566099 0.9972274
0.9430847 0.9566099 0.9972274
0.9430847 0.9566099 0.9972274
0.9430877 0.9564773 0.9972175
0.9430877 0.9564773 0.9972175
0.9384009 0.9544676 0.9970586
0.9291031 0.9503525 0.9967281
0.9108840 0.9436337 0.9961640
0.8802414 0.9312395 0.9950749
0.8254961 0.9055060 0.9926372
0.7703893 0.8698506 0.9889817
0.7071258 0.8326826 0.9846421
0.6451845 0.7896921 0.9791310
0.5903406 0.7454277 0.9729198
0.5468498 0.6999165 0.9660749
0.5000508 0.6578441 0.9590058
0.4617500 0.6233527 0.9527364
0.4219946 0.5922797 0.9465714
0.3929155 0.5663161 0.9412268
0.3639268 0.5418204 0.9358883
0.3445904 0.5200218 0.9318881
0.3310782 0.4981904 0.9275950
0.3192473 0.4759197 0.9229683
0.3129295 0.4513621 0.9174781
0.3104392 0.4273721 0.9099693
0.3092701 0.3989805 0.8981043
0.3092076 0.3763930 0.8848504
0.3110749 0.3565400 0.8703256
0.3151222 0.3374485 0.8532560
0.3154246 0.3204400 0.8387258
0.3182546 0.3020164 0.8201107
0.3193098 0.2895937 0.7999045
0.3169205 0.2781083 0.7745686
0.9416398 0.9531778 0.9969677
0.9416398 0.9531778 0.9969677
0.9416398 0.9531778 0.9969677
0.9416363 0.9533282 0.9969790
0.9416398 0.9531778 0.9969677
0.9376758 0.9514059 0.9968264
0.9282845 0.9472615 0.9964902
0.9084191 0.9391124 0.9958034
0.8773901 0.9242072 0.9944903
0.8243605 0.8903339 0.9912862
0.7669888 0.8527686 0.9872881
0.7062278 0.8123090 0.9824484
0.6455393 0.7639664 0.9760771
0.5953021 0.7131589 0.9687624
0.5490458 0.6689410 0.9616690
0.5026645 0.6270475 0.9542686
0.4649092 0.5916092 0.9475380
0.4298066 0.5622112 0.9416454
0.3976129 0.5344666 0.9364079
0.3743022 0.5092220 0.9313186
0.3559341 0.4862505 0.9263290
0.3393910 0.4628069 0.9209613
0.3307261 0.4430720 0.9162892
0.3232211 0.4210921 0.9096642
0.3174491 0.3946060 0.8988325
0.3171610 0.3718072 0.8872354
0.3164207 0.3488347 0.8719549
0.3169787 0.3314435 0.8575343
0.3174958 0.3121237 0.8401472
0.3194227 0.2984889 0.8256372
0.3210659 0.2832339 0.8068925
0.3210223 0.2742812 0.7846975
0.3180555 0.2638944 0.7566413
0.9385253 0.9493336 0.9966708
0.9385253 0.9493336 0.9966708
0.9385218 0.9494905 0.9966826
0.9385218 0.9494905 0.9966826
0.9385218 0.9494905 0.9966826
0.9369433 0.9486389 0.9966146
0.9265745 0.9437550 0.9962159
0.9059923 0.9336300 0.9953611
0.8746262 0.9152908 0.9937364
0.8210580 0.8763316 0.9899792
0.7630125 0.8351184 0.9854631
0.7025338 0.7887195 0.9797577
0.6459769 0.7351961 0.9724793
0.5964570 0.6819247 0.9644413
0.5507465 0.6379468 0.9570160
0.5049755 0.5949801 0.9496254
0.4673648 0.5605569 0.9433718
0.4330840 0.5297375 0.9371356
0.4061970 0.5007577 0.9309009
0.3838415 0.4741453 0.9248429
0.3623227 0.4500955 0.9186964
0.3497628 0.4274155 0.9119641
0.3382011 0.4051128 0.9042073
0.3298267 0.3858695 0.8966655
0.3248921 0.3671492 0.8882611
0.3238367 0.3440607 0.8734723
0.3218714 0.3236666 0.8584351
0.3217656 0.3066682 0.8431152
0.3208744 0.2926463 0.8286300
0.3221342 0.2797110 0.8120772
0.3225918 0.2680759 0.7911322
0.3197052 0.2575372 0.7650268
0.3187101 0.2505188 0.7377481
0.9346337 0.9450969 0.9963381
0.9346337 0.9450969 0.9963381
0.9346337 0.9450969 0.9963381
0.9346337 0.9450969 0.9963381
0.9346337 0.9450969 0.9963381
0.9346337 0.9450969 0.9963381
0.9248185 0.9393205 0.9958659
0.9036031 0.9271702 0.9948328
0.8704526 0.9027016 0.9926402
0.8177586 0.8620453 0.9886001
0.7592278 0.8143973 0.9832368
0.7019894 0.7613973 0.9765233
0.6435483 0.7031193 0.9681906
0.5971867 0.6506724 0.9606692
0.5517003 0.6080991 0.9537125
0.5098289 0.5641544 0.9455653
0.4695700 0.5275681 0.9379538
0.4399737 0.4951541 0.9307253
0.4099035 0.4647716 0.9225445
0.3880858 0.4381537 0.9141513
0.3711679 0.4124453 0.9054919
0.3552712 0.3896191 0.8968152
0.3463167 0.3702958 0.8886795
0.3376694 0.3510115 0.8785788
0.3318149 0.3345753 0.8692263
0.3260353 0.3184881 0.8594462
0.3258373 0.3013778 0.8449742
0.3221651 0.2869800 0.8304086
0.3234129 0.2739782 0.8148046
0.3237281 0.2643356 0.7974949
0.3207680 0.2556817 0.7749419
0.3198726 0.2484377 0.7491657
0.3182180 0.2410212 0.7134942
0.9303010 0.9389184 0.9958478
0.9303010 0.9389184 0.9958478
0.9303010 0.9389184 0.9958478
0.9303010 0.9389184 0.9958478
0.9303010 0.9389184 0.9958478
0.9302940 0.9392106 0.9958708
0.9227291 0.9336227 0.9954101
0.9012672 0.9190585 0.9941585
0.8658013 0.8875012 0.9912702
0.8125035 0.8432585 0.9867087
0.7581528 0.7903188 0.9805573
0.6985000 0.7319604 0.9737796
0.6435891 0.6717790 0.9653732
0.5945470 0.6205033 0.9569136
0.5522809 0.5768115 0.9487349
0.5110472 0.5307055 0.9386343
0.4751577 0.4896027 0.9273627
0.4423457 0.4563011 0.9173599
0.4160588 0.4292823 0.9084730
0.3948376 0.4006654 0.8977880
0.3774239 0.3778492 0.8877025
0.3611483 0.3573724 0.8779355
0.3520496 0.3377598 0.8684558
0.3427130 0.3212217 0.8583810
0.3337012 0.3048991 0.8475053
0.3295169 0.2947004 0.8392983
0.3257545 0.2821464 0.8298148
0.3242486 0.2707582 0.8179318
0.3246156 0.2609830 0.8015503
0.3244804 0.2503285 0.7789173
0.3209104 0.2447920 0.7557586
0.3196199 0.2384156 0.7277508
0.3177357 0.2332230 0.6937643
0.9250429 0.9301834 0.9951411
0.9250429 0.9301834 0.9951411
0.9250429 0.9301834 0.9951411
0.9250429 0.9301834 0.9951411
0.9250429 0.9301834 0.9951411
0.9250517 0.9298047 0.9951106
0.9206721 0.9266829 0.9948465
0.8988019 0.9066871 0.9931057
0.8611715 0.8717380 0.9897949
0.8071577 0.8197130 0.9856632
0.7545862 0.7625422 0.9790381
0.6951095 0.6976624 0.9699328
0.6433368 0.6378996 0.9593735
0.5946831 0.5850341 0.9472979
0.5527177 0.5392601 0.9362344
0.5120712 0.4897600 0.9227294
0.4757014 0.4535646 0.9109573
0.4429941 0.4208214 0.8992845
0.4169200 0.3943041 0.8885097
0.3953318 0.3705474 0.8785911
0.3781485 0.3474894 0.8670142
0.3651943 0.3276599 0.8570468
0.3525474 0.3106752 0.8467950
0.3432401 0.2944509 0.8370428
0.3365327 0.2814286 0.8280362
0.3321616 0.2716236 0.8196287
0.3276177 0.2623889 0.8094140
0.3255753 0.2538041 0.7990044
0.3251310 0.2491450 0.7847540
0.3219463 0.2411025 0.7621798
0.3205646 0.2366359 0.7370026
0.3187745 0.2312369 0.7047378
0.3167035 0.2300116 0.6742814
0.9176291 0.9147826 0.9953498
0.9176291 0.9147826 0.9953498
0.9176291 0.9147826 0.9953498
0.9176283 0.9147816 0.9952465
0.9176283 0.9147816 0.9952465
0.9176283 0.9147816 0.9952465
0.9176107 0.9155419 0.9951508
0.8949507 0.8907950 0.9934295
0.8549962 0.8514463 0.9896727
0.8038650 0.7950688 0.9822752
0.7487057 0.7239628 0.9707158
0.6912102 0.6615435 0.9584928
0.6421939 0.6074540 0.9463390
0.5937077 0.5547259 0.9330309
0.5518851 0.5061319 0.9191603
0.5111246 0.4590334 0.9041388
0.4779225 0.4238176 0.8919861
0.4454414 0.3914623 0.8790522
0.4161413 0.3642721 0.8662739
0.3978080 0.3436038 0.8560759
0.3772773 0.3228575 0.8458049
0.3644485 0.3035090 0.8351492
0.3543897 0.2898541 0.8267205
0.3448355 0.2743269 0.8159353
0.3377473 0.2622580 0.8049532
0.3327615 0.2556218 0.7957800
0.3276453 0.2494816 0.7849635
0.3250013 0.2421700 0.7706299
0.3243441 0.2398203 0.7584425
0.3210938 0.2356311 0.7420674
0.3195177 0.2298011 0.7123457
0.3175963 0.2282909 0.6841833
0.3157694 0.2249458 0.6534019
0.9070352 0.8932438 0.9924703
0.9070352 0.8932438 0.9924703
0.9070352 0.8932438 0.9924703
0.9070352 0.8932438 0.9924703
0.9070390 0.8932470 0.9928555
0.9070390 0.8932470 0.9928555
