data/spectral_luts/instax_color_fujiflex_new.cube
TITLE "instax_color_fujiflex_new"
LUT_3D_SIZE 5
0.9473780 0.9588225 0.9973989
0.8957644 0.9514790 0.9967198
0.3855276 0.8775501 0.9848642
0.2403198 0.8284770 0.9739362
0.2264242 0.6131583 0.9255220
0.9488246 0.9590260 0.9974163
0.8957644 0.9514790 0.9967198
0.3813097 0.8736965 0.9844059
0.2375719 0.7473274 0.9643618
0.2601998 0.4842292 0.8838479
0.9444686 0.9592633 0.9974268
0.8831415 0.9373712 0.9955770
0.4535483 0.6554226 0.9576219
0.2991423 0.4574144 0.9180191
0.3174564 0.2960085 0.7919240
0.9070352 0.8932438 0.9924703
0.8499557 0.8298331 0.9823008
0.4758743 0.3966914 0.8698201
0.3372402 0.2500371 0.7774298
0.3145833 0.2221187 0.6319124
0.7463502 0.5884106 0.7340826
0.7465746 0.5908136 0.7422281
0.4404921 0.2926701 0.5603493
0.3156047 0.2147851 0.4535975
0.3016024 0.1993665 0.3858618
0.9466553 0.9587207 0.9973902
0.8762077 0.9486580 0.9964316
0.3612778 0.8745663 0.9842151
0.2390467 0.8213229 0.9695003
0.2096907 0.5831832 0.8672198
0.9473780 0.9588225 0.9973989
0.8730400 0.9481995 0.9963835
0.3676345 0.8640118 0.9849029
0.2250653 0.6810592 0.9207872
0.2728384 0.4427654 0.7895151
0.9417104 0.9484074 0.9908044
0.8569014 0.8899849 0.9711137
0.4654595 0.5135484 0.8613666
0.3205550 0.3329540 0.7309183
0.3080932 0.2652285 0.5915968
0.8957627 0.8222842 0.8600900
0.8198342 0.6984210 0.8077267
0.4515006 0.3091239 0.5864508
0.3161986 0.2203182 0.4714849
0.3019726 0.2019361 0.3986758
0.7250115 0.5138557 0.5059813
0.7226375 0.5137093 0.5083757
0.4276386 0.2587526 0.3735900
0.3094255 0.1926309 0.3169318
0.2971171 0.1833365 0.2909471
0.9324576 0.9563251 0.9742572
0.7789288 0.9334061 0.9456295
0.3071865 0.8650123 0.8704422
0.1884702 0.7932848 0.6348005
0.2697968 0.4835999 0.3929989
0.9341737 0.9559771 0.9460995
0.7819842 0.9319538 0.8800287
0.3510368 0.8253966 0.6443717
0.2506220 0.5680361 0.4429758
0.3012751 0.3398661 0.3260035
0.9272925 0.8899661 0.6133713
0.7784088 0.6997887 0.4714906
0.4399618 0.3644123 0.3397191
0.3156592 0.2490436 0.2834893
0.3017709 0.2077863 0.2550882
0.8375783 0.6292212 0.4039489
0.7269925 0.4830114 0.3499509
0.4178469 0.2315591 0.2593469
0.3054210 0.1760029 0.2308958
0.2955854 0.1677717 0.2212759
0.6658741 0.3980849 0.2956841
0.6658741 0.3980849 0.2956841
0.4029066 0.2126582 0.2326940
0.3042985 0.1668159 0.2110627
0.2948234 0.1613385 0.2054867
0.8083943 0.9315565 0.7783291
0.6203716 0.8995934 0.6835009
0.2897122 0.8206478 0.5230018
0.1639231 0.7077591 0.4027863
0.2761239 0.4929323 0.3076229
0.8208035 0.9337139 0.7845657
0.6298448 0.9011921 0.6858595
0.2916811 0.8189309 0.5178792
0.2501214 0.5790957 0.3387476
0.3061505 0.3295176 0.2560952
0.8191440 0.7338963 0.3547229
0.6487121 0.5461615 0.3015684
0.4076193 0.3181932 0.2470668
0.3114981 0.2285013 0.2187864
0.2992090 0.1932017 0.2037399
0.7260305 0.4551897 0.2690004
0.5988994 0.3334358 0.2404254
0.3840167 0.2006840 0.2027238
0.3016333 0.1618038 0.1882197
0.2943726 0.1568729 0.1867140
0.5908601 0.3145016 0.2346793
0.5648986 0.2952258 0.2297965
0.3708669 0.1889223 0.1986853
0.2987146 0.1572230 0.1866885
0.2940238 0.1547000 0.1855114
0.5946639 0.8164724 0.4378605
0.4941307 0.7575966 0.3992449
0.3243208 0.6272833 0.3495178
0.2802502 0.4930781 0.3045179
0.3012574 0.3765182 0.2676634
0.6035540 0.8202735 0.4397713
0.4972131 0.7604504 0.4012944
0.3243208 0.6272833 0.3495178
0.2802502 0.4930781 0.3045179
0.3017354 0.3725482 0.2674577
0.6225123 0.5656587 0.3056456
0.5267961 0.4615903 0.2819287
0.3708698 0.3175142 0.2467960
0.3074166 0.2385224 0.2210542
0.2998031 0.1985096 0.2044584
0.5732082 0.3149188 0.2343671
0.4839166 0.2522490 0.2172641
0.3494935 0.1858380 0.1969614
0.2970741 0.1602867 0.1872005
0.2943799 0.1567452 0.1849666
0.5114679 0.2576320 0.2176942
0.4605672 0.2298847 0.2105913
0.3429863 0.1766504 0.1930820
0.2963647 0.1558576 0.1847889
0.2940267 0.1546372 0.1846394
