data/spectral_luts/instax_color_fujiflex_new.cube
TITLE "instax_color_fujiflex_new"
LUT_3D_SIZE 9
0.9473780 0.9588225 0.9973989
0.9444889 0.9584154 0.9973640
0.8957644 0.9514790 0.9967198
0.6435510 0.9140771 0.9917814
0.3855276 0.8775501 0.9848642
0.2416480 0.8506238 0.9785636
0.2403198 0.8284770 0.9739362
0.2380641 0.7676058 0.9660770
0.2264242 0.6131583 0.9255220
0.9473780 0.9588225 0.9973989
0.9444889 0.9584154 0.9973640
0.8957644 0.9514790 0.9967198
0.6435510 0.9140771 0.9917814
0.3855276 0.8775501 0.9848642
0.2416953 0.8522496 0.9787285
0.2398952 0.8148369 0.9724566
0.2370905 0.7354237 0.9626846
0.2230605 0.5721038 0.9138024
0.9488246 0.9590260 0.9974163
0.9452108 0.9585172 0.9973727
0.8957644 0.9514790 0.9967198
0.6435510 0.9140771 0.9917814
0.3813097 0.8736965 0.9844059
0.2408446 0.8250743 0.9757647
0.2375719 0.7473274 0.9643618
0.2326880 0.6221414 0.9473457
0.2601998 0.4842292 0.8838479
0.9481013 0.9589242 0.9974077
0.9452108 0.9585172 0.9973727
0.8913071 0.9532516 0.9968393
0.6404543 0.8958469 0.9901034
0.4108472 0.8034117 0.9770146
0.2566259 0.7010952 0.9604951
0.2310941 0.5930448 0.9417925
0.2654081 0.4851988 0.9141784
0.2982278 0.3824443 0.8453310
0.9444686 0.9592633 0.9974268
0.9437516 0.9589595 0.9974031
0.8831415 0.9373712 0.9955770
0.6445279 0.8156933 0.9820587
0.4535483 0.6554226 0.9576219
0.3369629 0.5518389 0.9370028
0.2991423 0.4574144 0.9180191
0.3091277 0.3623032 0.8667192
0.3174564 0.2960085 0.7919240
0.9346337 0.9450969 0.9963381
0.9346337 0.9450969 0.9963381
0.8704526 0.9027016 0.9926402
0.6435483 0.7031193 0.9681906
0.4695700 0.5275681 0.9379538
0.3711679 0.4124453 0.9054919
0.3318149 0.3345753 0.8692263
0.3234129 0.2739782 0.8148046
0.3182180 0.2410212 0.7134942
0.9070352 0.8932438 0.9924703
0.9070390 0.8932470 0.9928555
0.8499557 0.8298331 0.9823008
0.6377083 0.5779096 0.9286485
0.4758743 0.3966914 0.8698201
0.3787853 0.2994553 0.8235639
0.3372402 0.2500371 0.7774298
0.3202908 0.2300656 0.7228098
0.3145833 0.2221187 0.6319124
0.8407178 0.7580678 0.9186771
0.8407524 0.7602392 0.9204638
0.8218473 0.7321300 0.9156594
0.6180679 0.4833377 0.8280630
0.4586269 0.3294044 0.7424856
0.3667304 0.2600744 0.6783661
0.3253549 0.2299495 0.6168147
0.3106913 0.2179631 0.5626112
0.3057857 0.2126877 0.5080771
0.7463502 0.5884106 0.7340826
0.7463502 0.5884106 0.7340826
0.7465746 0.5908136 0.7422281
0.5906888 0.4176346 0.6469718
0.4404921 0.2926701 0.5603493
0.3555290 0.2400368 0.4983462
0.3156047 0.2147851 0.4535975
0.3025465 0.2041573 0.4187632
0.3016024 0.1993665 0.3858618
0.9473780 0.9588225 0.9973989
0.9430461 0.9582118 0.9973465
0.8914189 0.9508539 0.9966573
0.6402911 0.9135884 0.9917018
0.3795394 0.8768023 0.9847027
0.2416480 0.8506238 0.9785636
0.2403581 0.8297264 0.9740697
0.2382831 0.7728331 0.9668401
0.2270556 0.6188093 0.9277217
0.9473780 0.9588225 0.9973989
0.9430461 0.9582118 0.9973465
0.8914189 0.9508539 0.9966573
0.6370331 0.9131001 0.9916219
0.3795394 0.8768023 0.9847027
0.2417037 0.8525401 0.9787579
0.2399672 0.8171216 0.9727075
0.2371464 0.7387859 0.9628795
0.2232486 0.5760186 0.9144577
0.9481013 0.9589242 0.9974077
0.9437672 0.9583137 0.9973553
0.8899727 0.9506456 0.9966362
0.6370331 0.9131001 0.9916219
0.3817566 0.8729064 0.9843301
0.2408097 0.8239427 0.9756429
0.2376815 0.7503674 0.9647439
0.2328665 0.6259921 0.9479678
0.2564074 0.4912581 0.8869293
0.9473780 0.9588225 0.9973989
0.9437672 0.9583137 0.9973553
0.8855188 0.9524944 0.9967611
0.6346656 0.8913983 0.9896234
0.4098726 0.7933041 0.9757785
0.2618144 0.6853526 0.9581727
0.2322976 0.5830722 0.9416248
0.2641871 0.4875489 0.9154495
0.2974514 0.3848677 0.8458582
0.9437854 0.9575624 0.9972996
0.9430698 0.9572229 0.9972731
0.8770542 0.9316579 0.9950954
0.6414174 0.7946611 0.9796527
0.4568135 0.6267514 0.9545583
0.3469626 0.5132532 0.9298302
0.3093370 0.4180436 0.8950467
0.3109620 0.3532576 0.8551615
0.3174564 0.2960085 0.7919240
0.9330229 0.9381131 0.9957910
0.9330229 0.9381131 0.9957910
0.8627211 0.8773239 0.9921449
0.6424215 0.6487383 0.9546090
0.4736298 0.4673126 0.9036607
0.3753939 0.3597171 0.8572093
0.3337813 0.2915954 0.8155563
0.3224862 0.2574705 0.7674241
0.3174501 0.2407019 0.7023267
0.9045655 0.8729519 0.9679591
0.9045655 0.8729519 0.9679591
0.8392739 0.7875596 0.9485519
0.6323242 0.5319422 0.8837693
0.4681522 0.3590021 0.8121071
0.3727525 0.2779730 0.7480494
0.3291540 0.2366733 0.6834142
0.3142953 0.2243846 0.6305481
0.3085182 0.2172368 0.5662429
0.8342764 0.7253803 0.8655899
0.8342764 0.7253803 0.8655899
0.8148269 0.6959338 0.8571789
0.6098924 0.4558342 0.7451670
0.4541506 0.3114372 0.6510043
0.3618996 0.2521357 0.5860560
0.3186444 0.2224451 0.5316628
0.3071685 0.2116167 0.4841924
0.3031415 0.2063187 0.4378045
0.7393692 0.5634409 0.6569813
0.7393692 0.5634409 0.6569813
0.7395782 0.5660075 0.6615985
0.5854099 0.3990438 0.5700998
0.4377061 0.2819007 0.4863302
0.3533989 0.2327463 0.4349928
0.3139527 0.2076814 0.4001195
0.3013034 0.1982462 0.3735557
0.3007255 0.1943896 0.3505279
0.9466553 0.9587207 0.9973902
0.9407225 0.9578841 0.9973181
0.8762077 0.9486580 0.9964316
0.6205376 0.9106308 0.9912124
0.3612778 0.8745663 0.9842151
0.2415365 0.8493278 0.9781750
0.2390467 0.8213229 0.9695003
0.2279868 0.7387672 0.9309663
0.2096907 0.5831832 0.8672198
0.9466553 0.9587207 0.9973902
0.9407225 0.9578841 0.9973181
0.8746231 0.9484288 0.9964076
0.6205376 0.9106308 0.9912124
0.3612778 0.8745663 0.9842151
0.2419812 0.8473967 0.9797245
0.2361408 0.7943441 0.9593757
0.2232349 0.6884516 0.9144100
0.2253494 0.5376438 0.8444380
0.9473780 0.9588225 0.9973989
0.9415236 0.9579971 0.9973279
0.8730400 0.9481995 0.9963835
0.6167434 0.9123262 0.9913191
0.3676345 0.8640118 0.9849029
0.2366640 0.7913759 0.9611986
0.2250653 0.6810592 0.9207872
0.2152396 0.5514203 0.8689764
0.2728384 0.4427654 0.7895151
0.9459108 0.9595746 0.9974522
0.9406760 0.9597045 0.9974528
0.8684995 0.9440703 0.9979179
0.6243562 0.8592744 0.9795051
0.4225743 0.7236062 0.9412738
0.3097273 0.5875337 0.8961408
0.2811885 0.4816721 0.8478716
0.2888673 0.4002602 0.7797318
0.3026556 0.3407684 0.7018989
0.9417104 0.9484074 0.9908044
0.9385402 0.9469422 0.9900740
0.8569014 0.8899849 0.9711137
0.6354480 0.6903450 0.9192979
0.4654595 0.5135484 0.8613666
0.3636852 0.4040545 0.7970580
0.3205550 0.3329540 0.7309183
0.3103393 0.2927363 0.6641428
0.3080932 0.2652285 0.5915968
0.9287351 0.9085709 0.9469615
0.9287316 0.9094171 0.9479551
0.8423463 0.8033894 0.9166351
0.6302645 0.5493817 0.8254324
0.4667650 0.3795015 0.7335969
0.3659167 0.2960194 0.6571153
0.3224295 0.2525654 0.5948858
0.3086419 0.2333075 0.5401493
0.3044527 0.2232308 0.4846955
0.8957627 0.8222842 0.8600900
0.8957950 0.8237187 0.8630559
0.8198342 0.6984210 0.8077267
0.6105736 0.4530447 0.6838277
0.4515006 0.3091239 0.5864508
0.3592441 0.2495931 0.5244336
0.3161986 0.2203182 0.4714849
0.3029219 0.2083200 0.4307028
0.3019726 0.2019361 0.3986758
0.8174120 0.6607825 0.6815774
0.8174120 0.6607825 0.6815774
0.7905964 0.6236614 0.6650964
0.5922129 0.3997757 0.5432558
0.4401519 0.2808731 0.4609435
0.3527941 0.2300493 0.4142652
0.3134310 0.2051962 0.3803429
0.3008770 0.1957301 0.3558758
0.3003627 0.1917514 0.3352343
0.7250115 0.5138557 0.5059813
0.7250115 0.5138557 0.5059813
0.7226375 0.5137093 0.5083757
0.5700935 0.3571638 0.4320385
0.4276386 0.2587526 0.3735900
0.3479781 0.2148598 0.3400811
0.3094255 0.1926309 0.3169318
0.2996709 0.1862827 0.3026020
0.2971171 0.1833365 0.2909471
0.9423277 0.9581184 0.9978519
0.9325569 0.9567448 0.9982441
0.8351293 0.9426998 0.9975963
0.5905462 0.9060792 0.9855065
0.3368836 0.8713241 0.9651143
0.2266328 0.8484910 0.9262487
0.2011067 0.8069990 0.8373119
0.1630244 0.6875961 0.7046279
0.2390681 0.5194563 0.5754678
0.9430491 0.9582216 0.9979464
0.9334632 0.9568748 0.9983629
0.8370659 0.9429797 0.9973631
0.5906120 0.9059969 0.9802837
0.3377675 0.8709968 0.9470568
0.2165107 0.8389261 0.8909818
0.1853954 0.7614191 0.7825719
0.1631286 0.6161776 0.6572803
0.2639028 0.4693776 0.5420241
0.9430270 0.9581539 0.9937637
0.9334253 0.9567475 0.9905663
0.8370585 0.9425173 0.9706582
0.5913450 0.9055139 0.9306374
0.3514869 0.8447623 0.8626895
0.1896246 0.7444091 0.7656437
0.2057851 0.6086406 0.6631491
0.2588143 0.4790683 0.5660982
0.2892838 0.3788657 0.4783532
0.9421068 0.9590799 0.9403034
0.9314841 0.9557270 0.9332728
0.8308229 0.9216526 0.8834305
0.6042083 0.8011253 0.7853025
0.4351835 0.6297190 0.6806069
0.3344099 0.5034059 0.5985570
0.3028763 0.4015395 0.5189900
0.3000458 0.3364432 0.4597329
0.3026707 0.2899700 0.4091236
0.9362615 0.9283591 0.8506295
0.9294610 0.9215975 0.8409978
0.8231163 0.8105488 0.7475569
0.6151365 0.5835291 0.6200275
0.4546452 0.4209373 0.5253446
0.3592757 0.3332288 0.4637199
0.3164004 0.2807353 0.4183713
0.3044111 0.2514807 0.3826165
0.3019696 0.2301055 0.3510381
0.9186574 0.8570594 0.7289525
0.9186419 0.8571652 0.7312771
0.8053925 0.6794131 0.6217184
0.6009676 0.4485701 0.4986486
0.4452581 0.3117176 0.4223319
0.3561743 0.2520115 0.3794610
0.3137211 0.2206160 0.3476255
0.3010215 0.2044606 0.3252561
0.3005263 0.1972021 0.3090299
0.8748208 0.7305807 0.5942219
0.8748208 0.7305807 0.5942219
0.7800803 0.5883731 0.5177740
0.5837733 0.3734601 0.4186382
0.4341463 0.2640786 0.3569583
0.3480038 0.2161920 0.3245235
0.3094545 0.1938769 0.3041171
0.2994887 0.1847951 0.2898862
0.2969564 0.1818486 0.2787615
0.7911576 0.5798051 0.4660448
0.7911576 0.5798051 0.4660448
0.7516816 0.5276892 0.4450512
0.5675138 0.3394599 0.3640123
0.4227269 0.2454458 0.3155138
0.3441899 0.2050083 0.2922151
0.3085746 0.1852988 0.2755441
0.2989288 0.1792697 0.2669187
0.2964139 0.1763608 0.2579242
0.6999456 0.4570924 0.3767597
0.6999456 0.4570924 0.3767597
0.6996247 0.4549542 0.3786089
0.5497946 0.3158334 0.3243478
0.4148769 0.2326874 0.2852370
0.3405531 0.1955610 0.2646860
0.3055481 0.1781592 0.2523402
0.2982148 0.1724907 0.2445206
0.2958516 0.1709348 0.2398109
0.9324576 0.9563251 0.9742572
0.9091300 0.9528903 0.9680875
0.7789288 0.9334061 0.9456295
0.5465840 0.8979745 0.9159160
0.3071865 0.8650123 0.8704422
0.2028229 0.8432915 0.8135329
0.1884702 0.7932848 0.6348005
0.1566563 0.6498152 0.4836424
0.2697968 0.4835999 0.3929989
0.9333639 0.9564608 0.9746634
0.9117483 0.9532647 0.9681174
0.7813336 0.9337749 0.9461297
0.5501742 0.8985010 0.9159940
0.3084305 0.8645650 0.8569373
0.1986842 0.8288716 0.7180681
0.1735103 0.7411624 0.5606644
0.2223587 0.5802792 0.4475433
0.2868282 0.4312685 0.3689778
0.9341737 0.9559771 0.9460995
0.9117334 0.9525501 0.9361345
0.7819842 0.9319538 0.8800287
0.5563661 0.8917294 0.7708689
0.3510368 0.8253966 0.6443717
0.2386061 0.7099870 0.5272633
0.2506220 0.5680361 0.4429758
0.2852651 0.4359099 0.3747179
0.3012751 0.3398661 0.3260035
0.9341846 0.9489143 0.7820414
0.9107959 0.9385754 0.7452902
0.7830923 0.8796398 0.6336158
0.5869867 0.7392778 0.5163167
0.4334489 0.5756383 0.4406986
0.3477327 0.4496411 0.3847505
0.3131370 0.3590249 0.3404329
0.3046933 0.2983986 0.3108004
0.3034728 0.2589369 0.2862877
0.9272925 0.8899661 0.6133713
0.9054298 0.8636245 0.5824591
0.7784088 0.6997887 0.4714906
0.5886452 0.5002733 0.3922491
0.4399618 0.3644123 0.3397191
0.3532788 0.2894743 0.3064422
0.3156592 0.2490436 0.2834893
0.3026723 0.2241733 0.2684445
0.3017709 0.2077863 0.2550882
0.8999674 0.7859222 0.4934711
0.8955509 0.7765491 0.4887466
0.7546125 0.5684687 0.3979242
0.5706591 0.3759754 0.3297248
0.4263536 0.2703942 0.2876138
0.3464298 0.2226183 0.2653365
0.3099250 0.1960972 0.2496572
0.2996754 0.1844242 0.2410430
0.2967492 0.1777845 0.2344905
0.8375783 0.6292212 0.4039489
0.8375783 0.6292212 0.4039489
0.7269925 0.4830114 0.3499509
0.5523183 0.3160471 0.2938852
0.4178469 0.2315591 0.2593469
0.3405487 0.1945065 0.2422564
0.3054210 0.1760029 0.2308958
0.2979347 0.1693173 0.2256244
0.2955854 0.1677717 0.2212759
0.7554272 0.4991237 0.3397870
0.7554272 0.4991237 0.3397870
0.7029399 0.4417778 0.3206477
0.5395674 0.2949676 0.2739361
0.4099414 0.2197577 0.2447987
0.3369124 0.1858103 0.2299846
0.3047865 0.1707639 0.2206628
0.2954408 0.1664180 0.2170107
0.2951293 0.1640071 0.2136355
0.6658741 0.3980849 0.2956841
0.6658741 0.3980849 0.2956841
0.6658741 0.3980849 0.2956841
0.5246738 0.2785307 0.2570621
0.4029066 0.2126582 0.2326940
0.3338982 0.1813297 0.2199249
0.3042985 0.1668159 0.2110627
0.2949803 0.1626142 0.2085568
0.2948234 0.1613385 0.2054867
0.8971826 0.9500623 0.9205620
0.8508437 0.9428312 0.9024243
0.7035327 0.9191586 0.8520182
0.5077136 0.8866336 0.7825031
0.2892787 0.8549957 0.7002085
0.1959804 0.8194515 0.6077107
0.1847118 0.7801899 0.5156801
0.1787525 0.6484107 0.3997089
0.2792524 0.4767446 0.3229191
0.9000258 0.9504936 0.9214214
0.8543531 0.9433441 0.9024550
0.7064852 0.9196657 0.8535877
0.5077136 0.8866336 0.7825031
0.2892787 0.8549957 0.7002085
0.1959804 0.8194515 0.6077107
0.1727381 0.7384717 0.4630380
0.2366737 0.5775239 0.3659865
0.2916739 0.4184998 0.3038920
0.9039714 0.9506524 0.9070241
0.8615487 0.9436949 0.8806882
0.7137851 0.9184126 0.8001087
0.5190758 0.8806536 0.6717074
0.3340789 0.8171294 0.5359727
0.2418136 0.7094623 0.4305454
0.2612447 0.5592980 0.3583286
0.2938905 0.4231800 0.3055552
0.3055688 0.3250060 0.2692384
0.9052445 0.9300720 0.6286792
0.8624651 0.9120364 0.5798107
0.7252657 0.8362848 0.4794234
0.5595769 0.7033948 0.4027149
0.4222462 0.5528224 0.3474163
0.3453045 0.4286081 0.3081450
0.3152867 0.3409268 0.2767752
0.3074540 0.2831825 0.2544042
0.3047320 0.2459022 0.2389191
0.9009061 0.8395491 0.4508380
0.8523848 0.7769067 0.4100724
0.7167291 0.6107997 0.3469867
0.5569561 0.4456204 0.3004147
0.4238686 0.3319802 0.2687759
0.3485898 0.2690140 0.2475722
0.3136090 0.2315174 0.2337311
0.3028122 0.2112128 0.2238257
0.3014437 0.1955976 0.2146007
0.8600262 0.6874805 0.3625863
0.8259100 0.6365528 0.3448275
0.6892787 0.4744394 0.2985152
0.5358384 0.3274077 0.2596410
0.4085163 0.2455637 0.2333763
0.3399560 0.2049337 0.2192273
0.3067171 0.1830504 0.2087621
0.2988573 0.1738193 0.2046267
0.2960178 0.1687194 0.2001563
0.7878181 0.5371678 0.3068108
0.7853640 0.5321883 0.3052234
0.6611357 0.3955329 0.2715422
0.5174485 0.2765085 0.2386929
0.3999405 0.2112715 0.2165888
0.3339202 0.1803382 0.2049789
0.3019544 0.1646574 0.1975823
0.2948615 0.1606798 0.1952528
0.2946933 0.1595293 0.1941731
0.7081439 0.4293612 0.2744483
0.7081439 0.4293612 0.2744483
0.6397669 0.3637534 0.2584648
0.5043635 0.2580735 0.2292607
0.3925361 0.2019592 0.2104985
0.3307072 0.1750647 0.2004890
0.3014293 0.1611560 0.1943195
0.2945273 0.1583232 0.1921998
0.2943560 0.1571850 0.1911343
0.6286336 0.3514990 0.2516240
0.6286336 0.3514990 0.2516240
0.6181000 0.3420186 0.2489964
0.4902282 0.2483829 0.2220868
0.3860497 0.1971284 0.2060818
0.3279273 0.1722459 0.1964273
0.3012567 0.1598763 0.1914437
0.2943624 0.1570612 0.1893559
0.2941872 0.1559966 0.1891878
0.8083943 0.9315565 0.7783291
0.7524142 0.9214230 0.7462240
0.6203716 0.8995934 0.6835009
0.4583679 0.8632818 0.6037639
0.2897122 0.8206478 0.5230018
0.1818319 0.7701561 0.4579434
0.1639231 0.7077591 0.4027863
0.2092599 0.6230746 0.3581056
0.2761239 0.4929323 0.3076229
0.8126274 0.9322915 0.7804027
0.7577661 0.9223567 0.7484176
0.6235692 0.9000750 0.6834962
0.4583252 0.8634086 0.6037642
0.2897122 0.8206478 0.5230018
0.1818319 0.7701561 0.4579434
0.1639231 0.7077591 0.4027863
0.2271353 0.5994509 0.3474669
0.2896867 0.4353225 0.2887951
0.8208035 0.9337139 0.7845657
0.7655475 0.9237785 0.7528262
0.6298448 0.9011921 0.6858595
0.4667747 0.8649975 0.6062460
0.2916811 0.8189309 0.5178792
0.2186634 0.7259856 0.4105730
0.2501214 0.5790957 0.3387476
0.2923204 0.4380504 0.2902414
0.3061505 0.3295176 0.2560952
0.8286994 0.9001591 0.5214054
0.7744872 0.8758997 0.4810027
0.6508641 0.8069071 0.4226990
0.5186399 0.6869965 0.3630941
0.3990667 0.5537097 0.3216236
0.3397267 0.4336303 0.2865948
0.3134920 0.3427052 0.2593005
0.3082020 0.2834702 0.2395540
0.3052341 0.2446265 0.2248675
0.8191440 0.7338963 0.3547229
0.7665235 0.6642279 0.3318861
0.6487121 0.5461615 0.3015684
0.5153822 0.4095866 0.2699465
0.4076193 0.3181932 0.2470668
0.3409557 0.2632851 0.2303765
0.3114981 0.2285013 0.2187864
0.3029749 0.2087438 0.2105259
0.2992090 0.1932017 0.2037399
0.7926850 0.5879038 0.3029894
0.7377540 0.5203821 0.2871528
0.6215968 0.4014993 0.2608128
0.4965513 0.2950603 0.2340093
0.3923837 0.2335806 0.2164048
0.3321458 0.1990408 0.2048074
0.3042413 0.1795285 0.1970774
0.2964132 0.1704811 0.1931785
0.2957482 0.1658049 0.1907044
0.7260305 0.4551897 0.2690004
0.7096584 0.4374950 0.2653030
0.5988994 0.3334358 0.2404254
0.4805184 0.2473008 0.2179958
0.3840167 0.2006840 0.2027238
0.3283468 0.1743947 0.1940067
0.3016333 0.1618038 0.1882197
0.2945493 0.1579458 0.1868805
0.2943726 0.1568729 0.1867140
0.6523164 0.3705127 0.2484597
0.6523164 0.3705127 0.2484597
0.5832898 0.3099714 0.2335407
0.4697879 0.2352718 0.2129070
0.3768736 0.1920353 0.1998822
0.3251750 0.1694050 0.1915386
0.2988965 0.1582990 0.1868546
0.2943763 0.1568093 0.1858401
0.2941995 0.1557472 0.1856750
0.5908601 0.3145016 0.2346793
0.5886482 0.3143308 0.2347819
0.5648986 0.2952258 0.2297965
0.4575353 0.2281719 0.2105194
0.3708669 0.1889223 0.1986853
0.3226551 0.1680186 0.1904946
0.2987146 0.1572230 0.1866885
0.2941995 0.1557472 0.1856750
0.2940238 0.1547000 0.1855114
0.6980763 0.8979918 0.5915375
0.6475972 0.8843414 0.5652153
0.5530618 0.8569041 0.5177794
0.4220828 0.8099213 0.4644189
0.3004048 0.7482403 0.4181643
0.2334113 0.6795458 0.3780335
0.2361383 0.6023450 0.3473483
0.2616450 0.5296195 0.3189024
0.2835376 0.4588653 0.2951390
0.6979359 0.8983218 0.5940837
0.6507010 0.8849722 0.5651585
0.5530097 0.8571649 0.5177712
0.4220828 0.8099213 0.4644189
0.3004048 0.7482403 0.4181643
0.2334113 0.6795458 0.3780335
0.2365795 0.6021362 0.3455380
0.2616450 0.5296195 0.3189024
0.2835376 0.4588653 0.2951390
0.7100523 0.9008150 0.5964344
0.6566561 0.8864316 0.5677345
0.5595325 0.8587174 0.5203084
0.4263764 0.8115148 0.4666319
0.2999354 0.7490958 0.4181307
0.2334113 0.6795458 0.3780335
0.2365795 0.6021362 0.3455380
0.2831304 0.4720927 0.2997695
0.3047009 0.3476219 0.2597550
0.7226642 0.8732874 0.4903472
0.6690705 0.8480426 0.4629915
0.5773475 0.7907321 0.4162747
0.4641932 0.6985731 0.3700631
0.3691974 0.5743931 0.3286624
0.3254842 0.4580660 0.2930859
0.3091689 0.3588356 0.2640741
0.3080044 0.2961569 0.2429353
0.3054771 0.2509429 0.2265993
0.7190023 0.6358175 0.3239351
0.6709539 0.5868896 0.3097421
0.5839383 0.4966369 0.2888083
0.4764126 0.3915835 0.2653148
0.3889397 0.3158608 0.2462181
0.3358638 0.2643122 0.2305899
0.3093423 0.2311882 0.2191485
0.3033665 0.2128880 0.2110555
0.2995086 0.1958400 0.2040997
0.6900355 0.4768174 0.2757716
0.6463965 0.4309161 0.2658487
0.5611875 0.3511171 0.2483323
0.4578678 0.2737104 0.2279670
0.3745556 0.2273233 0.2141487
0.3271599 0.1971727 0.2037189
0.3019964 0.1793250 0.1970908
0.2965817 0.1716372 0.1933500
0.2959183 0.1669217 0.1908724
0.6579400 0.3889776 0.2528894
0.6201202 0.3522789 0.2454557
0.5412189 0.2897169 0.2293192
0.4442065 0.2301795 0.2112321
0.3661826 0.1925130 0.2002416
0.3209504 0.1713452 0.1919201
0.2992547 0.1605312 0.1880675
0.2945493 0.1579458 0.1868805
0.2943763 0.1568093 0.1858401
0.6016904 0.3253798 0.2372835
0.6016904 0.3253798 0.2372835
0.5281244 0.2708755 0.2225902
0.4328723 0.2173334 0.2071317
0.3622608 0.1855743 0.1965917
0.3178636 0.1664607 0.1894777
0.2988995 0.1582349 0.1859787
0.2941995 0.1557472 0.1856750
0.2941995 0.1557472 0.1856750
0.5492084 0.2848268 0.2262170
0.5492084 0.2848268 0.2262170
0.5145203 0.2613242 0.2201089
0.4261460 0.2124308 0.2057855
0.3564715 0.1826161 0.1954108
0.3176648 0.1653398 0.1893126
0.2965412 0.1569847 0.1858272
0.2942027 0.1556838 0.1848023
0.2940267 0.1546372 0.1846394
0.5946639 0.8164724 0.4378605
0.5656893 0.7999758 0.4253103
0.4941307 0.7575966 0.3992449
0.3998438 0.6984740 0.3733592
0.3243208 0.6272833 0.3495178
0.2848026 0.5560645 0.3250273
0.2802502 0.4930781 0.3045179
0.2937149 0.4333564 0.2858973
0.3012574 0.3765182 0.2676634
0.5978010 0.8169674 0.4377578
0.5689718 0.8004931 0.4252044
0.4976225 0.7592320 0.3990733
0.3998438 0.6984740 0.3733592
0.3243208 0.6272833 0.3495178
0.2889031 0.5566269 0.3249741
0.2802502 0.4930781 0.3045179
0.2937149 0.4333564 0.2858973
0.3012574 0.3765182 0.2676634
0.6035540 0.8202735 0.4397713
0.5719615 0.8020361 0.4274024
0.4972131 0.7604504 0.4012944
0.4045362 0.6991768 0.3732476
0.3243208 0.6272833 0.3495178
0.2889031 0.5566269 0.3249741
0.2802502 0.4930781 0.3045179
0.2937149 0.4333564 0.2858973
0.3017354 0.3725482 0.2674577
0.6149802 0.8247354 0.4439658
0.5776451 0.8054405 0.4294340
0.5077536 0.7643950 0.4031365
0.4088215 0.7014075 0.3730598
0.3372307 0.6059330 0.3407825
0.3067364 0.4925842 0.3026607
0.3032184 0.3831079 0.2705122
0.3074379 0.3113937 0.2476379
0.3057240 0.2606680 0.2297366
0.6225123 0.5656587 0.3056456
0.5909518 0.5336610 0.2976518
0.5267961 0.4615903 0.2819287
0.4404320 0.3846521 0.2635663
0.3708698 0.3175142 0.2467960
0.3284378 0.2683224 0.2311430
0.3074166 0.2385224 0.2210542
0.3037172 0.2171894 0.2125660
0.2998031 0.1985096 0.2044584
0.5974962 0.3919897 0.2561988
0.5679946 0.3645975 0.2499349
0.5012248 0.3085701 0.2371887
0.4228219 0.2585436 0.2233540
0.3603110 0.2229018 0.2119971
0.3200775 0.1964317 0.2028300
0.2999381 0.1802485 0.1963577
0.2969161 0.1739668 0.1936925
0.2960885 0.1680492 0.1910412
0.5732082 0.3149188 0.2343671
0.5464985 0.2937017 0.2293760
0.4839166 0.2522490 0.2172641
0.4092972 0.2140355 0.2065366
0.3494935 0.1858380 0.1969614
0.3137037 0.1684175 0.1907469
0.2970741 0.1602867 0.1872005
0.2945533 0.1578816 0.1860059
0.2943799 0.1567452 0.1849666
0.5541809 0.2869551 0.2261433
0.5332824 0.2729586 0.2225310
0.4728853 0.2369409 0.2119064
0.4011542 0.2019022 0.2013922
0.3456629 0.1781120 0.1941348
0.3106890 0.1636228 0.1883179
0.2965412 0.1569847 0.1858272
0.2942027 0.1556838 0.1848023
0.2942027 0.1556838 0.1848023
0.5114679 0.2576320 0.2176942
0.5114679 0.2576320 0.2176942
0.4605672 0.2298847 0.2105913
0.3948240 0.1986570 0.2002161
0.3429863 0.1766504 0.1930820
0.3104987 0.1624523 0.1872676
0.2963647 0.1558576 0.1847889
0.2940267 0.1546372 0.1846394
0.2940267 0.1546372 0.1846394
