data/spectral_luts/kodak_5222_polymax_grade_2.cube
TITLE "kodak_5222_polymax_grade_2"
LUT_3D_SIZE 5
0.0791492 0.0664052 0.0642635
0.0794941 0.0667173 0.0645701
0.1058153 0.0905380 0.0879706
0.2227926 0.1964026 0.1919676
0.3622150 0.3225800 0.3159190
0.0826067 0.0695342 0.0673373
0.0899313 0.0761630 0.0738491
0.1436923 0.1248167 0.1216445
0.2625219 0.2323576 0.2272883
0.3817226 0.3402343 0.3332620
0.1859987 0.1631041 0.1592565
0.2095587 0.1844259 0.1802022
0.2719167 0.2408600 0.2356407
0.3506376 0.3121024 0.3056263
0.4485650 0.4007268 0.3926873
0.3691173 0.3288265 0.3220554
0.3817226 0.3402343 0.3332620
0.4136410 0.3691205 0.3616386
0.4736415 0.4234211 0.4149812
0.5522326 0.4945461 0.4848515
0.5472741 0.4900586 0.4804432
0.5522326 0.4945461 0.4848515
0.5750470 0.5151931 0.5051343
0.6149377 0.5512942 0.5405985
0.6749751 0.6056282 0.5939739
0.1070711 0.0916745 0.0890870
0.1243762 0.1073356 0.1044718
0.1905413 0.1672152 0.1632950
0.2995706 0.2658867 0.2602259
0.4032656 0.3597308 0.3524145
0.1436923 0.1248167 0.1216445
0.1661497 0.1451407 0.1416100
0.2279390 0.2010600 0.1965428
0.3263822 0.2901512 0.2840624
0.4286033 0.3826615 0.3749406
0.2719167 0.2408600 0.2356407
0.2886211 0.2559775 0.2504914
0.3296788 0.2931347 0.2869931
0.3952634 0.3524888 0.3453003
0.4874153 0.4358863 0.4272265
0.4136410 0.3691205 0.3616386
0.4286033 0.3826615 0.3749406
0.4575594 0.4088668 0.4006836
0.5085058 0.4549733 0.4459768
0.5802153 0.5198705 0.5097291
0.5750470 0.5151931 0.5051343
0.5802153 0.5198705 0.5097291
0.6013251 0.5389748 0.5284964
0.6458571 0.5792763 0.5680870
0.6928299 0.6217868 0.6098475
0.3441244 0.3062080 0.2998359
0.3555594 0.3165567 0.3100020
0.3854570 0.3436140 0.3365820
0.4530487 0.4047845 0.3966734
0.5300822 0.4745000 0.4651590
0.3655831 0.3256281 0.3189134
0.3744744 0.3336748 0.3268181
0.4094524 0.3653299 0.3579148
0.4667015 0.4171404 0.4088113
0.5472741 0.4900586 0.4804432
0.4329698 0.3866132 0.3788226
0.4418212 0.3946237 0.3866918
0.4736415 0.4234211 0.4149812
0.5252588 0.4701348 0.4608708
0.5906795 0.5293405 0.5190321
0.5349456 0.4789014 0.4694827
0.5472741 0.4900586 0.4804432
0.5673546 0.5082316 0.4982955
0.6094590 0.5463361 0.5357278
0.6690837 0.6002964 0.5887362
0.6632397 0.5950076 0.5835407
0.6690837 0.6002964 0.5887362
0.6869023 0.6164224 0.6045777
0.7199600 0.6463395 0.6339671
0.7623254 0.6846803 0.6716315
0.5802153 0.5198705 0.5097291
0.5854260 0.5245861 0.5143616
0.6094590 0.5463361 0.5357278
0.6458571 0.5792763 0.5680870
0.6987826 0.6271740 0.6151397
0.5906795 0.5293405 0.5190321
0.5959760 0.5341339 0.5237409
0.6204612 0.5562931 0.5455092
0.6574429 0.5897616 0.5783872
0.7138728 0.6408306 0.6285554
0.6316394 0.5664093 0.5554470
0.6372915 0.5715244 0.5604719
0.6574429 0.5897616 0.5783872
0.6928299 0.6217868 0.6098475
0.7441128 0.6681979 0.6554399
0.7078009 0.6353355 0.6231572
0.7078009 0.6353355 0.6231572
0.7259288 0.6517413 0.6392736
0.7562742 0.6792039 0.6662518
0.7930972 0.7125288 0.6989887
0.7930972 0.7125288 0.6989887
0.7930972 0.7125288 0.6989887
0.8056099 0.7238529 0.7101130
0.8304214 0.7463072 0.7321712
0.8606464 0.7736609 0.7590424
0.7930972 0.7125288 0.6989887
0.7993307 0.7181701 0.7045305
0.8119354 0.7295774 0.7157365
0.8304214 0.7463072 0.7321712
0.8665528 0.7790062 0.7642934
0.7993307 0.7181701 0.7045305
0.8056099 0.7238529 0.7101130
0.8181174 0.7351720 0.7212325
0.8428988 0.7575993 0.7432641
0.8724973 0.7843860 0.7695783
0.8242478 0.7407201 0.7266827
0.8304214 0.7463072 0.7321712
0.8428988 0.7575993 0.7432641
0.8606464 0.7736609 0.7590424
0.8864233 0.7969890 0.7819589
0.8665528 0.7790062 0.7642934
0.8724973 0.7843860 0.7695783
0.8782815 0.7896206 0.7747205
0.8918905 0.8019369 0.7868195
0.9134548 0.8214525 0.8059909
0.9134548 0.8214525 0.8059909
0.9134548 0.8214525 0.8059909
0.9213372 0.8285861 0.8129987
0.9319469 0.8381879 0.8224311
0.9519859 0.8563232 0.8402464
