data/spectral_luts/kodachrome_64_radiance_iii.cube
TITLE "kodachrome_64_radiance_iii"
LUT_3D_SIZE 9
0.0461947 0.0638736 0.0619166
0.0459534 0.0638262 0.0619095
0.0625968 0.0671180 0.0623561
0.1761862 0.0876636 0.0625332
0.3198491 0.1044709 0.0546095
0.4570568 0.1122509 0.0919678
0.5855891 0.1288585 0.1288585
0.6897044 0.1620436 0.1587411
0.7681650 0.2529801 0.1945412
0.0461947 0.0638736 0.0619166
0.0458562 0.0638071 0.0619067
0.0645720 0.0675100 0.0624029
0.1814585 0.0883398 0.0621194
0.3277769 0.1068396 0.0548626
0.4694912 0.1190159 0.0955367
0.6085114 0.1474348 0.1354375
0.7169494 0.2120246 0.1665608
0.7917333 0.3024171 0.2059727
0.0454853 0.0689812 0.0624996
0.0455890 0.0698632 0.0625552
0.0751804 0.0790306 0.0632877
0.2046330 0.1109355 0.0617373
0.3587940 0.1463663 0.0637650
0.5176826 0.1935744 0.1093683
0.6750705 0.2611334 0.1545410
0.7775301 0.3326211 0.1839484
0.8383428 0.4031075 0.2326935
0.0307012 0.1437288 0.0686023
0.0342628 0.1467535 0.0686561
0.0954189 0.1718636 0.0693046
0.2576355 0.2283755 0.0576574
0.4293632 0.2861523 0.0840194
0.5977681 0.3438458 0.1323541
0.7475208 0.4052954 0.1753353
0.8390562 0.4655358 0.2016073
0.8847821 0.5198566 0.2613258
0.0295929 0.2369556 0.0718451
0.0298884 0.2381671 0.0717512
0.1161988 0.2714827 0.0664463
0.3041133 0.3425365 0.0590988
0.4827802 0.4111660 0.0993508
0.6561063 0.4810982 0.1490980
0.8095489 0.5492335 0.1931383
0.8889259 0.5984752 0.2185965
0.9279169 0.6426177 0.2922575
0.0580719 0.3389586 0.0819147
0.0580719 0.3389586 0.0819147
0.1306253 0.3735390 0.0844880
0.3370732 0.4551380 0.0914171
0.5225366 0.5340423 0.1140638
0.7005685 0.6091316 0.1618593
0.8532998 0.6729774 0.2065783
0.9261832 0.7154300 0.2727411
0.9571663 0.7477689 0.3395489
0.0856321 0.4349821 0.1434813
0.0856321 0.4349821 0.1434813
0.1249224 0.4597952 0.1506658
0.3518301 0.5453131 0.1703076
0.5438591 0.6244051 0.1982473
0.7274755 0.6995019 0.2324044
0.8787411 0.7586538 0.2751702
0.9456734 0.7954600 0.3328564
0.9732906 0.8193758 0.3927061
0.1132902 0.5313470 0.2325196
0.1132902 0.5313470 0.2325196
0.1151303 0.5377581 0.2350969
0.3599420 0.6164661 0.2549891
0.5579413 0.6908492 0.2793313
0.7436612 0.7582005 0.3089393
0.8909093 0.8120871 0.3471972
0.9552151 0.8430228 0.3943875
0.9788232 0.8619698 0.4486606
0.1953160 0.6097601 0.3141955
0.1953160 0.6097601 0.3141955
0.1953160 0.6097601 0.3141955
0.3649399 0.6627870 0.3303517
0.5700165 0.7331448 0.3551454
0.7562129 0.7972180 0.3808047
0.9012479 0.8476691 0.4151607
0.9581243 0.8723352 0.4597252
0.9814039 0.8880945 0.5002819
0.0462032 0.0638652 0.0618671
0.0458394 0.0637726 0.0617519
0.0661071 0.0677410 0.0620507
0.1804201 0.0882253 0.0618121
0.3240667 0.1053120 0.0591523
0.4611851 0.1141738 0.0931527
0.5897817 0.1300618 0.1300618
0.6921526 0.1688474 0.1636484
0.7709782 0.2614194 0.2440678
0.0462313 0.0638374 0.0617038
0.0458274 0.0637375 0.0615906
0.0682204 0.0680922 0.0619362
0.1879973 0.0896102 0.0639996
0.3309796 0.1085128 0.0608425
0.4724831 0.1228996 0.0963954
0.6118074 0.1569304 0.1363835
0.7208136 0.2230892 0.1808571
0.7955118 0.3118220 0.2571729
0.0455253 0.0695030 0.0620735
0.0456620 0.0708179 0.0623990
0.0794108 0.0816738 0.0661944
0.2100606 0.1147039 0.0674151
0.3647166 0.1518927 0.0700877
0.5228944 0.2057082 0.1108642
0.6804520 0.2753486 0.1560856
0.7821027 0.3458021 0.2111962
0.8389071 0.4101388 0.2827081
0.0285172 0.1469694 0.0725235
0.0327521 0.1502878 0.0729020
0.0991813 0.1773407 0.0736643
0.2628897 0.2352642 0.0711033
0.4345039 0.2969649 0.0854948
0.6002826 0.3587822 0.1330757
0.7504506 0.4200633 0.1761762
0.8389516 0.4764553 0.2445229
0.8858848 0.5318558 0.3138801
0.0303296 0.2399625 0.0751624
0.0305412 0.2408183 0.0755114
0.1162612 0.2772613 0.0766630
0.3064444 0.3495095 0.0715665
0.4828157 0.4220988 0.0993610
0.6569777 0.4923279 0.1493481
0.8111798 0.5601285 0.2005304
0.8899177 0.6080715 0.2718013
0.9270639 0.6515978 0.3423173
0.0577636 0.3378842 0.0820880
0.0577636 0.3378842 0.0820880
0.1362790 0.3749015 0.0838247
0.3408113 0.4562587 0.0917388
0.5223680 0.5343853 0.1141622
0.6999580 0.6108710 0.1616841
0.8525244 0.6757789 0.2261706
0.9253085 0.7186903 0.2950323
0.9559885 0.7518747 0.3674693
0.0851499 0.4333022 0.1422265
0.0856321 0.4349821 0.1434813
0.1328371 0.4619168 0.1516154
0.3539917 0.5459451 0.1700390
0.5466038 0.6268194 0.1975479
0.7270920 0.6976247 0.2327870
0.8782673 0.7567223 0.2755311
0.9452860 0.7930751 0.3307631
0.9732906 0.8193758 0.3927061
0.1131735 0.5309404 0.2308074
0.1132902 0.5313470 0.2325196
0.1207802 0.5391968 0.2348160
0.3600782 0.6151118 0.2551084
0.5603650 0.6919942 0.2810822
0.7470571 0.7604260 0.3084256
0.8935411 0.8127534 0.3469300
0.9552151 0.8430228 0.3943875
0.9798111 0.8622093 0.4485920
0.1953160 0.6097601 0.3141955
0.1953160 0.6097601 0.3141955
0.1953160 0.6097601 0.3141955
0.3678475 0.6625001 0.3302630
0.5700165 0.7331448 0.3551454
0.7562129 0.7972180 0.3808047
0.9012479 0.8476691 0.4151607
0.9581243 0.8723352 0.4597252
0.9811860 0.8870395 0.5003335
0.0452608 0.0647777 0.0673421
0.0446989 0.0649313 0.0686663
0.0759362 0.0717577 0.0739259
0.1943701 0.0935774 0.0861365
0.3315222 0.1107144 0.1057667
0.4690708 0.1230423 0.1484530
0.5990998 0.1361138 0.2019140
0.6998601 0.1820808 0.2644228
0.7786531 0.2785197 0.3236782
0.0447514 0.0652483 0.0702950
0.0440773 0.0655257 0.0726051
0.0775764 0.0732688 0.0816950
0.1989951 0.0964376 0.1003693
0.3409965 0.1177512 0.1308660
0.4820774 0.1354627 0.1738814
0.6218573 0.1709629 0.2264802
0.7298662 0.2425536 0.2837470
0.8002846 0.3275312 0.3392726
0.0390405 0.0772509 0.0925049
0.0399188 0.0801976 0.0982870
0.0858278 0.0955938 0.1161745
0.2230798 0.1328018 0.1462780
0.3757899 0.1742009 0.1820232
0.5376101 0.2345207 0.2247385
0.6876257 0.2978016 0.2708013
0.7878396 0.3655291 0.3194419
0.8416440 0.4264379 0.3714404
0.0161455 0.1718179 0.1400736
0.0172266 0.1780263 0.1463803
0.0850438 0.2112411 0.1711822
0.2662885 0.2720922 0.2017031
0.4372084 0.3321438 0.2366028
0.6061938 0.3897114 0.2734132
0.7537613 0.4458538 0.3142470
0.8420297 0.4991753 0.3600074
0.8872633 0.5486530 0.4073730
0.0411496 0.2799990 0.1888553
0.0423318 0.2841177 0.1925462
0.0599943 0.3257167 0.2170057
0.2954747 0.3972008 0.2472978
0.4827172 0.4662733 0.2788945
0.6589397 0.5287290 0.3113920
0.8105608 0.5875109 0.3513757
0.8902315 0.6332450 0.3967101
0.9266447 0.6716871 0.4446082
0.0721437 0.3879867 0.2312063
0.0722425 0.3883309 0.2326523
0.0844423 0.4308366 0.2558940
0.3173757 0.5087188 0.2845012
0.5168647 0.5830586 0.3112308
0.7010784 0.6509796 0.3429468
0.8529376 0.7089184 0.3808727
0.9240812 0.7453644 0.4268234
0.9532591 0.7718862 0.4738893
0.0973886 0.4759434 0.2706056
0.0973886 0.4759434 0.2706056
0.1064145 0.5073910 0.2833759
0.3335386 0.5855131 0.3094174
0.5398777 0.6604504 0.3346583
0.7263636 0.7282634 0.3667516
0.8770407 0.7843565 0.4058235
0.9418157 0.8171533 0.4477974
0.9686092 0.8381696 0.4946465
0.1196048 0.5533478 0.3027245
0.1196048 0.5533478 0.3027245
0.1229344 0.5649489 0.3084790
0.3519294 0.6373351 0.3317098
0.5578154 0.7114645 0.3569078
0.7462448 0.7773794 0.3895950
0.8884691 0.8269761 0.4273284
0.9509698 0.8557343 0.4687754
0.9760067 0.8737423 0.5169804
0.1870647 0.6156677 0.3328692
0.1870647 0.6156677 0.3328692
0.1859889 0.6160383 0.3345911
0.3722019 0.6713350 0.3538328
0.5719557 0.7404606 0.3797987
0.7569273 0.8040419 0.4085149
0.8988857 0.8528831 0.4481812
0.9580206 0.8781697 0.4885260
0.9792101 0.8932400 0.5350410
0.0343963 0.0726748 0.1291466
0.0380066 0.0741540 0.1374680
0.0925831 0.0846903 0.1586470
0.2171794 0.1043811 0.1877372
0.3515173 0.1196142 0.2235166
0.4862990 0.1287718 0.2657328
0.6147981 0.1445344 0.3096440
0.7109786 0.1955941 0.3592165
0.7873589 0.2968721 0.4153735
0.0324579 0.0737947 0.1426444
0.0366471 0.0752233 0.1505973
0.0929877 0.0861374 0.1737704
0.2202240 0.1073657 0.2081817
0.3583539 0.1246580 0.2492101
0.4994116 0.1453414 0.2907190
0.6356650 0.1837172 0.3346035
0.7430534 0.2654978 0.3827979
0.8090916 0.3473848 0.4333411
0.0219226 0.0936552 0.2026485
0.0265201 0.0987468 0.2125493
0.1008199 0.1175575 0.2392807
0.2445046 0.1524101 0.2740929
0.3961031 0.1997508 0.3104209
0.5550772 0.2605835 0.3494529
0.7012346 0.3213722 0.3876494
0.7959350 0.3859433 0.4284261
0.8464690 0.4455379 0.4718260
0.0400665 0.2068981 0.2762440
0.0432527 0.2167462 0.2873264
0.0750567 0.2511581 0.3140388
0.2797017 0.3077284 0.3467453
0.4504930 0.3638187 0.3798715
0.6179803 0.4182731 0.4110980
0.7629147 0.4717578 0.4429632
0.8470396 0.5225569 0.4789830
0.8894432 0.5693241 0.5147734
0.0573256 0.3221803 0.3363583
0.0599159 0.3325434 0.3453832
0.0678851 0.3731491 0.3703155
0.2984282 0.4410645 0.4038270
0.4884275 0.5011392 0.4322896
0.6667448 0.5626269 0.4625654
0.8160130 0.6166527 0.4932558
0.8905420 0.6592968 0.5235838
0.9245825 0.6914780 0.5555922
0.0862324 0.4370738 0.3904469
0.0864337 0.4377752 0.3921940
0.1003592 0.4862934 0.4183716
0.3089666 0.5576472 0.4482139
0.5175170 0.6248727 0.4770081
0.7020846 0.6863450 0.5029892
0.8512468 0.7377335 0.5292803
0.9208541 0.7700151 0.5554621
0.9503238 0.7942835 0.5887684
0.1115049 0.5251269 0.4303493
0.1115049 0.5251269 0.4303493
0.1228302 0.5645857 0.4485356
0.3192797 0.6338538 0.4780865
0.5351520 0.7017733 0.5024324
0.7284465 0.7636951 0.5281696
0.8736774 0.8139536 0.5549229
0.9378862 0.8403962 0.5793553
0.9637174 0.8583571 0.6113692
0.1337686 0.6026967 0.4659009
0.1337686 0.6026967 0.4659009
0.1390396 0.6210614 0.4729364
0.3388456 0.6857200 0.5003093
0.5547570 0.7512488 0.5269787
0.7440780 0.8110347 0.5508797
0.8869110 0.8555225 0.5730766
0.9462922 0.8780048 0.5983011
0.9704668 0.8928040 0.6314433
0.1502200 0.6600156 0.4941646
0.1502200 0.6600156 0.4941646
0.1502200 0.6600156 0.4941646
0.3570132 0.7148833 0.5194203
0.5673130 0.7776540 0.5418385
0.7581106 0.8367271 0.5660625
0.8962346 0.8781005 0.5889097
0.9515479 0.8990942 0.6150275
0.9734768 0.9112901 0.6460983
0.0325988 0.0788753 0.2257071
0.0520755 0.0819315 0.2358225
0.1275235 0.0936189 0.2579512
0.2510808 0.1108866 0.2902380
0.3777804 0.1229689 0.3234238
0.5121211 0.1385373 0.3604716
0.6395433 0.1687545 0.4009091
0.7316723 0.2279198 0.4454018
0.7964468 0.3156682 0.4922673
0.0313490 0.0791750 0.2291678
0.0504163 0.0821463 0.2380633
0.1260174 0.0937149 0.2626605
0.2528082 0.1121762 0.2971657
0.3829276 0.1274819 0.3346875
0.5204504 0.1545685 0.3760245
0.6562422 0.1996980 0.4213203
0.7559220 0.2866860 0.4680135
0.8170800 0.3666378 0.5125712
0.0455826 0.1073409 0.2954441
0.0485363 0.1137447 0.3057351
0.1383576 0.1340348 0.3336055
0.2775477 0.1725207 0.3697672
0.4255970 0.2247609 0.4084596
0.5770323 0.2820479 0.4445435
0.7176901 0.3432350 0.4796708
0.8042542 0.4045351 0.5162199
0.8518812 0.4605451 0.5529587
0.0702796 0.2372044 0.3814917
0.0744301 0.2512220 0.3959528
0.1173476 0.2850310 0.4222245
0.3068040 0.3361809 0.4561158
0.4754640 0.3885966 0.4863355
0.6361904 0.4403649 0.5148052
0.7752648 0.4933186 0.5422943
0.8524315 0.5418544 0.5717249
0.8919070 0.5866891 0.6020754
0.0904109 0.3579400 0.4516321
0.0936121 0.3730650 0.4627857
0.1019022 0.4159649 0.4916696
0.3202244 0.4722134 0.5205603
0.5089572 0.5327934 0.5482738
0.6827356 0.5883117 0.5740277
0.8226067 0.6391062 0.5964662
0.8925981 0.6787284 0.6215341
0.9254823 0.7102835 0.6473650
0.1071651 0.4745356 0.5100063
0.1093759 0.4836284 0.5177088
0.1165608 0.5339357 0.5427423
0.3273887 0.5934517 0.5703524
0.5335431 0.6563091 0.5948543
0.7160789 0.7128518 0.6178654
0.8569074 0.7603871 0.6375509
0.9196650 0.7880890 0.6602932
0.9478282 0.8101934 0.6811814
0.1234960 0.5669054 0.5534204
0.1234960 0.5669054 0.5534204
0.1360781 0.6107433 0.5745771
0.3354377 0.6718941 0.6018353
0.5496579 0.7336582 0.6259642
0.7381016 0.7910043 0.6463248
0.8749987 0.8346239 0.6661084
0.9337342 0.8583863 0.6866266
0.9598889 0.8746122 0.7079740
0.1451292 0.6422784 0.5874448
0.1451292 0.6422784 0.5874448
0.1516950 0.6651549 0.5991957
0.3551539 0.7212527 0.6235576
0.5642393 0.7802709 0.6448891
0.7537068 0.8369310 0.6652471
0.8868997 0.8766379 0.6852431
0.9429429 0.8957303 0.7061118
0.9659562 0.9064152 0.7245902
0.1595284 0.6924475 0.6140535
0.1595284 0.6924475 0.6140535
0.1602320 0.6948990 0.6167145
0.3733304 0.7489494 0.6385944
0.5803438 0.8067518 0.6599991
0.7675004 0.8604082 0.6805559
0.8951700 0.8972501 0.7009261
0.9474549 0.9146441 0.7191111
0.9693404 0.9249178 0.7408605
0.0763659 0.0862943 0.3149570
0.1069339 0.0905335 0.3261208
0.1843128 0.1018596 0.3509364
0.2965868 0.1196382 0.3810553
0.4198717 0.1411566 0.4169932
0.5530748 0.1694807 0.4560890
0.6789001 0.2220298 0.4957915
0.7643359 0.2923241 0.5363224
0.8166416 0.3608730 0.5724053
0.0738473 0.0860103 0.3132381
0.1054511 0.0903269 0.3244740
0.1807213 0.1013899 0.3489632
0.2951957 0.1191658 0.3808735
0.4195352 0.1398964 0.4167862
0.5527909 0.1689898 0.4540766
0.6791162 0.2288612 0.4987003
0.7701065 0.3085774 0.5427449
0.8262490 0.3861135 0.5848697
0.0690908 0.1245226 0.3758128
0.1068148 0.1336672 0.3878115
0.1962329 0.1581841 0.4143254
0.3201579 0.2000428 0.4508145
0.4604182 0.2510056 0.4875787
0.6076064 0.3058179 0.5231903
0.7372428 0.3668792 0.5601754
0.8135238 0.4248432 0.5938378
0.8578663 0.4794287 0.6276686
0.0963047 0.2727053 0.4721670
0.0998971 0.2856556 0.4846835
0.1974834 0.3202352 0.5103615
0.3502509 0.3633080 0.5394731
0.5055500 0.4106039 0.5681716
0.6616494 0.4623047 0.5986880
0.7909761 0.5148832 0.6258183
0.8580341 0.5594342 0.6543342
0.8956378 0.6024324 0.6777487
0.1175407 0.3982582 0.5461564
0.1206978 0.4152294 0.5571560
0.1821639 0.4554997 0.5828713
0.3640655 0.5041145 0.6096460
0.5386956 0.5576281 0.6362310
0.7039539 0.6107481 0.6616484
0.8341236 0.6599036 0.6858329
0.8956600 0.6941052 0.7087260
0.9267444 0.7272707 0.7289016
0.1341527 0.5131009 0.6040348
0.1373340 0.5321729 0.6151189
0.1560976 0.5745803 0.6378980
0.3712359 0.6263230 0.6642835
0.5601289 0.6844889 0.6907573
0.7393975 0.7390491 0.7129911
0.8636122 0.7801618 0.7333784
0.9197645 0.8055441 0.7499160
0.9458338 0.8237415 0.7631863
0.1462218 0.6028779 0.6460851
0.1481188 0.6121282 0.6526946
0.1544515 0.6528977 0.6747589
0.3803144 0.7051086 0.6981478
0.5769891 0.7613384 0.7210304
0.7574855 0.8155728 0.7426854
0.8816864 0.8545370 0.7627585
0.9341789 0.8756452 0.7760869
0.9579951 0.8880278 0.7886722
0.1567258 0.6745965 0.6826828
0.1567258 0.6745965 0.6826828
0.1627235 0.7035797 0.6975493
0.3962096 0.7531341 0.7202368
0.5923067 0.8064798 0.7425843
0.7725565 0.8589131 0.7638807
0.8923052 0.8939024 0.7807899
0.9405838 0.9095778 0.7931560
0.9623309 0.9193271 0.8085247
0.1679491 0.7217863 0.7107359
0.1679491 0.7217863 0.7107359
0.1862247 0.7325737 0.7148960
0.4157036 0.7809596 0.7374215
0.6059908 0.8319234 0.7595086
0.7828196 0.8813828 0.7808065
0.8982455 0.9131671 0.7937899
0.9446986 0.9278533 0.8062084
0.9655080 0.9361067 0.8184531
0.1494740 0.1123124 0.4134475
0.1814570 0.1190856 0.4235324
0.2553621 0.1346815 0.4445418
0.3533841 0.1544292 0.4730440
0.4766051 0.1891410 0.5086791
0.6092292 0.2437388 0.5467821
0.7240270 0.3006818 0.5815714
0.7944050 0.3585347 0.6151322
0.8381101 0.4146709 0.6486492
0.1465002 0.1118725 0.4130381
0.1778855 0.1185650 0.4230658
0.2539870 0.1333650 0.4441568
0.3518226 0.1542600 0.4729008
0.4740068 0.1866099 0.5060905
0.6092292 0.2437388 0.5467821
0.7235054 0.2990366 0.5813408
0.7944050 0.3585347 0.6151322
0.8381101 0.4146709 0.6486492
0.1449818 0.1584965 0.4555659
0.1805209 0.1675615 0.4643915
0.2649747 0.1948814 0.4882944
0.3716487 0.2320380 0.5183175
0.5025926 0.2788564 0.5541839
0.6427973 0.3341168 0.5906393
0.7589429 0.3914050 0.6259894
0.8265085 0.4468280 0.6602687
0.8649228 0.4978905 0.6886908
0.1188435 0.3121313 0.5506952
0.1676902 0.3264932 0.5626063
0.2746509 0.3540998 0.5833396
0.4027937 0.3905842 0.6084853
0.5475871 0.4364284 0.6372579
0.6915588 0.4853777 0.6680241
0.8056826 0.5350863 0.6949890
0.8667132 0.5777065 0.7201759
0.8995799 0.6187782 0.7420906
0.1417066 0.4455897 0.6303537
0.1443623 0.4608503 0.6396064
0.2696564 0.4911206 0.6576346
0.4212257 0.5357578 0.6834944
0.5772787 0.5833253 0.7089653
0.7332289 0.6343357 0.7338599
0.8463786 0.6784748 0.7567793
0.9004155 0.7112643 0.7746365
0.9276530 0.7419014 0.7918390
0.1592568 0.5660802 0.6915011
0.1617283 0.5809239 0.7001121
0.2557768 0.6145896 0.7177568
0.4299085 0.6581817 0.7423614
0.6010115 0.7095061 0.7646119
0.7651510 0.7596943 0.7846810
0.8749249 0.7969985 0.8026468
0.9227117 0.8198465 0.8130529
0.9458079 0.8348507 0.8256320
0.1699868 0.6437914 0.7288859
0.1723874 0.6589707 0.7372499
0.2537173 0.6912500 0.7541159
0.4412475 0.7365128 0.7751125
0.6167609 0.7873953 0.7956223
0.7827070 0.8343753 0.8145168
0.8898804 0.8681434 0.8285289
0.9349979 0.8851742 0.8383941
0.9561821 0.8980087 0.8497884
0.1791477 0.7040433 0.7608038
0.1793214 0.7074264 0.7614090
0.2653153 0.7389395 0.7772694
0.4565794 0.7837734 0.7974912
0.6302519 0.8308886 0.8169122
0.7974380 0.8767882 0.8323787
0.8975976 0.9047584 0.8455166
0.9410626 0.9186220 0.8539689
0.9609218 0.9283370 0.8648608
0.1856679 0.7471813 0.7835211
0.1856679 0.7471813 0.7835211
0.2891932 0.7664933 0.7919343
0.4713129 0.8078430 0.8113263
0.6456339 0.8542414 0.8304214
0.8077856 0.8983440 0.8453168
0.9029127 0.9244928 0.8571534
0.9451005 0.9363199 0.8655374
0.9630470 0.9432554 0.8734523
0.2442001 0.1827583 0.5118920
0.2715110 0.1909066 0.5199337
0.3327990 0.2110163 0.5369548
0.4292313 0.2423709 0.5620344
0.5426586 0.2797034 0.5926461
0.6691960 0.3285015 0.6248446
0.7650791 0.3746359 0.6549332
0.8242323 0.4242824 0.6843852
0.8585768 0.4716499 0.7104196
0.2428126 0.1811499 0.5114174
0.2700298 0.1894343 0.5174314
0.3312250 0.2107815 0.5368007
0.4271129 0.2406368 0.5616000
0.5426586 0.2797034 0.5926461
0.6661865 0.3265155 0.6244478
0.7650791 0.3746359 0.6549332
0.8242323 0.4242824 0.6843852
0.8585768 0.4716499 0.7104196
0.2404282 0.2049399 0.5249340
0.2687596 0.2134122 0.5309442
0.3332545 0.2348735 0.5504465
0.4319124 0.2692297 0.5783842
0.5501012 0.3123087 0.6078609
0.6790026 0.3644614 0.6430787
0.7817653 0.4174587 0.6744047
0.8377814 0.4671081 0.7038420
0.8726722 0.5162534 0.7329798
0.2373078 0.3543708 0.6170129
0.2741915 0.3655466 0.6256327
0.3529195 0.3881596 0.6430091
0.4638096 0.4219779 0.6657923
0.5934594 0.4641859 0.6922036
0.7259091 0.5103531 0.7182726
0.8250271 0.5569506 0.7428856
0.8756890 0.5967452 0.7650383
0.9037678 0.6336591 0.7834568
0.2184552 0.4933910 0.6958076
0.2645131 0.5036942 0.7039359
0.3595900 0.5299891 0.7186412
0.4846865 0.5663418 0.7380654
0.6260802 0.6109005 0.7632657
0.7667959 0.6568339 0.7846763
0.8600156 0.6949322 0.8008544
0.9058323 0.7266138 0.8183117
0.9302497 0.7545480 0.8297108
0.1923615 0.6111380 0.7570183
0.2483806 0.6242150 0.7624233
0.3611966 0.6505033 0.7759109
0.4983109 0.6878722 0.7937011
0.6509638 0.7348487 0.8119105
0.7949992 0.7779287 0.8315011
0.8854503 0.8102384 0.8423514
0.9269667 0.8290464 0.8516241
0.9474074 0.8454025 0.8606750
0.1877058 0.6869187 0.7906213
0.2421762 0.6984881 0.7954364
0.3642446 0.7276894 0.8085480
0.5116913 0.7653213 0.8255020
0.6662529 0.8105365 0.8416670
0.8129227 0.8518243 0.8561460
0.8988459 0.8782403 0.8661393
0.9375597 0.8933473 0.8739265
0.9564105 0.9029369 0.8789967
0.1943613 0.7348412 0.8138100
0.2535661 0.7459873 0.8184507
0.3802972 0.7731964 0.8307310
0.5241453 0.8087234 0.8431856
0.6821173 0.8514583 0.8583494
0.8275176 0.8901724 0.8716364
0.9080572 0.9140719 0.8800316
0.9434887 0.9258861 0.8874286
0.9602682 0.9324681 0.8922907
0.2644251 0.7708299 0.8321065
0.2835135 0.7739018 0.8326309
0.3983001 0.7976357 0.8435248
0.5439386 0.8330868 0.8558466
0.6952690 0.8736449 0.8699486
0.8379905 0.9112991 0.8820653
0.9133111 0.9318672 0.8901852
0.9475875 0.9422528 0.8952015
0.9631989 0.9472580 0.8992871
0.3372107 0.2787376 0.6006714
0.3621423 0.2872714 0.6062118
0.4176106 0.3035224 0.6220633
0.5058576 0.3321143 0.6415032
0.6154360 0.3674991 0.6673074
0.7261569 0.4085418 0.6958963
0.8041365 0.4494136 0.7201776
0.8482218 0.4862446 0.7428887
0.8775402 0.5287814 0.7650957
0.3354777 0.2784387 0.6005092
0.3584262 0.2837419 0.6052883
0.4174470 0.3021086 0.6193357
0.5056264 0.3306313 0.6412345
0.6129373 0.3671369 0.6671565
0.7261569 0.4085418 0.6958963
0.8041365 0.4494136 0.7201776
0.8482218 0.4862446 0.7428887
0.8770288 0.5267798 0.7621022
0.3303069 0.2747717 0.5970781
0.3548453 0.2831308 0.6049620
0.4135306 0.3014609 0.6190094
0.5013931 0.3299695 0.6409277
0.6104461 0.3667747 0.6670054
0.7235398 0.4082036 0.6930465
0.8041365 0.4494136 0.7201776
0.8491896 0.4899003 0.7433816
0.8800409 0.5385814 0.7691103
0.3403742 0.3970544 0.6721522
0.3699026 0.4043904 0.6773005
0.4337214 0.4247410 0.6913271
0.5318736 0.4567924 0.7134415
0.6491426 0.4958363 0.7366937
0.7634676 0.5397907 0.7588367
0.8434737 0.5804800 0.7792131
0.8845760 0.6153737 0.7975134
0.9084377 0.6501031 0.8155588
0.3417545 0.5344940 0.7481965
0.3758080 0.5452254 0.7534737
0.4500012 0.5669059 0.7667004
0.5572917 0.5979339 0.7816867
0.6826630 0.6388586 0.8001785
0.8032197 0.6809857 0.8207155
0.8756833 0.7132682 0.8347590
0.9122526 0.7410198 0.8453881
0.9335278 0.7689009 0.8580843
0.3418162 0.6544175 0.8025148
0.3770525 0.6639637 0.8071348
0.4580372 0.6861591 0.8169076
0.5731220 0.7174204 0.8320528
0.7082736 0.7578605 0.8456824
0.8284439 0.7949604 0.8602225
0.8967100 0.8198790 0.8693334
0.9321857 0.8391326 0.8755227
0.9490160 0.8546947 0.8834350
0.3435990 0.7275202 0.8333748
0.3831554 0.7377385 0.8375805
0.4683293 0.7606720 0.8463008
0.5895894 0.7931556 0.8584478
0.7265554 0.8318423 0.8719726
0.8456910 0.8660301 0.8821919
0.9101894 0.8872985 0.8905973
0.9422101 0.8999302 0.8954051
0.9573284 0.9086349 0.8998662
0.3543475 0.7734517 0.8540731
0.3967834 0.7821856 0.8575965
0.4823883 0.8039319 0.8651369
0.6022870 0.8337544 0.8757129
0.7369495 0.8693334 0.8865189
0.8563243 0.9025011 0.8956454
0.9184957 0.9202899 0.9009110
0.9475918 0.9299717 0.9054355
0.9617883 0.9358792 0.9096700
0.3768605 0.7980142 0.8656771
0.4196548 0.8067254 0.8671198
0.4982894 0.8268894 0.8763514
0.6140334 0.8554153 0.8845344
0.7510744 0.8911595 0.8944273
0.8629434 0.9206759 0.9028475
0.9229043 0.9373290 0.9098610
0.9497934 0.9449808 0.9142369
0.9639081 0.9502780 0.9161193
