data/spectral_luts/kodachrome_64_radiance_iii.cube
TITLE "kodachrome_64_radiance_iii"
LUT_3D_SIZE 5
0.0461947 0.0638736 0.0619166
0.0625968 0.0671180 0.0623561
0.3198491 0.1044709 0.0546095
0.5855891 0.1288585 0.1288585
0.7681650 0.2529801 0.1945412
0.0454853 0.0689812 0.0624996
0.0751804 0.0790306 0.0632877
0.3587940 0.1463663 0.0637650
0.6750705 0.2611334 0.1545410
0.8383428 0.4031075 0.2326935
0.0295929 0.2369556 0.0718451
0.1161988 0.2714827 0.0664463
0.4827802 0.4111660 0.0993508
0.8095489 0.5492335 0.1931383
0.9279169 0.6426177 0.2922575
0.0856321 0.4349821 0.1434813
0.1249224 0.4597952 0.1506658
0.5438591 0.6244051 0.1982473
0.8787411 0.7586538 0.2751702
0.9732906 0.8193758 0.3927061
0.1953160 0.6097601 0.3141955
0.1953160 0.6097601 0.3141955
0.5700165 0.7331448 0.3551454
0.9012479 0.8476691 0.4151607
0.9814039 0.8880945 0.5002819
0.0452608 0.0647777 0.0673421
0.0759362 0.0717577 0.0739259
0.3315222 0.1107144 0.1057667
0.5990998 0.1361138 0.2019140
0.7786531 0.2785197 0.3236782
0.0390405 0.0772509 0.0925049
0.0858278 0.0955938 0.1161745
0.3757899 0.1742009 0.1820232
0.6876257 0.2978016 0.2708013
0.8416440 0.4264379 0.3714404
0.0411496 0.2799990 0.1888553
0.0599943 0.3257167 0.2170057
0.4827172 0.4662733 0.2788945
0.8105608 0.5875109 0.3513757
0.9266447 0.6716871 0.4446082
0.0973886 0.4759434 0.2706056
0.1064145 0.5073910 0.2833759
0.5398777 0.6604504 0.3346583
0.8770407 0.7843565 0.4058235
0.9686092 0.8381696 0.4946465
0.1870647 0.6156677 0.3328692
0.1859889 0.6160383 0.3345911
0.5719557 0.7404606 0.3797987
0.8988857 0.8528831 0.4481812
0.9792101 0.8932400 0.5350410
0.0325988 0.0788753 0.2257071
0.1275235 0.0936189 0.2579512
0.3777804 0.1229689 0.3234238
0.6395433 0.1687545 0.4009091
0.7964468 0.3156682 0.4922673
0.0455826 0.1073409 0.2954441
0.1383576 0.1340348 0.3336055
0.4255970 0.2247609 0.4084596
0.7176901 0.3432350 0.4796708
0.8518812 0.4605451 0.5529587
0.0904109 0.3579400 0.4516321
0.1019022 0.4159649 0.4916696
0.5089572 0.5327934 0.5482738
0.8226067 0.6391062 0.5964662
0.9254823 0.7102835 0.6473650
0.1234960 0.5669054 0.5534204
0.1360781 0.6107433 0.5745771
0.5496579 0.7336582 0.6259642
0.8749987 0.8346239 0.6661084
0.9598889 0.8746122 0.7079740
0.1595284 0.6924475 0.6140535
0.1602320 0.6948990 0.6167145
0.5803438 0.8067518 0.6599991
0.8951700 0.8972501 0.7009261
0.9693404 0.9249178 0.7408605
0.1494740 0.1123124 0.4134475
0.2553621 0.1346815 0.4445418
0.4766051 0.1891410 0.5086791
0.7240270 0.3006818 0.5815714
0.8381101 0.4146709 0.6486492
0.1449818 0.1584965 0.4555659
0.2649747 0.1948814 0.4882944
0.5025926 0.2788564 0.5541839
0.7589429 0.3914050 0.6259894
0.8649228 0.4978905 0.6886908
0.1417066 0.4455897 0.6303537
0.2696564 0.4911206 0.6576346
0.5772787 0.5833253 0.7089653
0.8463786 0.6784748 0.7567793
0.9276530 0.7419014 0.7918390
0.1699868 0.6437914 0.7288859
0.2537173 0.6912500 0.7541159
0.6167609 0.7873953 0.7956223
0.8898804 0.8681434 0.8285289
0.9561821 0.8980087 0.8497884
0.1856679 0.7471813 0.7835211
0.2891932 0.7664933 0.7919343
0.6456339 0.8542414 0.8304214
0.9029127 0.9244928 0.8571534
0.9630470 0.9432554 0.8734523
0.3372107 0.2787376 0.6006714
0.4176106 0.3035224 0.6220633
0.6154360 0.3674991 0.6673074
0.8041365 0.4494136 0.7201776
0.8775402 0.5287814 0.7650957
0.3303069 0.2747717 0.5970781
0.4135306 0.3014609 0.6190094
0.6104461 0.3667747 0.6670054
0.8041365 0.4494136 0.7201776
0.8800409 0.5385814 0.7691103
0.3417545 0.5344940 0.7481965
0.4500012 0.5669059 0.7667004
0.6826630 0.6388586 0.8001785
0.8756833 0.7132682 0.8347590
0.9335278 0.7689009 0.8580843
0.3435990 0.7275202 0.8333748
0.4683293 0.7606720 0.8463008
0.7265554 0.8318423 0.8719726
0.9101894 0.8872985 0.8905973
0.9573284 0.9086349 0.8998662
0.3768605 0.7980142 0.8656771
0.4982894 0.8268894 0.8763514
0.7510744 0.8911595 0.8944273
0.9229043 0.9373290 0.9098610
0.9639081 0.9502780 0.9161193
