data/spectral_luts/kodachrome_64_radiance_iii.cube
TITLE "kodachrome_64_radiance_iii"
LUT_3D_SIZE 33
0.0461947 0.0638736 0.0619166
0.0461947 0.0638736 0.0619166
0.0461947 0.0638736 0.0619166
0.0461947 0.0638736 0.0619166
0.0459534 0.0638262 0.0619095
0.0457756 0.0637913 0.0619043
0.0461928 0.0638732 0.0619166
0.0521375 0.0650446 0.0620859
0.0625968 0.0671180 0.0623561
0.0849745 0.0715319 0.0628000
0.1113066 0.0765584 0.0630687
0.1409657 0.0818847 0.0630344
0.1761862 0.0876636 0.0625332
0.2151076 0.0932955 0.0612685
0.2518174 0.0978796 0.0594715
0.2854730 0.1014604 0.0573178
0.3198491 0.1044709 0.0546095
0.3549152 0.1068469 0.0626517
0.3913611 0.1087549 0.0731122
0.4249055 0.1103189 0.0827399
0.4570568 0.1122509 0.0919678
0.4912533 0.1134729 0.1017827
0.5267764 0.1157411 0.1119784
0.5575718 0.1208171 0.1208171
0.5855891 0.1288585 0.1288585
0.6156086 0.1374745 0.1374745
0.6442249 0.1456878 0.1456878
0.6688033 0.1527422 0.1527422
0.6897044 0.1620436 0.1587411
0.7085255 0.1776615 0.1641431
0.7268973 0.1985669 0.1694160
0.7498918 0.2276961 0.1760158
0.7681650 0.2529801 0.1945412
0.0461947 0.0638736 0.0619166
0.0461947 0.0638736 0.0619166
0.0461947 0.0638736 0.0619166
0.0461947 0.0638736 0.0619166
0.0459534 0.0638262 0.0619095
0.0457802 0.0637922 0.0619044
0.0462182 0.0638782 0.0619173
0.0521375 0.0650446 0.0620859
0.0628567 0.0671696 0.0623624
0.0849745 0.0715319 0.0628000
0.1113066 0.0765584 0.0630687
0.1409657 0.0818847 0.0630344
0.1772255 0.0878206 0.0624828
0.2162897 0.0934472 0.0611685
0.2529728 0.0980057 0.0593538
0.2867216 0.1015581 0.0571957
0.3212143 0.1045101 0.0544523
0.3564376 0.1069168 0.0630887
0.3913930 0.1088552 0.0731214
0.4254280 0.1113838 0.0828899
0.4592541 0.1130645 0.0925985
0.4940688 0.1151988 0.1025908
0.5273319 0.1168927 0.1121378
0.5604567 0.1216451 0.1216451
0.5896389 0.1300209 0.1300209
0.6181740 0.1382108 0.1382108
0.6469223 0.1464620 0.1464620
0.6716691 0.1547275 0.1535647
0.6924684 0.1679080 0.1595344
0.7126061 0.1862881 0.1653142
0.7336051 0.2096625 0.1713413
0.7554673 0.2371853 0.1776160
0.7722844 0.2619877 0.1974498
0.0461947 0.0638736 0.0619166
0.0461947 0.0638736 0.0619166
0.0461947 0.0638736 0.0619166
0.0461947 0.0638736 0.0619166
0.0459406 0.0638237 0.0619092
0.0457802 0.0637922 0.0619044
0.0462436 0.0638832 0.0619181
0.0522771 0.0650722 0.0620898
0.0633887 0.0672752 0.0623750
0.0854685 0.0716282 0.0628077
0.1131488 0.0769005 0.0630770
0.1417472 0.0820195 0.0630287
0.1782702 0.0879711 0.0623851
0.2162906 0.0934390 0.0611073
0.2541152 0.0980931 0.0592407
0.2879486 0.1015985 0.0570674
0.3226070 0.1045950 0.0542916
0.3564593 0.1069673 0.0630949
0.3935238 0.1099491 0.0737329
0.4276012 0.1123410 0.0835136
0.4618435 0.1146298 0.0933417
0.4968077 0.1167670 0.1033769
0.5299800 0.1180182 0.1128979
0.5616652 0.1219920 0.1219920
0.5942464 0.1313433 0.1313433
0.6232126 0.1396570 0.1396570
0.6506090 0.1487084 0.1475202
0.6766619 0.1611276 0.1549977
0.6962165 0.1757402 0.1606102
0.7187751 0.1958648 0.1670848
0.7406976 0.2215708 0.1733769
0.7605911 0.2480997 0.1790867
0.7768769 0.2719803 0.1987592
0.0461947 0.0638736 0.0619166
0.0461947 0.0638736 0.0619166
0.0461947 0.0638736 0.0619166
0.0461947 0.0638736 0.0619166
0.0459022 0.0638162 0.0619080
0.0457940 0.0637950 0.0619048
0.0462945 0.0638931 0.0619196
0.0526963 0.0651551 0.0621013
0.0639798 0.0673925 0.0623890
0.0859636 0.0717247 0.0628152
0.1137734 0.0770161 0.0630795
0.1441531 0.0824272 0.0629732
0.1793176 0.0880915 0.0622794
0.2198310 0.0938224 0.0608872
0.2552509 0.0981544 0.0591187
0.2892047 0.1016900 0.0569291
0.3241467 0.1049709 0.0540924
0.3601964 0.1085050 0.0641675
0.3958085 0.1113438 0.0743887
0.4303893 0.1145016 0.0843139
0.4647270 0.1167695 0.0941693
0.4995556 0.1183508 0.1041656
0.5338867 0.1216228 0.1140192
0.5670306 0.1272283 0.1235319
0.6001919 0.1352270 0.1330497
0.6302181 0.1467124 0.1416677
0.6576804 0.1587892 0.1495498
0.6817132 0.1716661 0.1564475
0.7045186 0.1896389 0.1629930
0.7266328 0.2123196 0.1693401
0.7487077 0.2384856 0.1756759
0.7674873 0.2630333 0.1810660
0.7844769 0.2862707 0.2032072
0.0461947 0.0638736 0.0619166
0.0461947 0.0638736 0.0619166
0.0461947 0.0638736 0.0619166
0.0461947 0.0638736 0.0619166
0.0458562 0.0638071 0.0619067
0.0458171 0.0637995 0.0619055
0.0464912 0.0639318 0.0619253
0.0531751 0.0652498 0.0621144
0.0645720 0.0675100 0.0624029
0.0874490 0.0719771 0.0628332
0.1150125 0.0771785 0.0630691
0.1457491 0.0826017 0.0628381
0.1814585 0.0883398 0.0621194
0.2222271 0.0940996 0.0606991
0.2577606 0.0987954 0.0589149
0.2923458 0.1031968 0.0566219
0.3277769 0.1068396 0.0548626
0.3626992 0.1106097 0.0648858
0.4005105 0.1144046 0.0757382
0.4349026 0.1167164 0.0856092
0.4694912 0.1190159 0.0955367
0.5040415 0.1233706 0.1054531
0.5400957 0.1298079 0.1158012
0.5745758 0.1380178 0.1256975
0.6085114 0.1474348 0.1354375
0.6359261 0.1584412 0.1433060
0.6657728 0.1709697 0.1518724
0.6921615 0.1892862 0.1594463
0.7169494 0.2120246 0.1665608
0.7396075 0.2365935 0.1730640
0.7600623 0.2598123 0.1789349
0.7769912 0.2813798 0.1855570
0.7917333 0.3024171 0.2059727
0.0461965 0.0638359 0.0619114
0.0461967 0.0638319 0.0619108
0.0461967 0.0638299 0.0619106
0.0461155 0.0638059 0.0619071
0.0457994 0.0637361 0.0618966
0.0458723 0.0637434 0.0618978
0.0469889 0.0639584 0.0619300
0.0539742 0.0653317 0.0621259
0.0660525 0.0677217 0.0624268
0.0894475 0.0723056 0.0628043
0.1169416 0.0776076 0.0629206
0.1483685 0.0835562 0.0627145
0.1851536 0.0899706 0.0619741
0.2253255 0.0960442 0.0605332
0.2610360 0.1011280 0.0586633
0.2974082 0.1061278 0.0561539
0.3320473 0.1100501 0.0560883
0.3687122 0.1137220 0.0666116
0.4034964 0.1171932 0.0765952
0.4392100 0.1218871 0.0868455
0.4756953 0.1276538 0.0973174
0.5117851 0.1348151 0.1076757
0.5488654 0.1430627 0.1183183
0.5839915 0.1524160 0.1284000
0.6185613 0.1631032 0.1383220
0.6489202 0.1758478 0.1470355
0.6794155 0.1944860 0.1557880
0.7070147 0.2159328 0.1637094
0.7298617 0.2391046 0.1702669
0.7528409 0.2616981 0.1768622
0.7696391 0.2805524 0.1816835
0.7868907 0.3034092 0.1908730
0.8024440 0.3243141 0.2136996
0.0461924 0.0639230 0.0619235
0.0461924 0.0639230 0.0619235
0.0461586 0.0639419 0.0619261
0.0459321 0.0639992 0.0619336
0.0457528 0.0640660 0.0619425
0.0459201 0.0643198 0.0619781
0.0479536 0.0649576 0.0620693
0.0551981 0.0665875 0.0622761
0.0682495 0.0693239 0.0625046
0.0917719 0.0742105 0.0628222
0.1206650 0.0803161 0.0629493
0.1516555 0.0864531 0.0627103
0.1905523 0.0932416 0.0618382
0.2300861 0.0993023 0.0602890
0.2658189 0.1042478 0.0583107
0.3012325 0.1090290 0.0561018
0.3369411 0.1145719 0.0574929
0.3754254 0.1212524 0.0685384
0.4116619 0.1270536 0.0789388
0.4488716 0.1342670 0.0896186
0.4869027 0.1425191 0.1005340
0.5238088 0.1507388 0.1111266
0.5595541 0.1601872 0.1213861
0.5957721 0.1716407 0.1317812
0.6326465 0.1869028 0.1423647
0.6662887 0.2067065 0.1520205
0.6979308 0.2279243 0.1611022
0.7244313 0.2482856 0.1687083
0.7453934 0.2686376 0.1747247
0.7648951 0.2880672 0.1803220
0.7837564 0.3085911 0.1857354
0.7988549 0.3279087 0.1960423
0.8146356 0.3502390 0.2194235
0.0458186 0.0660989 0.0622230
0.0458186 0.0660989 0.0622230
0.0457747 0.0661736 0.0622331
0.0456533 0.0663166 0.0622526
0.0456643 0.0664406 0.0622533
0.0459218 0.0666198 0.0622454
0.0492198 0.0674675 0.0622891
0.0567441 0.0691481 0.0624259
0.0711286 0.0722684 0.0626763
0.0953783 0.0774292 0.0629733
0.1239092 0.0832966 0.0630321
0.1560819 0.0900168 0.0627188
0.1955223 0.0979434 0.0617413
0.2349214 0.1057282 0.0600762
0.2730455 0.1130321 0.0581814
0.3085929 0.1197501 0.0567448
0.3457961 0.1274585 0.0600344
0.3856631 0.1359999 0.0714768
0.4234272 0.1442309 0.0823156
0.4613235 0.1523305 0.0931925
0.4982177 0.1614706 0.1037816
0.5366885 0.1725583 0.1148233
0.5780730 0.1887523 0.1267013
0.6175793 0.2066198 0.1380402
0.6527143 0.2233284 0.1481244
0.6860281 0.2432300 0.1576860
0.7156181 0.2612982 0.1661787
0.7409853 0.2795519 0.1734595
0.7607146 0.2986829 0.1791221
0.7797343 0.3178739 0.1845810
0.7978911 0.3373917 0.1897923
0.8122504 0.3564594 0.2029489
0.8261092 0.3753196 0.2252563
0.0454853 0.0689812 0.0624996
0.0454853 0.0689812 0.0624996
0.0454733 0.0689788 0.0624993
0.0454512 0.0693451 0.0625325
0.0455890 0.0698632 0.0625552
0.0461356 0.0705211 0.0625905
0.0507080 0.0721684 0.0627398
0.0588807 0.0748950 0.0629793
0.0751804 0.0790306 0.0632877
0.1004828 0.0856086 0.0635738
0.1293985 0.0928415 0.0635382
0.1628528 0.1012014 0.0630333
0.2046330 0.1109355 0.0617373
0.2452702 0.1204957 0.0602671
0.2822402 0.1295057 0.0590597
0.3204808 0.1379890 0.0572072
0.3587940 0.1463663 0.0637650
0.3982175 0.1558654 0.0750801
0.4376817 0.1668978 0.0864069
0.4783015 0.1800275 0.0980654
0.5176826 0.1935744 0.1093683
0.5594930 0.2109816 0.1213685
0.5991214 0.2276376 0.1327425
0.6374308 0.2431276 0.1437378
0.6750705 0.2611334 0.1545410
0.7063684 0.2772518 0.1635239
0.7334020 0.2956279 0.1712830
0.7585355 0.3145329 0.1784967
0.7775301 0.3326211 0.1839484
0.7953063 0.3503512 0.1890504
0.8126576 0.3694624 0.1940305
0.8260548 0.3868504 0.2098106
0.8383428 0.4031075 0.2326935
0.0445742 0.0787726 0.0636013
0.0445742 0.0787726 0.0636013
0.0445859 0.0787734 0.0635947
0.0446031 0.0795648 0.0636638
0.0447120 0.0803931 0.0637317
0.0467337 0.0816211 0.0638244
0.0520336 0.0843641 0.0640582
0.0613850 0.0879239 0.0643014
0.0800477 0.0932623 0.0645207
0.1067715 0.1009127 0.0645727
0.1371826 0.1095017 0.0642187
0.1723805 0.1187642 0.0635135
0.2143604 0.1296514 0.0625552
0.2564585 0.1411710 0.0611280
0.2962396 0.1526024 0.0589912
0.3342652 0.1643451 0.0567248
0.3771521 0.1779143 0.0690340
0.4171238 0.1904739 0.0805065
0.4584123 0.2045718 0.0923569
0.5002925 0.2195930 0.1043771
0.5401204 0.2332004 0.1158083
0.5813672 0.2488515 0.1276468
0.6204462 0.2639380 0.1388630
0.6571758 0.2810142 0.1494049
0.6945433 0.2989691 0.1601300
0.7257254 0.3153390 0.1690797
0.7518103 0.3327309 0.1765664
0.7763516 0.3516779 0.1836101
0.7943636 0.3681482 0.1887798
0.8104874 0.3832587 0.1934076
0.8262198 0.3998449 0.1979230
0.8379042 0.4134954 0.2169485
0.8484106 0.4289011 0.2404028
0.0425802 0.0928217 0.0650617
0.0425802 0.0928217 0.0650617
0.0425912 0.0928239 0.0650618
0.0426637 0.0932394 0.0650890
0.0436099 0.0946461 0.0651918
0.0472863 0.0967846 0.0653306
0.0529642 0.1006460 0.0655733
0.0641884 0.1052425 0.0657414
0.0855619 0.1132073 0.0658340
0.1138455 0.1237086 0.0657199
0.1463603 0.1349147 0.0654480
0.1845747 0.1482632 0.0647629
0.2302996 0.1623115 0.0630135
0.2732171 0.1761914 0.0601060
0.3132522 0.1881666 0.0560639
0.3545720 0.2017160 0.0625532
0.3954954 0.2150005 0.0742988
0.4383528 0.2289759 0.0865995
0.4798032 0.2420762 0.0984964
0.5200123 0.2563594 0.1100370
0.5585692 0.2709332 0.1211034
0.6028138 0.2877898 0.1338022
0.6404731 0.3041411 0.1446110
0.6814132 0.3201275 0.1563614
0.7132475 0.3367662 0.1654983
0.7438368 0.3522929 0.1742779
0.7695413 0.3700603 0.1816555
0.7914497 0.3840142 0.1879435
0.8089624 0.3995405 0.1929699
0.8243678 0.4138470 0.1973915
0.8381305 0.4270298 0.2022551
0.8499342 0.4416929 0.2260513
0.8597265 0.4561074 0.2477450
0.0367317 0.1173759 0.0671857
0.0367317 0.1173759 0.0671857
0.0367317 0.1173759 0.0671857
0.0374785 0.1182589 0.0672191
0.0400366 0.1209930 0.0673349
0.0440695 0.1239306 0.0674166
0.0511918 0.1282032 0.0674776
0.0653684 0.1334604 0.0674880
0.0902992 0.1434366 0.0675461
0.1207337 0.1530826 0.0674236
0.1547764 0.1652202 0.0668496
0.1977449 0.1795722 0.0650262
0.2443542 0.1954052 0.0614130
0.2869959 0.2084732 0.0568273
0.3290167 0.2229263 0.0552184
0.3699624 0.2362017 0.0669705
0.4139006 0.2510239 0.0795814
0.4565228 0.2667376 0.0918146
0.4991054 0.2813497 0.1040364
0.5393148 0.2946563 0.1155771
0.5786809 0.3101104 0.1268757
0.6204156 0.3251606 0.1388542
0.6629149 0.3419980 0.1510521
0.6989035 0.3568912 0.1613814
0.7323529 0.3718172 0.1709819
0.7596328 0.3854839 0.1788116
0.7857951 0.4001625 0.1863206
0.8060340 0.4160998 0.1921294
0.8241252 0.4299728 0.1973219
0.8373335 0.4435185 0.2011129
0.8515225 0.4588494 0.2084346
0.8628560 0.4725856 0.2308015
0.8731253 0.4897006 0.2544452
0.0307012 0.1437288 0.0686023
0.0307044 0.1437273 0.0685962
0.0307044 0.1437273 0.0685962
0.0316220 0.1439122 0.0685773
0.0342628 0.1467535 0.0686561
0.0392685 0.1500978 0.0687678
0.0481072 0.1550782 0.0690794
0.0663691 0.1623601 0.0694139
0.0954189 0.1718636 0.0693046
0.1283572 0.1843581 0.0685925
0.1644837 0.1970970 0.0667583
0.2083904 0.2125830 0.0631761
0.2576355 0.2283755 0.0576574
0.3032133 0.2429710 0.0510814
0.3453995 0.2582611 0.0599205
0.3877901 0.2718889 0.0720873
0.4293632 0.2861523 0.0840194
0.4722361 0.3008912 0.0963245
0.5150073 0.3144968 0.1086005
0.5539639 0.3286156 0.1197816
0.5977681 0.3438458 0.1323541
0.6377481 0.3587027 0.1438289
0.6775876 0.3740020 0.1552634
0.7136583 0.3892138 0.1656163
0.7475208 0.4052954 0.1753353
0.7776620 0.4198565 0.1839862
0.8014044 0.4353197 0.1908007
0.8203983 0.4488612 0.1962522
0.8390562 0.4655358 0.2016073
0.8518377 0.4779973 0.2052758
0.8651653 0.4928837 0.2165283
0.8764248 0.5073678 0.2391981
0.8847821 0.5198566 0.2613258
0.0225394 0.1697350 0.0699012
0.0225394 0.1697350 0.0699012
0.0225394 0.1697350 0.0699012
0.0228408 0.1697964 0.0698937
0.0262938 0.1714296 0.0701908
0.0320974 0.1751416 0.0706209
0.0443058 0.1807483 0.0709603
0.0691520 0.1885269 0.0709191
0.0997341 0.1990622 0.0699843
0.1349245 0.2105612 0.0681043
0.1749219 0.2245012 0.0648748
0.2189544 0.2396846 0.0601631
0.2706719 0.2568355 0.0530118
0.3158930 0.2721672 0.0514518
0.3575062 0.2866575 0.0633953
0.3993331 0.3002138 0.0754003
0.4417354 0.3150139 0.0875704
0.4877405 0.3314977 0.1007745
0.5291260 0.3449991 0.1126528
0.5711609 0.3609206 0.1247174
0.6115941 0.3770230 0.1363223
0.6519365 0.3921619 0.1479012
0.6925398 0.4090647 0.1595549
0.7319921 0.4258357 0.1708783
0.7630216 0.4417246 0.1797842
0.7935836 0.4572684 0.1885560
0.8195900 0.4742285 0.1960202
0.8356215 0.4861332 0.2006215
0.8530248 0.4995107 0.2056165
0.8669413 0.5116147 0.2096107
0.8782877 0.5265591 0.2223723
0.8887125 0.5398712 0.2453874
0.8963913 0.5509951 0.2680324
0.0196344 0.1910821 0.0716837
0.0196344 0.1910821 0.0716837
0.0196344 0.1910821 0.0716837
0.0196344 0.1910821 0.0716837
0.0200909 0.1934497 0.0719466
0.0265476 0.1967064 0.0720359
0.0428064 0.2030599 0.0718809
0.0726082 0.2116647 0.0708898
0.1049973 0.2227804 0.0691235
0.1415302 0.2358214 0.0663587
0.1832468 0.2500181 0.0623261
0.2306440 0.2661312 0.0567355
0.2830606 0.2845862 0.0488531
0.3260330 0.2995297 0.0543621
0.3690528 0.3155121 0.0667094
0.4143861 0.3323931 0.0797207
0.4584563 0.3486073 0.0923695
0.5010711 0.3634609 0.1046006
0.5443245 0.3810087 0.1170150
0.5869969 0.3975309 0.1292626
0.6280383 0.4140338 0.1410421
0.6714623 0.4298770 0.1535054
0.7104037 0.4476726 0.1646821
0.7473669 0.4636692 0.1752911
0.7807608 0.4794105 0.1848757
0.8090580 0.4955011 0.1929974
0.8332237 0.5081220 0.1999333
0.8509802 0.5207490 0.2050297
0.8656178 0.5327349 0.2092309
0.8792661 0.5446525 0.2131481
0.8893923 0.5563216 0.2311379
0.8989565 0.5678043 0.2522199
0.9072741 0.5808213 0.2728122
0.0244637 0.2146951 0.0724773
0.0244637 0.2146951 0.0724773
0.0244637 0.2146951 0.0724773
0.0246579 0.2155851 0.0724265
0.0248205 0.2163271 0.0723792
0.0256500 0.2200691 0.0721359
0.0450221 0.2278488 0.0712186
0.0772018 0.2362274 0.0696957
0.1114287 0.2483107 0.0674238
0.1491700 0.2614288 0.0643028
0.1926953 0.2779046 0.0597674
0.2425217 0.2957276 0.0535576
0.2950855 0.3155006 0.0513391
0.3393168 0.3320712 0.0581747
0.3821407 0.3483520 0.0704658
0.4254302 0.3643625 0.0828905
0.4704416 0.3808888 0.0958095
0.5140529 0.3974233 0.1083266
0.5578802 0.4151977 0.1209056
0.6011358 0.4317949 0.1333206
0.6426256 0.4482690 0.1452288
0.6849540 0.4661307 0.1573777
0.7262610 0.4821797 0.1692334
0.7630959 0.4978584 0.1798056
0.7965412 0.5140283 0.1894048
0.8239186 0.5290447 0.1972626
0.8458133 0.5415426 0.2035467
0.8636168 0.5541675 0.2086565
0.8773816 0.5651674 0.2126072
0.8906894 0.5773966 0.2238058
0.9008506 0.5890378 0.2433393
0.9102162 0.6005794 0.2624409
0.9179203 0.6118479 0.2813762
0.0295929 0.2369556 0.0718451
0.0295929 0.2369556 0.0718451
0.0296392 0.2371459 0.0718508
0.0296392 0.2371459 0.0718508
0.0298884 0.2381671 0.0717512
0.0311213 0.2431464 0.0711437
0.0476007 0.2506533 0.0700905
0.0801582 0.2604232 0.0685939
0.1161988 0.2714827 0.0664463
0.1556348 0.2868456 0.0636250
0.2019018 0.3038985 0.0590078
0.2537406 0.3232692 0.0535688
0.3041133 0.3425365 0.0590988
0.3494884 0.3602045 0.0641698
0.3939857 0.3775251 0.0738655
0.4385206 0.3936111 0.0866477
0.4827802 0.4111660 0.0993508
0.5278673 0.4300636 0.1122915
0.5717722 0.4464777 0.1248928
0.6137080 0.4637029 0.1369291
0.6561063 0.4810982 0.1490980
0.6993437 0.4997903 0.1615077
0.7385314 0.5164772 0.1727552
0.7757308 0.5326664 0.1834320
0.8095489 0.5492335 0.1931383
0.8357329 0.5611788 0.2006535
0.8580626 0.5757541 0.2070624
0.8753541 0.5874643 0.2120253
0.8889259 0.5984752 0.2185965
0.9019848 0.6107678 0.2360019
0.9115875 0.6210296 0.2557373
0.9195896 0.6327941 0.2750103
0.9279169 0.6426177 0.2922575
0.0359691 0.2616839 0.0709350
0.0359691 0.2616839 0.0709350
0.0359691 0.2616839 0.0709350
0.0359691 0.2616839 0.0709350
0.0359691 0.2616839 0.0709350
0.0370374 0.2655696 0.0706963
0.0504353 0.2729421 0.0701023
0.0832609 0.2842608 0.0688581
0.1211239 0.2973036 0.0669840
0.1619405 0.3126622 0.0647591
0.2093346 0.3309534 0.0614942
0.2642558 0.3520729 0.0618359
0.3140689 0.3705263 0.0671323
0.3591960 0.3887413 0.0723603
0.4013079 0.4050887 0.0770522
0.4495384 0.4258182 0.0898099
0.4948127 0.4430967 0.1028043
0.5379226 0.4600455 0.1151775
0.5835463 0.4801756 0.1282722
0.6264642 0.4983212 0.1405903
0.6698050 0.5168906 0.1530297
0.7129599 0.5334930 0.1654158
0.7528440 0.5506849 0.1768631
0.7908160 0.5692350 0.1877616
0.8211467 0.5826633 0.1964670
0.8479066 0.5968062 0.2041475
0.8696144 0.6096159 0.2103779
0.8869886 0.6219088 0.2153646
0.8999377 0.6311531 0.2309364
0.9126659 0.6442630 0.2504203
0.9223191 0.6549670 0.2701061
0.9300860 0.6631431 0.2878849
0.9372415 0.6728694 0.3035291
0.0432091 0.2871745 0.0717217
0.0432091 0.2871745 0.0717217
0.0432091 0.2871745 0.0717217
0.0432091 0.2871745 0.0717217
0.0432091 0.2871745 0.0717217
0.0440952 0.2902617 0.0717204
0.0503604 0.2991548 0.0713516
0.0867799 0.3096383 0.0716704
0.1248306 0.3244208 0.0707262
0.1677148 0.3395757 0.0690629
0.2199249 0.3596985 0.0653257
0.2727513 0.3804939 0.0699932
0.3235450 0.4002260 0.0756566
0.3682219 0.4192112 0.0811056
0.4118237 0.4369986 0.0862108
0.4593929 0.4572525 0.0926383
0.5037004 0.4751938 0.1053552
0.5501271 0.4935702 0.1186804
0.5940185 0.5129523 0.1312778
0.6375442 0.5303706 0.1437704
0.6819247 0.5497044 0.1565082
0.7237616 0.5679281 0.1685160
0.7637448 0.5842664 0.1799918
0.8009801 0.6002504 0.1906789
0.8350053 0.6162578 0.2004446
0.8583876 0.6285397 0.2071557
0.8820658 0.6419469 0.2139517
0.8972530 0.6542393 0.2274267
0.9121259 0.6642263 0.2452804
0.9215770 0.6730281 0.2634655
0.9311048 0.6841066 0.2832251
0.9388785 0.6922973 0.2992014
0.9456698 0.7026732 0.3175019
0.0506747 0.3131858 0.0760579
0.0506747 0.3131858 0.0760579
0.0506747 0.3131858 0.0760579
0.0506747 0.3131858 0.0760579
0.0506747 0.3131858 0.0760579
0.0509346 0.3140911 0.0757083
0.0537330 0.3238411 0.0766979
0.0888680 0.3344088 0.0766236
0.1278013 0.3485810 0.0766826
0.1754291 0.3665220 0.0750477
0.2288112 0.3874735 0.0719964
0.2818023 0.4081226 0.0779230
0.3318540 0.4279674 0.0836187
0.3759121 0.4481129 0.0894008
0.4211748 0.4670261 0.0948292
0.4680839 0.4862760 0.1003542
0.5135126 0.5053544 0.1081715
0.5611036 0.5245255 0.1218308
0.6035114 0.5444015 0.1340025
0.6480414 0.5627661 0.1467832
0.6903334 0.5803044 0.1589217
0.7352698 0.5982255 0.1718191
0.7764353 0.6168914 0.1836342
0.8134854 0.6311249 0.1942681
0.8450042 0.6471875 0.2033145
0.8708045 0.6600854 0.2107195
0.8912185 0.6716759 0.2249697
0.9057581 0.6815435 0.2408234
0.9207501 0.6918394 0.2585762
0.9298371 0.7008154 0.2767576
0.9385726 0.7097230 0.2949848
0.9451314 0.7178721 0.3114909
0.9522644 0.7262289 0.3282042
0.0580719 0.3389586 0.0819147
0.0580719 0.3389586 0.0819147
0.0580719 0.3389586 0.0819147
0.0580719 0.3389586 0.0819147
0.0580719 0.3389586 0.0819147
0.0580719 0.3389586 0.0819147
0.0601371 0.3461539 0.0829555
0.0888923 0.3585499 0.0840780
0.1306253 0.3735390 0.0844880
0.1798806 0.3912264 0.0847160
0.2333340 0.4128689 0.0837156
0.2879227 0.4348064 0.0855816
0.3370732 0.4551380 0.0914171
0.3826167 0.4747865 0.0970565
0.4275689 0.4939123 0.1025459
0.4756368 0.5146122 0.1084871
0.5225366 0.5340423 0.1140638
0.5687812 0.5534701 0.1240344
0.6142250 0.5728197 0.1370774
0.6573894 0.5909123 0.1494662
0.7005685 0.6091316 0.1618593
0.7462372 0.6279037 0.1749669
0.7840595 0.6425149 0.1858224
0.8221220 0.6584301 0.1967469
0.8532998 0.6729774 0.2065783
0.8789665 0.6860628 0.2236278
0.8965294 0.6949026 0.2394946
0.9147615 0.7057808 0.2546930
0.9261832 0.7154300 0.2727411
0.9367062 0.7249274 0.2909529
0.9435495 0.7309377 0.3055784
0.9511930 0.7398545 0.3246006
0.9571663 0.7477689 0.3395489
0.0648018 0.3624065 0.0920030
0.0648018 0.3624065 0.0920030
0.0648018 0.3624065 0.0920030
0.0648018 0.3624065 0.0920030
0.0648018 0.3624065 0.0920030
0.0648018 0.3624065 0.0920030
0.0663420 0.3677727 0.0920343
0.0864048 0.3810059 0.0954060
0.1318060 0.3958754 0.0978607
0.1838030 0.4157649 0.0988464
0.2393700 0.4368521 0.0991984
0.2930275 0.4590282 0.1024563
0.3414095 0.4796020 0.1056843
0.3869120 0.4990033 0.1082490
0.4330086 0.5193909 0.1152227
0.4826330 0.5406891 0.1224379
0.5280238 0.5585260 0.1295688
0.5753085 0.5782222 0.1362154
0.6217313 0.5977861 0.1456342
0.6625136 0.6142637 0.1597325
0.7063924 0.6327899 0.1718011
0.7527074 0.6518503 0.1847192
0.7941216 0.6672235 0.1969690
0.8293935 0.6827280 0.2100011
0.8603246 0.6951057 0.2239874
0.8834112 0.7073883 0.2386493
0.9031130 0.7172045 0.2562975
0.9194005 0.7274050 0.2692539
0.9317730 0.7350895 0.2854117
0.9408353 0.7444199 0.3041369
0.9488800 0.7508276 0.3189280
0.9566120 0.7596356 0.3360547
0.9616538 0.7653607 0.3517027
0.0712982 0.3850407 0.1049234
0.0712982 0.3850407 0.1049234
0.0712982 0.3850407 0.1049234
0.0713738 0.3853041 0.1059691
0.0713738 0.3853041 0.1059691
0.0713738 0.3853041 0.1059691
0.0719111 0.3871763 0.1064278
0.0821324 0.4009935 0.1096573
0.1312919 0.4166727 0.1135555
0.1862308 0.4359942 0.1163173
0.2443558 0.4598623 0.1194521
0.2977124 0.4814311 0.1219583
0.3454713 0.5017356 0.1254868
0.3901011 0.5216312 0.1317649
0.4377036 0.5407606 0.1383930
0.4867175 0.5612603 0.1427582
0.5330707 0.5816062 0.1519818
0.5809458 0.5999801 0.1593934
0.6256849 0.6190111 0.1679125
0.6701397 0.6386954 0.1824126
0.7145056 0.6555531 0.1935704
0.7586176 0.6739047 0.2048323
0.8006420 0.6892222 0.2145737
0.8355685 0.7028772 0.2277031
0.8672270 0.7174830 0.2409180
0.8920946 0.7283930 0.2555130
0.9096363 0.7393675 0.2706465
0.9249791 0.7477660 0.2865199
0.9370525 0.7550447 0.3007402
0.9461344 0.7639443 0.3175834
0.9543300 0.7727181 0.3348196
0.9615230 0.7790017 0.3503860
0.9652858 0.7845308 0.3665239
0.0781332 0.4088549 0.1233255
0.0781332 0.4088549 0.1233255
0.0781332 0.4088549 0.1233255
0.0781332 0.4088549 0.1233255
0.0781332 0.4088549 0.1233255
0.0781332 0.4088549 0.1233255
0.0781332 0.4088549 0.1233255
0.0818851 0.4219272 0.1265408
0.1293882 0.4388085 0.1315358
0.1882283 0.4584986 0.1342850
0.2472648 0.4812478 0.1394806
0.2998957 0.5022386 0.1421075
0.3486712 0.5234483 0.1486360
0.3951762 0.5436220 0.1539510
0.4425372 0.5639269 0.1591581
0.4924912 0.5836077 0.1662834
0.5400188 0.6040502 0.1739808
0.5862104 0.6222792 0.1831694
0.6316783 0.6419396 0.1932977
0.6741265 0.6587611 0.2047209
0.7196839 0.6774795 0.2133025
0.7639987 0.6937307 0.2227758
0.8036876 0.7106094 0.2345221
0.8419688 0.7247460 0.2446289
0.8728687 0.7372513 0.2582587
0.8982721 0.7497905 0.2700495
0.9152081 0.7587454 0.2857778
0.9303041 0.7672661 0.3020010
0.9425188 0.7765698 0.3162903
0.9511513 0.7831465 0.3314895
0.9590214 0.7918699 0.3492425
0.9650565 0.7975438 0.3628792
0.9697160 0.8033242 0.3792866
0.0856321 0.4349821 0.1434813
0.0856321 0.4349821 0.1434813
0.0856321 0.4349821 0.1434813
0.0856321 0.4349821 0.1434813
0.0856321 0.4349821 0.1434813
0.0856321 0.4349821 0.1434813
