data/spectral_luts/kodak_5222_polymax_grade_2.cube
TITLE "kodak_5222_polymax_grade_2"
LUT_3D_SIZE 33
0.0791492 0.0664052 0.0642635
0.0791492 0.0664052 0.0642635
0.0791492 0.0664052 0.0642635
0.0791492 0.0664052 0.0642635
0.0791492 0.0664052 0.0642635
0.0791492 0.0664052 0.0642635
0.0791492 0.0664052 0.0642635
0.0792238 0.0664727 0.0643298
0.0794941 0.0667173 0.0645701
0.0799086 0.0670924 0.0649386
0.0806738 0.0677849 0.0656189
0.0820731 0.0690513 0.0668628
0.0841361 0.0709183 0.0686970
0.0871335 0.0736309 0.0713617
0.0913288 0.0774277 0.0750915
0.0971039 0.0826542 0.0802258
0.1058153 0.0905380 0.0879706
0.1151831 0.0990159 0.0962989
0.1284613 0.1110326 0.1081036
0.1414196 0.1227599 0.1196240
0.1557699 0.1357470 0.1323820
0.1715590 0.1500361 0.1464190
0.1905413 0.1672152 0.1632950
0.2063508 0.1815227 0.1773502
0.2227926 0.1964026 0.1919676
0.2421192 0.2138931 0.2091496
0.2625219 0.2323576 0.2272883
0.2831360 0.2510134 0.2456150
0.2995706 0.2658867 0.2602259
0.3150648 0.2799090 0.2740009
0.3329409 0.2960869 0.2898933
0.3473785 0.3091529 0.3027289
0.3622150 0.3225800 0.3159190
0.0791492 0.0664052 0.0642635
0.0791492 0.0664052 0.0642635
0.0791492 0.0664052 0.0642635
0.0791492 0.0664052 0.0642635
0.0791492 0.0664052 0.0642635
0.0791492 0.0664052 0.0642635
0.0791824 0.0664352 0.0642929
0.0793072 0.0665482 0.0644039
0.0796260 0.0668366 0.0646873
0.0800935 0.0672598 0.0651030
0.0810580 0.0681326 0.0659604
0.0826067 0.0695342 0.0673373
0.0847426 0.0714672 0.0692361
0.0880263 0.0744389 0.0721555
0.0925070 0.0784939 0.0761389
0.0980414 0.0835026 0.0810593
0.1070711 0.0916745 0.0890870
0.1169832 0.1006450 0.0978993
0.1284613 0.1110326 0.1081036
0.1436923 0.1248167 0.1216445
0.1582953 0.1380325 0.1346271
0.1743372 0.1525504 0.1488890
0.1905413 0.1672152 0.1632950
0.2095587 0.1844259 0.1802022
0.2279390 0.2010600 0.1965428
0.2457562 0.2171846 0.2123830
0.2625219 0.2323576 0.2272883
0.2831360 0.2510134 0.2456150
0.3046618 0.2704943 0.2647522
0.3182636 0.2828040 0.2768447
0.3329409 0.2960869 0.2898933
0.3473785 0.3091529 0.3027289
0.3622150 0.3225800 0.3159190
0.0791492 0.0664052 0.0642635
0.0791492 0.0664052 0.0642635
0.0791492 0.0664052 0.0642635
0.0791492 0.0664052 0.0642635
0.0791492 0.0664052 0.0642635
0.0791658 0.0664202 0.0642782
0.0792353 0.0664831 0.0643400
0.0794678 0.0666935 0.0645466
0.0797760 0.0669724 0.0648207
0.0803306 0.0674743 0.0653137
0.0813804 0.0684244 0.0662471
0.0831845 0.0700571 0.0678510
0.0856012 0.0722442 0.0699995
0.0889248 0.0752521 0.0729543
0.0932265 0.0791451 0.0767787
0.0999337 0.0852152 0.0827416
0.1077615 0.0922993 0.0897008
0.1188024 0.1022913 0.0995165
0.1326394 0.1148139 0.1118182
0.1459912 0.1268973 0.1236884
0.1608695 0.1403621 0.1369157
0.1743372 0.1525504 0.1488890
0.1936325 0.1700127 0.1660432
0.2095587 0.1844259 0.1802022
0.2279390 0.2010600 0.1965428
0.2457562 0.2171846 0.2123830
0.2681259 0.2374293 0.2322705
0.2831360 0.2510134 0.2456150
0.3046618 0.2704943 0.2647522
0.3182636 0.2828040 0.2768447
0.3329409 0.2960869 0.2898933
0.3473785 0.3091529 0.3027289
0.3622150 0.3225800 0.3159190
0.0791492 0.0664052 0.0642635
0.0791492 0.0664052 0.0642635
0.0791492 0.0664052 0.0642635
0.0791492 0.0664052 0.0642635
0.0791741 0.0664277 0.0642856
0.0792238 0.0664727 0.0643298
0.0793791 0.0666132 0.0644678
0.0796788 0.0668844 0.0647342
0.0800935 0.0672598 0.0651030
0.0809042 0.0679934 0.0658237
0.0821723 0.0691411 0.0669511
0.0841361 0.0709183 0.0686970
0.0867410 0.0732758 0.0710129
0.0904887 0.0766674 0.0743446
0.0954063 0.0811179 0.0787166
0.1021060 0.0871811 0.0846728
0.1106722 0.0949335 0.0922885
0.1224987 0.1056365 0.1028027
0.1347640 0.1167366 0.1137070
0.1483719 0.1290518 0.1258049
0.1634936 0.1427369 0.1392486
0.1800957 0.1577619 0.1540085
0.1967626 0.1728454 0.1688260
0.2128061 0.1873648 0.1830892
0.2314226 0.2042127 0.1996399
0.2512954 0.2221976 0.2173075
0.2719167 0.2408600 0.2356407
0.2886211 0.2559775 0.2504914
0.3046618 0.2704943 0.2647522
0.3231138 0.2871933 0.2811567
0.3361039 0.2989494 0.2927053
0.3506376 0.3121024 0.3056263
0.3655831 0.3256281 0.3189134
0.0791492 0.0664052 0.0642635
0.0791658 0.0664202 0.0642782
0.0791824 0.0664352 0.0642929
0.0792155 0.0664652 0.0643224
0.0792892 0.0665319 0.0643879
0.0794678 0.0666935 0.0645466
0.0796788 0.0668844 0.0647342
0.0800462 0.0672169 0.0650609
0.0806738 0.0677849 0.0656189
0.0816768 0.0686927 0.0665106
0.0831845 0.0700571 0.0678510
0.0852233 0.0719022 0.0696635
0.0884749 0.0748449 0.0725543
0.0925070 0.0784939 0.0761389
0.0980414 0.0835026 0.0810593
0.1058153 0.0905380 0.0879706
0.1136349 0.0976147 0.0949224
0.1264072 0.1091737 0.1062775
0.1391729 0.1207267 0.1176267
0.1532745 0.1334886 0.1301635
0.1661497 0.1451407 0.1416100
0.1830290 0.1604164 0.1566162
0.1999322 0.1757139 0.1716438
0.2160933 0.1903397 0.1860116
0.2349492 0.2074043 0.2027752
0.2550448 0.2255908 0.2206409
0.2719167 0.2408600 0.2356407
0.2923272 0.2593315 0.2537863
0.3080966 0.2736028 0.2678059
0.3231138 0.2871933 0.2811567
0.3361039 0.2989494 0.2927053
0.3506376 0.3121024 0.3056263
0.3655831 0.3256281 0.3189134
0.0792713 0.0665156 0.0643720
0.0793252 0.0665644 0.0644199
0.0793791 0.0666132 0.0644678
0.0795205 0.0667412 0.0645935
0.0796524 0.0668605 0.0647108
0.0798755 0.0670624 0.0649091
0.0802357 0.0673884 0.0652293
0.0807506 0.0678544 0.0656871
0.0816768 0.0686927 0.0665106
0.0829531 0.0698477 0.0676452
0.0848946 0.0716047 0.0693713
0.0875792 0.0740343 0.0717580
0.0907682 0.0769203 0.0745931
0.0954063 0.0811179 0.0787166
0.1021060 0.0871811 0.0846728
0.1092104 0.0936105 0.0909889
0.1188024 0.1022913 0.0995165
0.1305386 0.1129126 0.1099505
0.1436923 0.1248167 0.1216445
0.1582953 0.1380325 0.1346271
0.1715590 0.1500361 0.1464190
0.1905413 0.1672152 0.1632950
0.2063508 0.1815227 0.1773502
0.2227926 0.1964026 0.1919676
0.2385193 0.2106352 0.2059491
0.2588400 0.2290255 0.2240150
0.2795279 0.2477481 0.2424073
0.2960733 0.2627217 0.2571167
0.3115642 0.2767410 0.2708887
0.3263822 0.2901512 0.2840624
0.3408966 0.3032869 0.2969663
0.3555594 0.3165567 0.3100020
0.3691173 0.3288265 0.3220554
0.0797097 0.0669124 0.0647617
0.0797760 0.0669724 0.0648207
0.0799086 0.0670924 0.0649386
0.0800462 0.0672169 0.0650609
0.0802831 0.0674313 0.0652715
0.0806738 0.0677849 0.0656189
0.0812890 0.0683417 0.0661658
0.0821723 0.0691411 0.0669511
0.0833004 0.0701620 0.0679540
0.0848946 0.0716047 0.0693713
0.0875792 0.0740343 0.0717580
0.0904887 0.0766674 0.0743446
0.0939496 0.0797995 0.0774215
0.0999337 0.0852152 0.0827416
0.1070711 0.0916745 0.0890870
0.1151831 0.0990159 0.0962989
0.1264072 0.1091737 0.1062775
0.1369519 0.1187166 0.1156521
0.1508086 0.1312570 0.1279712
0.1634936 0.1427369 0.1392486
0.1800957 0.1577619 0.1540085
0.1967626 0.1728454 0.1688260
0.2128061 0.1873648 0.1830892
0.2279390 0.2010600 0.1965428
0.2457562 0.2171846 0.2123830
0.2681259 0.2374293 0.2322705
0.2831360 0.2510134 0.2456150
0.2995706 0.2658867 0.2602259
0.3150648 0.2799090 0.2740009
0.3296788 0.2931347 0.2869931
0.3441244 0.3062080 0.2998359
0.3588739 0.3195563 0.3129487
0.3744744 0.3336748 0.3268181
0.0805205 0.0676462 0.0654825
0.0807506 0.0678544 0.0656871
0.0809042 0.0679934 0.0658237
0.0812890 0.0683417 0.0661658
0.0816768 0.0686927 0.0665106
0.0823762 0.0693256 0.0671324
0.0831845 0.0700571 0.0678510
0.0844390 0.0711924 0.0689663
0.0859801 0.0725871 0.0703363
0.0884749 0.0748449 0.0725543
0.0907682 0.0769203 0.0745931
0.0946762 0.0804571 0.0780675
0.0989847 0.0843563 0.0818979
0.1058153 0.0905380 0.0879706
0.1136349 0.0976147 0.0949224
0.1224987 0.1056365 0.1028027
0.1347640 0.1167366 0.1137070
0.1459912 0.1268973 0.1236884
0.1582953 0.1380325 0.1346271
0.1715590 0.1500361 0.1464190
0.1859987 0.1631041 0.1592565
0.2031416 0.1786184 0.1744971
0.2194208 0.1933511 0.1889699
0.2349492 0.2074043 0.2027752
0.2550448 0.2255908 0.2206409
0.2719167 0.2408600 0.2356407
0.2923272 0.2593315 0.2537863
0.3080966 0.2736028 0.2678059
0.3231138 0.2871933 0.2811567
0.3361039 0.2989494 0.2927053
0.3473785 0.3091529 0.3027289
0.3622150 0.3225800 0.3159190
0.3780833 0.3369408 0.3300265
0.0826067 0.0695342 0.0673373
0.0827221 0.0696386 0.0674398
0.0831845 0.0700571 0.0678510
0.0835323 0.0703719 0.0681602
0.0841361 0.0709183 0.0686970
0.0848946 0.0716047 0.0693713
0.0863601 0.0729310 0.0706742
0.0880263 0.0744389 0.0721555
0.0899313 0.0761630 0.0738491
0.0925070 0.0784939 0.0761389
0.0961722 0.0818110 0.0793975
0.0999337 0.0852152 0.0827416
0.1070711 0.0916745 0.0890870
0.1136349 0.0976147 0.0949224
0.1224987 0.1056365 0.1028027
0.1326394 0.1148139 0.1118182
0.1436923 0.1248167 0.1216445
0.1557699 0.1357470 0.1323820
0.1688380 0.1475736 0.1440000
0.1800957 0.1577619 0.1540085
0.1967626 0.1728454 0.1688260
0.2128061 0.1873648 0.1830892
0.2279390 0.2010600 0.1965428
0.2457562 0.2171846 0.2123830
0.2625219 0.2323576 0.2272883
0.2795279 0.2477481 0.2424073
0.2960733 0.2627217 0.2571167
0.3115642 0.2767410 0.2708887
0.3263822 0.2901512 0.2840624
0.3408966 0.3032869 0.2969663
0.3555594 0.3165567 0.3100020
0.3655831 0.3256281 0.3189134
0.3817226 0.3402343 0.3332620
0.0859801 0.0725871 0.0703363
0.0863601 0.0729310 0.0706742
0.0867410 0.0732758 0.0710129
0.0875792 0.0740343 0.0717580
0.0884749 0.0748449 0.0725543
0.0893761 0.0756605 0.0733555
0.0907682 0.0769203 0.0745931
0.0925070 0.0784939 0.0761389
0.0954063 0.0811179 0.0787166
0.0989847 0.0843563 0.0818979
0.1033328 0.0882914 0.0857635
0.1077615 0.0922993 0.0897008
0.1151831 0.0990159 0.0962989
0.1224987 0.1056365 0.1028027
0.1326394 0.1148139 0.1118182
0.1436923 0.1248167 0.1216445
0.1532745 0.1334886 0.1301635
0.1661497 0.1451407 0.1416100
0.1771987 0.1551400 0.1514329
0.1936325 0.1700127 0.1660432
0.2063508 0.1815227 0.1773502
0.2227926 0.1964026 0.1919676
0.2385193 0.2106352 0.2059491
0.2550448 0.2255908 0.2206409
0.2719167 0.2408600 0.2356407
0.2886211 0.2559775 0.2504914
0.3046618 0.2704943 0.2647522
0.3182636 0.2828040 0.2768447
0.3329409 0.2960869 0.2898933
0.3473785 0.3091529 0.3027289
0.3588739 0.3195563 0.3129487
0.3744744 0.3336748 0.3268181
0.3854570 0.3436140 0.3365820
0.0907682 0.0769203 0.0745931
0.0913288 0.0774277 0.0750915
0.0918915 0.0779370 0.0755918
0.0925070 0.0784939 0.0761389
0.0939496 0.0797995 0.0774215
0.0954063 0.0811179 0.0787166
0.0980414 0.0835026 0.0810593
0.0999337 0.0852152 0.0827416
0.1045693 0.0894103 0.0868628
0.1077615 0.0922993 0.0897008
0.1136349 0.0976147 0.0949224
0.1188024 0.1022913 0.0995165
0.1264072 0.1091737 0.1062775
0.1347640 0.1167366 0.1137070
0.1459912 0.1268973 0.1236884
0.1557699 0.1357470 0.1323820
0.1661497 0.1451407 0.1416100
0.1771987 0.1551400 0.1514329
0.1905413 0.1672152 0.1632950
0.2063508 0.1815227 0.1773502
0.2194208 0.1933511 0.1889699
0.2349492 0.2074043 0.2027752
0.2512954 0.2221976 0.2173075
0.2681259 0.2374293 0.2322705
0.2831360 0.2510134 0.2456150
0.2995706 0.2658867 0.2602259
0.3115642 0.2767410 0.2708887
0.3263822 0.2901512 0.2840624
0.3408966 0.3032869 0.2969663
0.3506376 0.3121024 0.3056263
0.3655831 0.3256281 0.3189134
0.3780833 0.3369408 0.3300265
0.3952634 0.3524888 0.3453003
0.0989847 0.0843563 0.0818979
0.0999337 0.0852152 0.0827416
0.1008887 0.0860794 0.0835906
0.1021060 0.0871811 0.0846728
0.1033328 0.0882914 0.0857635
0.1058153 0.0905380 0.0879706
0.1077615 0.0922993 0.0897008
0.1106722 0.0949335 0.0922885
0.1151831 0.0990159 0.0962989
0.1206408 0.1039551 0.1011509
0.1264072 0.1091737 0.1062775
0.1326394 0.1148139 0.1118182
0.1414196 0.1227599 0.1196240
0.1483719 0.1290518 0.1258049
0.1582953 0.1380325 0.1346271
0.1688380 0.1475736 0.1440000
0.1800957 0.1577619 0.1540085
0.1936325 0.1700127 0.1660432
0.2063508 0.1815227 0.1773502
0.2160933 0.1903397 0.1860116
0.2314226 0.2042127 0.1996399
0.2457562 0.2171846 0.2123830
0.2625219 0.2323576 0.2272883
0.2795279 0.2477481 0.2424073
0.2923272 0.2593315 0.2537863
0.3080966 0.2736028 0.2678059
0.3231138 0.2871933 0.2811567
0.3329409 0.2960869 0.2898933
0.3473785 0.3091529 0.3027289
0.3588739 0.3195563 0.3129487
0.3744744 0.3336748 0.3268181
0.3854570 0.3436140 0.3365820
0.3992469 0.3560939 0.3488417
0.1106722 0.0949335 0.0922885
0.1121469 0.0962681 0.0935996
0.1121469 0.0962681 0.0935996
0.1136349 0.0976147 0.0949224
0.1151831 0.0990159 0.0962989
0.1188024 0.1022913 0.0995165
0.1224987 0.1056365 0.1028027
0.1264072 0.1091737 0.1062775
0.1305386 0.1129126 0.1099505
0.1347640 0.1167366 0.1137070
0.1414196 0.1227599 0.1196240
0.1483719 0.1290518 0.1258049
0.1557699 0.1357470 0.1323820
0.1634936 0.1427369 0.1392486
0.1743372 0.1525504 0.1488890
0.1830290 0.1604164 0.1566162
0.1967626 0.1728454 0.1688260
0.2063508 0.1815227 0.1773502
0.2194208 0.1933511 0.1889699
0.2314226 0.2042127 0.1996399
0.2457562 0.2171846 0.2123830
0.2625219 0.2323576 0.2272883
0.2757520 0.2443309 0.2390504
0.2923272 0.2593315 0.2537863
0.3046618 0.2704943 0.2647522
0.3182636 0.2828040 0.2768447
0.3296788 0.2931347 0.2869931
0.3441244 0.3062080 0.2998359
0.3555594 0.3165567 0.3100020
0.3655831 0.3256281 0.3189134
0.3817226 0.3402343 0.3332620
0.3952634 0.3524888 0.3453003
0.4094524 0.3653299 0.3579148
0.1264072 0.1091737 0.1062775
0.1284613 0.1110326 0.1081036
0.1284613 0.1110326 0.1081036
0.1305386 0.1129126 0.1099505
0.1326394 0.1148139 0.1118182
0.1347640 0.1167366 0.1137070
0.1391729 0.1207267 0.1176267
0.1414196 0.1227599 0.1196240
0.1459912 0.1268973 0.1236884
0.1532745 0.1334886 0.1301635
0.1582953 0.1380325 0.1346271
0.1661497 0.1451407 0.1416100
0.1715590 0.1500361 0.1464190
0.1800957 0.1577619 0.1540085
0.1905413 0.1672152 0.1632950
0.1999322 0.1757139 0.1716438
0.2128061 0.1873648 0.1830892
0.2227926 0.1964026 0.1919676
0.2349492 0.2074043 0.2027752
0.2512954 0.2221976 0.2173075
0.2625219 0.2323576 0.2272883
0.2757520 0.2443309 0.2390504
0.2923272 0.2593315 0.2537863
0.3046618 0.2704943 0.2647522
0.3150648 0.2799090 0.2740009
0.3296788 0.2931347 0.2869931
0.3408966 0.3032869 0.2969663
0.3506376 0.3121024 0.3056263
0.3622150 0.3225800 0.3159190
0.3780833 0.3369408 0.3300265
0.3913150 0.3489155 0.3417900
0.4032656 0.3597308 0.3524145
0.4178674 0.3729455 0.3653961
0.1459912 0.1268973 0.1236884
0.1459912 0.1268973 0.1236884
0.1483719 0.1290518 0.1258049
0.1483719 0.1290518 0.1258049
0.1508086 0.1312570 0.1279712
0.1532745 0.1334886 0.1301635
0.1582953 0.1380325 0.1346271
0.1608695 0.1403621 0.1369157
0.1661497 0.1451407 0.1416100
0.1715590 0.1500361 0.1464190
0.1771987 0.1551400 0.1514329
0.1830290 0.1604164 0.1566162
0.1936325 0.1700127 0.1660432
0.1999322 0.1757139 0.1716438
0.2095587 0.1844259 0.1802022
0.2194208 0.1933511 0.1889699
0.2314226 0.2042127 0.1996399
0.2421192 0.2138931 0.2091496
0.2550448 0.2255908 0.2206409
0.2681259 0.2374293 0.2322705
0.2795279 0.2477481 0.2424073
0.2923272 0.2593315 0.2537863
0.3046618 0.2704943 0.2647522
0.3150648 0.2799090 0.2740009
0.3263822 0.2901512 0.2840624
0.3408966 0.3032869 0.2969663
0.3506376 0.3121024 0.3056263
0.3622150 0.3225800 0.3159190
0.3744744 0.3336748 0.3268181
0.3854570 0.3436140 0.3365820
0.3992469 0.3560939 0.3488417
0.4136410 0.3691205 0.3616386
0.4286033 0.3826615 0.3749406
0.1661497 0.1451407 0.1416100
0.1661497 0.1451407 0.1416100
0.1688380 0.1475736 0.1440000
0.1688380 0.1475736 0.1440000
0.1715590 0.1500361 0.1464190
0.1743372 0.1525504 0.1488890
0.1771987 0.1551400 0.1514329
0.1800957 0.1577619 0.1540085
0.1859987 0.1631041 0.1592565
0.1936325 0.1700127 0.1660432
0.1967626 0.1728454 0.1688260
0.2031416 0.1786184 0.1744971
0.2128061 0.1873648 0.1830892
0.2194208 0.1933511 0.1889699
0.2279390 0.2010600 0.1965428
0.2385193 0.2106352 0.2059491
0.2512954 0.2221976 0.2173075
0.2588400 0.2290255 0.2240150
0.2719167 0.2408600 0.2356407
0.2831360 0.2510134 0.2456150
0.2960733 0.2627217 0.2571167
0.3080966 0.2736028 0.2678059
0.3182636 0.2828040 0.2768447
0.3296788 0.2931347 0.2869931
0.3408966 0.3032869 0.2969663
0.3506376 0.3121024 0.3056263
0.3622150 0.3225800 0.3159190
0.3744744 0.3336748 0.3268181
0.3817226 0.3402343 0.3332620
0.3952634 0.3524888 0.3453003
0.4094524 0.3653299 0.3579148
0.4221319 0.3768048 0.3691873
0.4373756 0.3906004 0.3827395
0.1859987 0.1631041 0.1592565
0.1905413 0.1672152 0.1632950
0.1905413 0.1672152 0.1632950
0.1936325 0.1700127 0.1660432
0.1936325 0.1700127 0.1660432
0.1967626 0.1728454 0.1688260
0.1999322 0.1757139 0.1716438
0.2031416 0.1786184 0.1744971
0.2095587 0.1844259 0.1802022
0.2128061 0.1873648 0.1830892
0.2194208 0.1933511 0.1889699
0.2279390 0.2010600 0.1965428
0.2349492 0.2074043 0.2027752
0.2421192 0.2138931 0.2091496
0.2512954 0.2221976 0.2173075
0.2588400 0.2290255 0.2240150
0.2719167 0.2408600 0.2356407
0.2795279 0.2477481 0.2424073
0.2923272 0.2593315 0.2537863
0.2995706 0.2658867 0.2602259
0.3115642 0.2767410 0.2708887
0.3231138 0.2871933 0.2811567
0.3296788 0.2931347 0.2869931
0.3408966 0.3032869 0.2969663
0.3506376 0.3121024 0.3056263
0.3622150 0.3225800 0.3159190
0.3744744 0.3336748 0.3268181
0.3817226 0.3402343 0.3332620
0.3952634 0.3524888 0.3453003
0.4094524 0.3653299 0.3579148
0.4221319 0.3768048 0.3691873
0.4329698 0.3866132 0.3788226
0.4485650 0.4007268 0.3926873
0.2128061 0.1873648 0.1830892
0.2128061 0.1873648 0.1830892
0.2128061 0.1873648 0.1830892
0.2160933 0.1903397 0.1860116
0.2160933 0.1903397 0.1860116
0.2194208 0.1933511 0.1889699
0.2227926 0.1964026 0.1919676
0.2279390 0.2010600 0.1965428
0.2314226 0.2042127 0.1996399
0.2349492 0.2074043 0.2027752
0.2421192 0.2138931 0.2091496
0.2457562 0.2171846 0.2123830
0.2550448 0.2255908 0.2206409
0.2625219 0.2323576 0.2272883
0.2719167 0.2408600 0.2356407
0.2795279 0.2477481 0.2424073
0.2886211 0.2559775 0.2504914
0.2995706 0.2658867 0.2602259
0.3080966 0.2736028 0.2678059
0.3182636 0.2828040 0.2768447
0.3263822 0.2901512 0.2840624
0.3361039 0.2989494 0.2927053
0.3441244 0.3062080 0.2998359
0.3555594 0.3165567 0.3100020
0.3622150 0.3225800 0.3159190
0.3744744 0.3336748 0.3268181
0.3854570 0.3436140 0.3365820
0.3952634 0.3524888 0.3453003
0.4094524 0.3653299 0.3579148
0.4221319 0.3768048 0.3691873
0.4329698 0.3866132 0.3788226
0.4485650 0.4007268 0.3926873
0.4575594 0.4088668 0.4006836
0.2349492 0.2074043 0.2027752
0.2385193 0.2106352 0.2059491
0.2385193 0.2106352 0.2059491
0.2385193 0.2106352 0.2059491
0.2421192 0.2138931 0.2091496
0.2421192 0.2138931 0.2091496
0.2457562 0.2171846 0.2123830
0.2512954 0.2221976 0.2173075
0.2550448 0.2255908 0.2206409
0.2588400 0.2290255 0.2240150
0.2681259 0.2374293 0.2322705
0.2719167 0.2408600 0.2356407
0.2795279 0.2477481 0.2424073
0.2831360 0.2510134 0.2456150
0.2923272 0.2593315 0.2537863
0.2995706 0.2658867 0.2602259
0.3080966 0.2736028 0.2678059
0.3150648 0.2799090 0.2740009
0.3263822 0.2901512 0.2840624
0.3329409 0.2960869 0.2898933
0.3408966 0.3032869 0.2969663
0.3473785 0.3091529 0.3027289
0.3588739 0.3195563 0.3129487
0.3655831 0.3256281 0.3189134
0.3780833 0.3369408 0.3300265
0.3854570 0.3436140 0.3365820
0.3992469 0.3560939 0.3488417
0.4094524 0.3653299 0.3579148
0.4221319 0.3768048 0.3691873
0.4329698 0.3866132 0.3788226
0.4485650 0.4007268 0.3926873
0.4575594 0.4088668 0.4006836
0.4736415 0.4234211 0.4149812
0.2625219 0.2323576 0.2272883
0.2625219 0.2323576 0.2272883
0.2625219 0.2323576 0.2272883
0.2681259 0.2374293 0.2322705
0.2681259 0.2374293 0.2322705
0.2719167 0.2408600 0.2356407
0.2719167 0.2408600 0.2356407
0.2757520 0.2443309 0.2390504
0.2795279 0.2477481 0.2424073
0.2831360 0.2510134 0.2456150
0.2886211 0.2559775 0.2504914
0.2960733 0.2627217 0.2571167
0.2995706 0.2658867 0.2602259
0.3080966 0.2736028 0.2678059
0.3115642 0.2767410 0.2708887
0.3182636 0.2828040 0.2768447
0.3263822 0.2901512 0.2840624
0.3329409 0.2960869 0.2898933
0.3408966 0.3032869 0.2969663
0.3473785 0.3091529 0.3027289
0.3555594 0.3165567 0.3100020
0.3622150 0.3225800 0.3159190
0.3744744 0.3336748 0.3268181
0.3817226 0.3402343 0.3332620
0.3913150 0.3489155 0.3417900
0.3992469 0.3560939 0.3488417
0.4136410 0.3691205 0.3616386
0.4221319 0.3768048 0.3691873
0.4373756 0.3906004 0.3827395
0.4485650 0.4007268 0.3926873
0.4575594 0.4088668 0.4006836
0.4736415 0.4234211 0.4149812
0.4827845 0.4316955 0.4231097
0.2886211 0.2559775 0.2504914
0.2886211 0.2559775 0.2504914
0.2886211 0.2559775 0.2504914
0.2923272 0.2593315 0.2537863
0.2923272 0.2593315 0.2537863
0.2960733 0.2627217 0.2571167
0.2960733 0.2627217 0.2571167
0.2995706 0.2658867 0.2602259
0.3046618 0.2704943 0.2647522
0.3080966 0.2736028 0.2678059
0.3115642 0.2767410 0.2708887
0.3150648 0.2799090 0.2740009
0.3182636 0.2828040 0.2768447
0.3263822 0.2901512 0.2840624
0.3296788 0.2931347 0.2869931
0.3361039 0.2989494 0.2927053
0.3441244 0.3062080 0.2998359
0.3473785 0.3091529 0.3027289
0.3555594 0.3165567 0.3100020
0.3622150 0.3225800 0.3159190
0.3691173 0.3288265 0.3220554
0.3780833 0.3369408 0.3300265
0.3854570 0.3436140 0.3365820
0.3952634 0.3524888 0.3453003
0.4094524 0.3653299 0.3579148
0.4178674 0.3729455 0.3653961
0.4286033 0.3826615 0.3749406
0.4373756 0.3906004 0.3827395
0.4485650 0.4007268 0.3926873
0.4621102 0.4129852 0.4047295
0.4736415 0.4234211 0.4149812
0.4827845 0.4316955 0.4231097
0.4991187 0.4464780 0.4376314
0.3115642 0.2767410 0.2708887
0.3115642 0.2767410 0.2708887
0.3115642 0.2767410 0.2708887
0.3150648 0.2799090 0.2740009
0.3150648 0.2799090 0.2740009
0.3150648 0.2799090 0.2740009
0.3182636 0.2828040 0.2768447
0.3231138 0.2871933 0.2811567
0.3231138 0.2871933 0.2811567
0.3263822 0.2901512 0.2840624
0.3296788 0.2931347 0.2869931
0.3329409 0.2960869 0.2898933
0.3408966 0.3032869 0.2969663
0.3441244 0.3062080 0.2998359
0.3473785 0.3091529 0.3027289
0.3555594 0.3165567 0.3100020
0.3588739 0.3195563 0.3129487
0.3655831 0.3256281 0.3189134
0.3744744 0.3336748 0.3268181
0.3780833 0.3369408 0.3300265
0.3854570 0.3436140 0.3365820
0.3952634 0.3524888 0.3453003
0.4032656 0.3597308 0.3524145
0.4136410 0.3691205 0.3616386
0.4221319 0.3768048 0.3691873
0.4329698 0.3866132 0.3788226
0.4418212 0.3946237 0.3866918
0.4530487 0.4047845 0.3966734
0.4621102 0.4129852 0.4047295
0.4781934 0.4275405 0.4190280
0.4874153 0.4358863 0.4272265
0.4991187 0.4464780 0.4376314
0.5085058 0.4549733 0.4459768
0.3329409 0.2960869 0.2898933
0.3329409 0.2960869 0.2898933
0.3329409 0.2960869 0.2898933
0.3329409 0.2960869 0.2898933
0.3329409 0.2960869 0.2898933
0.3361039 0.2989494 0.2927053
0.3361039 0.2989494 0.2927053
0.3408966 0.3032869 0.2969663
0.3441244 0.3062080 0.2998359
0.3441244 0.3062080 0.2998359
0.3473785 0.3091529 0.3027289
0.3506376 0.3121024 0.3056263
0.3555594 0.3165567 0.3100020
0.3622150 0.3225800 0.3159190
0.3655831 0.3256281 0.3189134
0.3691173 0.3288265 0.3220554
0.3780833 0.3369408 0.3300265
0.3817226 0.3402343 0.3332620
0.3913150 0.3489155 0.3417900
0.3952634 0.3524888 0.3453003
0.4032656 0.3597308 0.3524145
0.4136410 0.3691205 0.3616386
0.4221319 0.3768048 0.3691873
0.4329698 0.3866132 0.3788226
0.4373756 0.3906004 0.3827395
0.4485650 0.4007268 0.3926873
0.4575594 0.4088668 0.4006836
0.4667015 0.4171404 0.4088113
0.4781934 0.4275405 0.4190280
0.4874153 0.4358863 0.4272265
0.4991187 0.4464780 0.4376314
0.5132588 0.4592747 0.4502023
0.5252588 0.4701348 0.4608708
0.3506376 0.3121024 0.3056263
0.3506376 0.3121024 0.3056263
0.3506376 0.3121024 0.3056263
0.3506376 0.3121024 0.3056263
0.3555594 0.3165567 0.3100020
0.3555594 0.3165567 0.3100020
0.3588739 0.3195563 0.3129487
0.3588739 0.3195563 0.3129487
0.3622150 0.3225800 0.3159190
0.3655831 0.3256281 0.3189134
0.3655831 0.3256281 0.3189134
0.3691173 0.3288265 0.3220554
0.3744744 0.3336748 0.3268181
0.3780833 0.3369408 0.3300265
0.3817226 0.3402343 0.3332620
0.3913150 0.3489155 0.3417900
0.3952634 0.3524888 0.3453003
0.3992469 0.3560939 0.3488417
0.4094524 0.3653299 0.3579148
0.4136410 0.3691205 0.3616386
0.4221319 0.3768048 0.3691873
0.4329698 0.3866132 0.3788226
0.4373756 0.3906004 0.3827395
0.4485650 0.4007268 0.3926873
0.4575594 0.4088668 0.4006836
0.4667015 0.4171404 0.4088113
0.4781934 0.4275405 0.4190280
0.4827845 0.4316955 0.4231097
0.4944361 0.4422402 0.4334683
0.5037926 0.4507079 0.4417866
0.5132588 0.4592747 0.4502023
0.5252588 0.4701348 0.4608708
0.5349456 0.4789014 0.4694827
0.3691173 0.3288265 0.3220554
0.3691173 0.3288265 0.3220554
0.3691173 0.3288265 0.3220554
0.3744744 0.3336748 0.3268181
0.3744744 0.3336748 0.3268181
0.3744744 0.3336748 0.3268181
