data/spectral_luts/kodak_5222_2302_dev_5.cube
TITLE "kodak_5222_2302_dev_5"
LUT_3D_SIZE 5
0.0449209 0.0355296 0.0340438
0.0523597 0.0421606 0.0404466
0.1217012 0.1049148 0.1020937
0.2151747 0.1895084 0.1851950
0.3372875 0.3000206 0.2937576
0.0744385 0.0621420 0.0600755
0.0996377 0.0849473 0.0824784
0.1545062 0.1346033 0.1312585
0.2451871 0.2166697 0.2118771
0.3579512 0.3187212 0.3121284
0.1874684 0.1644341 0.1605631
0.2055752 0.1808208 0.1766606
0.2504251 0.2214100 0.2165338
0.3239629 0.2879618 0.2819116
0.4165158 0.3717223 0.3641944
0.3440579 0.3061478 0.2997767
0.3579512 0.3187212 0.3121284
0.3866256 0.3446716 0.3376209
0.4397896 0.3927850 0.3848856
0.5128909 0.4589418 0.4498753
0.5087668 0.4552094 0.4462088
0.5128909 0.4589418 0.4498753
0.5339684 0.4780170 0.4686140
0.5680612 0.5088710 0.4989237
0.6160203 0.5522740 0.5415609
0.1229468 0.1060420 0.1032011
0.1384007 0.1200278 0.1169402
0.1896439 0.1664030 0.1624972
0.2751349 0.2437724 0.2385017
0.3794180 0.3381487 0.3312131
0.1545062 0.1346033 0.1312585
0.1727713 0.1511332 0.1474968
0.2200519 0.1939223 0.1895310
0.2986553 0.2650584 0.2594122
0.4014012 0.3580435 0.3507569
0.2504251 0.2214100 0.2165338
0.2639234 0.2336260 0.2285343
0.3017108 0.2678236 0.2621286
0.3686877 0.3284378 0.3216735
0.4557400 0.4072202 0.3990661
0.3866256 0.3446716 0.3376209
0.4014012 0.3580435 0.3507569
0.4280125 0.3821268 0.3744154
0.4717917 0.4217470 0.4133366
0.5381718 0.4818211 0.4723509
0.5339684 0.4780170 0.4686140
0.5381718 0.4818211 0.4723509
0.5550714 0.4971152 0.4873752
0.5897691 0.5285166 0.5182227
0.6291004 0.5641115 0.5531897
0.3174656 0.2820817 0.2761352
0.3272540 0.2909403 0.2848375
0.3614995 0.3219325 0.3152829
0.4203174 0.3751627 0.3675741
0.4925674 0.4405491 0.4318070
0.3406583 0.3030712 0.2967544
0.3474869 0.3092510 0.3028252
0.3830070 0.3413967 0.3344038
0.4358324 0.3892038 0.3813675
0.5087668 0.4552094 0.4462088
0.4051716 0.3614557 0.3541090
0.4127447 0.3683094 0.3608418
0.4397896 0.3927850 0.3848856
0.4883478 0.4367302 0.4280556
0.5465623 0.4894144 0.4798103
0.4965731 0.4441741 0.4353682
0.5087668 0.4552094 0.4462088
0.5254451 0.4703034 0.4610364
0.5593710 0.5010063 0.4911977
0.6115720 0.5482483 0.5376063
0.6071532 0.5442492 0.5336778
0.6115720 0.5482483 0.5376063
0.6250061 0.5604061 0.5495497
0.6499453 0.5829762 0.5717216
0.6787291 0.6090256 0.5973114
0.5381718 0.4818211 0.4723509
0.5423523 0.4856044 0.4760675
0.5593710 0.5010063 0.4911977
0.5897691 0.5285166 0.5182227
0.6332195 0.5678393 0.5568517
0.5465623 0.4894144 0.4798103
0.5508019 0.4932513 0.4835795
0.5724524 0.5128450 0.5028276
0.6027637 0.5402768 0.5297754
0.6457261 0.5791578 0.5679706
0.5812489 0.5208058 0.5106480
0.5854948 0.5246484 0.5144227
0.6027637 0.5402768 0.5297754
0.6291004 0.5641115 0.5531897
0.6670775 0.5984808 0.5869527
0.6415321 0.5753622 0.5642419
0.6415321 0.5753622 0.5642419
0.6541898 0.5868175 0.5754951
0.6748854 0.6055470 0.5938942
0.7022205 0.6302853 0.6181961
0.7022205 0.6302853 0.6181961
0.7022205 0.6302853 0.6181961
0.7100843 0.6374020 0.6251873
0.7247049 0.6506337 0.6381855
0.7433742 0.6675294 0.6547831
0.7022205 0.6302853 0.6181961
0.7062082 0.6338942 0.6217413
0.7137135 0.6406865 0.6284138
0.7247049 0.6506337 0.6381855
0.7471613 0.6709568 0.6581501
0.7062082 0.6338942 0.6217413
0.7100843 0.6374020 0.6251873
0.7173600 0.6439865 0.6316556
0.7321196 0.6573440 0.6447775
0.7506635 0.6741262 0.6612636
0.7210237 0.6473023 0.6349128
0.7247049 0.6506337 0.6381855
0.7321196 0.6573440 0.6447775
0.7433742 0.6675294 0.6547831
0.7612619 0.6837178 0.6706860
0.7471613 0.6709568 0.6581501
0.7506635 0.6741262 0.6612636
0.7541809 0.6773095 0.6643907
0.7648258 0.6869431 0.6738544
0.7792369 0.6999851 0.6866664
0.7792369 0.6999851 0.6866664
0.7792369 0.6999851 0.6866664
0.7864052 0.7064725 0.6930393
0.7933692 0.7127749 0.6992305
0.8074704 0.7255366 0.7117670
