data/spectral_luts/kodak_5222_2302_dev_5.cube
TITLE "kodak_5222_2302_dev_5"
LUT_3D_SIZE 33
0.0449209 0.0355296 0.0340438
0.0449209 0.0355296 0.0340438
0.0449209 0.0355296 0.0340438
0.0449209 0.0355296 0.0340438
0.0449209 0.0355296 0.0340438
0.0449209 0.0355296 0.0340438
0.0449209 0.0355296 0.0340438
0.0478923 0.0381183 0.0365243
0.0523597 0.0421606 0.0404466
0.0580310 0.0472932 0.0454886
0.0644441 0.0530971 0.0511901
0.0725380 0.0604221 0.0583859
0.0820848 0.0690619 0.0668733
0.0925040 0.0784912 0.0761363
0.1027172 0.0877342 0.0852163
0.1123840 0.0964827 0.0938103
0.1217012 0.1049148 0.1020937
0.1311713 0.1134853 0.1105130
0.1430834 0.1242656 0.1211032
0.1527916 0.1330516 0.1297342
0.1634264 0.1426761 0.1391889
0.1768771 0.1548490 0.1511470
0.1896439 0.1664030 0.1624972
0.2032290 0.1786975 0.1745748
0.2151747 0.1895084 0.1851950
0.2298468 0.2027866 0.1982390
0.2451871 0.2166697 0.2118771
0.2611768 0.2311403 0.2260925
0.2751349 0.2437724 0.2385017
0.2866928 0.2542323 0.2487771
0.3048033 0.2706224 0.2648780
0.3207001 0.2850090 0.2790108
0.3372875 0.3000206 0.2937576
0.0449209 0.0355296 0.0340438
0.0449209 0.0355296 0.0340438
0.0449209 0.0355296 0.0340438
0.0449209 0.0355296 0.0340438
0.0449209 0.0355296 0.0340438
0.0449209 0.0355296 0.0340438
0.0460991 0.0365433 0.0350151
0.0497174 0.0397612 0.0380985
0.0544457 0.0440485 0.0423012
0.0603946 0.0494322 0.0475899
0.0670025 0.0554123 0.0534645
0.0744385 0.0621420 0.0600755
0.0844041 0.0711608 0.0689352
0.0948445 0.0806095 0.0782172
0.1048043 0.0896230 0.0870717
0.1135212 0.0975119 0.0948214
0.1229468 0.1060420 0.1032011
0.1325787 0.1147589 0.1117641
0.1430834 0.1242656 0.1211032
0.1545062 0.1346033 0.1312585
0.1652554 0.1443314 0.1408149
0.1789577 0.1567319 0.1529967
0.1896439 0.1664030 0.1624972
0.2055752 0.1808208 0.1766606
0.2200519 0.1939223 0.1895310
0.2323495 0.2050516 0.2004640
0.2451871 0.2166697 0.2118771
0.2611768 0.2311403 0.2260925
0.2779871 0.2463537 0.2410374
0.2926226 0.2595988 0.2540489
0.3048033 0.2706224 0.2648780
0.3207001 0.2850090 0.2790108
0.3372875 0.3000206 0.2937576
0.0449209 0.0355296 0.0340438
0.0449209 0.0355296 0.0340438
0.0449209 0.0355296 0.0340438
0.0449209 0.0355296 0.0340438
0.0449209 0.0355296 0.0340438
0.0455082 0.0360328 0.0345260
0.0484971 0.0386582 0.0370416
0.0523597 0.0421606 0.0404466
0.0565722 0.0459730 0.0441917
0.0619977 0.0508830 0.0490151
0.0688204 0.0570576 0.0550808
0.0775615 0.0649683 0.0628519
0.0879319 0.0743535 0.0720716
0.0972223 0.0827613 0.0803310
0.1058581 0.0905767 0.0880086
0.1158189 0.0995913 0.0968641
0.1242919 0.1072593 0.1043969
0.1339965 0.1160420 0.1130246
0.1462680 0.1271477 0.1239344
0.1562606 0.1361910 0.1328182
0.1670999 0.1460006 0.1424547
0.1789577 0.1567319 0.1529967
0.1918392 0.1683897 0.1644488
0.2055752 0.1808208 0.1766606
0.2200519 0.1939223 0.1895310
0.2323495 0.2050516 0.2004640
0.2477949 0.2190296 0.2141954
0.2611768 0.2311403 0.2260925
0.2779871 0.2463537 0.2410374
0.2926226 0.2595988 0.2540489
0.3048033 0.2706224 0.2648780
0.3207001 0.2850090 0.2790108
0.3372875 0.3000206 0.2937576
0.0449209 0.0355296 0.0340438
0.0449209 0.0355296 0.0340438
0.0449209 0.0355296 0.0340438
0.0449209 0.0355296 0.0340438
0.0460991 0.0365433 0.0350151
0.0478923 0.0381183 0.0365243
0.0509912 0.0409221 0.0392202
0.0551500 0.0446859 0.0429273
0.0603946 0.0494322 0.0475899
0.0661035 0.0545988 0.0526653
0.0734847 0.0612788 0.0592275
0.0820848 0.0690619 0.0668733
0.0913475 0.0774446 0.0751081
0.1006575 0.0858702 0.0833851
0.1101434 0.0944549 0.0918184
0.1181480 0.1016991 0.0989348
0.1270127 0.1097216 0.1068157
0.1368645 0.1186376 0.1155744
0.1478795 0.1286061 0.1253671
0.1580297 0.1377921 0.1343910
0.1708351 0.1493810 0.1457755
0.1831751 0.1605487 0.1567461
0.1940539 0.1703940 0.1664178
0.2079425 0.1829633 0.1787653
0.2224685 0.1961093 0.1916794
0.2348743 0.2073365 0.2027086
0.2504251 0.2214100 0.2165338
0.2639234 0.2336260 0.2285343
0.2779871 0.2463537 0.2410374
0.2956260 0.2623168 0.2567190
0.3079279 0.2734501 0.2676559
0.3239629 0.2879618 0.2819116
0.3406583 0.3030712 0.2967544
0.0449209 0.0355296 0.0340438
0.0455082 0.0360328 0.0345260
0.0460991 0.0365433 0.0350151
0.0472910 0.0375859 0.0360141
0.0491054 0.0392058 0.0375663
0.0523597 0.0421606 0.0404466
0.0551500 0.0446859 0.0429273
0.0596013 0.0487143 0.0468847
0.0644441 0.0530971 0.0511901
0.0706655 0.0587274 0.0567211
0.0775615 0.0649683 0.0628519
0.0867625 0.0732952 0.0710319
0.0960288 0.0816812 0.0792700
0.1048043 0.0896230 0.0870717
0.1135212 0.0975119 0.0948214
0.1217012 0.1049148 0.1020937
0.1297747 0.1122213 0.1092713
0.1399492 0.1214292 0.1183168
0.1511412 0.1315580 0.1282669
0.1616124 0.1410345 0.1375762
0.1727713 0.1511332 0.1474968
0.1853121 0.1624827 0.1586460
0.1986000 0.1745082 0.1704594
0.2103315 0.1851253 0.1808892
0.2249065 0.1983157 0.1938469
0.2399905 0.2119667 0.2072571
0.2504251 0.2214100 0.2165338
0.2666937 0.2361332 0.2309972
0.2808641 0.2489574 0.2435952
0.2956260 0.2623168 0.2567190
0.3079279 0.2734501 0.2676559
0.3239629 0.2879618 0.2819116
0.3406583 0.3030712 0.2967544
0.0491054 0.0392058 0.0375663
0.0497174 0.0397612 0.0380985
0.0509912 0.0409221 0.0392202
0.0530506 0.0427859 0.0410608
0.0551500 0.0446859 0.0429273
0.0572902 0.0466228 0.0448300
0.0611934 0.0501551 0.0483001
0.0652710 0.0538453 0.0519252
0.0706655 0.0587274 0.0567211
0.0764543 0.0639662 0.0618675
0.0855783 0.0722235 0.0699791
0.0936697 0.0795462 0.0771727
0.1016839 0.0867991 0.0842976
0.1101434 0.0944549 0.0918184
0.1181480 0.1016991 0.0989348
0.1256471 0.1084858 0.1056018
0.1339965 0.1160420 0.1130246
0.1446694 0.1257010 0.1225132
0.1545062 0.1346033 0.1312585
0.1652554 0.1443314 0.1408149
0.1768771 0.1548490 0.1511470
0.1896439 0.1664030 0.1624972
0.2032290 0.1786975 0.1745748
0.2151747 0.1895084 0.1851950
0.2273658 0.2005413 0.1960333
0.2425824 0.2143124 0.2095614
0.2584540 0.2286762 0.2236718
0.2694883 0.2386622 0.2334817
0.2837659 0.2515834 0.2461749
0.2986553 0.2650584 0.2594122
0.3142588 0.2791796 0.2732843
0.3272540 0.2909403 0.2848375
0.3440579 0.3061478 0.2997767
0.0558589 0.0453274 0.0435575
0.0565722 0.0459730 0.0441917
0.0580310 0.0472932 0.0454886
0.0596013 0.0487143 0.0468847
0.0619977 0.0508830 0.0490151
0.0644441 0.0530971 0.0511901
0.0679081 0.0562319 0.0542697
0.0734847 0.0612788 0.0592275
0.0786782 0.0659789 0.0638447
0.0855783 0.0722235 0.0699791
0.0936697 0.0795462 0.0771727
0.1006575 0.0858702 0.0833851
0.1069189 0.0915368 0.0889517
0.1158189 0.0995913 0.0968641
0.1229468 0.1060420 0.1032011
0.1311713 0.1134853 0.1105130
0.1399492 0.1214292 0.1183168
0.1495038 0.1300761 0.1268112
0.1598136 0.1394065 0.1359769
0.1708351 0.1493810 0.1457755
0.1831751 0.1605487 0.1567461
0.1940539 0.1703940 0.1664178
0.2079425 0.1829633 0.1787653
0.2200519 0.1939223 0.1895310
0.2323495 0.2050516 0.2004640
0.2477949 0.2190296 0.2141954
0.2611768 0.2311403 0.2260925
0.2751349 0.2437724 0.2385017
0.2866928 0.2542323 0.2487771
0.3017108 0.2678236 0.2621286
0.3174656 0.2820817 0.2761352
0.3339220 0.2969748 0.2907656
0.3474869 0.3092510 0.3028252
0.0644441 0.0530971 0.0511901
0.0652710 0.0538453 0.0519252
0.0661035 0.0545988 0.0526653
0.0679081 0.0562319 0.0542697
0.0706655 0.0587274 0.0567211
0.0734847 0.0612788 0.0592275
0.0775615 0.0649683 0.0628519
0.0832396 0.0701069 0.0678999
0.0890615 0.0753758 0.0730758
0.0960288 0.0816812 0.0792700
0.1016839 0.0867991 0.0842976
0.1079866 0.0925031 0.0899009
0.1146662 0.0985481 0.0958393
0.1217012 0.1049148 0.1020937
0.1297747 0.1122213 0.1092713
0.1368645 0.1186376 0.1155744
0.1478795 0.1286061 0.1253671
0.1562606 0.1361910 0.1328182
0.1652554 0.1443314 0.1408149
0.1768771 0.1548490 0.1511470
0.1874684 0.1644341 0.1605631
0.2009041 0.1765934 0.1725079
0.2127421 0.1873069 0.1830323
0.2249065 0.1983157 0.1938469
0.2399905 0.2119667 0.2072571
0.2504251 0.2214100 0.2165338
0.2666937 0.2361332 0.2309972
0.2808641 0.2489574 0.2435952
0.2956260 0.2623168 0.2567190
0.3079279 0.2734501 0.2676559
0.3207001 0.2850090 0.2790108
0.3372875 0.3000206 0.2937576
0.3509451 0.3123807 0.3058997
0.0744385 0.0621420 0.0600755
0.0753993 0.0630115 0.0609296
0.0775615 0.0649683 0.0628519
0.0798042 0.0669980 0.0648458
0.0820848 0.0690619 0.0668733
0.0855783 0.0722235 0.0699791
0.0902000 0.0764061 0.0740880
0.0948445 0.0806095 0.0782172
0.0996377 0.0849473 0.0824784
0.1048043 0.0896230 0.0870717
0.1112545 0.0954605 0.0928062
0.1158189 0.0995913 0.0968641
0.1229468 0.1060420 0.1032011
0.1297747 0.1122213 0.1092713
0.1368645 0.1186376 0.1155744
0.1462680 0.1271477 0.1239344
0.1545062 0.1346033 0.1312585
0.1634264 0.1426761 0.1391889
0.1748150 0.1529828 0.1493138
0.1831751 0.1605487 0.1567461
0.1940539 0.1703940 0.1664178
0.2079425 0.1829633 0.1787653
0.2200519 0.1939223 0.1895310
0.2323495 0.2050516 0.2004640
0.2451871 0.2166697 0.2118771
0.2584540 0.2286762 0.2236718
0.2694883 0.2386622 0.2334817
0.2837659 0.2515834 0.2461749
0.2986553 0.2650584 0.2594122
0.3142588 0.2791796 0.2732843
0.3272540 0.2909403 0.2848375
0.3406583 0.3030712 0.2967544
0.3579512 0.3187212 0.3121284
0.0890615 0.0753758 0.0730758
0.0902000 0.0764061 0.0740880
0.0913475 0.0774446 0.0751081
0.0936697 0.0795462 0.0771727
0.0960288 0.0816812 0.0792700
0.0984252 0.0838500 0.0814005
0.1016839 0.0867991 0.0842976
0.1048043 0.0896230 0.0870717
0.1101434 0.0944549 0.0918184
0.1146662 0.0985481 0.0958393
0.1193244 0.1027638 0.0999806
0.1242919 0.1072593 0.1043969
0.1311713 0.1134853 0.1105130
0.1368645 0.1186376 0.1155744
0.1462680 0.1271477 0.1239344
0.1545062 0.1346033 0.1312585
0.1616124 0.1410345 0.1375762
0.1727713 0.1511332 0.1474968
0.1810569 0.1586317 0.1548630
0.1918392 0.1683897 0.1644488
0.2032290 0.1786975 0.1745748
0.2151747 0.1895084 0.1851950
0.2273658 0.2005413 0.1960333
0.2399905 0.2119667 0.2072571
0.2504251 0.2214100 0.2165338
0.2639234 0.2336260 0.2285343
0.2779871 0.2463537 0.2410374
0.2926226 0.2595988 0.2540489
0.3048033 0.2706224 0.2648780
0.3207001 0.2850090 0.2790108
0.3339220 0.2969748 0.2907656
0.3474869 0.3092510 0.3028252
0.3614995 0.3219325 0.3152829
0.1016839 0.0867991 0.0842976
0.1027172 0.0877342 0.0852163
0.1037573 0.0886755 0.0861409
0.1048043 0.0896230 0.0870717
0.1069189 0.0915368 0.0889517
0.1101434 0.0944549 0.0918184
0.1135212 0.0975119 0.0948214
0.1158189 0.0995913 0.0968641
0.1205088 0.1038356 0.1010336
0.1242919 0.1072593 0.1043969
0.1297747 0.1122213 0.1092713
0.1339965 0.1160420 0.1130246
0.1399492 0.1214292 0.1183168
0.1478795 0.1286061 0.1253671
0.1562606 0.1361910 0.1328182
0.1634264 0.1426761 0.1391889
0.1727713 0.1511332 0.1474968
0.1810569 0.1586317 0.1548630
0.1896439 0.1664030 0.1624972
0.2032290 0.1786975 0.1745748
0.2127421 0.1873069 0.1830323
0.2249065 0.1983157 0.1938469
0.2348743 0.2073365 0.2027086
0.2477949 0.2190296 0.2141954
0.2611768 0.2311403 0.2260925
0.2751349 0.2437724 0.2385017
0.2837659 0.2515834 0.2461749
0.2986553 0.2650584 0.2594122
0.3142588 0.2791796 0.2732843
0.3239629 0.2879618 0.2819116
0.3406583 0.3030712 0.2967544
0.3509451 0.3123807 0.3058997
0.3686877 0.3284378 0.3216735
0.1146662 0.0985481 0.0958393
0.1158189 0.0995913 0.0968641
0.1169796 0.1006417 0.0978960
0.1181480 0.1016991 0.0989348
0.1193244 0.1027638 0.0999806
0.1217012 0.1049148 0.1020937
0.1242919 0.1072593 0.1043969
0.1270127 0.1097216 0.1068157
0.1311713 0.1134853 0.1105130
0.1354252 0.1173349 0.1142948
0.1399492 0.1214292 0.1183168
0.1462680 0.1271477 0.1239344
0.1527916 0.1330516 0.1297342
0.1580297 0.1377921 0.1343910
0.1652554 0.1443314 0.1408149
0.1748150 0.1529828 0.1493138
0.1831751 0.1605487 0.1567461
0.1918392 0.1683897 0.1644488
0.2032290 0.1786975 0.1745748
0.2103315 0.1851253 0.1808892
0.2224685 0.1961093 0.1916794
0.2323495 0.2050516 0.2004640
0.2451871 0.2166697 0.2118771
0.2584540 0.2286762 0.2236718
0.2666937 0.2361332 0.2309972
0.2808641 0.2489574 0.2435952
0.2956260 0.2623168 0.2567190
0.3048033 0.2706224 0.2648780
0.3207001 0.2850090 0.2790108
0.3339220 0.2969748 0.2907656
0.3474869 0.3092510 0.3028252
0.3614995 0.3219325 0.3152829
0.3723282 0.3317324 0.3249100
0.1270127 0.1097216 0.1068157
0.1283884 0.1109667 0.1080389
0.1283884 0.1109667 0.1080389
0.1297747 0.1122213 0.1092713
0.1311713 0.1134853 0.1105130
0.1339965 0.1160420 0.1130246
0.1368645 0.1186376 0.1155744
0.1399492 0.1214292 0.1183168
0.1446694 0.1257010 0.1225132
0.1478795 0.1286061 0.1253671
0.1527916 0.1330516 0.1297342
0.1580297 0.1377921 0.1343910
0.1634264 0.1426761 0.1391889
0.1708351 0.1493810 0.1457755
0.1789577 0.1567319 0.1529967
0.1853121 0.1624827 0.1586460
0.1940539 0.1703940 0.1664178
0.2032290 0.1786975 0.1745748
0.2127421 0.1873069 0.1830323
0.2224685 0.1961093 0.1916794
0.2323495 0.2050516 0.2004640
0.2451871 0.2166697 0.2118771
0.2557544 0.2262331 0.2212718
0.2666937 0.2361332 0.2309972
0.2779871 0.2463537 0.2410374
0.2926226 0.2595988 0.2540489
0.3017108 0.2678236 0.2621286
0.3174656 0.2820817 0.2761352
0.3272540 0.2909403 0.2848375
0.3406583 0.3030712 0.2967544
0.3579512 0.3187212 0.3121284
0.3686877 0.3284378 0.3216735
0.3830070 0.3413967 0.3344038
0.1399492 0.1214292 0.1183168
0.1430834 0.1242656 0.1211032
0.1430834 0.1242656 0.1211032
0.1446694 0.1257010 0.1225132
0.1462680 0.1271477 0.1239344
0.1478795 0.1286061 0.1253671
0.1511412 0.1315580 0.1282669
0.1527916 0.1330516 0.1297342
0.1562606 0.1361910 0.1328182
0.1616124 0.1410345 0.1375762
0.1652554 0.1443314 0.1408149
0.1727713 0.1511332 0.1474968
0.1768771 0.1548490 0.1511470
0.1831751 0.1605487 0.1567461
0.1896439 0.1664030 0.1624972
0.1986000 0.1745082 0.1704594
0.2079425 0.1829633 0.1787653
0.2151747 0.1895084 0.1851950
0.2249065 0.1983157 0.1938469
0.2348743 0.2073365 0.2027086
0.2451871 0.2166697 0.2118771
0.2557544 0.2262331 0.2212718
0.2666937 0.2361332 0.2309972
0.2779871 0.2463537 0.2410374
0.2866928 0.2542323 0.2487771
0.3017108 0.2678236 0.2621286
0.3142588 0.2791796 0.2732843
0.3239629 0.2879618 0.2819116
0.3372875 0.3000206 0.2937576
0.3509451 0.3123807 0.3058997
0.3650782 0.3251711 0.3184645
0.3794180 0.3381487 0.3312131
0.3902739 0.3479733 0.3408644
0.1562606 0.1361910 0.1328182
0.1562606 0.1361910 0.1328182
0.1580297 0.1377921 0.1343910
0.1580297 0.1377921 0.1343910
0.1598136 0.1394065 0.1359769
0.1616124 0.1410345 0.1375762
0.1652554 0.1443314 0.1408149
0.1670999 0.1460006 0.1424547
0.1727713 0.1511332 0.1474968
0.1768771 0.1548490 0.1511470
0.1810569 0.1586317 0.1548630
0.1853121 0.1624827 0.1586460
0.1918392 0.1683897 0.1644488
0.1986000 0.1745082 0.1704594
0.2055752 0.1808208 0.1766606
0.2127421 0.1873069 0.1830323
0.2224685 0.1961093 0.1916794
0.2298468 0.2027866 0.1982390
0.2399905 0.2119667 0.2072571
0.2477949 0.2190296 0.2141954
0.2584540 0.2286762 0.2236718
0.2666937 0.2361332 0.2309972
0.2779871 0.2463537 0.2410374
0.2866928 0.2542323 0.2487771
0.2986553 0.2650584 0.2594122
0.3142588 0.2791796 0.2732843
0.3239629 0.2879618 0.2819116
0.3372875 0.3000206 0.2937576
0.3474869 0.3092510 0.3028252
0.3614995 0.3219325 0.3152829
0.3723282 0.3317324 0.3249100
0.3866256 0.3446716 0.3376209
0.4014012 0.3580435 0.3507569
0.1727713 0.1511332 0.1474968
0.1727713 0.1511332 0.1474968
0.1748150 0.1529828 0.1493138
0.1748150 0.1529828 0.1493138
0.1768771 0.1548490 0.1511470
0.1789577 0.1567319 0.1529967
0.1810569 0.1586317 0.1548630
0.1831751 0.1605487 0.1567461
0.1874684 0.1644341 0.1605631
0.1918392 0.1683897 0.1644488
0.1940539 0.1703940 0.1664178
0.2009041 0.1765934 0.1725079
0.2079425 0.1829633 0.1787653
0.2127421 0.1873069 0.1830323
0.2200519 0.1939223 0.1895310
0.2273658 0.2005413 0.1960333
0.2348743 0.2073365 0.2027086
0.2425824 0.2143124 0.2095614
0.2504251 0.2214100 0.2165338
0.2611768 0.2311403 0.2260925
0.2694883 0.2386622 0.2334817
0.2808641 0.2489574 0.2435952
0.2926226 0.2595988 0.2540489
0.3017108 0.2678236 0.2621286
0.3142588 0.2791796 0.2732843
0.3239629 0.2879618 0.2819116
0.3372875 0.3000206 0.2937576
0.3474869 0.3092510 0.3028252
0.3579512 0.3187212 0.3121284
0.3686877 0.3284378 0.3216735
0.3830070 0.3413967 0.3344038
0.3939526 0.3513025 0.3441349
0.4089733 0.3648963 0.3574888
0.1874684 0.1644341 0.1605631
0.1896439 0.1664030 0.1624972
0.1896439 0.1664030 0.1624972
0.1918392 0.1683897 0.1644488
0.1918392 0.1683897 0.1644488
0.1940539 0.1703940 0.1664178
0.1986000 0.1745082 0.1704594
0.2009041 0.1765934 0.1725079
0.2055752 0.1808208 0.1766606
0.2079425 0.1829633 0.1787653
0.2127421 0.1873069 0.1830323
0.2200519 0.1939223 0.1895310
0.2249065 0.1983157 0.1938469
0.2298468 0.2027866 0.1982390
0.2348743 0.2073365 0.2027086
0.2425824 0.2143124 0.2095614
0.2504251 0.2214100 0.2165338
0.2584540 0.2286762 0.2236718
0.2666937 0.2361332 0.2309972
0.2751349 0.2437724 0.2385017
0.2837659 0.2515834 0.2461749
0.2956260 0.2623168 0.2567190
0.3017108 0.2678236 0.2621286
0.3142588 0.2791796 0.2732843
0.3239629 0.2879618 0.2819116
0.3372875 0.3000206 0.2937576
0.3474869 0.3092510 0.3028252
0.3579512 0.3187212 0.3121284
0.3686877 0.3284378 0.3216735
0.3830070 0.3413967 0.3344038
0.3939526 0.3513025 0.3441349
0.4051716 0.3614557 0.3541090
0.4165158 0.3717223 0.3641944
0.2079425 0.1829633 0.1787653
0.2079425 0.1829633 0.1787653
0.2079425 0.1829633 0.1787653
0.2103315 0.1851253 0.1808892
0.2103315 0.1851253 0.1808892
0.2127421 0.1873069 0.1830323
0.2151747 0.1895084 0.1851950
0.2200519 0.1939223 0.1895310
0.2224685 0.1961093 0.1916794
0.2249065 0.1983157 0.1938469
0.2298468 0.2027866 0.1982390
0.2323495 0.2050516 0.2004640
0.2399905 0.2119667 0.2072571
0.2451871 0.2166697 0.2118771
0.2504251 0.2214100 0.2165338
0.2584540 0.2286762 0.2236718
0.2639234 0.2336260 0.2285343
0.2751349 0.2437724 0.2385017
0.2808641 0.2489574 0.2435952
0.2926226 0.2595988 0.2540489
0.2986553 0.2650584 0.2594122
0.3079279 0.2734501 0.2676559
0.3174656 0.2820817 0.2761352
0.3272540 0.2909403 0.2848375
0.3372875 0.3000206 0.2937576
0.3474869 0.3092510 0.3028252
0.3614995 0.3219325 0.3152829
0.3686877 0.3284378 0.3216735
0.3830070 0.3413967 0.3344038
0.3939526 0.3513025 0.3441349
0.4051716 0.3614557 0.3541090
0.4165158 0.3717223 0.3641944
0.4280125 0.3821268 0.3744154
0.2249065 0.1983157 0.1938469
0.2273658 0.2005413 0.1960333
0.2273658 0.2005413 0.1960333
0.2273658 0.2005413 0.1960333
0.2298468 0.2027866 0.1982390
0.2298468 0.2027866 0.1982390
0.2323495 0.2050516 0.2004640
0.2348743 0.2073365 0.2027086
0.2399905 0.2119667 0.2072571
0.2425824 0.2143124 0.2095614
0.2477949 0.2190296 0.2141954
0.2504251 0.2214100 0.2165338
0.2584540 0.2286762 0.2236718
0.2611768 0.2311403 0.2260925
0.2666937 0.2361332 0.2309972
0.2751349 0.2437724 0.2385017
0.2808641 0.2489574 0.2435952
0.2866928 0.2542323 0.2487771
0.2986553 0.2650584 0.2594122
0.3048033 0.2706224 0.2648780
0.3142588 0.2791796 0.2732843
0.3207001 0.2850090 0.2790108
0.3339220 0.2969748 0.2907656
0.3406583 0.3030712 0.2967544
0.3509451 0.3123807 0.3058997
0.3614995 0.3219325 0.3152829
0.3723282 0.3317324 0.3249100
0.3830070 0.3413967 0.3344038
0.3939526 0.3513025 0.3441349
0.4051716 0.3614557 0.3541090
0.4165158 0.3717223 0.3641944
0.4280125 0.3821268 0.3744154
0.4397896 0.3927850 0.3848856
0.2451871 0.2166697 0.2118771
0.2451871 0.2166697 0.2118771
0.2451871 0.2166697 0.2118771
0.2477949 0.2190296 0.2141954
0.2477949 0.2190296 0.2141954
0.2504251 0.2214100 0.2165338
0.2504251 0.2214100 0.2165338
0.2557544 0.2262331 0.2212718
0.2584540 0.2286762 0.2236718
0.2611768 0.2311403 0.2260925
0.2639234 0.2336260 0.2285343
0.2694883 0.2386622 0.2334817
0.2751349 0.2437724 0.2385017
0.2808641 0.2489574 0.2435952
0.2837659 0.2515834 0.2461749
0.2926226 0.2595988 0.2540489
0.2986553 0.2650584 0.2594122
0.3048033 0.2706224 0.2648780
0.3142588 0.2791796 0.2732843
0.3207001 0.2850090 0.2790108
0.3272540 0.2909403 0.2848375
0.3372875 0.3000206 0.2937576
0.3474869 0.3092510 0.3028252
0.3579512 0.3187212 0.3121284
0.3650782 0.3251711 0.3184645
0.3723282 0.3317324 0.3249100
0.3866256 0.3446716 0.3376209
0.3939526 0.3513025 0.3441349
0.4089733 0.3648963 0.3574888
0.4165158 0.3717223 0.3641944
0.4280125 0.3821268 0.3744154
0.4397896 0.3927850 0.3848856
0.4518041 0.4036582 0.3955670
0.2639234 0.2336260 0.2285343
0.2639234 0.2336260 0.2285343
0.2639234 0.2336260 0.2285343
0.2666937 0.2361332 0.2309972
0.2666937 0.2361332 0.2309972
0.2694883 0.2386622 0.2334817
0.2694883 0.2386622 0.2334817
0.2751349 0.2437724 0.2385017
0.2779871 0.2463537 0.2410374
0.2808641 0.2489574 0.2435952
0.2837659 0.2515834 0.2461749
0.2866928 0.2542323 0.2487771
0.2926226 0.2595988 0.2540489
0.2986553 0.2650584 0.2594122
0.3017108 0.2678236 0.2621286
0.3079279 0.2734501 0.2676559
0.3174656 0.2820817 0.2761352
0.3207001 0.2850090 0.2790108
0.3272540 0.2909403 0.2848375
0.3372875 0.3000206 0.2937576
0.3440579 0.3061478 0.2997767
0.3509451 0.3123807 0.3058997
0.3614995 0.3219325 0.3152829
0.3686877 0.3284378 0.3216735
0.3830070 0.3413967 0.3344038
0.3902739 0.3479733 0.3408644
0.4014012 0.3580435 0.3507569
0.4089733 0.3648963 0.3574888
0.4165158 0.3717223 0.3641944
0.4319068 0.3856511 0.3778775
0.4397896 0.3927850 0.3848856
0.4518041 0.4036582 0.3955670
0.4637038 0.4144274 0.4061462
0.2837659 0.2515834 0.2461749
0.2837659 0.2515834 0.2461749
0.2837659 0.2515834 0.2461749
0.2866928 0.2542323 0.2487771
0.2866928 0.2542323 0.2487771
0.2866928 0.2542323 0.2487771
0.2926226 0.2595988 0.2540489
0.2956260 0.2623168 0.2567190
0.2956260 0.2623168 0.2567190
0.2986553 0.2650584 0.2594122
0.3017108 0.2678236 0.2621286
0.3048033 0.2706224 0.2648780
0.3142588 0.2791796 0.2732843
0.3174656 0.2820817 0.2761352
0.3207001 0.2850090 0.2790108
0.3272540 0.2909403 0.2848375
0.3339220 0.2969748 0.2907656
0.3406583 0.3030712 0.2967544
0.3474869 0.3092510 0.3028252
0.3509451 0.3123807 0.3058997
0.3614995 0.3219325 0.3152829
0.3686877 0.3284378 0.3216735
0.3794180 0.3381487 0.3312131
0.3866256 0.3446716 0.3376209
0.3939526 0.3513025 0.3441349
0.4051716 0.3614557 0.3541090
0.4127447 0.3683094 0.3608418
0.4203174 0.3751627 0.3675741
0.4319068 0.3856511 0.3778775
0.4437787 0.3963952 0.3884321
0.4557400 0.4072202 0.3990661
0.4637038 0.4144274 0.4061462
0.4717917 0.4217470 0.4133366
0.3048033 0.2706224 0.2648780
0.3048033 0.2706224 0.2648780
0.3048033 0.2706224 0.2648780
0.3048033 0.2706224 0.2648780
0.3048033 0.2706224 0.2648780
0.3079279 0.2734501 0.2676559
0.3079279 0.2734501 0.2676559
0.3142588 0.2791796 0.2732843
0.3174656 0.2820817 0.2761352
0.3174656 0.2820817 0.2761352
0.3207001 0.2850090 0.2790108
0.3239629 0.2879618 0.2819116
0.3272540 0.2909403 0.2848375
0.3372875 0.3000206 0.2937576
0.3406583 0.3030712 0.2967544
0.3440579 0.3061478 0.2997767
0.3509451 0.3123807 0.3058997
0.3579512 0.3187212 0.3121284
0.3650782 0.3251711 0.3184645
0.3686877 0.3284378 0.3216735
0.3794180 0.3381487 0.3312131
0.3866256 0.3446716 0.3376209
0.3939526 0.3513025 0.3441349
0.4051716 0.3614557 0.3541090
0.4089733 0.3648963 0.3574888
0.4165158 0.3717223 0.3641944
0.4280125 0.3821268 0.3744154
0.4358324 0.3892038 0.3813675
0.4437787 0.3963952 0.3884321
0.4557400 0.4072202 0.3990661
0.4637038 0.4144274 0.4061462
0.4800057 0.4291807 0.4206392
0.4883478 0.4367302 0.4280556
0.3239629 0.2879618 0.2819116
0.3239629 0.2879618 0.2819116
0.3239629 0.2879618 0.2819116
0.3239629 0.2879618 0.2819116
0.3272540 0.2909403 0.2848375
0.3272540 0.2909403 0.2848375
0.3339220 0.2969748 0.2907656
0.3339220 0.2969748 0.2907656
0.3372875 0.3000206 0.2937576
0.3406583 0.3030712 0.2967544
0.3406583 0.3030712 0.2967544
0.3440579 0.3061478 0.2997767
0.3474869 0.3092510 0.3028252
0.3509451 0.3123807 0.3058997
0.3579512 0.3187212 0.3121284
0.3650782 0.3251711 0.3184645
0.3686877 0.3284378 0.3216735
0.3723282 0.3317324 0.3249100
0.3830070 0.3413967 0.3344038
0.3866256 0.3446716 0.3376209
0.3939526 0.3513025 0.3441349
0.4051716 0.3614557 0.3541090
0.4089733 0.3648963 0.3574888
0.4165158 0.3717223 0.3641944
0.4280125 0.3821268 0.3744154
0.4358324 0.3892038 0.3813675
0.4437787 0.3963952 0.3884321
0.4518041 0.4036582 0.3955670
0.4597065 0.4108098 0.4025925
0.4677321 0.4180730 0.4097275
0.4800057 0.4291807 0.4206392
0.4883478 0.4367302 0.4280556
0.4965731 0.4441741 0.4353682
0.3440579 0.3061478 0.2997767
0.3440579 0.3061478 0.2997767
0.3440579 0.3061478 0.2997767
0.3474869 0.3092510 0.3028252
0.3474869 0.3092510 0.3028252
0.3474869 0.3092510 0.3028252
