data/spectral_luts/kodak_5222_2302_dev_5.cube
TITLE "kodak_5222_2302_dev_5"
LUT_3D_SIZE 9
0.0449209 0.0355296 0.0340438
0.0449209 0.0355296 0.0340438
0.0523597 0.0421606 0.0404466
0.0820848 0.0690619 0.0668733
0.1217012 0.1049148 0.1020937
0.1634264 0.1426761 0.1391889
0.2151747 0.1895084 0.1851950
0.2751349 0.2437724 0.2385017
0.3372875 0.3000206 0.2937576
0.0449209 0.0355296 0.0340438
0.0491054 0.0392058 0.0375663
0.0644441 0.0530971 0.0511901
0.0960288 0.0816812 0.0792700
0.1297747 0.1122213 0.1092713
0.1727713 0.1511332 0.1474968
0.2249065 0.1983157 0.1938469
0.2808641 0.2489574 0.2435952
0.3406583 0.3030712 0.2967544
0.0744385 0.0621420 0.0600755
0.0820848 0.0690619 0.0668733
0.0996377 0.0849473 0.0824784
0.1229468 0.1060420 0.1032011
0.1545062 0.1346033 0.1312585
0.1940539 0.1703940 0.1664178
0.2451871 0.2166697 0.2118771
0.2986553 0.2650584 0.2594122
0.3579512 0.3187212 0.3121284
0.1270127 0.1097216 0.1068157
0.1311713 0.1134853 0.1105130
0.1446694 0.1257010 0.1225132
0.1634264 0.1426761 0.1391889
0.1940539 0.1703940 0.1664178
0.2323495 0.2050516 0.2004640
0.2779871 0.2463537 0.2410374
0.3272540 0.2909403 0.2848375
0.3830070 0.3413967 0.3344038
0.1874684 0.1644341 0.1605631
0.1918392 0.1683897 0.1644488
0.2055752 0.1808208 0.1766606
0.2249065 0.1983157 0.1938469
0.2504251 0.2214100 0.2165338
0.2837659 0.2515834 0.2461749
0.3239629 0.2879618 0.2819116
0.3686877 0.3284378 0.3216735
0.4165158 0.3717223 0.3641944
0.2639234 0.2336260 0.2285343
0.2666937 0.2361332 0.2309972
0.2779871 0.2463537 0.2410374
0.2926226 0.2595988 0.2540489
0.3174656 0.2820817 0.2761352
0.3440579 0.3061478 0.2997767
0.3830070 0.3413967 0.3344038
0.4165158 0.3717223 0.3641944
0.4637038 0.4144274 0.4061462
0.3440579 0.3061478 0.2997767
0.3474869 0.3092510 0.3028252
0.3579512 0.3187212 0.3121284
0.3686877 0.3284378 0.3216735
0.3866256 0.3446716 0.3376209
0.4127447 0.3683094 0.3608418
0.4397896 0.3927850 0.3848856
0.4717917 0.4217470 0.4133366
0.5128909 0.4589418 0.4498753
0.4280125 0.3821268 0.3744154
0.4319068 0.3856511 0.3778775
0.4358324 0.3892038 0.3813675
0.4437787 0.3963952 0.3884321
0.4597065 0.4108098 0.4025925
0.4841606 0.4329408 0.4243330
0.5087668 0.4552094 0.4462088
0.5339684 0.4780170 0.4686140
0.5593710 0.5010063 0.4911977
0.5087668 0.4552094 0.4462088
0.5087668 0.4552094 0.4462088
0.5128909 0.4589418 0.4498753
0.5212298 0.4664885 0.4572889
0.5339684 0.4780170 0.4686140
0.5465623 0.4894144 0.4798103
0.5680612 0.5088710 0.4989237
0.5897691 0.5285166 0.5182227
0.6160203 0.5522740 0.5415609
0.0572902 0.0466228 0.0448300
0.0628075 0.0516159 0.0497351
0.0798042 0.0669980 0.0648458
0.1079866 0.0925031 0.0899009
0.1399492 0.1214292 0.1183168
0.1831751 0.1605487 0.1567461
0.2323495 0.2050516 0.2004640
0.2926226 0.2595988 0.2540489
0.3474869 0.3092510 0.3028252
0.0688204 0.0570576 0.0550808
0.0753993 0.0630115 0.0609296
0.0948445 0.0806095 0.0782172
0.1193244 0.1027638 0.0999806
0.1511412 0.1315580 0.1282669
0.1918392 0.1683897 0.1644488
0.2425824 0.2143124 0.2095614
0.2956260 0.2623168 0.2567190
0.3509451 0.3123807 0.3058997
0.1037573 0.0886755 0.0861409
0.1079866 0.0925031 0.0899009
0.1217012 0.1049148 0.1020937
0.1430834 0.1242656 0.1211032
0.1748150 0.1529828 0.1493138
0.2127421 0.1873069 0.1830323
0.2611768 0.2311403 0.2260925
0.3142588 0.2791796 0.2732843
0.3686877 0.3284378 0.3216735
0.1478795 0.1286061 0.1253671
0.1511412 0.1315580 0.1282669
0.1634264 0.1426761 0.1391889
0.1831751 0.1605487 0.1567461
0.2127421 0.1873069 0.1830323
0.2504251 0.2214100 0.2165338
0.2956260 0.2623168 0.2567190
0.3406583 0.3030712 0.2967544
0.3939526 0.3513025 0.3441349
0.2079425 0.1829633 0.1787653
0.2103315 0.1851253 0.1808892
0.2224685 0.1961093 0.1916794
0.2399905 0.2119667 0.2072571
0.2666937 0.2361332 0.2309972
0.2986553 0.2650584 0.2594122
0.3372875 0.3000206 0.2937576
0.3830070 0.3413967 0.3344038
0.4280125 0.3821268 0.3744154
0.2808641 0.2489574 0.2435952
0.2837659 0.2515834 0.2461749
0.2926226 0.2595988 0.2540489
0.3048033 0.2706224 0.2648780
0.3272540 0.2909403 0.2848375
0.3579512 0.3187212 0.3121284
0.3902739 0.3479733 0.3408644
0.4319068 0.3856511 0.3778775
0.4677321 0.4180730 0.4097275
0.3579512 0.3187212 0.3121284
0.3614995 0.3219325 0.3152829
0.3686877 0.3284378 0.3216735
0.3830070 0.3413967 0.3344038
0.4014012 0.3580435 0.3507569
0.4203174 0.3751627 0.3675741
0.4518041 0.4036582 0.3955670
0.4841606 0.4329408 0.4243330
0.5170451 0.4627014 0.4535685
0.4358324 0.3892038 0.3813675
0.4397896 0.3927850 0.3848856
0.4437787 0.3963952 0.3884321
0.4557400 0.4072202 0.3990661
0.4677321 0.4180730 0.4097275
0.4883478 0.4367302 0.4280556
0.5128909 0.4589418 0.4498753
0.5423523 0.4856044 0.4760675
0.5724524 0.5128450 0.5028276
0.5128909 0.4589418 0.4498753
0.5170451 0.4627014 0.4535685
0.5212298 0.4664885 0.4572889
0.5254451 0.4703034 0.4610364
0.5423523 0.4856044 0.4760675
0.5550714 0.4971152 0.4873752
0.5768744 0.5168470 0.5067590
0.5940718 0.5324106 0.5220481
0.6204982 0.5563265 0.5455421
0.1229468 0.1060420 0.1032011
0.1270127 0.1097216 0.1068157
0.1384007 0.1200278 0.1169402
0.1598136 0.1394065 0.1359769
0.1896439 0.1664030 0.1624972
0.2298468 0.2027866 0.1982390
0.2751349 0.2437724 0.2385017
0.3239629 0.2879618 0.2819116
0.3794180 0.3381487 0.3312131
0.1311713 0.1134853 0.1105130
0.1354252 0.1173349 0.1142948
0.1495038 0.1300761 0.1268112
0.1670999 0.1460006 0.1424547
0.1986000 0.1745082 0.1704594
0.2348743 0.2073365 0.2027086
0.2808641 0.2489574 0.2435952
0.3339220 0.2969748 0.2907656
0.3866256 0.3446716 0.3376209
0.1545062 0.1346033 0.1312585
0.1598136 0.1394065 0.1359769
0.1727713 0.1511332 0.1474968
0.1896439 0.1664030 0.1624972
0.2200519 0.1939223 0.1895310
0.2584540 0.2286762 0.2236718
0.2986553 0.2650584 0.2594122
0.3474869 0.3092510 0.3028252
0.4014012 0.3580435 0.3507569
0.1940539 0.1703940 0.1664178
0.2009041 0.1765934 0.1725079
0.2103315 0.1851253 0.1808892
0.2298468 0.2027866 0.1982390
0.2557544 0.2262331 0.2212718
0.2866928 0.2542323 0.2487771
0.3272540 0.2909403 0.2848375
0.3723282 0.3317324 0.3249100
0.4203174 0.3751627 0.3675741
0.2504251 0.2214100 0.2165338
0.2557544 0.2262331 0.2212718
0.2639234 0.2336260 0.2285343
0.2808641 0.2489574 0.2435952
0.3017108 0.2678236 0.2621286
0.3339220 0.2969748 0.2907656
0.3686877 0.3284378 0.3216735
0.4089733 0.3648963 0.3574888
0.4557400 0.4072202 0.3990661
0.3174656 0.2820817 0.2761352
0.3207001 0.2850090 0.2790108
0.3272540 0.2909403 0.2848375
0.3406583 0.3030712 0.2967544
0.3614995 0.3219325 0.3152829
0.3866256 0.3446716 0.3376209
0.4203174 0.3751627 0.3675741
0.4557400 0.4072202 0.3990661
0.4925674 0.4405491 0.4318070
0.3866256 0.3446716 0.3376209
0.3902739 0.3479733 0.3408644
0.4014012 0.3580435 0.3507569
0.4089733 0.3648963 0.3574888
0.4280125 0.3821268 0.3744154
0.4518041 0.4036582 0.3955670
0.4717917 0.4217470 0.4133366
0.5087668 0.4552094 0.4462088
0.5381718 0.4818211 0.4723509
0.4637038 0.4144274 0.4061462
0.4637038 0.4144274 0.4061462
0.4677321 0.4180730 0.4097275
0.4800057 0.4291807 0.4206392
0.4925674 0.4405491 0.4318070
0.5128909 0.4589418 0.4498753
0.5339684 0.4780170 0.4686140
0.5550714 0.4971152 0.4873752
0.5854948 0.5246484 0.5144227
0.5339684 0.4780170 0.4686140
0.5381718 0.4818211 0.4723509
0.5381718 0.4818211 0.4723509
0.5465623 0.4894144 0.4798103
0.5550714 0.4971152 0.4873752
0.5724524 0.5128450 0.5028276
0.5897691 0.5285166 0.5182227
0.6115720 0.5482483 0.5376063
0.6291004 0.5641115 0.5531897
0.2103315 0.1851253 0.1808892
0.2127421 0.1873069 0.1830323
0.2249065 0.1983157 0.1938469
0.2425824 0.2143124 0.2095614
0.2666937 0.2361332 0.2309972
0.3017108 0.2678236 0.2621286
0.3406583 0.3030712 0.2967544
0.3830070 0.3413967 0.3344038
0.4319068 0.3856511 0.3778775
0.2200519 0.1939223 0.1895310
0.2224685 0.1961093 0.1916794
0.2323495 0.2050516 0.2004640
0.2477949 0.2190296 0.2141954
0.2751349 0.2437724 0.2385017
0.3048033 0.2706224 0.2648780
0.3440579 0.3061478 0.2997767
0.3866256 0.3446716 0.3376209
0.4358324 0.3892038 0.3813675
0.2399905 0.2119667 0.2072571
0.2425824 0.2143124 0.2095614
0.2504251 0.2214100 0.2165338
0.2666937 0.2361332 0.2309972
0.2926226 0.2595988 0.2540489
0.3239629 0.2879618 0.2819116
0.3614995 0.3219325 0.3152829
0.4051716 0.3614557 0.3541090
0.4437787 0.3963952 0.3884321
0.2694883 0.2386622 0.2334817
0.2779871 0.2463537 0.2410374
0.2837659 0.2515834 0.2461749
0.3017108 0.2678236 0.2621286
0.3239629 0.2879618 0.2819116
0.3509451 0.3123807 0.3058997
0.3866256 0.3446716 0.3376209
0.4280125 0.3821268 0.3744154
0.4677321 0.4180730 0.4097275
0.3174656 0.2820817 0.2761352
0.3207001 0.2850090 0.2790108
0.3272540 0.2909403 0.2848375
0.3440579 0.3061478 0.2997767
0.3650782 0.3251711 0.3184645
0.3902739 0.3479733 0.3408644
0.4203174 0.3751627 0.3675741
0.4557400 0.4072202 0.3990661
0.4925674 0.4405491 0.4318070
0.3723282 0.3317324 0.3249100
0.3794180 0.3381487 0.3312131
0.3866256 0.3446716 0.3376209
0.3939526 0.3513025 0.3441349
0.4127447 0.3683094 0.3608418
0.4358324 0.3892038 0.3813675
0.4637038 0.4144274 0.4061462
0.4965731 0.4441741 0.4353682
0.5339684 0.4780170 0.4686140
0.4358324 0.3892038 0.3813675
0.4397896 0.3927850 0.3848856
0.4437787 0.3963952 0.3884321
0.4557400 0.4072202 0.3990661
0.4677321 0.4180730 0.4097275
0.4883478 0.4367302 0.4280556
0.5128909 0.4589418 0.4498753
0.5423523 0.4856044 0.4760675
0.5724524 0.5128450 0.5028276
0.5046725 0.4515042 0.4425689
0.5046725 0.4515042 0.4425689
0.5087668 0.4552094 0.4462088
0.5170451 0.4627014 0.4535685
0.5254451 0.4703034 0.4610364
0.5465623 0.4894144 0.4798103
0.5680612 0.5088710 0.4989237
0.5854948 0.5246484 0.5144227
0.6115720 0.5482483 0.5376063
0.5680612 0.5088710 0.4989237
0.5680612 0.5088710 0.4989237
0.5724524 0.5128450 0.5028276
0.5768744 0.5168470 0.5067590
0.5854948 0.5246484 0.5144227
0.6027637 0.5402768 0.5297754
0.6160203 0.5522740 0.5415609
0.6332195 0.5678393 0.5568517
0.6541898 0.5868175 0.5754951
0.3174656 0.2820817 0.2761352
0.3207001 0.2850090 0.2790108
0.3272540 0.2909403 0.2848375
0.3406583 0.3030712 0.2967544
0.3614995 0.3219325 0.3152829
0.3902739 0.3479733 0.3408644
0.4203174 0.3751627 0.3675741
0.4557400 0.4072202 0.3990661
0.4925674 0.4405491 0.4318070
0.3239629 0.2879618 0.2819116
0.3239629 0.2879618 0.2819116
0.3372875 0.3000206 0.2937576
0.3474869 0.3092510 0.3028252
0.3686877 0.3284378 0.3216735
0.3939526 0.3513025 0.3441349
0.4280125 0.3821268 0.3744154
0.4597065 0.4108098 0.4025925
0.4965731 0.4441741 0.4353682
0.3406583 0.3030712 0.2967544
0.3406583 0.3030712 0.2967544
0.3474869 0.3092510 0.3028252
0.3650782 0.3251711 0.3184645
0.3830070 0.3413967 0.3344038
0.4089733 0.3648963 0.3574888
0.4358324 0.3892038 0.3813675
0.4677321 0.4180730 0.4097275
0.5087668 0.4552094 0.4462088
0.3650782 0.3251711 0.3184645
0.3686877 0.3284378 0.3216735
0.3794180 0.3381487 0.3312131
0.3902739 0.3479733 0.3408644
0.4089733 0.3648963 0.3574888
0.4319068 0.3856511 0.3778775
0.4597065 0.4108098 0.4025925
0.4883478 0.4367302 0.4280556
0.5212298 0.4664885 0.4572889
0.4051716 0.3614557 0.3541090
0.4051716 0.3614557 0.3541090
0.4127447 0.3683094 0.3608418
0.4203174 0.3751627 0.3675741
0.4397896 0.3927850 0.3848856
0.4597065 0.4108098 0.4025925
0.4883478 0.4367302 0.4280556
0.5170451 0.4627014 0.4535685
0.5465623 0.4894144 0.4798103
0.4518041 0.4036582 0.3955670
0.4518041 0.4036582 0.3955670
0.4597065 0.4108098 0.4025925
0.4677321 0.4180730 0.4097275
0.4841606 0.4329408 0.4243330
0.4965731 0.4441741 0.4353682
0.5212298 0.4664885 0.4572889
0.5465623 0.4894144 0.4798103
0.5768744 0.5168470 0.5067590
0.4965731 0.4441741 0.4353682
0.5046725 0.4515042 0.4425689
0.5087668 0.4552094 0.4462088
0.5170451 0.4627014 0.4535685
0.5254451 0.4703034 0.4610364
0.5423523 0.4856044 0.4760675
0.5593710 0.5010063 0.4911977
0.5854948 0.5246484 0.5144227
0.6115720 0.5482483 0.5376063
0.5508019 0.4932513 0.4835795
0.5550714 0.4971152 0.4873752
0.5593710 0.5010063 0.4911977
0.5680612 0.5088710 0.4989237
0.5768744 0.5168470 0.5067590
0.5897691 0.5285166 0.5182227
0.6071532 0.5442492 0.5336778
0.6250061 0.5604061 0.5495497
0.6457261 0.5791578 0.5679706
0.6071532 0.5442492 0.5336778
0.6071532 0.5442492 0.5336778
0.6115720 0.5482483 0.5376063
0.6160203 0.5522740 0.5415609
0.6250061 0.5604061 0.5495497
0.6332195 0.5678393 0.5568517
0.6499453 0.5829762 0.5717216
0.6627558 0.5945697 0.5831106
0.6787291 0.6090256 0.5973114
0.4319068 0.3856511 0.3778775
0.4319068 0.3856511 0.3778775
0.4358324 0.3892038 0.3813675
0.4518041 0.4036582 0.3955670
0.4637038 0.4144274 0.4061462
0.4841606 0.4329408 0.4243330
0.5087668 0.4552094 0.4462088
0.5381718 0.4818211 0.4723509
0.5680612 0.5088710 0.4989237
0.4358324 0.3892038 0.3813675
0.4358324 0.3892038 0.3813675
0.4397896 0.3927850 0.3848856
0.4557400 0.4072202 0.3990661
0.4677321 0.4180730 0.4097275
0.4883478 0.4367302 0.4280556
0.5128909 0.4589418 0.4498753
0.5381718 0.4818211 0.4723509
0.5680612 0.5088710 0.4989237
0.4437787 0.3963952 0.3884321
0.4518041 0.4036582 0.3955670
0.4557400 0.4072202 0.3990661
0.4637038 0.4144274 0.4061462
0.4800057 0.4291807 0.4206392
0.4965731 0.4441741 0.4353682
0.5212298 0.4664885 0.4572889
0.5465623 0.4894144 0.4798103
0.5768744 0.5168470 0.5067590
0.4637038 0.4144274 0.4061462
0.4677321 0.4180730 0.4097275
0.4717917 0.4217470 0.4133366
0.4841606 0.4329408 0.4243330
0.4965731 0.4441741 0.4353682
0.5128909 0.4589418 0.4498753
0.5381718 0.4818211 0.4723509
0.5593710 0.5010063 0.4911977
0.5854948 0.5246484 0.5144227
0.4925674 0.4405491 0.4318070
0.4965731 0.4441741 0.4353682
0.5046725 0.4515042 0.4425689
0.5128909 0.4589418 0.4498753
0.5212298 0.4664885 0.4572889
0.5381718 0.4818211 0.4723509
0.5550714 0.4971152 0.4873752
0.5812489 0.5208058 0.5106480
0.6071532 0.5442492 0.5336778
0.5254451 0.4703034 0.4610364
0.5339684 0.4780170 0.4686140
0.5381718 0.4818211 0.4723509
0.5423523 0.4856044 0.4760675
0.5550714 0.4971152 0.4873752
0.5724524 0.5128450 0.5028276
0.5854948 0.5246484 0.5144227
0.6071532 0.5442492 0.5336778
0.6291004 0.5641115 0.5531897
0.5724524 0.5128450 0.5028276
0.5724524 0.5128450 0.5028276
0.5768744 0.5168470 0.5067590
0.5812489 0.5208058 0.5106480
0.5897691 0.5285166 0.5182227
0.6071532 0.5442492 0.5336778
0.6204982 0.5563265 0.5455421
0.6332195 0.5678393 0.5568517
0.6584600 0.5906820 0.5792914
0.6115720 0.5482483 0.5376063
0.6115720 0.5482483 0.5376063
0.6160203 0.5522740 0.5415609
0.6204982 0.5563265 0.5455421
0.6291004 0.5641115 0.5531897
0.6415321 0.5753622 0.5642419
0.6541898 0.5868175 0.5754951
0.6670775 0.5984808 0.5869527
0.6825931 0.6125225 0.6007466
0.6541898 0.5868175 0.5754951
0.6541898 0.5868175 0.5754951
0.6584600 0.5906820 0.5792914
0.6627558 0.5945697 0.5831106
0.6670775 0.5984808 0.5869527
0.6748854 0.6055470 0.5938942
0.6903822 0.6195717 0.6076714
0.6982537 0.6266953 0.6146694
0.7137135 0.6406865 0.6284138
0.5381718 0.4818211 0.4723509
0.5381718 0.4818211 0.4723509
0.5423523 0.4856044 0.4760675
0.5465623 0.4894144 0.4798103
0.5593710 0.5010063 0.4911977
0.5768744 0.5168470 0.5067590
0.5897691 0.5285166 0.5182227
0.6115720 0.5482483 0.5376063
0.6332195 0.5678393 0.5568517
0.5381718 0.4818211 0.4723509
0.5423523 0.4856044 0.4760675
0.5465623 0.4894144 0.4798103
0.5508019 0.4932513 0.4835795
0.5593710 0.5010063 0.4911977
0.5768744 0.5168470 0.5067590
0.5940718 0.5324106 0.5220481
0.6160203 0.5522740 0.5415609
0.6332195 0.5678393 0.5568517
0.5465623 0.4894144 0.4798103
0.5465623 0.4894144 0.4798103
0.5508019 0.4932513 0.4835795
0.5593710 0.5010063 0.4911977
0.5724524 0.5128450 0.5028276
0.5854948 0.5246484 0.5144227
0.6027637 0.5402768 0.5297754
0.6204982 0.5563265 0.5455421
0.6457261 0.5791578 0.5679706
0.5593710 0.5010063 0.4911977
0.5593710 0.5010063 0.4911977
0.5680612 0.5088710 0.4989237
0.5768744 0.5168470 0.5067590
0.5854948 0.5246484 0.5144227
0.5940718 0.5324106 0.5220481
0.6160203 0.5522740 0.5415609
0.6291004 0.5641115 0.5531897
0.6541898 0.5868175 0.5754951
0.5812489 0.5208058 0.5106480
0.5854948 0.5246484 0.5144227
0.5854948 0.5246484 0.5144227
0.5940718 0.5324106 0.5220481
0.6027637 0.5402768 0.5297754
0.6160203 0.5522740 0.5415609
0.6291004 0.5641115 0.5531897
0.6499453 0.5829762 0.5717216
0.6670775 0.5984808 0.5869527
0.6071532 0.5442492 0.5336778
0.6115720 0.5482483 0.5376063
0.6115720 0.5482483 0.5376063
0.6204982 0.5563265 0.5455421
0.6250061 0.5604061 0.5495497
0.6415321 0.5753622 0.5642419
0.6499453 0.5829762 0.5717216
0.6670775 0.5984808 0.5869527
0.6787291 0.6090256 0.5973114
0.6415321 0.5753622 0.5642419
0.6415321 0.5753622 0.5642419
0.6415321 0.5753622 0.5642419
0.6457261 0.5791578 0.5679706
0.6541898 0.5868175 0.5754951
0.6627558 0.5945697 0.5831106
0.6748854 0.6055470 0.5938942
0.6903822 0.6195717 0.6076714
0.7022205 0.6302853 0.6181961
0.6670775 0.5984808 0.5869527
0.6710618 0.6020866 0.5904948
0.6710618 0.6020866 0.5904948
0.6748854 0.6055470 0.5938942
0.6787291 0.6090256 0.5973114
0.6903822 0.6195717 0.6076714
0.7022205 0.6302853 0.6181961
0.7100843 0.6374020 0.6251873
0.7210237 0.6473023 0.6349128
0.7022205 0.6302853 0.6181961
0.7022205 0.6302853 0.6181961
0.7022205 0.6302853 0.6181961
0.7062082 0.6338942 0.6217413
0.7100843 0.6374020 0.6251873
0.7173600 0.6439865 0.6316556
0.7247049 0.6506337 0.6381855
0.7321196 0.6573440 0.6447775
0.7433742 0.6675294 0.6547831
0.6291004 0.5641115 0.5531897
0.6291004 0.5641115 0.5531897
0.6291004 0.5641115 0.5531897
0.6415321 0.5753622 0.5642419
0.6457261 0.5791578 0.5679706
0.6541898 0.5868175 0.5754951
0.6670775 0.5984808 0.5869527
0.6787291 0.6090256 0.5973114
0.6982537 0.6266953 0.6146694
0.6291004 0.5641115 0.5531897
0.6291004 0.5641115 0.5531897
0.6332195 0.5678393 0.5568517
0.6415321 0.5753622 0.5642419
0.6499453 0.5829762 0.5717216
0.6584600 0.5906820 0.5792914
0.6670775 0.5984808 0.5869527
0.6787291 0.6090256 0.5973114
0.6982537 0.6266953 0.6146694
0.6332195 0.5678393 0.5568517
0.6415321 0.5753622 0.5642419
0.6415321 0.5753622 0.5642419
0.6457261 0.5791578 0.5679706
0.6541898 0.5868175 0.5754951
0.6627558 0.5945697 0.5831106
0.6710618 0.6020866 0.5904948
0.6825931 0.6125225 0.6007466
0.7022205 0.6302853 0.6181961
0.6457261 0.5791578 0.5679706
0.6499453 0.5829762 0.5717216
0.6499453 0.5829762 0.5717216
0.6541898 0.5868175 0.5754951
0.6627558 0.5945697 0.5831106
0.6710618 0.6020866 0.5904948
0.6787291 0.6090256 0.5973114
0.6943076 0.6231241 0.6111613
0.7100843 0.6374020 0.6251873
0.6627558 0.5945697 0.5831106
0.6627558 0.5945697 0.5831106
0.6627558 0.5945697 0.5831106
0.6670775 0.5984808 0.5869527
0.6748854 0.6055470 0.5938942
0.6825931 0.6125225 0.6007466
0.6943076 0.6231241 0.6111613
0.7062082 0.6338942 0.6217413
0.7173600 0.6439865 0.6316556
0.6748854 0.6055470 0.5938942
0.6787291 0.6090256 0.5973114
0.6787291 0.6090256 0.5973114
0.6825931 0.6125225 0.6007466
0.6903822 0.6195717 0.6076714
0.6982537 0.6266953 0.6146694
0.7062082 0.6338942 0.6217413
0.7173600 0.6439865 0.6316556
0.7284034 0.6539809 0.6414737
0.6982537 0.6266953 0.6146694
0.6982537 0.6266953 0.6146694
0.7022205 0.6302853 0.6181961
0.7062082 0.6338942 0.6217413
0.7100843 0.6374020 0.6251873
0.7137135 0.6406865 0.6284138
0.7247049 0.6506337 0.6381855
0.7321196 0.6573440 0.6447775
0.7433742 0.6675294 0.6547831
0.7173600 0.6439865 0.6316556
0.7210237 0.6473023 0.6349128
0.7210237 0.6473023 0.6349128
0.7247049 0.6506337 0.6381855
0.7284034 0.6539809 0.6414737
0.7321196 0.6573440 0.6447775
0.7396049 0.6641182 0.6514321
0.7506635 0.6741262 0.6612636
0.7577137 0.6805067 0.6675315
0.7396049 0.6641182 0.6514321
0.7396049 0.6641182 0.6514321
0.7433742 0.6675294 0.6547831
0.7471613 0.6709568 0.6581501
0.7506635 0.6741262 0.6612636
0.7541809 0.6773095 0.6643907
0.7612619 0.6837178 0.6706860
0.7684050 0.6901823 0.6770365
0.7756105 0.6967033 0.6834424
0.7022205 0.6302853 0.6181961
0.7022205 0.6302853 0.6181961
0.7062082 0.6338942 0.6217413
0.7100843 0.6374020 0.6251873
0.7137135 0.6406865 0.6284138
0.7173600 0.6439865 0.6316556
0.7247049 0.6506337 0.6381855
0.7358534 0.6607231 0.6480969
0.7471613 0.6709568 0.6581501
0.7022205 0.6302853 0.6181961
0.7062082 0.6338942 0.6217413
0.7062082 0.6338942 0.6217413
0.7100843 0.6374020 0.6251873
0.7137135 0.6406865 0.6284138
0.7210237 0.6473023 0.6349128
0.7284034 0.6539809 0.6414737
0.7358534 0.6607231 0.6480969
0.7471613 0.6709568 0.6581501
0.7062082 0.6338942 0.6217413
0.7100843 0.6374020 0.6251873
0.7100843 0.6374020 0.6251873
0.7137135 0.6406865 0.6284138
0.7173600 0.6439865 0.6316556
0.7247049 0.6506337 0.6381855
0.7321196 0.6573440 0.6447775
0.7396049 0.6641182 0.6514321
0.7506635 0.6741262 0.6612636
0.7137135 0.6406865 0.6284138
0.7137135 0.6406865 0.6284138
0.7173600 0.6439865 0.6316556
0.7173600 0.6439865 0.6316556
0.7210237 0.6473023 0.6349128
0.7284034 0.6539809 0.6414737
0.7358534 0.6607231 0.6480969
0.7433742 0.6675294 0.6547831
0.7541809 0.6773095 0.6643907
0.7210237 0.6473023 0.6349128
0.7210237 0.6473023 0.6349128
0.7247049 0.6506337 0.6381855
0.7284034 0.6539809 0.6414737
0.7321196 0.6573440 0.6447775
0.7358534 0.6607231 0.6480969
0.7433742 0.6675294 0.6547831
0.7506635 0.6741262 0.6612636
0.7612619 0.6837178 0.6706860
0.7321196 0.6573440 0.6447775
0.7321196 0.6573440 0.6447775
0.7358534 0.6607231 0.6480969
0.7396049 0.6641182 0.6514321
0.7433742 0.6675294 0.6547831
0.7471613 0.6709568 0.6581501
0.7541809 0.6773095 0.6643907
0.7612619 0.6837178 0.6706860
0.7684050 0.6901823 0.6770365
0.7471613 0.6709568 0.6581501
0.7471613 0.6709568 0.6581501
0.7506635 0.6741262 0.6612636
0.7506635 0.6741262 0.6612636
0.7541809 0.6773095 0.6643907
0.7577137 0.6805067 0.6675315
0.7648258 0.6869431 0.6738544
0.7719999 0.6934357 0.6802325
0.7792369 0.6999851 0.6866664
0.7612619 0.6837178 0.6706860
0.7612619 0.6837178 0.6706860
0.7648258 0.6869431 0.6738544
0.7648258 0.6869431 0.6738544
0.7684050 0.6901823 0.6770365
0.7719999 0.6934357 0.6802325
0.7792369 0.6999851 0.6866664
0.7864052 0.7064725 0.6930393
0.7933692 0.7127749 0.6992305
0.7792369 0.6999851 0.6866664
0.7792369 0.6999851 0.6866664
0.7792369 0.6999851 0.6866664
0.7828791 0.7032813 0.6899044
0.7864052 0.7064725 0.6930393
0.7898800 0.7096173 0.6961285
0.7933692 0.7127749 0.6992305
0.8003907 0.7191294 0.7054729
0.8074704 0.7255366 0.7117670
