data/spectral_luts/kodak_5222_polymax_grade_2.cube
TITLE "kodak_5222_polymax_grade_2"
LUT_3D_SIZE 9
0.0791492 0.0664052 0.0642635
0.0791492 0.0664052 0.0642635
0.0794941 0.0667173 0.0645701
0.0841361 0.0709183 0.0686970
0.1058153 0.0905380 0.0879706
0.1557699 0.1357470 0.1323820
0.2227926 0.1964026 0.1919676
0.2995706 0.2658867 0.2602259
0.3622150 0.3225800 0.3159190
0.0791492 0.0664052 0.0642635
0.0792892 0.0665319 0.0643879
0.0806738 0.0677849 0.0656189
0.0884749 0.0748449 0.0725543
0.1136349 0.0976147 0.0949224
0.1661497 0.1451407 0.1416100
0.2349492 0.2074043 0.2027752
0.3080966 0.2736028 0.2678059
0.3655831 0.3256281 0.3189134
0.0826067 0.0695342 0.0673373
0.0841361 0.0709183 0.0686970
0.0899313 0.0761630 0.0738491
0.1070711 0.0916745 0.0890870
0.1436923 0.1248167 0.1216445
0.1967626 0.1728454 0.1688260
0.2625219 0.2323576 0.2272883
0.3263822 0.2901512 0.2840624
0.3817226 0.3402343 0.3332620
0.1106722 0.0949335 0.0922885
0.1151831 0.0990159 0.0962989
0.1305386 0.1129126 0.1099505
0.1557699 0.1357470 0.1323820
0.1967626 0.1728454 0.1688260
0.2457562 0.2171846 0.2123830
0.3046618 0.2704943 0.2647522
0.3555594 0.3165567 0.3100020
0.4094524 0.3653299 0.3579148
0.1859987 0.1631041 0.1592565
0.1936325 0.1700127 0.1660432
0.2095587 0.1844259 0.1802022
0.2349492 0.2074043 0.2027752
0.2719167 0.2408600 0.2356407
0.3115642 0.2767410 0.2708887
0.3506376 0.3121024 0.3056263
0.3952634 0.3524888 0.3453003
0.4485650 0.4007268 0.3926873
0.2886211 0.2559775 0.2504914
0.2923272 0.2593315 0.2537863
0.3046618 0.2704943 0.2647522
0.3182636 0.2828040 0.2768447
0.3441244 0.3062080 0.2998359
0.3691173 0.3288265 0.3220554
0.4094524 0.3653299 0.3579148
0.4485650 0.4007268 0.3926873
0.4991187 0.4464780 0.4376314
0.3691173 0.3288265 0.3220554
0.3744744 0.3336748 0.3268181
0.3817226 0.3402343 0.3332620
0.3952634 0.3524888 0.3453003
0.4136410 0.3691205 0.3616386
0.4418212 0.3946237 0.3866918
0.4736415 0.4234211 0.4149812
0.5085058 0.4549733 0.4459768
0.5522326 0.4945461 0.4848515
0.4575594 0.4088668 0.4006836
0.4621102 0.4129852 0.4047295
0.4667015 0.4171404 0.4088113
0.4781934 0.4275405 0.4190280
0.4944361 0.4422402 0.4334683
0.5204636 0.4657951 0.4566077
0.5472741 0.4900586 0.4804432
0.5750470 0.5151931 0.5051343
0.6094590 0.5463361 0.5357278
0.5472741 0.4900586 0.4804432
0.5472741 0.4900586 0.4804432
0.5522326 0.4945461 0.4848515
0.5622725 0.5036322 0.4937773
0.5750470 0.5151931 0.5051343
0.5906795 0.5293405 0.5190321
0.6149377 0.5512942 0.5405985
0.6458571 0.5792763 0.5680870
0.6749751 0.6056282 0.5939739
0.0798091 0.0670024 0.0648501
0.0803780 0.0675172 0.0653559
0.0835323 0.0703719 0.0681602
0.0946762 0.0804571 0.0780675
0.1264072 0.1091737 0.1062775
0.1800957 0.1577619 0.1540085
0.2457562 0.2171846 0.2123830
0.3182636 0.2828040 0.2768447
0.3744744 0.3336748 0.3268181
0.0813804 0.0684244 0.0662471
0.0827221 0.0696386 0.0674398
0.0880263 0.0744389 0.0721555
0.1033328 0.0882914 0.0857635
0.1391729 0.1207267 0.1176267
0.1936325 0.1700127 0.1660432
0.2588400 0.2290255 0.2240150
0.3231138 0.2871933 0.2811567
0.3780833 0.3369408 0.3300265
0.0918915 0.0779370 0.0755918
0.0946762 0.0804571 0.0780675
0.1058153 0.0905380 0.0879706
0.1284613 0.1110326 0.1081036
0.1688380 0.1475736 0.1440000
0.2194208 0.1933511 0.1889699
0.2831360 0.2510134 0.2456150
0.3408966 0.3032869 0.2969663
0.3952634 0.3524888 0.3453003
0.1347640 0.1167366 0.1137070
0.1391729 0.1207267 0.1176267
0.1557699 0.1357470 0.1323820
0.1800957 0.1577619 0.1540085
0.2194208 0.1933511 0.1889699
0.2719167 0.2408600 0.2356407
0.3231138 0.2871933 0.2811567
0.3655831 0.3256281 0.3189134
0.4221319 0.3768048 0.3691873
0.2128061 0.1873648 0.1830892
0.2160933 0.1903397 0.1860116
0.2314226 0.2042127 0.1996399
0.2550448 0.2255908 0.2206409
0.2923272 0.2593315 0.2537863
0.3263822 0.2901512 0.2840624
0.3622150 0.3225800 0.3159190
0.4094524 0.3653299 0.3579148
0.4575594 0.4088668 0.4006836
0.3080966 0.2736028 0.2678059
0.3115642 0.2767410 0.2708887
0.3182636 0.2828040 0.2768447
0.3329409 0.2960869 0.2898933
0.3555594 0.3165567 0.3100020
0.3817226 0.3402343 0.3332620
0.4178674 0.3729455 0.3653961
0.4621102 0.4129852 0.4047295
0.5037926 0.4507079 0.4417866
0.3817226 0.3402343 0.3332620
0.3854570 0.3436140 0.3365820
0.3952634 0.3524888 0.3453003
0.4094524 0.3653299 0.3579148
0.4286033 0.3826615 0.3749406
0.4530487 0.4047845 0.3966734
0.4827845 0.4316955 0.4231097
0.5204636 0.4657951 0.4566077
0.5572320 0.4990705 0.4892961
0.4667015 0.4171404 0.4088113
0.4736415 0.4234211 0.4149812
0.4781934 0.4275405 0.4190280
0.4874153 0.4358863 0.4272265
0.5037926 0.4507079 0.4417866
0.5252588 0.4701348 0.4608708
0.5522326 0.4945461 0.4848515
0.5854260 0.5245861 0.5143616
0.6204612 0.5562931 0.5455092
0.5522326 0.4945461 0.4848515
0.5572320 0.4990705 0.4892961
0.5622725 0.5036322 0.4937773
0.5673546 0.5082316 0.4982955
0.5854260 0.5245861 0.5143616
0.6013251 0.5389748 0.5284964
0.6260304 0.5613332 0.5504604
0.6516262 0.5844974 0.5732160
0.6809146 0.6110034 0.5992544
0.1070711 0.0916745 0.0890870
0.1106722 0.0949335 0.0922885
0.1243762 0.1073356 0.1044718
0.1508086 0.1312570 0.1279712
0.1905413 0.1672152 0.1632950
0.2421192 0.2138931 0.2091496
0.2995706 0.2658867 0.2602259
0.3506376 0.3121024 0.3056263
0.4032656 0.3597308 0.3524145
0.1151831 0.0990159 0.0962989
0.1206408 0.1039551 0.1011509
0.1369519 0.1187166 0.1156521
0.1608695 0.1403621 0.1369157
0.1999322 0.1757139 0.1716438
0.2512954 0.2221976 0.2173075
0.3080966 0.2736028 0.2678059
0.3588739 0.3195563 0.3129487
0.4136410 0.3691205 0.3616386
0.1436923 0.1248167 0.1216445
0.1508086 0.1312570 0.1279712
0.1661497 0.1451407 0.1416100
0.1905413 0.1672152 0.1632950
0.2279390 0.2010600 0.1965428
0.2795279 0.2477481 0.2424073
0.3263822 0.2901512 0.2840624
0.3744744 0.3336748 0.3268181
0.4286033 0.3826615 0.3749406
0.1967626 0.1728454 0.1688260
0.2031416 0.1786184 0.1744971
0.2160933 0.1903397 0.1860116
0.2421192 0.2138931 0.2091496
0.2757520 0.2443309 0.2390504
0.3150648 0.2799090 0.2740009
0.3555594 0.3165567 0.3100020
0.3992469 0.3560939 0.3488417
0.4530487 0.4047845 0.3966734
0.2719167 0.2408600 0.2356407
0.2757520 0.2443309 0.2390504
0.2886211 0.2559775 0.2504914
0.3080966 0.2736028 0.2678059
0.3296788 0.2931347 0.2869931
0.3588739 0.3195563 0.3129487
0.3952634 0.3524888 0.3453003
0.4373756 0.3906004 0.3827395
0.4874153 0.4358863 0.4272265
0.3441244 0.3062080 0.2998359
0.3473785 0.3091529 0.3027289
0.3555594 0.3165567 0.3100020
0.3655831 0.3256281 0.3189134
0.3854570 0.3436140 0.3365820
0.4136410 0.3691205 0.3616386
0.4530487 0.4047845 0.3966734
0.4874153 0.4358863 0.4272265
0.5300822 0.4745000 0.4651590
0.4136410 0.3691205 0.3616386
0.4178674 0.3729455 0.3653961
0.4286033 0.3826615 0.3749406
0.4373756 0.3906004 0.3827395
0.4575594 0.4088668 0.4006836
0.4827845 0.4316955 0.4231097
0.5085058 0.4549733 0.4459768
0.5472741 0.4900586 0.4804432
0.5802153 0.5198705 0.5097291
0.4991187 0.4464780 0.4376314
0.4991187 0.4464780 0.4376314
0.5037926 0.4507079 0.4417866
0.5132588 0.4592747 0.4502023
0.5300822 0.4745000 0.4651590
0.5522326 0.4945461 0.4848515
0.5750470 0.5151931 0.5051343
0.6013251 0.5389748 0.5284964
0.6372915 0.5715244 0.5604719
0.5750470 0.5151931 0.5051343
0.5802153 0.5198705 0.5097291
0.5802153 0.5198705 0.5097291
0.5906795 0.5293405 0.5190321
0.6013251 0.5389748 0.5284964
0.6204612 0.5562931 0.5455092
0.6458571 0.5792763 0.5680870
0.6690837 0.6002964 0.5887362
0.6928299 0.6217868 0.6098475
0.2160933 0.1903397 0.1860116
0.2194208 0.1933511 0.1889699
0.2349492 0.2074043 0.2027752
0.2588400 0.2290255 0.2240150
0.2923272 0.2593315 0.2537863
0.3296788 0.2931347 0.2869931
0.3655831 0.3256281 0.3189134
0.4094524 0.3653299 0.3579148
0.4621102 0.4129852 0.4047295
0.2279390 0.2010600 0.1965428
0.2314226 0.2042127 0.1996399
0.2457562 0.2171846 0.2123830
0.2681259 0.2374293 0.2322705
0.2995706 0.2658867 0.2602259
0.3329409 0.2960869 0.2898933
0.3691173 0.3288265 0.3220554
0.4136410 0.3691205 0.3616386
0.4667015 0.4171404 0.4088113
0.2550448 0.2255908 0.2206409
0.2588400 0.2290255 0.2240150
0.2719167 0.2408600 0.2356407
0.2923272 0.2593315 0.2537863
0.3182636 0.2828040 0.2768447
0.3506376 0.3121024 0.3056263
0.3854570 0.3436140 0.3365820
0.4329698 0.3866132 0.3788226
0.4781934 0.4275405 0.4190280
0.2960733 0.2627217 0.2571167
0.3046618 0.2704943 0.2647522
0.3115642 0.2767410 0.2708887
0.3296788 0.2931347 0.2869931
0.3506376 0.3121024 0.3056263
0.3780833 0.3369408 0.3300265
0.4136410 0.3691205 0.3616386
0.4575594 0.4088668 0.4006836
0.5037926 0.4507079 0.4417866
0.3441244 0.3062080 0.2998359
0.3473785 0.3091529 0.3027289
0.3555594 0.3165567 0.3100020
0.3691173 0.3288265 0.3220554
0.3913150 0.3489155 0.3417900
0.4178674 0.3729455 0.3653961
0.4530487 0.4047845 0.3966734
0.4874153 0.4358863 0.4272265
0.5300822 0.4745000 0.4651590
0.3992469 0.3560939 0.3488417
0.4032656 0.3597308 0.3524145
0.4136410 0.3691205 0.3616386
0.4221319 0.3768048 0.3691873
0.4418212 0.3946237 0.3866918
0.4667015 0.4171404 0.4088113
0.4991187 0.4464780 0.4376314
0.5349456 0.4789014 0.4694827
0.5750470 0.5151931 0.5051343
0.4667015 0.4171404 0.4088113
0.4736415 0.4234211 0.4149812
0.4781934 0.4275405 0.4190280
0.4874153 0.4358863 0.4272265
0.5037926 0.4507079 0.4417866
0.5252588 0.4701348 0.4608708
0.5522326 0.4945461 0.4848515
0.5854260 0.5245861 0.5143616
0.6204612 0.5562931 0.5455092
0.5398496 0.4833395 0.4738426
0.5398496 0.4833395 0.4738426
0.5472741 0.4900586 0.4804432
0.5572320 0.4990705 0.4892961
0.5673546 0.5082316 0.4982955
0.5906795 0.5293405 0.5190321
0.6149377 0.5512942 0.5405985
0.6372915 0.5715244 0.5604719
0.6690837 0.6002964 0.5887362
0.6149377 0.5512942 0.5405985
0.6149377 0.5512942 0.5405985
0.6204612 0.5562931 0.5455092
0.6260304 0.5613332 0.5504604
0.6372915 0.5715244 0.5604719
0.6574429 0.5897616 0.5783872
0.6749751 0.6056282 0.5939739
0.6987826 0.6271740 0.6151397
0.7259288 0.6517413 0.6392736
0.3441244 0.3062080 0.2998359
0.3473785 0.3091529 0.3027289
0.3555594 0.3165567 0.3100020
0.3655831 0.3256281 0.3189134
0.3854570 0.3436140 0.3365820
0.4178674 0.3729455 0.3653961
0.4530487 0.4047845 0.3966734
0.4874153 0.4358863 0.4272265
0.5300822 0.4745000 0.4651590
0.3506376 0.3121024 0.3056263
0.3506376 0.3121024 0.3056263
0.3622150 0.3225800 0.3159190
0.3744744 0.3336748 0.3268181
0.3952634 0.3524888 0.3453003
0.4221319 0.3768048 0.3691873
0.4575594 0.4088668 0.4006836
0.4944361 0.4422402 0.4334683
0.5349456 0.4789014 0.4694827
0.3655831 0.3256281 0.3189134
0.3655831 0.3256281 0.3189134
0.3744744 0.3336748 0.3268181
0.3913150 0.3489155 0.3417900
0.4094524 0.3653299 0.3579148
0.4373756 0.3906004 0.3827395
0.4667015 0.4171404 0.4088113
0.5037926 0.4507079 0.4417866
0.5472741 0.4900586 0.4804432
0.3913150 0.3489155 0.3417900
0.3952634 0.3524888 0.3453003
0.4032656 0.3597308 0.3524145
0.4178674 0.3729455 0.3653961
0.4373756 0.3906004 0.3827395
0.4621102 0.4129852 0.4047295
0.4944361 0.4422402 0.4334683
0.5252588 0.4701348 0.4608708
0.5622725 0.5036322 0.4937773
0.4329698 0.3866132 0.3788226
0.4329698 0.3866132 0.3788226
0.4418212 0.3946237 0.3866918
0.4530487 0.4047845 0.3966734
0.4736415 0.4234211 0.4149812
0.4944361 0.4422402 0.4334683
0.5252588 0.4701348 0.4608708
0.5572320 0.4990705 0.4892961
0.5906795 0.5293405 0.5190321
0.4827845 0.4316955 0.4231097
0.4827845 0.4316955 0.4231097
0.4944361 0.4422402 0.4334683
0.5037926 0.4507079 0.4417866
0.5204636 0.4657951 0.4566077
0.5349456 0.4789014 0.4694827
0.5622725 0.5036322 0.4937773
0.5906795 0.5293405 0.5190321
0.6260304 0.5613332 0.5504604
0.5349456 0.4789014 0.4694827
0.5398496 0.4833395 0.4738426
0.5472741 0.4900586 0.4804432
0.5572320 0.4990705 0.4892961
0.5673546 0.5082316 0.4982955
0.5854260 0.5245861 0.5143616
0.6094590 0.5463361 0.5357278
0.6372915 0.5715244 0.5604719
0.6690837 0.6002964 0.5887362
0.5959760 0.5341339 0.5237409
0.6013251 0.5389748 0.5284964
0.6094590 0.5463361 0.5357278
0.6149377 0.5512942 0.5405985
0.6260304 0.5613332 0.5504604
0.6458571 0.5792763 0.5680870
0.6632397 0.5950076 0.5835407
0.6869023 0.6164224 0.6045777
0.7138728 0.6408306 0.6285554
0.6632397 0.5950076 0.5835407
0.6632397 0.5950076 0.5835407
0.6690837 0.6002964 0.5887362
0.6749751 0.6056282 0.5939739
0.6869023 0.6164224 0.6045777
0.6987826 0.6271740 0.6151397
0.7199600 0.6463395 0.6339671
0.7380050 0.6626703 0.6500098
0.7623254 0.6846803 0.6716315
0.4621102 0.4129852 0.4047295
0.4621102 0.4129852 0.4047295
0.4667015 0.4171404 0.4088113
0.4827845 0.4316955 0.4231097
0.4991187 0.4464780 0.4376314
0.5204636 0.4657951 0.4566077
0.5472741 0.4900586 0.4804432
0.5802153 0.5198705 0.5097291
0.6149377 0.5512942 0.5405985
0.4667015 0.4171404 0.4088113
0.4667015 0.4171404 0.4088113
0.4736415 0.4234211 0.4149812
0.4874153 0.4358863 0.4272265
0.5037926 0.4507079 0.4417866
0.5252588 0.4701348 0.4608708
0.5522326 0.4945461 0.4848515
0.5802153 0.5198705 0.5097291
0.6149377 0.5512942 0.5405985
0.4781934 0.4275405 0.4190280
0.4827845 0.4316955 0.4231097
0.4874153 0.4358863 0.4272265
0.4991187 0.4464780 0.4376314
0.5132588 0.4592747 0.4502023
0.5349456 0.4789014 0.4694827
0.5622725 0.5036322 0.4937773
0.5906795 0.5293405 0.5190321
0.6260304 0.5613332 0.5504604
0.4991187 0.4464780 0.4376314
0.5037926 0.4507079 0.4417866
0.5085058 0.4549733 0.4459768
0.5204636 0.4657951 0.4566077
0.5349456 0.4789014 0.4694827
0.5522326 0.4945461 0.4848515
0.5802153 0.5198705 0.5097291
0.6094590 0.5463361 0.5357278
0.6372915 0.5715244 0.5604719
0.5300822 0.4745000 0.4651590
0.5349456 0.4789014 0.4694827
0.5398496 0.4833395 0.4738426
0.5522326 0.4945461 0.4848515
0.5622725 0.5036322 0.4937773
0.5802153 0.5198705 0.5097291
0.6013251 0.5389748 0.5284964
0.6316394 0.5664093 0.5554470
0.6632397 0.5950076 0.5835407
0.5673546 0.5082316 0.4982955
0.5750470 0.5151931 0.5051343
0.5802153 0.5198705 0.5097291
0.5854260 0.5245861 0.5143616
0.6013251 0.5389748 0.5284964
0.6204612 0.5562931 0.5455092
0.6372915 0.5715244 0.5604719
0.6632397 0.5950076 0.5835407
0.6928299 0.6217868 0.6098475
0.6204612 0.5562931 0.5455092
0.6204612 0.5562931 0.5455092
0.6260304 0.5613332 0.5504604
0.6316394 0.5664093 0.5554470
0.6458571 0.5792763 0.5680870
0.6632397 0.5950076 0.5835407
0.6809146 0.6110034 0.5992544
0.6987826 0.6271740 0.6151397
0.7319437 0.6571848 0.6446210
0.6690837 0.6002964 0.5887362
0.6690837 0.6002964 0.5887362
0.6749751 0.6056282 0.5939739
0.6809146 0.6110034 0.5992544
0.6928299 0.6217868 0.6098475
0.7078009 0.6353355 0.6231572
0.7259288 0.6517413 0.6392736
0.7441128 0.6681979 0.6554399
0.7684218 0.6901975 0.6770514
0.7259288 0.6517413 0.6392736
0.7259288 0.6517413 0.6392736
0.7319437 0.6571848 0.6446210
0.7380050 0.6626703 0.6500098
0.7441128 0.6681979 0.6554399
0.7562742 0.6792039 0.6662518
0.7745636 0.6957558 0.6825116
0.7869092 0.7069286 0.6934873
0.8119354 0.7295774 0.7157365
0.5802153 0.5198705 0.5097291
0.5802153 0.5198705 0.5097291
0.5854260 0.5245861 0.5143616
0.5906795 0.5293405 0.5190321
0.6094590 0.5463361 0.5357278
0.6260304 0.5613332 0.5504604
0.6458571 0.5792763 0.5680870
0.6690837 0.6002964 0.5887362
0.6987826 0.6271740 0.6151397
0.5802153 0.5198705 0.5097291
0.5854260 0.5245861 0.5143616
0.5906795 0.5293405 0.5190321
0.5959760 0.5341339 0.5237409
0.6094590 0.5463361 0.5357278
0.6260304 0.5613332 0.5504604
0.6516262 0.5844974 0.5732160
0.6749751 0.6056282 0.5939739
0.6987826 0.6271740 0.6151397
0.5906795 0.5293405 0.5190321
0.5906795 0.5293405 0.5190321
0.5959760 0.5341339 0.5237409
0.6094590 0.5463361 0.5357278
0.6204612 0.5562931 0.5455092
0.6372915 0.5715244 0.5604719
0.6574429 0.5897616 0.5783872
0.6809146 0.6110034 0.5992544
0.7138728 0.6408306 0.6285554
0.6094590 0.5463361 0.5357278
0.6094590 0.5463361 0.5357278
0.6149377 0.5512942 0.5405985
0.6260304 0.5613332 0.5504604
0.6372915 0.5715244 0.5604719
0.6516262 0.5844974 0.5732160
0.6749751 0.6056282 0.5939739
0.6928299 0.6217868 0.6098475
0.7259288 0.6517413 0.6392736
0.6316394 0.5664093 0.5554470
0.6372915 0.5715244 0.5604719
0.6372915 0.5715244 0.5604719
0.6516262 0.5844974 0.5732160
0.6574429 0.5897616 0.5783872
0.6749751 0.6056282 0.5939739
0.6928299 0.6217868 0.6098475
0.7199600 0.6463395 0.6339671
0.7441128 0.6681979 0.6554399
0.6632397 0.5950076 0.5835407
0.6690837 0.6002964 0.5887362
0.6690837 0.6002964 0.5887362
0.6809146 0.6110034 0.5992544
0.6869023 0.6164224 0.6045777
0.7078009 0.6353355 0.6231572
0.7199600 0.6463395 0.6339671
0.7441128 0.6681979 0.6554399
0.7623254 0.6846803 0.6716315
0.7078009 0.6353355 0.6231572
0.7078009 0.6353355 0.6231572
0.7078009 0.6353355 0.6231572
0.7138728 0.6408306 0.6285554
0.7259288 0.6517413 0.6392736
0.7380050 0.6626703 0.6500098
0.7562742 0.6792039 0.6662518
0.7745636 0.6957558 0.6825116
0.7930972 0.7125288 0.6989887
0.7441128 0.6681979 0.6554399
0.7502679 0.6737682 0.6609119
0.7502679 0.6737682 0.6609119
0.7562742 0.6792039 0.6662518
0.7623254 0.6846803 0.6716315
0.7745636 0.6957558 0.6825116
0.7930972 0.7125288 0.6989887
0.8056099 0.7238529 0.7101130
0.8242478 0.7407201 0.7266827
0.7930972 0.7125288 0.6989887
0.7930972 0.7125288 0.6989887
0.7930972 0.7125288 0.6989887
0.7993307 0.7181701 0.7045305
0.8056099 0.7238529 0.7101130
0.8181174 0.7351720 0.7212325
0.8304214 0.7463072 0.7321712
0.8428988 0.7575993 0.7432641
0.8606464 0.7736609 0.7590424
0.6928299 0.6217868 0.6098475
0.6928299 0.6217868 0.6098475
0.6928299 0.6217868 0.6098475
0.7078009 0.6353355 0.6231572
0.7138728 0.6408306 0.6285554
0.7259288 0.6517413 0.6392736
0.7441128 0.6681979 0.6554399
0.7623254 0.6846803 0.6716315
0.7869092 0.7069286 0.6934873
0.6928299 0.6217868 0.6098475
0.6928299 0.6217868 0.6098475
0.6987826 0.6271740 0.6151397
0.7078009 0.6353355 0.6231572
0.7199600 0.6463395 0.6339671
0.7319437 0.6571848 0.6446210
0.7441128 0.6681979 0.6554399
0.7623254 0.6846803 0.6716315
0.7869092 0.7069286 0.6934873
0.6987826 0.6271740 0.6151397
0.7078009 0.6353355 0.6231572
0.7078009 0.6353355 0.6231572
0.7138728 0.6408306 0.6285554
0.7259288 0.6517413 0.6392736
0.7380050 0.6626703 0.6500098
0.7502679 0.6737682 0.6609119
0.7684218 0.6901975 0.6770514
0.7930972 0.7125288 0.6989887
0.7138728 0.6408306 0.6285554
0.7199600 0.6463395 0.6339671
0.7199600 0.6463395 0.6339671
0.7259288 0.6517413 0.6392736
0.7380050 0.6626703 0.6500098
0.7502679 0.6737682 0.6609119
0.7623254 0.6846803 0.6716315
0.7807512 0.7013556 0.6880127
0.8056099 0.7238529 0.7101130
0.7380050 0.6626703 0.6500098
0.7380050 0.6626703 0.6500098
0.7380050 0.6626703 0.6500098
0.7441128 0.6681979 0.6554399
0.7562742 0.6792039 0.6662518
0.7684218 0.6901975 0.6770514
0.7807512 0.7013556 0.6880127
0.7993307 0.7181701 0.7045305
0.8181174 0.7351720 0.7212325
0.7562742 0.6792039 0.6662518
0.7623254 0.6846803 0.6716315
0.7623254 0.6846803 0.6716315
0.7684218 0.6901975 0.6770514
0.7745636 0.6957558 0.6825116
0.7869092 0.7069286 0.6934873
0.7993307 0.7181701 0.7045305
0.8181174 0.7351720 0.7212325
0.8366382 0.7519334 0.7376982
0.7869092 0.7069286 0.6934873
0.7869092 0.7069286 0.6934873
0.7930972 0.7125288 0.6989887
0.7993307 0.7181701 0.7045305
0.8056099 0.7238529 0.7101130
0.8119354 0.7295774 0.7157365
0.8304214 0.7463072 0.7321712
0.8428988 0.7575993 0.7432641
0.8606464 0.7736609 0.7590424
0.8181174 0.7351720 0.7212325
0.8242478 0.7407201 0.7266827
0.8242478 0.7407201 0.7266827
0.8304214 0.7463072 0.7321712
0.8366382 0.7519334 0.7376982
0.8428988 0.7575993 0.7432641
0.8547779 0.7683498 0.7538250
0.8724973 0.7843860 0.7695783
0.8837014 0.7945257 0.7795391
0.8547779 0.7683498 0.7538250
0.8547779 0.7683498 0.7538250
0.8606464 0.7736609 0.7590424
0.8665528 0.7790062 0.7642934
0.8724973 0.7843860 0.7695783
0.8782815 0.7896206 0.7747205
0.8864233 0.7969890 0.7819589
0.8973895 0.8069134 0.7917084
0.9082353 0.8167288 0.8013506
0.7930972 0.7125288 0.6989887
0.7930972 0.7125288 0.6989887
0.7993307 0.7181701 0.7045305
0.8056099 0.7238529 0.7101130
0.8119354 0.7295774 0.7157365
0.8181174 0.7351720 0.7212325
0.8304214 0.7463072 0.7321712
0.8489469 0.7630728 0.7486411
0.8665528 0.7790062 0.7642934
0.7930972 0.7125288 0.6989887
0.7993307 0.7181701 0.7045305
0.7993307 0.7181701 0.7045305
0.8056099 0.7238529 0.7101130
0.8119354 0.7295774 0.7157365
0.8242478 0.7407201 0.7266827
0.8366382 0.7519334 0.7376982
0.8489469 0.7630728 0.7486411
0.8665528 0.7790062 0.7642934
0.7993307 0.7181701 0.7045305
0.8056099 0.7238529 0.7101130
0.8056099 0.7238529 0.7101130
0.8119354 0.7295774 0.7157365
0.8181174 0.7351720 0.7212325
0.8304214 0.7463072 0.7321712
0.8428988 0.7575993 0.7432641
0.8547779 0.7683498 0.7538250
0.8724973 0.7843860 0.7695783
0.8119354 0.7295774 0.7157365
0.8119354 0.7295774 0.7157365
0.8181174 0.7351720 0.7212325
0.8181174 0.7351720 0.7212325
0.8242478 0.7407201 0.7266827
0.8366382 0.7519334 0.7376982
0.8489469 0.7630728 0.7486411
0.8606464 0.7736609 0.7590424
0.8782815 0.7896206 0.7747205
0.8242478 0.7407201 0.7266827
0.8242478 0.7407201 0.7266827
0.8304214 0.7463072 0.7321712
0.8366382 0.7519334 0.7376982
0.8428988 0.7575993 0.7432641
0.8489469 0.7630728 0.7486411
0.8606464 0.7736609 0.7590424
0.8724973 0.7843860 0.7695783
0.8864233 0.7969890 0.7819589
0.8428988 0.7575993 0.7432641
0.8428988 0.7575993 0.7432641
0.8489469 0.7630728 0.7486411
0.8547779 0.7683498 0.7538250
0.8606464 0.7736609 0.7590424
0.8665528 0.7790062 0.7642934
0.8782815 0.7896206 0.7747205
0.8864233 0.7969890 0.7819589
0.8973895 0.8069134 0.7917084
0.8665528 0.7790062 0.7642934
0.8665528 0.7790062 0.7642934
0.8724973 0.7843860 0.7695783
0.8724973 0.7843860 0.7695783
0.8782815 0.7896206 0.7747205
0.8837014 0.7945257 0.7795391
0.8918905 0.8019369 0.7868195
0.9029205 0.8119190 0.7966256
0.9134548 0.8214525 0.8059909
0.8864233 0.7969890 0.7819589
0.8864233 0.7969890 0.7819589
0.8918905 0.8019369 0.7868195
0.8918905 0.8019369 0.7868195
0.8973895 0.8069134 0.7917084
0.9029205 0.8119190 0.7966256
0.9134548 0.8214525 0.8059909
0.9213372 0.8285861 0.8129987
0.9319469 0.8381879 0.8224311
0.9134548 0.8214525 0.8059909
0.9134548 0.8214525 0.8059909
0.9134548 0.8214525 0.8059909
0.9187027 0.8262019 0.8106565
0.9213372 0.8285861 0.8129987
0.9266276 0.8333740 0.8177021
0.9319469 0.8381879 0.8224311
0.9419160 0.8472100 0.8312940
0.9519859 0.8563232 0.8402464
