data/spectral_luts/portra_400_supra_endura.cube
TITLE "portra_400_supra_endura"
LUT_3D_SIZE 9
0.0767948 0.0601254 0.0732772
0.0746730 0.0598015 0.0731720
0.0848672 0.0613987 0.0735413
0.1810309 0.0748985 0.0746464
0.3970769 0.0929184 0.0747527
0.5743698 0.1256384 0.1256384
0.6835925 0.1569869 0.1569869
0.7614919 0.1793452 0.1793452
0.8168259 0.1952269 0.1952269
0.0772421 0.0625252 0.0735769
0.0745665 0.0626629 0.0735271
0.0841176 0.0653225 0.0739513
0.1735844 0.0809470 0.0751938
0.3985696 0.1051668 0.0751812
0.5839084 0.1283761 0.1283761
0.6943259 0.1600676 0.1600676
0.7747502 0.1831505 0.1831505
0.8295707 0.2142356 0.1988848
0.0753289 0.0854968 0.0762004
0.0720054 0.0857484 0.0760683
0.0809557 0.0896410 0.0762307
0.1732212 0.1089959 0.0776360
0.4066005 0.1457309 0.0774861
0.6020805 0.1761391 0.1335918
0.7275448 0.2062487 0.1696019
0.8057047 0.2485169 0.1920349
0.8618088 0.2983548 0.2081376
0.0597868 0.1414731 0.0796766
0.0534406 0.1417102 0.0796745
0.0653523 0.1501607 0.0802967
0.1703805 0.1806797 0.0798607
0.4232158 0.2378902 0.0822550
0.6404791 0.2877812 0.1446127
0.7699013 0.3332295 0.1817588
0.8503878 0.3777838 0.2048596
0.9020562 0.4229638 0.2196892
0.0319553 0.2464499 0.0779277
0.0318160 0.2459016 0.0781212
0.0356185 0.2603942 0.0769343
0.1662399 0.2962961 0.0687494
0.4370208 0.3693124 0.0862172
0.6757985 0.4322107 0.1547499
0.8088984 0.4744740 0.1929516
0.8884026 0.5077286 0.2157704
0.9345277 0.5491480 0.2290090
0.0609588 0.3490170 0.0617505
0.0618967 0.3522846 0.0618967
0.0644973 0.3613455 0.0644973
0.1383419 0.4099934 0.0784599
0.4725671 0.4919596 0.1019854
0.6945470 0.5466169 0.1601310
0.8344614 0.5865904 0.2002885
0.9144158 0.6206201 0.2232366
0.9579839 0.6535352 0.2357413
0.0833684 0.4270950 0.0833684
0.0841435 0.4297955 0.0841435
0.0885812 0.4452573 0.0885812
0.1355473 0.4947924 0.1027985
0.4830256 0.5770543 0.1264089
0.7170001 0.6399082 0.1665754
0.8499563 0.6763538 0.2047358
0.9288655 0.7072182 0.2273839
0.9707459 0.7339491 0.2394042
0.1007143 0.4875309 0.1007143
0.1015355 0.4903919 0.1015355
0.1075187 0.5112382 0.1075187
0.1766565 0.5760040 0.1261074
0.5101753 0.6538333 0.1484456
0.7311365 0.7082114 0.1706327
0.8638270 0.7456269 0.2087169
0.9367487 0.7767917 0.2296465
0.9739926 0.8026870 0.2403360
0.1165416 0.5426753 0.1165416
0.1185229 0.5495782 0.1185229
0.1269633 0.5789859 0.1269633
0.2483142 0.6458514 0.1461547
0.5613925 0.7182969 0.1669476
0.7524202 0.7692494 0.1815717
0.8658600 0.8003053 0.2093004
0.9382420 0.8281891 0.2300751
0.9755008 0.8512771 0.2407689
0.0765905 0.0600882 0.0728174
0.0742382 0.0598175 0.0728234
0.0871633 0.0621704 0.0738359
0.1904686 0.0769948 0.0764339
0.4010563 0.0953702 0.0758949
0.5778305 0.1266317 0.1266317
0.6909510 0.1590989 0.1590989
0.7637470 0.1799924 0.1799924
0.8198000 0.1960805 0.1960805
0.0769033 0.0638088 0.0734332
0.0739035 0.0641194 0.0735196
0.0862218 0.0674629 0.0746849
0.1829642 0.0845454 0.0774681
0.4029311 0.1088047 0.0764330
0.5862867 0.1290587 0.1290587
0.7025232 0.1624203 0.1624203
0.7765970 0.1836806 0.1836806
0.8318813 0.2243833 0.1995480
0.0744838 0.0905092 0.0770974
0.0701407 0.0912113 0.0772744
0.0812586 0.0960056 0.0782711
0.1774429 0.1168817 0.0803552
0.4131953 0.1561905 0.0793789
0.6069220 0.1842436 0.1349813
0.7302322 0.2153934 0.1703732
0.8076643 0.2540711 0.1925974
0.8656058 0.3147026 0.2092274
0.0497296 0.1596179 0.0820438
0.0427388 0.1586635 0.0821509
0.0584735 0.1677921 0.0828005
0.1735052 0.1993353 0.0818635
0.4308034 0.2570131 0.0844327
0.6479885 0.3074887 0.1467680
0.7720758 0.3442012 0.1823829
0.8553937 0.3889149 0.2062964
0.9047192 0.4417569 0.2204536
0.0367616 0.2645727 0.0783531
0.0367609 0.2645703 0.0784931
0.0406039 0.2780975 0.0773816
0.1628354 0.3176829 0.0686345
0.4576328 0.3869761 0.0921332
0.6798207 0.4431929 0.1559044
0.8121764 0.4874700 0.1938924
0.8908287 0.5290301 0.2164668
0.9380205 0.5626341 0.2300115
0.0639201 0.3593345 0.0639201
0.0643608 0.3608699 0.0643608
0.0677412 0.3726479 0.0677412
0.1535162 0.4209000 0.0815903
0.4719515 0.5027422 0.1050802
0.7085200 0.5588514 0.1641415
0.8362896 0.5957924 0.2008132
0.9138082 0.6309714 0.2230622
0.9560097 0.6640509 0.2351747
0.0840501 0.4294703 0.0840501
0.0852390 0.4336124 0.0852390
0.0891741 0.4473231 0.0891741
0.1549223 0.5011801 0.1046319
0.4821847 0.5821697 0.1278771
0.7166059 0.6432879 0.1664622
0.8494895 0.6835175 0.2046018
0.9278679 0.7130730 0.2270976
0.9692777 0.7410673 0.2389828
0.1007143 0.4875309 0.1007143
0.1020618 0.4922256 0.1020618
0.1075187 0.5112382 0.1075187
0.1766565 0.5760040 0.1261074
0.5101753 0.6538333 0.1484456
0.7285347 0.7108781 0.1698860
0.8638270 0.7456269 0.2087169
0.9367487 0.7767917 0.2296465
0.9731363 0.8047071 0.2400903
0.1165416 0.5426753 0.1165416
0.1185229 0.5495782 0.1185229
0.1281444 0.5831012 0.1281444
0.2483142 0.6458514 0.1461547
0.5567632 0.7198796 0.1674019
0.7524202 0.7692494 0.1815717
0.8649487 0.8021391 0.2090388
0.9382420 0.8281891 0.2300751
0.9755008 0.8512771 0.2407689
0.0735052 0.0628482 0.0892452
0.0727636 0.0630955 0.0905047
0.0900928 0.0669338 0.0934001
0.2049914 0.0846327 0.1024753
0.4161212 0.1050408 0.1089959
0.5905514 0.1302827 0.1302827
0.6981688 0.1611705 0.1611705
0.7714474 0.1822026 0.1822026
0.8254647 0.2182467 0.2351713
0.0732061 0.0699055 0.0912314
0.0716839 0.0707254 0.0925786
0.0880611 0.0754367 0.0968256
0.1986792 0.0951705 0.1051580
0.4187260 0.1216223 0.1112029
0.5992075 0.1396349 0.1327672
0.7093067 0.1643673 0.1643673
0.7835395 0.2007252 0.1856732
0.8386210 0.2537377 0.2367070
0.0676337 0.1012285 0.0982333
0.0641030 0.1027815 0.1001165
0.0799093 0.1103299 0.1053085
0.1939395 0.1354818 0.1132648
0.4329578 0.1758910 0.1201300
0.6212801 0.2068523 0.1391024
0.7387102 0.2441589 0.1728065
0.8188017 0.2896052 0.1957939
0.8699317 0.3465270 0.2541673
0.0190160 0.1878224 0.1103405
0.0190802 0.1881635 0.1125294
0.0358392 0.1966666 0.1157225
0.1896603 0.2361411 0.1246991
0.4511935 0.2919504 0.1223880
0.6621976 0.3436238 0.1508463
0.7841927 0.3816297 0.1858607
0.8601500 0.4265367 0.2076615
0.9054428 0.4725159 0.2729267
0.0469841 0.3003272 0.1189725
0.0490791 0.3076265 0.1185164
0.0515150 0.3161132 0.1247885
0.1714475 0.3615135 0.1264101
0.4778819 0.4307588 0.1144874
0.6926736 0.4834482 0.1595933
0.8195642 0.5243447 0.1960128
0.8888891 0.5577105 0.2159101
0.9348972 0.5991417 0.2825888
0.0751761 0.3985521 0.1208881
0.0757531 0.4005622 0.1205674
0.0797585 0.4145176 0.1275253
0.1315988 0.4683902 0.1250367
0.4866141 0.5474983 0.1179259
0.7057678 0.6002951 0.1633515
0.8317033 0.6369846 0.1994969
0.9101387 0.6716484 0.2220090
0.9503423 0.6939142 0.2918529
0.0946353 0.4663505 0.1253604
0.0958039 0.4704221 0.1301220
0.1008350 0.4879512 0.1329829
0.1245004 0.5488062 0.1283313
0.4919412 0.6252681 0.1402470
0.7195562 0.6854009 0.1673090
0.8507173 0.7220626 0.2049542
0.9203809 0.7496311 0.2366700
0.9619889 0.7781433 0.3149790
0.1108558 0.5228652 0.1506301
0.1132074 0.5310583 0.1489340
0.1206673 0.5570498 0.1513142
0.1815275 0.6247388 0.1474733
0.5177104 0.6940498 0.1599883
0.7318764 0.7525724 0.1767852
0.8538364 0.7897893 0.2192187
0.9266698 0.8124709 0.2836531
0.9671484 0.8349428 0.3574317
0.1251488 0.5726641 0.1801226
0.1282212 0.5833688 0.1884038
0.1372049 0.6146691 0.1818018
0.2270525 0.6809685 0.1858865
0.5406904 0.7500246 0.1822058
0.7412698 0.7983561 0.2068613
0.8642780 0.8351426 0.2661434
0.9286361 0.8554724 0.3253815
0.9705570 0.8747145 0.3867580
0.0600864 0.0755483 0.2157954
0.0631224 0.0766502 0.2190169
0.0886725 0.0820986 0.2307512
0.2260565 0.1022123 0.2521182
0.4437319 0.1239196 0.2846055
0.6075746 0.1391573 0.3110404
0.7140529 0.1657295 0.3476870
0.7863296 0.2004536 0.3971449
0.8368152 0.2520877 0.4359877
0.0542996 0.0874801 0.2240813
0.0570616 0.0889686 0.2330243
0.0831599 0.0954991 0.2366747
0.2197371 0.1181212 0.2709191
0.4464943 0.1453619 0.2917798
0.6161393 0.1661816 0.3286609
0.7269263 0.1971451 0.3557709
0.7992454 0.2389623 0.4022025
0.8485169 0.2888226 0.4443524
0.0323851 0.1308018 0.2481326
0.0325943 0.1332391 0.2489469
0.0553044 0.1439378 0.2651928
0.2104104 0.1706410 0.2875777
0.4601154 0.2143140 0.3185172
0.6372324 0.2464256 0.3428576
0.7531649 0.2849388 0.3805241
0.8267603 0.3298922 0.4162953
0.8795459 0.3869387 0.4699975
0.0420365 0.2388268 0.2830890
0.0421778 0.2399193 0.2835813
0.0430817 0.2500408 0.2867306
0.1929820 0.2903769 0.3213646
0.4790079 0.3488184 0.3405966
0.6719426 0.3968980 0.3741217
0.7943784 0.4353282 0.3962501
0.8605021 0.4701032 0.4423278
0.9088454 0.5124666 0.4832049
0.0636043 0.3582342 0.3133359
0.0654416 0.3646356 0.3142512
0.0684027 0.3749524 0.3264928
0.1150502 0.4249832 0.3465581
0.4783635 0.4893616 0.3626799
0.6935421 0.5442418 0.3947587
0.8151801 0.5777192 0.4195367
0.8895503 0.6081243 0.4546244
0.9307408 0.6396604 0.5036642
0.0919857 0.4571190 0.3332287
0.0927023 0.4596158 0.3337483
0.0973624 0.4758524 0.3472032
0.1142578 0.5347181 0.3654705
0.4757091 0.6060798 0.3934586
0.7017128 0.6549817 0.4134823
0.8290948 0.6860202 0.4474674
0.9052107 0.7156229 0.4838294
0.9457949 0.7366985 0.5207857
0.1128191 0.5297055 0.3637018
0.1140772 0.5340889 0.3644789
0.1208776 0.5577825 0.3785275
0.1384051 0.6188509 0.3957273
0.4976053 0.6929798 0.4190092
0.7114774 0.7407148 0.4397848
0.8371620 0.7689562 0.4620305
0.9089371 0.7907218 0.4989340
0.9512814 0.8070267 0.5347700
0.1285533 0.5845258 0.3903689
0.1301320 0.5900260 0.3912463
0.1393944 0.6222978 0.4060639
0.1595221 0.6924255 0.4222566
0.5207260 0.7589238 0.4454435
0.7212464 0.8006268 0.4674021
0.8470846 0.8304132 0.4899155
0.9127786 0.8502246 0.5264345
0.9562770 0.8653427 0.5603483
0.1419105 0.6310642 0.4245137
0.1456083 0.6439479 0.4264534
0.1555489 0.6785824 0.4417138
0.1775858 0.7405454 0.4456495
0.5467478 0.8045343 0.4690765
0.7303452 0.8455463 0.4956143
0.8482032 0.8694331 0.5190738
0.9196999 0.8898825 0.5525631
0.9598898 0.8999190 0.5843461
0.0835153 0.0835153 0.4276069
0.0840569 0.0840569 0.4294938
0.1109786 0.0873251 0.4408810
0.2660961 0.1043141 0.4718758
0.4842843 0.1322040 0.5020832
0.6301112 0.1532387 0.5289294
0.7378115 0.1935423 0.5500824
0.8061910 0.2351167 0.5753562
0.8568190 0.3003224 0.6058503
0.0860128 0.0923734 0.4363087
0.0865230 0.0948398 0.4380864
0.1033822 0.1033023 0.4571008
0.2735230 0.1323727 0.4814506
0.4874181 0.1669860 0.5090345
0.6464055 0.1942993 0.5394331
0.7471497 0.2314623 0.5566713
0.8162639 0.2748955 0.5846676
0.8669584 0.3378169 0.6202260
0.0924804 0.1576409 0.4588428
0.0931532 0.1633054 0.4611869
0.0975304 0.1727120 0.4764377
0.2495249 0.2078303 0.4999111
0.4910298 0.2512014 0.5311668
0.6644995 0.2875290 0.5589197
0.7721641 0.3375763 0.5768511
0.8415874 0.3769064 0.6030670
0.8889577 0.4328679 0.6363339
0.1041002 0.2778448 0.4993275
0.1049031 0.2866730 0.5021249
0.1069639 0.2969143 0.5093054
0.2232790 0.3467265 0.5408171
0.5005038 0.3951902 0.5666924
0.6937425 0.4438348 0.5847324
0.8036376 0.4724537 0.6093255
0.8697456 0.5158052 0.6314216
0.9111273 0.5474938 0.6520116
0.1114053 0.4040883 0.5247797
0.1118393 0.4069875 0.5262917
0.1167684 0.4309263 0.5434656
0.1480621 0.4838309 0.5716909
0.5126616 0.5456284 0.5901900
0.6991673 0.5834325 0.6134942
0.8191133 0.6148378 0.6253224
0.8898548 0.6390081 0.6448737
0.9321280 0.6707237 0.6733490
0.1192462 0.5024391 0.5520984
0.1197801 0.5069060 0.5539586
0.1245352 0.5293684 0.5705261
0.1297653 0.5887485 0.5886875
0.5113126 0.6562480 0.6105499
0.7114321 0.6977370 0.6330174
0.8296333 0.7236260 0.6435472
0.8983756 0.7396691 0.6625946
0.9415295 0.7615111 0.6811149
0.1250042 0.5721602 0.5714810
0.1265029 0.5773818 0.5733482
0.1361580 0.6110217 0.5913901
0.1541941 0.6738618 0.6082010
0.5138064 0.7325078 0.6269162
0.7101583 0.7737495 0.6483294
0.8345681 0.8007511 0.6587297
0.9058107 0.8194690 0.6771474
0.9483302 0.8315073 0.6954585
0.1411422 0.6283871 0.5975354
0.1445045 0.6401019 0.6012929
0.1538753 0.6727511 0.6107504
0.1714178 0.7338716 0.6330025
0.5353682 0.7993144 0.6508211
0.7197770 0.8322437 0.6625205
0.8435343 0.8582370 0.6720172
0.9102251 0.8751679 0.6904781
0.9528103 0.8878620 0.7079093
0.1543249 0.6743177 0.6157482
0.1581671 0.6877044 0.6195800
0.1692226 0.7262232 0.6376252
0.2093764 0.7862936 0.6491044
0.5604699 0.8400551 0.6644895
0.7291518 0.8705099 0.6751162
0.8444148 0.8953310 0.6939977
0.9117684 0.9071830 0.7025759
0.9559827 0.9193375 0.7198805
0.1249720 0.1249720 0.5720479
0.1258753 0.1258753 0.5751951
0.1564644 0.1303950 0.5909426
0.3254215 0.1402247 0.6251904
0.5278664 0.1659602 0.6494862
0.6718639 0.2044801 0.6706151
0.7628194 0.2427533 0.6895605
0.8306563 0.2984908 0.7079096
0.8771183 0.3602695 0.7340817
0.1280201 0.1280201 0.5826681
0.1289316 0.1289316 0.5858439
0.1459284 0.1367697 0.6028232
0.3285783 0.1683509 0.6362488
0.5333423 0.2064518 0.6578276
0.6764438 0.2407839 0.6796633
0.7769973 0.2869266 0.6978801
0.8392021 0.3378336 0.7233264
0.8858452 0.3991746 0.7404460
0.1347967 0.1993175 0.6062787
0.1356833 0.2018922 0.6093678
0.1401850 0.2222725 0.6250523
0.3243358 0.2600540 0.6590537
0.5487624 0.3110979 0.6815485
0.6927083 0.3494161 0.7021227
0.7962297 0.3869895 0.7174888
0.8578907 0.4291422 0.7382603
0.9021289 0.4825536 0.7550221
0.1436845 0.3219114 0.6372451
0.1446644 0.3260369 0.6406592
0.1509170 0.3520583 0.6624439
0.2905125 0.4009461 0.6908695
0.5420622 0.4431292 0.7150858
0.7152917 0.4907529 0.7334651
0.8149659 0.5222880 0.7462652
0.8779331 0.5569156 0.7578117
0.9193244 0.5889634 0.7705732
0.1536628 0.4439287 0.6720110
0.1545229 0.4487759 0.6750074
0.1586227 0.4736715 0.6892919
0.2464700 0.5313693 0.7136809
0.5504192 0.5825544 0.7367736
0.7240307 0.6252147 0.7520744
0.8313745 0.6459281 0.7625127
0.8945557 0.6707757 0.7719993
0.9346784 0.6983634 0.7902640
0.1585913 0.5325815 0.6891824
0.1596565 0.5399261 0.6928937
0.1657357 0.5767324 0.7140745
0.1857708 0.6307107 0.7347531
0.5518181 0.6909937 0.7572506
0.7280653 0.7237391 0.7633514
0.8393890 0.7481161 0.7733140
0.9002162 0.7649628 0.7884349
0.9415860 0.7828375 0.7988165
0.1642867 0.6058107 0.7090259
0.1658246 0.6181768 0.7143844
0.1695161 0.6506311 0.7272459
0.2022736 0.7172396 0.7540366
0.5537087 0.7680565 0.7659701
0.7255031 0.8011068 0.7777323
0.8430439 0.8262594 0.7872177
0.9061249 0.8403074 0.7976020
0.9478181 0.8531045 0.8116017
0.1698669 0.6656096 0.7284683
0.1713090 0.6787791 0.7334925
0.1749029 0.7140430 0.7460142
0.2144373 0.7727914 0.7617281
0.5617095 0.8238103 0.7787018
0.7344583 0.8535084 0.7897955
0.8467208 0.8770321 0.7989619
0.9097358 0.8902407 0.8065761
0.9486832 0.9005887 0.8137821
0.1750767 0.7139285 0.7466198
0.1766053 0.7296363 0.7519456
0.1804875 0.7654720 0.7628730
0.3045378 0.8161185 0.7754160
0.5835219 0.8636206 0.7903426
0.7434823 0.8914722 0.8008513
0.8532363 0.9126365 0.8092990
0.9109741 0.9224884 0.8166646
0.9507071 0.9329026 0.8239314
0.1559925 0.1559925 0.6801278
0.1584270 0.1584270 0.6886098
0.2121233 0.1641035 0.7073076
0.3889363 0.2021384 0.7339287
0.5816865 0.2420336 0.7593894
0.7038247 0.2806500 0.7727901
0.7931714 0.3254475 0.7904591
0.8539978 0.3789316 0.8058595
0.8962511 0.4323282 0.8211971
0.1590025 0.1749921 0.6906150
0.1610946 0.1805153 0.6979042
0.2072621 0.2036564 0.7171239
0.3993072 0.2440587 0.7440012
0.5832970 0.2821003 0.7675142
0.7115617 0.3310037 0.7840356
0.8005726 0.3687213 0.7983713
0.8596990 0.4115602 0.8114611
0.9028398 0.4660536 0.8265971
0.1653846 0.2615059 0.7128512
0.1674760 0.2684669 0.7201380
0.1731431 0.2963002 0.7398829
0.3827703 0.3349531 0.7641634
0.5856402 0.3795218 0.7879677
0.7283574 0.4221932 0.8022671
0.8209659 0.4592494 0.8154007
0.8730372 0.4961001 0.8262988
0.9140263 0.5392154 0.8373770
0.1732846 0.3734729 0.7403759
0.1755944 0.3899541 0.7484236
0.1803444 0.4133843 0.7649735
0.3760133 0.4639367 0.7906542
0.5922999 0.5015554 0.8105548
0.7343755 0.5406424 0.8222369
0.8325906 0.5693944 0.8328515
0.8914028 0.6032572 0.8424265
0.9271056 0.6363122 0.8511497
0.1804014 0.4864427 0.7651720
0.1823287 0.4974274 0.7718868
0.1872291 0.5334188 0.7889605
0.3363860 0.5780989 0.8139742
0.5878534 0.6217542 0.8303947
0.7418195 0.6526580 0.8424685
0.8447269 0.6807549 0.8475612
0.8992964 0.7041160 0.8550749
0.9385833 0.7228817 0.8617519
0.1871055 0.5740804 0.7885301
0.1891221 0.5877809 0.7955559
0.1936308 0.6259509 0.8112648
0.3054232 0.6724674 0.8293412
0.5892141 0.7208030 0.8432450
0.7441772 0.7522612 0.8541089
0.8448343 0.7745867 0.8621507
0.9077960 0.7886313 0.8685732
0.9440563 0.8077435 0.8746009
0.1912130 0.6459668 0.8028412
0.1930109 0.6601129 0.8091052
0.1974655 0.6989437 0.8246256
0.3171493 0.7500550 0.8445268
0.5947968 0.7929614 0.8558681
0.7527686 0.8224731 0.8615183
0.8471476 0.8433266 0.8689014
0.9074007 0.8585990 0.8751449
0.9482297 0.8684525 0.8802019
0.1962714 0.7074261 0.8204650
0.1976499 0.7197417 0.8252682
0.2016174 0.7588627 0.8390915
0.3447890 0.8027061 0.8520327
0.6022593 0.8430586 0.8615256
0.7524003 0.8721219 0.8708689
0.8556659 0.8917041 0.8779194
0.9101935 0.9005525 0.8830923
0.9490382 0.9106984 0.8881046
0.1994260 0.7562130 0.8314564
0.2009658 0.7719656 0.8368213
0.2035217 0.7998270 0.8457261
0.4072719 0.8466155 0.8617034
0.6266625 0.8820732 0.8691919
0.7617205 0.9050946 0.8773658
0.8566960 0.9241647 0.8810872
0.9176767 0.9342322 0.8863279
0.9511057 0.9417956 0.8911032
0.1808995 0.2432356 0.7669073
0.1827838 0.2495984 0.7734725
0.2995015 0.2769048 0.7920145
0.4777587 0.3100010 0.8125038
0.6304788 0.3469915 0.8313193
0.7411022 0.3847894 0.8440427
0.8216199 0.4241649 0.8568695
0.8777733 0.4696983 0.8659142
0.9131747 0.5128755 0.8765505
0.1831232 0.2789081 0.7746550
0.1849783 0.2856581 0.7811183
0.3034336 0.3166515 0.8017898
0.4736278 0.3493770 0.8204418
0.6308031 0.3844872 0.8395118
0.7450753 0.4174860 0.8499808
0.8305165 0.4543932 0.8621622
0.8819829 0.4991642 0.8705894
0.9162782 0.5349653 0.8808203
0.1879478 0.3477677 0.7914647
0.1903784 0.3648378 0.7999330
0.2674988 0.3879020 0.8167429
0.4613992 0.4220333 0.8383334
0.6410709 0.4661461 0.8545115
0.7606559 0.5011235 0.8643160
0.8395618 0.5272763 0.8748443
0.8899742 0.5614772 0.8809338
0.9249294 0.5972803 0.8895370
0.1942880 0.4485692 0.8135549
0.1963141 0.4592279 0.8206140
0.2304025 0.4963627 0.8388803
0.4672956 0.5266945 0.8584027
0.6362972 0.5706734 0.8718677
0.7623949 0.5973057 0.8794158
0.8470008 0.6240979 0.8882791
0.8988968 0.6484706 0.8964224
0.9338873 0.6761756 0.9002729
0.2008952 0.5448229 0.8365750
0.2028543 0.5572933 0.8434010
0.2071300 0.5872155 0.8582979
0.4470884 0.6306249 0.8746257
0.6455171 0.6691276 0.8864011
0.7701581 0.6956872 0.8961708
0.8574729 0.7132254 0.8999484
0.9087042 0.7359459 0.9072254
0.9423355 0.7534838 0.9094750
0.2050692 0.6220611 0.8511179
0.2073121 0.6429020 0.8589324
0.2109981 0.6730931 0.8717752
0.4409996 0.7132512 0.8863891
0.6389384 0.7493411 0.8963856
0.7719395 0.7772200 0.9056154
0.8615596 0.7974228 0.9091676
0.9108489 0.8092823 0.9140368
0.9459053 0.8213705 0.9196572
0.2089302 0.6920465 0.8645703
0.2107731 0.7111763 0.8709913
0.2140301 0.7415639 0.8823391
0.4366693 0.7816098 0.8951651
0.6481726 0.8158525 0.9073256
0.7721143 0.8397442 0.9120988
0.8598987 0.8589377 0.9182378
0.9146175 0.8708427 0.9199228
0.9504514 0.8817390 0.9242778
0.2127049 0.7524117 0.8777220
0.2151085 0.7694880 0.8860964
0.2176034 0.7958649 0.8947888
0.4680660 0.8321717 0.9051776
0.6558691 0.8628253 0.9124926
0.7798908 0.8873163 0.9199681
0.8676722 0.9014354 0.9224010
0.9184234 0.9120520 0.9269373
0.9526575 0.9208691 0.9279056
0.2165075 0.8008307 0.8909705
0.2173416 0.8098469 0.8938766
0.2749991 0.8372269 0.9020505
0.5025873 0.8692669 0.9103603
0.6649697 0.8962972 0.9193375
0.7911526 0.9193292 0.9233803
0.8683643 0.9321240 0.9285510
0.9194394 0.9433431 0.9298998
0.9526650 0.9487305 0.9332511
0.2224294 0.3665303 0.8386125
0.2973060 0.3733915 0.8453228
0.4017627 0.3983682 0.8575915
0.5507302 0.4290983 0.8719158
0.6821615 0.4560194 0.8825713
0.7815457 0.4844593 0.8929828
0.8498952 0.5239874 0.9018674
0.8949788 0.5468657 0.9083212
0.9292311 0.5939384 0.9157141
0.2261890 0.3945223 0.8456016
0.2828727 0.4021429 0.8508794
0.3985466 0.4186525 0.8615587
0.5503619 0.4498813 0.8757359
0.6810973 0.4836994 0.8879381
0.7845787 0.5169192 0.8988776
0.8522932 0.5461283 0.9052470
0.8987539 0.5797145 0.9130899
0.9311440 0.6109095 0.9180129
0.2063501 0.4458837 0.8555809
0.2694136 0.4573594 0.8627782
0.3901850 0.4848676 0.8747281
0.5547784 0.5190289 0.8886895
0.6805125 0.5464456 0.8979991
0.7869148 0.5775536 0.9080135
0.8563988 0.6056672 0.9137380
0.9047847 0.6280880 0.9203256
0.9368765 0.6593214 0.9248688
0.2113625 0.5338136 0.8730446
0.2158037 0.5441087 0.8785432
0.3733647 0.5651276 0.8889580
0.5521668 0.5978847 0.9016828
0.6863291 0.6264831 0.9124141
0.7880189 0.6492310 0.9183399
0.8658557 0.6736339 0.9232093
0.9103876 0.6962948 0.9286916
0.9417601 0.7168226 0.9315477
0.2154640 0.6130758 0.8873348
0.2168361 0.6234054 0.8921156
0.3425256 0.6442527 0.9011172
0.5407477 0.6819873 0.9136333
0.6866652 0.7046734 0.9229696
0.7943193 0.7258841 0.9282107
0.8678545 0.7514855 0.9325253
0.9178546 0.7660688 0.9368765
0.9459737 0.7822875 0.9389111
0.2189449 0.6865299 0.8994628
0.2197402 0.6933579 0.9022338
0.3567096 0.7201409 0.9123486
0.5499620 0.7565513 0.9254638
0.6848675 0.7759208 0.9314190
0.7959177 0.8000450 0.9364555
0.8723688 0.8182462 0.9416051
0.9190952 0.8315409 0.9435587
0.9516075 0.8471978 0.9473510
0.2222899 0.7478672 0.9111173
0.2231619 0.7562728 0.9141554
0.3564111 0.7807000 0.9223899
0.5516080 0.8157594 0.9317741
0.6919061 0.8386776 0.9376038
0.7961856 0.8590436 0.9423009
0.8756541 0.8715900 0.9467599
0.9222131 0.8839394 0.9484372
0.9520391 0.8932553 0.9514932
0.2248571 0.7995220 0.9200619
0.2256881 0.8084953 0.9229571
0.3850966 0.8289968 0.9291589
0.5641400 0.8567798 0.9366379
0.7038209 0.8798521 0.9420128
0.8064757 0.9002715 0.9476864
0.8780744 0.9117298 0.9497484
0.9257206 0.9216648 0.9530975
0.9545718 0.9297273 0.9545965
0.2341694 0.8381137 0.9273469
0.3147419 0.8470772 0.9299666
0.4589471 0.8673384 0.9354994
0.5908156 0.8916716 0.9429280
0.7129560 0.9120274 0.9473311
0.8072742 0.9276503 0.9503020
0.8787702 0.9413095 0.9523960
0.9278454 0.9492350 0.9554701
0.9560599 0.9560940 0.9562489
