data/spectral_luts/portra_400_portra_endura.cube
TITLE "portra_400_portra_endura"
LUT_3D_SIZE 5
0.0828340 0.0758817 0.0883377
0.1238235 0.0822456 0.0899755
0.4128679 0.1173510 0.0859300
0.6732134 0.1657057 0.1540080
0.8196532 0.2556538 0.1960383
0.0732117 0.1167471 0.0932649
0.1188529 0.1289263 0.0950461
0.4298073 0.1944716 0.0872051
0.7173697 0.2643412 0.1666815
0.8551027 0.3522132 0.2062129
0.0369829 0.2653731 0.0987041
0.0715241 0.2909130 0.0981011
0.4526997 0.3843804 0.0907173
0.7724357 0.4750671 0.1824862
0.9051540 0.5420430 0.2205783
0.0834980 0.4275467 0.1067224
0.0933867 0.4620003 0.1057365
0.4785076 0.5623743 0.1221955
0.8017570 0.6524244 0.1909019
0.9362167 0.7051741 0.2294938
0.1206614 0.5570292 0.1849688
0.1315705 0.5950382 0.1810728
0.5255206 0.6879375 0.1821777
0.8173136 0.7604924 0.2137718
0.9432281 0.8053464 0.3069083
0.0779935 0.0834415 0.1395294
0.1364105 0.0946215 0.1488009
0.4279063 0.1381326 0.1796570
0.6897683 0.1980238 0.2263288
0.8262609 0.2835980 0.3018786
0.0506543 0.1455958 0.1556285
0.1201870 0.1649399 0.1692235
0.4476405 0.2316924 0.1961524
0.7233410 0.3034354 0.2362086
0.8594940 0.3891946 0.3189281
0.0538981 0.3244165 0.1895538
0.0613556 0.3503995 0.1993607
0.4704527 0.4390662 0.2159512
0.7801012 0.5192290 0.2543946
0.9068204 0.5791597 0.3406135
0.0967711 0.4737919 0.2182459
0.1070050 0.5094484 0.2258236
0.4822137 0.6088709 0.2438908
0.8036298 0.6887795 0.2887029
0.9319143 0.7357826 0.3638798
0.1287479 0.5852036 0.2690192
0.1403915 0.6257716 0.2750330
0.5138788 0.7139701 0.2937369
0.8170332 0.7855572 0.3389641
0.9414360 0.8223847 0.4136942
0.0847931 0.1172136 0.4320591
0.1763759 0.1397126 0.4486488
0.4828402 0.1968363 0.4958089
0.7239764 0.2675799 0.5382229
0.8502483 0.3572306 0.5869311
0.0930375 0.2117985 0.4607835
0.1392791 0.2359138 0.4838982
0.4856813 0.3058875 0.5218133
0.7486745 0.3801476 0.5583386
0.8737731 0.4556391 0.6091700
0.1077175 0.4068757 0.5119309
0.1140416 0.4410826 0.5339649
0.4955497 0.5248655 0.5624146
0.7815943 0.5850788 0.5957017
0.9062843 0.6357887 0.6415267
0.1227518 0.5643124 0.5539583
0.1345786 0.6055186 0.5743208
0.4993927 0.6865770 0.5966311
0.7944697 0.7461083 0.6274060
0.9229642 0.7788348 0.6617160
0.1528249 0.6690916 0.5952797
0.1641739 0.7086331 0.6134546
0.5332510 0.7835409 0.6306962
0.8077320 0.8375904 0.6566653
0.9322962 0.8629301 0.6834927
0.1562797 0.2167873 0.6811284
0.2771360 0.2442841 0.7009083
0.5589328 0.3086079 0.7381796
0.7698300 0.3764655 0.7636841
0.8802993 0.4582388 0.7900273
0.1638327 0.3157673 0.7074441
0.2579017 0.3459131 0.7270303
0.5580120 0.4066992 0.7583079
0.7882627 0.4755281 0.7817523
0.8931128 0.5338498 0.8027533
0.1751344 0.4913476 0.7468210
0.1799750 0.5302408 0.7636864
0.5583706 0.5917621 0.7898751
0.8064122 0.6452246 0.8073600
0.9141824 0.6854569 0.8222517
0.1841998 0.6382406 0.7784061
0.1879240 0.6728556 0.7913817
0.5637007 0.7381955 0.8133109
0.8107320 0.7859278 0.8276459
0.9247997 0.8136680 0.8394884
0.1911130 0.7360365 0.8024925
0.1934520 0.7630448 0.8106419
0.5975167 0.8264349 0.8287739
0.8221948 0.8669434 0.8400691
0.9280372 0.8872413 0.8507577
0.2968728 0.3972217 0.8242009
0.4180228 0.4206102 0.8362263
0.6545902 0.4679196 0.8558874
0.8175490 0.5217229 0.8730380
0.9061580 0.5763276 0.8861383
0.2733509 0.4577354 0.8357093
0.4116780 0.4835880 0.8478122
0.6532903 0.5333236 0.8675476
0.8233090 0.5833303 0.8819978
0.9129504 0.6293511 0.8931419
0.2234952 0.5942329 0.8615676
0.3767014 0.6146014 0.8703548
0.6579837 0.6658720 0.8892798
0.8328243 0.7080562 0.8995861
0.9218763 0.7386913 0.9065893
0.2143726 0.7115510 0.8835323
0.3801452 0.7324654 0.8907803
0.6648192 0.7814271 0.9043263
0.8414414 0.8146877 0.9133624
0.9295508 0.8354323 0.9198498
0.2958241 0.7954082 0.8969532
0.4433518 0.8146559 0.9027449
0.6824829 0.8577898 0.9159658
0.8475612 0.8873718 0.9213601
0.9350470 0.9039567 0.9260179
