data/spectral_luts/portra_400_endura_premier.cube
TITLE "portra_400_endura_premier"
LUT_3D_SIZE 9
0.0354820 0.0605073 0.0714334
0.0369190 0.0607175 0.0714814
0.0634740 0.0645051 0.0722376
0.1843245 0.0792674 0.0725298
0.3736647 0.0894902 0.0680331
0.5477672 0.1180030 0.1180030
0.6623515 0.1508904 0.1508904
0.7477765 0.1754087 0.1754087
0.8034914 0.1913997 0.1913997
0.0350074 0.0616867 0.0716330
0.0364266 0.0623186 0.0717522
0.0627166 0.0667762 0.0726395
0.1790682 0.0833372 0.0732801
0.3699516 0.0997681 0.0669674
0.5519271 0.1191970 0.1191970
0.6704811 0.1532238 0.1532238
0.7602340 0.1789842 0.1789842
0.8186531 0.2024551 0.1957513
0.0285887 0.0809619 0.0747328
0.0302570 0.0826307 0.0749983
0.0566681 0.0884143 0.0759573
0.1807871 0.1111462 0.0762481
0.3767289 0.1396370 0.0689125
0.5678294 0.1638549 0.1237612
0.7056513 0.1975942 0.1633181
0.7963167 0.2429421 0.1893404
0.8514885 0.2900136 0.2051755
0.0120148 0.1455412 0.0815601
0.0123303 0.1477192 0.0817654
0.0304809 0.1582766 0.0822386
0.1859503 0.1941527 0.0790783
0.4035437 0.2414537 0.0766088
0.6144359 0.2874562 0.1371380
0.7508237 0.3304015 0.1762833
0.8427284 0.3746510 0.2026613
0.8967139 0.4218538 0.2181559
0.0331975 0.2512782 0.0820288
0.0335671 0.2526946 0.0819616
0.0391717 0.2731413 0.0795691
0.1953758 0.3161684 0.0659725
0.4283418 0.3788620 0.0837262
0.6574258 0.4378280 0.1494767
0.7984070 0.4778751 0.1899404
0.8856539 0.5093793 0.2149815
0.9345244 0.5526810 0.2290081
0.0625167 0.3544447 0.0709241
0.0633824 0.3574611 0.0701957
0.0688500 0.3765109 0.0688500
0.1885846 0.4335620 0.0852245
0.4672455 0.5042585 0.1055154
0.6837554 0.5564781 0.1570337
0.8300020 0.5951803 0.1990086
0.9189492 0.6282299 0.2245378
0.9618047 0.6613758 0.2368379
0.0841407 0.4297859 0.0841407
0.0865458 0.4381655 0.0865458
0.0943992 0.4655280 0.0943992
0.2033353 0.5165963 0.1090566
0.4880382 0.5885131 0.1296977
0.7082203 0.6466243 0.1640555
0.8498967 0.6849397 0.2047187
0.9394349 0.7196171 0.2304175
0.9788746 0.7444286 0.2417372
0.1025526 0.4939355 0.1025526
0.1052792 0.5034356 0.1052792
0.1150821 0.5375903 0.1150821
0.2375644 0.5958664 0.1318083
0.5154421 0.6613740 0.1506099
0.7277333 0.7136267 0.1696560
0.8688178 0.7560599 0.2101493
0.9498790 0.7862086 0.2334151
0.9848762 0.8088036 0.2434598
0.1206935 0.5571410 0.1206935
0.1242816 0.5696424 0.1242816
0.1337431 0.6026077 0.1337431
0.2904402 0.6574384 0.1494803
0.5576777 0.7217108 0.1679274
0.7509863 0.7727736 0.1825832
0.8758446 0.8056905 0.2121661
0.9535815 0.8330982 0.2344777
0.9891672 0.8523676 0.2446914
0.0354268 0.0606920 0.0726215
0.0373275 0.0610213 0.0728165
0.0697838 0.0657869 0.0741213
0.1996066 0.0812473 0.0749878
0.3857355 0.0912549 0.0714976
0.5548827 0.1200453 0.1200453
0.6737598 0.1541648 0.1541648
0.7540302 0.1772036 0.1772036
0.8082245 0.1927581 0.1927581
0.0347116 0.0626151 0.0730221
0.0367380 0.0634074 0.0733148
0.0682630 0.0688911 0.0747476
0.1924074 0.0866107 0.0763050
0.3826496 0.1039530 0.0706119
0.5624228 0.1222094 0.1222094
0.6856096 0.1575658 0.1575658
0.7646901 0.1802631 0.1802631
0.8248333 0.2166307 0.1975251
0.0268128 0.0854051 0.0768941
0.0290798 0.0870859 0.0773555
0.0599572 0.0949441 0.0789526
0.1883579 0.1185731 0.0803509
0.3944861 0.1483862 0.0740091
0.5791741 0.1716080 0.1270173
0.7142817 0.2085408 0.1657952
0.7985898 0.2467739 0.1899928
0.8565252 0.3061298 0.2066211
0.0142068 0.1600448 0.0844710
0.0146280 0.1626789 0.0849909
0.0264412 0.1733005 0.0861337
0.1939666 0.2108286 0.0841287
0.4193354 0.2598054 0.0811412
0.6244498 0.3025514 0.1400121
0.7584003 0.3413654 0.1784579
0.8513404 0.3846597 0.2051330
0.9009748 0.4424289 0.2193788
0.0373706 0.2667682 0.0850075
0.0378212 0.2683790 0.0851158
0.0436711 0.2887841 0.0839365
0.1980444 0.3362043 0.0718453
0.4468033 0.3933325 0.0890249
0.6618124 0.4480318 0.1507357
0.8014476 0.4867718 0.1908131
0.8926783 0.5319757 0.2169976
0.9374357 0.5670112 0.2298437
0.0649052 0.3627666 0.0760822
0.0659347 0.3663537 0.0756495
0.0718933 0.3871143 0.0718933
0.2056707 0.4448521 0.0884649
0.4713796 0.5127170 0.1079431
0.6972510 0.5655720 0.1609071
0.8324820 0.6032823 0.1997204
0.9199806 0.6392733 0.2248338
0.9615998 0.6733690 0.2367791
0.0850823 0.4330668 0.0850823
0.0874224 0.4412198 0.0874224
0.0945828 0.4661676 0.0945828
0.2199511 0.5236425 0.1110789
0.4869663 0.5925708 0.1308623
0.7112660 0.6490685 0.1649296
0.8491780 0.6916741 0.2045124
0.9385102 0.7271957 0.2301521
0.9778809 0.7521792 0.2414520
0.1025526 0.4939355 0.1025526
0.1060706 0.5061929 0.1060706
0.1150821 0.5375903 0.1150821
0.2375644 0.5958664 0.1318083
0.5154421 0.6613740 0.1506099
0.7282397 0.7170596 0.1698013
0.8688178 0.7560599 0.2101493
0.9498790 0.7862086 0.2334151
0.9844069 0.8126624 0.2433251
0.1206935 0.5571410 0.1206935
0.1242816 0.5696424 0.1242816
0.1347205 0.6060131 0.1347205
0.2904402 0.6574384 0.1494803
0.5577621 0.7239096 0.1685585
0.7509863 0.7727736 0.1825832
0.8749275 0.8079183 0.2119029
0.9535815 0.8330982 0.2344777
0.9891672 0.8523676 0.2446914
0.0323175 0.0638871 0.0963489
0.0352167 0.0645641 0.0978365
0.0782951 0.0711099 0.1016259
0.2172664 0.0879250 0.1097209
0.4048956 0.0993439 0.1172672
0.5769916 0.1263909 0.1268453
0.6873878 0.1580762 0.1619538
0.7649194 0.1803289 0.1936640
0.8188394 0.1995891 0.2459667
0.0305272 0.0679994 0.0978014
0.0335345 0.0693406 0.1000917
0.0749709 0.0769505 0.1055079
0.2104698 0.0973994 0.1130729
0.4069964 0.1155199 0.1203737
0.5813202 0.1276333 0.1347010
0.6967698 0.1607690 0.1635746
0.7757813 0.1834465 0.1955736
0.8342252 0.2425187 0.2488374
0.0171181 0.0967890 0.1062750
0.0200352 0.0991543 0.1088816
0.0644879 0.1090093 0.1150426
0.2086306 0.1350087 0.1218253
0.4199032 0.1655394 0.1303372
0.6050203 0.1993672 0.1429124
0.7302672 0.2394825 0.1703832
0.8153355 0.2809632 0.2116699
0.8639493 0.3337309 0.2642451
0.0183566 0.1842780 0.1223909
0.0186424 0.1858232 0.1244207
0.0214577 0.2003573 0.1283588
0.2145460 0.2438430 0.1386919
0.4425342 0.2929456 0.1408001
0.6449563 0.3380750 0.1593660
0.7767795 0.3781387 0.1862785
0.8604433 0.4261231 0.2195883
0.9051341 0.4717464 0.2810281
0.0467847 0.2996324 0.1364465
0.0488221 0.3067310 0.1362719
0.0546469 0.3270255 0.1431226
0.2083453 0.3765972 0.1455720
0.4738758 0.4349434 0.1452650
0.6810469 0.4880546 0.1562563
0.8191527 0.5287260 0.1958947
0.8934441 0.5590127 0.2237678
0.9386521 0.5999668 0.2876601
0.0764609 0.4030285 0.1450434
0.0777893 0.4076569 0.1444121
0.0850988 0.4331241 0.1523696
0.1887859 0.4904270 0.1554554
0.4872351 0.5600433 0.1523724
0.7016897 0.6097518 0.1621811
0.8339466 0.6442238 0.2001408
0.9198721 0.6782867 0.2335321
0.9582983 0.7011514 0.2981374
0.0966111 0.4732345 0.1595069
0.0994225 0.4830299 0.1641293
0.1080675 0.5131502 0.1682765
0.1863187 0.5753500 0.1695078
0.4960078 0.6398839 0.1676900
0.7178517 0.6962454 0.1774939
0.8586003 0.7342019 0.2072167
0.9345694 0.7584695 0.2512534
0.9741076 0.7859479 0.3155001
0.1151311 0.5377609 0.1937420
0.1185740 0.5497565 0.1918550
0.1289843 0.5860274 0.1934781
0.2363487 0.6448185 0.1922132
0.5239415 0.7061230 0.1831661
0.7319919 0.7582043 0.2021744
0.8646513 0.7955322 0.2381111
0.9428744 0.8188621 0.2880481
0.9813148 0.8406109 0.3601192
0.1305202 0.5913785 0.2211321
0.1354062 0.6084023 0.2289395
0.1449691 0.6417208 0.2218430
0.2750015 0.6957160 0.2261368
0.5482913 0.7553276 0.2238782
0.7467278 0.8014033 0.2358190
0.8773116 0.8370560 0.2775928
0.9482678 0.8580933 0.3310557
0.9853055 0.8756759 0.3848243
0.0276438 0.0709035 0.2287838
0.0300490 0.0724601 0.2296491
0.0891423 0.0810399 0.2431131
0.2377505 0.0995682 0.2609960
0.4333079 0.1153110 0.2861445
0.5966347 0.1320288 0.3056719
0.7083822 0.1641019 0.3382007
0.7828010 0.1854612 0.3851864
0.8352234 0.2390145 0.4268372
0.0289882 0.0818588 0.2344548
0.0312673 0.0838220 0.2437284
0.0835380 0.0940737 0.2492471
0.2343681 0.1148965 0.2736799
0.4344553 0.1329361 0.2894351
0.6025099 0.1488115 0.3215140
0.7181405 0.1729710 0.3465663
0.8007417 0.2285953 0.3930098
0.8472874 0.2767911 0.4320289
0.0351102 0.1203761 0.2585110
0.0354411 0.1234858 0.2597389
0.0619226 0.1387432 0.2718944
0.2301439 0.1666189 0.2912683
0.4492094 0.2067004 0.3167733
0.6264720 0.2411693 0.3427563
0.7487605 0.2750631 0.3720558
0.8268691 0.3172087 0.4085161
0.8771331 0.3732782 0.4605771
0.0452618 0.2317678 0.2943264
0.0455243 0.2342518 0.2952410
0.0470279 0.2526230 0.3004798
0.2247507 0.2923494 0.3265824
0.4703762 0.3428317 0.3428388
0.6634427 0.3907436 0.3710275
0.7924124 0.4304928 0.3956235
0.8653263 0.4637311 0.4403908
0.9105648 0.5066670 0.4773796
0.0627204 0.3551546 0.3260149
0.0653821 0.3644282 0.3275524
0.0713244 0.3851322 0.3390246
0.1828477 0.4358422 0.3571236
0.4790668 0.4903935 0.3660141
0.6903397 0.5431152 0.3965451
0.8179907 0.5770867 0.4158112
0.8985338 0.6106100 0.4518635
0.9391210 0.6456745 0.4984278
0.0927813 0.4598909 0.3473829
0.0947838 0.4668681 0.3484255
0.1031926 0.4961655 0.3641072
0.1552213 0.5525360 0.3752667
0.4824375 0.6154268 0.3942953
0.7040563 0.6611080 0.4114107
0.8375835 0.6918817 0.4457363
0.9197577 0.7223807 0.4813212
0.9576976 0.7466741 0.5142193
0.1151699 0.5378961 0.3762852
0.1179346 0.5475288 0.3773586
0.1280779 0.5828693 0.3923199
0.1446266 0.6405275 0.4021913
0.5016804 0.7024204 0.4210296
0.7159523 0.7485152 0.4389945
0.8504252 0.7787948 0.4587047
0.9271453 0.8032658 0.4956357
0.9659842 0.8183231 0.5338919
0.1326661 0.5988554 0.4039877
0.1358030 0.6097847 0.4049416
0.1468731 0.6483545 0.4200724
0.1851700 0.7085922 0.4290329
0.5268481 0.7674806 0.4485089
0.7276816 0.8075181 0.4670308
0.8625275 0.8371630 0.4867886
0.9334215 0.8589525 0.5242891
0.9721646 0.8729078 0.5582909
0.1479023 0.6519403 0.4410933
0.1526024 0.6683162 0.4422714
0.1621089 0.7014381 0.4575627
0.2446804 0.7524556 0.4570967
0.5554846 0.8083497 0.4761897
0.7383232 0.8485093 0.4956667
0.8660985 0.8741774 0.5160539
0.9418619 0.8955007 0.5540149
0.9756745 0.9054502 0.5879382
0.0842572 0.0842572 0.4301918
0.0851949 0.0851949 0.4334588
0.1330259 0.0882604 0.4441397
0.2794022 0.0955041 0.4693777
0.4743952 0.1128761 0.4931690
0.6208665 0.1389836 0.5205700
0.7344712 0.1715899 0.5407098
0.8098994 0.2220279 0.5751749
0.8567566 0.2864434 0.6036221
0.0866893 0.0866893 0.4386657
0.0875989 0.0875989 0.4418348
0.1295464 0.0934190 0.4600016
0.2841822 0.1212560 0.4761684
0.4767006 0.1476800 0.5003896
0.6355848 0.1695613 0.5319812
0.7466668 0.2147729 0.5536802
0.8212913 0.2623895 0.5823764
0.8665854 0.3214860 0.6199050
0.0934175 0.1469385 0.4621075
0.0945111 0.1550424 0.4659178
0.1006815 0.1726625 0.4874164
0.2714429 0.2082334 0.5042956
0.4818646 0.2467082 0.5255933
0.6561850 0.2773813 0.5568061
0.7728755 0.3241866 0.5733781
0.8457067 0.3621518 0.6029522
0.8907193 0.4241126 0.6400226
0.1065976 0.2704449 0.5080291
0.1078090 0.2814270 0.5122498
0.1105498 0.3001391 0.5217988
0.2528911 0.3471509 0.5496605
0.4976441 0.3912582 0.5687405
0.6891477 0.4362890 0.5875331
0.8058588 0.4683189 0.6114421
0.8782264 0.5132023 0.6349136
0.9159226 0.5456938 0.6564258
0.1156411 0.4031801 0.5395376
0.1165072 0.4107350 0.5425555
0.1229052 0.4434640 0.5648471
0.2014489 0.4922775 0.5851181
0.5059667 0.5441800 0.5941307
0.6968191 0.5806682 0.6177036
0.8277372 0.6186133 0.6328152
0.9029806 0.6477422 0.6527352
0.9408597 0.6769915 0.6835037
0.1253263 0.5120373 0.5732823
0.1261260 0.5209869 0.5760687
0.1307988 0.5530100 0.5923492
0.1493989 0.6068694 0.6032609
0.5089670 0.6643212 0.6222826
0.7158701 0.7048322 0.6452212
0.8407753 0.7329054 0.6529506
0.9150071 0.7511505 0.6718304
0.9527391 0.7708151 0.6938746
0.1319085 0.5897740 0.5962156
0.1328619 0.5995377 0.5987279
0.1448303 0.6412372 0.6191162
0.1604998 0.6958319 0.6281691
0.5166255 0.7449938 0.6410011
0.7177057 0.7879282 0.6615978
0.8496994 0.8146461 0.6726688
0.9246574 0.8322319 0.6911288
0.9625793 0.8439069 0.7081374
0.1486476 0.6545371 0.6289747
0.1529722 0.6696045 0.6323173
0.1625729 0.7030548 0.6386917
0.1766605 0.7521379 0.6527202
0.5431644 0.8104920 0.6678051
0.7297909 0.8430656 0.6756004
0.8611954 0.8691999 0.6866296
0.9305559 0.8870843 0.7036576
0.9692212 0.8979250 0.7209432
0.1625332 0.7029166 0.6465862
0.1664688 0.7166287 0.6491846
0.1761013 0.7501896 0.6652038
0.2706306 0.8006737 0.6709628
0.5746443 0.8486336 0.6809688
0.7413554 0.8786388 0.6924378
0.8642495 0.9043582 0.7088909
0.9351349 0.9164795 0.7151381
0.9718489 0.9260704 0.7329774
0.1295508 0.1295508 0.5880013
0.1309600 0.1309600 0.5929109
0.1910004 0.1351931 0.6076597
0.3337088 0.1427847 0.6341099
0.5219777 0.1474757 0.6504540
0.6667578 0.1794256 0.6733241
0.7665271 0.2250381 0.6909799
0.8358985 0.2810866 0.7122372
0.8777311 0.3402121 0.7407099
0.1318638 0.1318638 0.5960600
0.1332834 0.1332834 0.6010062
0.1867508 0.1380122 0.6174819
0.3418508 0.1497290 0.6450078
0.5251349 0.1905646 0.6620315
0.6756034 0.2289324 0.6834408
0.7808540 0.2732695 0.7036330
0.8442582 0.3182245 0.7280700
0.8873129 0.3855701 0.7491058
0.1406835 0.1887695 0.6267892
0.1420315 0.1945979 0.6314858
0.1518343 0.2181522 0.6457971
0.3368203 0.2490319 0.6714844
0.5383447 0.2989937 0.6891205
0.6915146 0.3375112 0.7088224
0.8008569 0.3733613 0.7230709
0.8644859 0.4167536 0.7490441
0.9058012 0.4736795 0.7671475
0.1512012 0.3192141 0.6634343
0.1526280 0.3273903 0.6684054
0.1591487 0.3575114 0.6911244
0.3128443 0.3986356 0.7076934
0.5393080 0.4374376 0.7289036
0.7164313 0.4877558 0.7456929
0.8237906 0.5193576 0.7604724
0.8890795 0.5550521 0.7741737
0.9256454 0.5872750 0.7843163
0.1629568 0.4491979 0.7043923
0.1641925 0.4584969 0.7086979
0.1677181 0.4879776 0.7209815
0.2796542 0.5402092 0.7366459
0.5485497 0.5884449 0.7569306
0.7291526 0.6293610 0.7697561
0.8436136 0.6559120 0.7821386
0.9093660 0.6799226 0.7933013
0.9444860 0.7074428 0.8108729
0.1696485 0.5526333 0.7277071
0.1707891 0.5620442 0.7316812
0.1769191 0.6033918 0.7530392
0.2254607 0.6466846 0.7647059
0.5514531 0.7003340 0.7810859
0.7335815 0.7346335 0.7852631
0.8554276 0.7593073 0.7962652
0.9184048 0.7787806 0.8124816
0.9543671 0.7958783 0.8228246
0.1765212 0.6358396 0.7516525
0.1777795 0.6499730 0.7560369
0.1803650 0.6824882 0.7650450
0.2420022 0.7366126 0.7859429
0.5602947 0.7828389 0.7930447
0.7334105 0.8159563 0.8049021
0.8600144 0.8405620 0.8123118
0.9260359 0.8556783 0.8220624
0.9622265 0.8666711 0.8365816
0.1830174 0.6957844 0.7742865
0.1840933 0.7096003 0.7780350
0.1862836 0.7410933 0.7856663
0.2585657 0.7916752 0.7949730
0.5687648 0.8377223 0.8067502
0.7492406 0.8683487 0.8180646
0.8642139 0.8907316 0.8251700
0.9301907 0.9044304 0.8343746
0.9647509 0.9128589 0.8399128
0.1879265 0.7446120 0.7913905
0.1888790 0.7586475 0.7947091
0.1905461 0.7861273 0.8005174
0.3408395 0.8308307 0.8079821
0.5983427 0.8733957 0.8186057
0.7596221 0.9011694 0.8295619
0.8755025 0.9226367 0.8387156
0.9342571 0.9323646 0.8441764
0.9667999 0.9400343 0.8524301
0.1649043 0.1649043 0.7111778
0.1671017 0.1671017 0.7188339
0.2488452 0.1710513 0.7325948
0.3995171 0.1871694 0.7509003
0.5799842 0.2258877 0.7736303
0.7064523 0.2632326 0.7856671
0.7985727 0.3043345 0.8019147
0.8603086 0.3606657 0.8198294
0.9001315 0.4193922 0.8372113
0.1683038 0.1683038 0.7230220
0.1700366 0.1700366 0.7290593
0.2478528 0.1942253 0.7436131
0.4083534 0.2297323 0.7633750
0.5804483 0.2640606 0.7820168
0.7115170 0.3137553 0.7981703
0.8066413 0.3494653 0.8111081
0.8677754 0.3941040 0.8263708
0.9062659 0.4529886 0.8434228
0.1756739 0.2530141 0.7487004
0.1773451 0.2611770 0.7545234
0.2221837 0.2880242 0.7688761
0.3967669 0.3248061 0.7854837
0.5818455 0.3630340 0.8055540
0.7317715 0.4126565 0.8186620
0.8284064 0.4524300 0.8330570
0.8843371 0.4889798 0.8458039
0.9197910 0.5323493 0.8572399
0.1855205 0.3805261 0.7830077
0.1873745 0.3962866 0.7894670
0.1907765 0.4195969 0.8013202
0.3911530 0.4611830 0.8174481
0.5922865 0.4969156 0.8343773
0.7391881 0.5356658 0.8431344
0.8422002 0.5673487 0.8548173
0.9040257 0.6034972 0.8645179
0.9353441 0.6379070 0.8754992
0.1941133 0.5044658 0.8129459
0.1956044 0.5161953 0.8181414
0.1989048 0.5483592 0.8296404
0.3607931 0.5866250 0.8480411
0.5901555 0.6321126 0.8589815
0.7511078 0.6628988 0.8686921
0.8600805 0.6901661 0.8727328
0.9156393 0.7136636 0.8817040
0.9493257 0.7336371 0.8896825
0.2015663 0.5990498 0.8389134
0.2031553 0.6139624 0.8444496
0.2060033 0.6464371 0.8543726
0.3379427 0.6868286 0.8656836
0.5980342 0.7357942 0.8754431
0.7536839 0.7656899 0.8839045
0.8616492 0.7875360 0.8925319
0.9263226 0.8026243 0.8976508
0.9567364 0.8218150 0.9042999
0.2058162 0.6780398 0.8537207
0.2070184 0.6912811 0.8579094
0.2095582 0.7222705 0.8667583
0.3437923 0.7671576 0.8827130
0.6067636 0.8072894 0.8899723
0.7685792 0.8397956 0.8940123
0.8673625 0.8598526 0.9020487
0.9294798 0.8734846 0.9062986
0.9629692 0.8829165 0.9118078
0.2112211 0.7391313 0.8725521
0.2119936 0.7487836 0.8752435
0.2143369 0.7811289 0.8834081
0.3696527 0.8193078 0.8913458
0.6146881 0.8571896 0.8973259
0.7672393 0.8850049 0.9045127
0.8792985 0.9071872 0.9111100
0.9328737 0.9156482 0.9148349
0.9643008 0.9235370 0.9202003
0.2134492 0.7803907 0.8803150
0.2143564 0.7933072 0.8834759
0.2159168 0.8177646 0.8889124
0.4265186 0.8578095 0.9016872
0.6388543 0.8915014 0.9064176
0.7820597 0.9152573 0.9119897
0.8820813 0.9331741 0.9132755
0.9396750 0.9425448 0.9186237
0.9673347 0.9491217 0.9238878
0.1903622 0.2308377 0.7998766
0.2274542 0.2367501 0.8039573
0.3231566 0.2634523 0.8165066
0.4833892 0.2924405 0.8307321
0.6292561 0.3281595 0.8455713
0.7463462 0.3690383 0.8581403
0.8318549 0.4081106 0.8696394
0.8870066 0.4595563 0.8812522
0.9183928 0.5048140 0.8918471
0.1929428 0.2686090 0.8088680
0.2098370 0.2753998 0.8133412
0.3257673 0.3010464 0.8260396
0.4796624 0.3343754 0.8402891
0.6296965 0.3682037 0.8552599
0.7508609 0.4021922 0.8649929
0.8409192 0.4416692 0.8772969
0.8923895 0.4930929 0.8874269
0.9219998 0.5274155 0.8968691
0.1986615 0.3445464 0.8287926
0.2006726 0.3637538 0.8357996
0.2977478 0.3826574 0.8458246
0.4681860 0.4155008 0.8610788
0.6432389 0.4593511 0.8743985
0.7675691 0.4912618 0.8825373
0.8523997 0.5212233 0.8920429
0.9018484 0.5565970 0.8985102
0.9311497 0.5891233 0.9071751
0.2060777 0.4557559 0.8546318
0.2073475 0.4649923 0.8590560
0.2725355 0.4950225 0.8704988
0.4734559 0.5239274 0.8844371
0.6394436 0.5675917 0.8955206
0.7741614 0.5933557 0.9014814
0.8628716 0.6258412 0.9104638
0.9142028 0.6531744 0.9169431
0.9433608 0.6846104 0.9226005
0.2138575 0.5664359 0.8817376
0.2151542 0.5779194 0.8862556
0.2229433 0.6017842 0.8948620
0.4543917 0.6396785 0.9057350
0.6498810 0.6786793 0.9146069
0.7835429 0.7042812 0.9215295
0.8735766 0.7223601 0.9243602
0.9259654 0.7445187 0.9305962
0.9541902 0.7640167 0.9330314
0.2186418 0.6496590 0.8984070
0.2201018 0.6673685 0.9034938
0.2222674 0.6919968 0.9110390
0.4514798 0.7272435 0.9202493
0.6496031 0.7637556 0.9274729
0.7854936 0.7904123 0.9338032
0.8835561 0.8134800 0.9366935
0.9310551 0.8255777 0.9411507
0.9592326 0.8348678 0.9439448
0.2222485 0.7208327 0.9109731
0.2233159 0.7354667 0.9146922
0.2253525 0.7620023 0.9217877
0.4514759 0.7971898 0.9297431
0.6569776 0.8298526 0.9388680
0.7886264 0.8547845 0.9422317
0.8812916 0.8732788 0.9462650
0.9369358 0.8858449 0.9483474
0.9650400 0.8965077 0.9511478
0.2253881 0.7763634 0.9219120
0.2272358 0.7903305 0.9283495
0.2364471 0.8143872 0.9340026
0.4797177 0.8462850 0.9403764
0.6650748 0.8759156 0.9450958
0.8016755 0.9008021 0.9499056
0.8914276 0.9148471 0.9512202
0.9397971 0.9252277 0.9548447
0.9687110 0.9322394 0.9553645
0.2283626 0.8177112 0.9322754
0.2288731 0.8254214 0.9340541
0.3178935 0.8497899 0.9392083
0.5154951 0.8779998 0.9442669
0.6794541 0.9047547 0.9508560
0.8117539 0.9281872 0.9534315
0.8940565 0.9413874 0.9564127
0.9432287 0.9508102 0.9570844
0.9686924 0.9549149 0.9601523
0.2654856 0.3584183 0.8633497
0.3228821 0.3668159 0.8678560
0.4184898 0.3893318 0.8768246
0.5512136 0.4204037 0.8878040
0.6832739 0.4446653 0.8959306
0.7897540 0.4783421 0.9055001
0.8620802 0.5171517 0.9141710
0.9063648 0.5388187 0.9195722
0.9355891 0.5850638 0.9281716
0.2644972 0.3891456 0.8709521
0.3101271 0.3957259 0.8743042
0.4159634 0.4110422 0.8816632
0.5512259 0.4424732 0.8924717
0.6856924 0.4768604 0.9023700
0.7934310 0.5104446 0.9121220
0.8650123 0.5394126 0.9181532
0.9112759 0.5740685 0.9261913
0.9386363 0.6073440 0.9317904
0.2293899 0.4485264 0.8840101
0.3006743 0.4582265 0.8884582
0.4106369 0.4824184 0.8970178
0.5547498 0.5113418 0.9064668
0.6859012 0.5406249 0.9144167
0.7994810 0.5707141 0.9229159
0.8723541 0.6003680 0.9285260
0.9181092 0.6276673 0.9348897
0.9454421 0.6609505 0.9400670
0.2203898 0.5428286 0.9044972
0.2565112 0.5511143 0.9077294
0.3974029 0.5706947 0.9148279
0.5546579 0.6021145 0.9237277
0.6918964 0.6292896 0.9320498
0.8029230 0.6557626 0.9373424
0.8847402 0.6821116 0.9417769
0.9253227 0.7037247 0.9461745
0.9524428 0.7237746 0.9495770
0.2251292 0.6272839 0.9210098
0.2260271 0.6366029 0.9241384
0.3705641 0.6554594 0.9300250
0.5512208 0.6885253 0.9383759
0.6952553 0.7102981 0.9445213
0.8101040 0.7358900 0.9489754
0.8886427 0.7594945 0.9524066
0.9340719 0.7755524 0.9562945
0.9588639 0.7923092 0.9583583
0.2289676 0.7042984 0.9343833
0.2296312 0.7122279 0.9366956
0.3835246 0.7357837 0.9430257
0.5570510 0.7700781 0.9519656
0.6963371 0.7893377 0.9558476
0.8153577 0.8151978 0.9596915
0.8970831 0.8325153 0.9636728
0.9388382 0.8437963 0.9649394
0.9653395 0.8599366 0.9678750
0.2325310 0.7673527 0.9467989
0.2330726 0.7746704 0.9486858
0.3810618 0.7970451 0.9540184
0.5639930 0.8289183 0.9602042
0.7056416 0.8515664 0.9640015
0.8184242 0.8735152 0.9668832
0.9008855 0.8861461 0.9694912
0.9429539 0.8983287 0.9706761
0.9680613 0.9056641 0.9729666
0.2347903 0.8169455 0.9546704
0.2645983 0.8247124 0.9564362
0.4096975 0.8431046 0.9603186
0.5807021 0.8694037 0.9651206
0.7209638 0.8920996 0.9685166
0.8301440 0.9134830 0.9728292
0.9036027 0.9237397 0.9738272
0.9468581 0.9339551 0.9757243
0.9710541 0.9400094 0.9766143
0.2923746 0.8507569 0.9606550
0.3499526 0.8577825 0.9620905
0.4686760 0.8745922 0.9652807
0.6081588 0.8984907 0.9703232
0.7329067 0.9188392 0.9731144
0.8328888 0.9349738 0.9749080
0.9058046 0.9481629 0.9767091
0.9498924 0.9550326 0.9780335
0.9725682 0.9601512 0.9784071
