data/spectral_luts/portra_400_portra_endura.cube
TITLE "portra_400_portra_endura"
LUT_3D_SIZE 33
0.0828340 0.0758817 0.0883377
0.0828340 0.0758817 0.0883377
0.0831614 0.0759322 0.0883534
0.0837562 0.0760239 0.0883819
0.0852291 0.0762509 0.0884518
0.0885725 0.0767650 0.0886068
0.0950188 0.0777512 0.0888911
0.1064632 0.0794817 0.0893482
0.1238235 0.0822456 0.0899755
0.1457910 0.0855705 0.0905643
0.1752203 0.0897093 0.0910714
0.2124959 0.0946613 0.0912441
0.2507501 0.0992033 0.0909615
0.2876683 0.1035813 0.0903970
0.3327482 0.1087200 0.0891070
0.3689941 0.1128218 0.0879344
0.4128679 0.1173510 0.0859300
0.4511064 0.1218040 0.0902600
0.4905261 0.1266378 0.1015740
0.5216677 0.1309278 0.1105121
0.5631701 0.1364948 0.1224239
0.5971143 0.1421304 0.1321664
0.6255977 0.1486690 0.1403416
0.6520636 0.1565128 0.1479377
0.6732134 0.1657057 0.1540080
0.6972457 0.1735106 0.1609056
0.7174476 0.1847411 0.1667039
0.7399513 0.1943141 0.1731627
0.7567240 0.2055041 0.1779767
0.7749064 0.2175864 0.1831953
0.7902199 0.2286115 0.1875905
0.8059908 0.2418797 0.1921170
0.8196532 0.2556538 0.1960383
0.0828340 0.0758817 0.0883377
0.0828340 0.0758817 0.0883377
0.0832433 0.0759448 0.0883574
0.0837562 0.0760239 0.0883819
0.0852291 0.0762509 0.0884518
0.0885599 0.0769568 0.0886337
0.0957200 0.0782524 0.0889754
0.1064643 0.0798788 0.0894013
0.1238467 0.0826564 0.0900277
0.1458595 0.0862069 0.0906678
0.1753312 0.0903628 0.0911422
0.2126993 0.0955733 0.0913600
0.2510756 0.1004317 0.0911329
0.2882467 0.1055096 0.0905275
0.3334486 0.1108575 0.0892771
0.3698130 0.1151854 0.0880242
0.4139759 0.1204102 0.0859958
0.4525209 0.1256115 0.0906660
0.4917544 0.1298849 0.1019266
0.5232207 0.1350223 0.1109579
0.5675693 0.1401348 0.1236866
0.5987727 0.1464710 0.1326424
0.6275599 0.1538163 0.1409047
0.6535231 0.1603801 0.1483566
0.6752224 0.1710538 0.1545846
0.6989605 0.1780345 0.1613978
0.7183982 0.1872692 0.1669767
0.7421538 0.2002201 0.1737949
0.7608532 0.2116841 0.1791619
0.7773319 0.2242306 0.1838915
0.7947128 0.2371266 0.1888801
0.8072358 0.2453756 0.1924744
0.8222349 0.2593876 0.1967793
0.0827985 0.0762678 0.0883927
0.0827985 0.0762678 0.0883927
0.0831908 0.0765272 0.0884401
0.0837049 0.0766067 0.0884647
0.0852796 0.0768498 0.0885390
0.0885203 0.0775488 0.0887166
0.0956972 0.0788503 0.0890573
0.1060960 0.0806310 0.0894951
0.1238899 0.0834851 0.0901585
0.1449867 0.0869197 0.0907491
0.1740977 0.0915261 0.0913051
0.2113072 0.0971106 0.0915651
0.2496637 0.1026185 0.0913663
0.2935574 0.1086051 0.0905919
0.3344212 0.1138562 0.0895458
0.3683616 0.1183343 0.0883774
0.4124984 0.1239605 0.0864734
0.4536705 0.1287547 0.0909959
0.4934207 0.1343113 0.1024048
0.5249727 0.1396384 0.1114607
0.5699095 0.1462437 0.1243582
0.6008713 0.1520072 0.1332447
0.6324039 0.1601718 0.1422950
0.6584293 0.1673308 0.1497647
0.6768948 0.1754618 0.1550646
0.7032291 0.1842628 0.1626229
0.7207868 0.1936405 0.1676622
0.7438319 0.2047369 0.1742765
0.7620461 0.2149249 0.1795043
0.7785509 0.2275848 0.1842414
0.7959456 0.2405634 0.1892339
0.8104114 0.2543486 0.1933858
0.8235415 0.2631312 0.1971544
0.0825413 0.0772250 0.0885239
0.0826044 0.0774351 0.0885556
0.0830166 0.0774990 0.0885752
0.0835972 0.0777897 0.0886313
0.0851631 0.0782336 0.0887329
0.0885632 0.0787599 0.0888876
0.0961209 0.0803600 0.0892722
0.1069468 0.0824709 0.0897743
0.1246670 0.0858169 0.0904556
0.1442855 0.0893679 0.0910596
0.1774863 0.0946830 0.0916158
0.2103060 0.1004893 0.0919372
0.2485644 0.1060490 0.0917267
0.2923920 0.1120604 0.0909429
0.3334726 0.1184495 0.0898887
0.3700992 0.1234858 0.0886970
0.4145146 0.1296518 0.0866573
0.4528435 0.1345096 0.0907585
0.4955211 0.1399873 0.1030077
0.5276783 0.1468184 0.1122373
0.5725414 0.1532397 0.1251136
0.6038365 0.1597807 0.1340958
0.6350011 0.1669866 0.1430405
0.6612864 0.1749717 0.1505848
0.6820728 0.1835379 0.1565508
0.7065226 0.1930352 0.1635682
0.7240477 0.2023897 0.1685981
0.7472677 0.2140379 0.1752626
0.7662469 0.2268157 0.1807099
0.7832595 0.2362998 0.1855928
0.7984098 0.2479740 0.1899412
0.8144623 0.2617648 0.1945485
0.8268696 0.2727364 0.1981096
0.0819850 0.0802112 0.0889334
0.0821479 0.0802367 0.0889410
0.0824550 0.0805384 0.0889907
0.0831088 0.0808950 0.0890562
0.0846461 0.0816460 0.0891965
0.0882745 0.0824703 0.0893916
0.0949425 0.0842893 0.0897963
0.1056635 0.0862167 0.0902605
0.1235142 0.0897693 0.0909485
0.1446999 0.0937822 0.0915861
0.1739532 0.0994060 0.0921825
0.2078183 0.1051622 0.0924456
0.2480715 0.1120324 0.0922964
0.2921462 0.1189621 0.0915236
0.3328943 0.1243268 0.0903889
0.3777539 0.1311113 0.0885448
0.4142288 0.1367041 0.0871446
0.4559961 0.1433101 0.0916634
0.4992840 0.1501830 0.1040877
0.5308047 0.1552793 0.1131346
0.5761638 0.1628433 0.1261533
0.6078701 0.1704859 0.1352535
0.6393934 0.1786525 0.1443011
0.6660897 0.1877940 0.1519634
0.6863289 0.1948957 0.1577723
0.7108255 0.2045967 0.1648032
0.7311497 0.2163109 0.1706365
0.7533687 0.2257748 0.1770137
0.7704608 0.2384980 0.1819194
0.7869304 0.2467271 0.1866464
0.8043332 0.2607371 0.1916413
0.8177561 0.2716184 0.1954938
0.8296356 0.2810160 0.1989034
0.0808580 0.0860229 0.0897250
0.0810245 0.0860493 0.0897323
0.0814420 0.0861156 0.0897508
0.0820515 0.0868257 0.0898588
0.0838022 0.0874121 0.0899748
0.0872892 0.0885854 0.0902010
0.0942754 0.0903240 0.0905821
0.1054796 0.0927311 0.0910848
0.1212278 0.0955324 0.0916208
0.1423185 0.1004698 0.0923521
0.1722058 0.1062606 0.0929140
0.2111062 0.1132173 0.0931388
0.2519875 0.1200280 0.0928349
0.2897793 0.1266665 0.0922002
0.3333244 0.1337131 0.0909737
0.3782694 0.1406073 0.0891222
0.4177271 0.1469740 0.0872621
0.4571377 0.1548660 0.0919911
0.5004790 0.1615492 0.1044307
0.5450222 0.1691837 0.1172152
0.5809116 0.1756129 0.1275160
0.6122764 0.1822966 0.1365182
0.6442674 0.1917214 0.1457000
0.6705381 0.1997638 0.1532401
0.6987272 0.2112638 0.1613308
0.7159031 0.2184193 0.1662605
0.7352369 0.2277830 0.1718096
0.7587351 0.2406723 0.1785540
0.7760095 0.2488504 0.1835120
0.7913746 0.2593285 0.1879220
0.8089849 0.2741446 0.1929764
0.8218898 0.2838961 0.1966803
0.8359255 0.2963011 0.2007087
0.0790756 0.0937690 0.0907129
0.0795107 0.0938392 0.0907308
0.0799434 0.0939090 0.0907485
0.0805249 0.0947811 0.0908686
0.0826373 0.0951225 0.0909529
0.0864516 0.0965288 0.0912235
0.0929950 0.0984021 0.0915854
0.1047086 0.1003032 0.0919994
0.1206063 0.1051521 0.0927314
0.1428360 0.1096123 0.0933372
0.1732743 0.1152068 0.0937859
0.2075604 0.1228892 0.0940861
0.2482109 0.1300773 0.0937403
0.2880923 0.1374398 0.0930602
0.3315749 0.1443609 0.0917136
0.3767954 0.1525103 0.0898202
0.4165514 0.1600862 0.0878074
0.4616099 0.1680277 0.0932746
0.5025609 0.1756819 0.1050282
0.5471343 0.1836920 0.1178214
0.5831922 0.1903376 0.1281706
0.6182160 0.1986685 0.1382229
0.6498715 0.2072044 0.1473085
0.6764479 0.2161839 0.1549363
0.7043922 0.2268773 0.1629567
0.7222322 0.2363155 0.1680771
0.7475156 0.2462660 0.1753338
0.7636597 0.2545825 0.1799674
0.7817094 0.2652593 0.1851479
0.7990424 0.2766131 0.1901227
0.8131149 0.2862420 0.1941618
0.8284898 0.2991826 0.1985746
0.8405271 0.3102064 0.2020295
0.0767413 0.1040296 0.0919172
0.0771097 0.1040898 0.0919308
0.0775691 0.1041648 0.0919477
0.0783586 0.1053815 0.0921261
0.0806684 0.1057599 0.0922085
0.0842784 0.1074917 0.0924847
0.0914263 0.1086774 0.0927462
0.1016615 0.1122272 0.0932615
0.1196354 0.1164689 0.0938645
0.1392390 0.1209800 0.0944233
0.1688600 0.1270380 0.0948772
0.2040515 0.1345509 0.0950674
0.2467727 0.1428967 0.0946489
0.2935224 0.1505749 0.0935966
0.3307694 0.1592150 0.0925004
0.3784850 0.1671531 0.0901279
0.4187634 0.1759514 0.0880783
0.4636968 0.1834094 0.0938736
0.5083954 0.1929850 0.1067028
0.5537340 0.2028072 0.1197156
0.5893859 0.2080086 0.1299482
0.6248349 0.2174536 0.1401226
0.6568516 0.2267761 0.1493119
0.6836461 0.2364281 0.1570023
0.7107046 0.2449894 0.1647685
0.7308518 0.2550541 0.1705510
0.7524512 0.2603554 0.1767504
0.7713139 0.2713595 0.1821643
0.7877697 0.2829367 0.1868873
0.8047045 0.2933251 0.1917478
0.8213078 0.3066716 0.1965132
0.8355559 0.3207197 0.2006026
0.8492083 0.3333753 0.2045211
0.0732117 0.1167471 0.0932649
0.0737080 0.1168284 0.0932807
0.0742035 0.1169095 0.0932963
0.0750228 0.1184534 0.0934595
0.0778204 0.1189203 0.0935734
0.0819348 0.1196079 0.0937238
0.0896456 0.1223834 0.0941010
0.1014388 0.1243850 0.0944488
0.1188529 0.1289263 0.0950461
0.1391597 0.1347632 0.0955428
0.1711279 0.1401106 0.0958625
0.2075772 0.1484349 0.0958869
0.2515012 0.1578534 0.0953721
0.2923049 0.1656375 0.0944386
0.3376168 0.1768468 0.0926882
0.3781315 0.1851482 0.0906283
0.4298073 0.1944716 0.0872051
0.4726796 0.2026210 0.0964518
0.5117386 0.2129246 0.1076623
0.5562235 0.2194876 0.1204301
0.5937136 0.2297134 0.1311903
0.6287789 0.2370386 0.1412546
0.6614697 0.2476406 0.1506373
0.6893786 0.2533571 0.1586476
0.7173697 0.2643412 0.1666815
0.7378278 0.2756175 0.1725533
0.7596290 0.2818412 0.1788105
0.7789515 0.2945434 0.1843563
0.7977528 0.3079081 0.1897526
0.8115438 0.3147205 0.1937108
0.8285713 0.3295909 0.1985980
0.8422583 0.3417838 0.2025263
0.8551027 0.3522132 0.2062129
0.0686108 0.1306217 0.0944976
0.0690389 0.1306977 0.0945382
0.0697968 0.1308202 0.0945578
0.0706796 0.1328712 0.0947654
0.0736235 0.1333577 0.0948676
0.0784293 0.1341559 0.0950122
0.0864044 0.1355025 0.0952532
0.0984212 0.1394936 0.0957319
0.1145143 0.1432675 0.0961473
0.1385669 0.1495146 0.0966573
0.1658292 0.1574139 0.0969660
0.2036134 0.1638355 0.0968700
0.2478156 0.1742765 0.0962166
0.2913912 0.1843361 0.0949358
0.3366826 0.1943443 0.0931782
0.3885642 0.2048542 0.0902185
0.4295228 0.2137308 0.0876170
0.4752805 0.2215370 0.0971983
0.5232918 0.2308124 0.1109783
0.5602480 0.2419621 0.1215852
0.5972810 0.2503003 0.1322142
0.6359339 0.2589471 0.1433082
0.6672860 0.2654423 0.1523067
0.6973919 0.2773914 0.1609475
0.7223223 0.2862199 0.1681029
0.7426579 0.2969469 0.1739396
0.7676358 0.3061561 0.1811086
0.7874243 0.3206456 0.1867882
0.8042312 0.3280780 0.1916120
0.8205878 0.3432482 0.1963066
0.8351964 0.3510398 0.2004995
0.8510334 0.3670832 0.2050449
0.8617078 0.3749821 0.2081086
0.0626026 0.1449192 0.0956014
0.0621607 0.1470193 0.0957667
0.0631397 0.1471716 0.0957859
0.0649848 0.1485604 0.0959529
0.0683412 0.1490998 0.0960510
0.0736573 0.1499635 0.0961825
0.0821752 0.1535780 0.0965542
0.0947190 0.1557263 0.0968368
0.1149264 0.1603871 0.0972467
0.1343397 0.1661052 0.0975826
0.1672259 0.1731530 0.0977533
0.2068041 0.1836528 0.0975420
0.2460169 0.1940562 0.0968163
0.2968228 0.2022096 0.0949232
0.3378632 0.2123632 0.0931004
0.3875047 0.2235142 0.0901831
0.4318694 0.2338608 0.0870838
0.4785298 0.2442876 0.0981309
0.5240403 0.2545075 0.1111931
0.5637182 0.2641878 0.1225812
0.6135590 0.2730023 0.1368863
0.6489872 0.2825927 0.1470547
0.6807722 0.2919167 0.1561775
0.7025505 0.3012056 0.1624281
0.7310410 0.3135923 0.1706053
0.7509924 0.3236887 0.1763317
0.7763046 0.3342238 0.1835967
0.7938086 0.3417641 0.1886206
0.8131388 0.3577179 0.1941686
0.8288748 0.3656566 0.1986851
0.8425182 0.3753100 0.2026009
0.8573346 0.3883809 0.2068534
0.8701136 0.3992944 0.2105212
0.0536193 0.1617765 0.0967111
0.0544530 0.1619070 0.0967591
0.0553342 0.1632560 0.0968302
0.0578419 0.1636342 0.0969005
0.0622317 0.1643120 0.0970313
0.0667872 0.1674909 0.0972655
0.0778890 0.1692884 0.0975131
0.0897135 0.1725239 0.0977948
0.1103707 0.1786651 0.0981395
0.1319711 0.1839218 0.0984107
0.1681135 0.1919030 0.0983517
0.2075152 0.2032370 0.0979153
0.2500147 0.2136361 0.0968334
0.2950650 0.2227692 0.0951829
0.3446644 0.2353772 0.0924094
0.3862281 0.2434430 0.0901425
0.4311014 0.2551072 0.0863651
0.4813217 0.2674394 0.0989322
0.5274908 0.2791075 0.1121834
0.5673227 0.2882043 0.1236158
0.6184712 0.3007946 0.1382962
0.6547839 0.3118632 0.1487184
0.6874301 0.3226893 0.1580884
0.7113757 0.3308040 0.1649611
0.7393709 0.3416292 0.1729961
0.7659633 0.3527473 0.1806286
0.7841927 0.3604285 0.1858607
0.8024510 0.3706355 0.1911010
0.8193274 0.3786483 0.1959448
0.8357855 0.3892238 0.2006686
0.8508843 0.4052955 0.2050021
0.8641565 0.4134507 0.2088114
0.8762638 0.4211527 0.2122864
0.0419056 0.1786671 0.0975735
0.0423974 0.1801552 0.0976656
0.0444463 0.1804185 0.0976821
0.0476961 0.1808590 0.0977540
0.0528839 0.1815909 0.0978861
0.0587674 0.1854260 0.0981337
0.0705963 0.1887704 0.0983149
0.0851318 0.1911448 0.0985781
0.1064581 0.1964065 0.0988708
0.1294344 0.2037308 0.0989613
0.1665704 0.2122730 0.0987137
0.2033995 0.2241748 0.0981915
0.2537369 0.2351816 0.0966138
0.3006706 0.2491036 0.0941785
0.3429975 0.2583045 0.0918053
0.3971307 0.2710157 0.0873783
0.4427159 0.2822419 0.0878518
0.4904945 0.2934507 0.1015650
0.5308744 0.3056524 0.1131546
0.5805088 0.3144798 0.1274004
0.6223639 0.3269227 0.1394134
0.6623010 0.3393369 0.1508759
0.6944848 0.3482771 0.1601132
0.7241033 0.3593436 0.1686141
0.7450119 0.3696799 0.1746152
0.7710660 0.3782978 0.1820931
0.7901753 0.3890393 0.1875778
0.8098096 0.3972864 0.1932131
0.8274795 0.4084054 0.1982846
0.8432175 0.4167418 0.2028016
0.8569261 0.4271828 0.2067362
0.8701995 0.4355418 0.2105459
0.8829036 0.4470630 0.2141922
0.0223266 0.2006982 0.0982320
0.0243782 0.2009715 0.0982865
0.0269920 0.2013264 0.0983898
0.0311562 0.2018544 0.0984577
0.0358227 0.2043027 0.0985921
0.0455744 0.2055020 0.0987260
0.0597893 0.2074316 0.0989116
0.0784182 0.2121118 0.0991136
0.0987407 0.2211417 0.0992335
0.1291440 0.2265677 0.0991228
0.1601276 0.2343813 0.0990027
0.2045580 0.2487084 0.0975073
0.2499117 0.2574815 0.0961537
0.2976613 0.2724773 0.0934556
0.3518541 0.2842981 0.0897565
0.3958670 0.2983431 0.0857310
0.4448372 0.3086389 0.0884606
0.4936000 0.3227690 0.1024563
0.5434471 0.3323680 0.1167631
0.5841562 0.3427860 0.1284472
0.6264301 0.3556356 0.1405805
0.6656705 0.3635461 0.1518430
0.6990569 0.3754215 0.1614254
0.7284427 0.3844804 0.1698596
0.7518761 0.3956880 0.1765853
0.7787983 0.4074288 0.1843124
0.7958747 0.4105226 0.1892136
0.8142911 0.4217941 0.1944993
0.8371963 0.4304477 0.2010735
0.8534487 0.4417544 0.2057382
0.8673075 0.4506095 0.2097158
0.8766685 0.4615449 0.2124026
0.8887461 0.4696055 0.2158690
0.0263821 0.2233135 0.0987203
0.0264525 0.2236229 0.0987174
0.0265312 0.2239680 0.0988419
0.0266807 0.2246218 0.0988330
0.0268707 0.2254497 0.0988928
0.0276504 0.2288124 0.0991061
0.0457368 0.2310607 0.0991739
0.0647675 0.2356305 0.0992878
0.0928825 0.2440594 0.0991282
0.1232858 0.2514043 0.0987827
0.1573082 0.2598079 0.0985239
0.2048980 0.2729767 0.0966773
0.2523709 0.2844169 0.0947945
0.3043191 0.2965571 0.0918640
0.3491392 0.3111946 0.0876595
0.4052748 0.3234980 0.0824586
0.4528266 0.3382602 0.0907537
0.4946071 0.3453608 0.1027453
0.5458945 0.3603173 0.1174656
0.5866025 0.3690467 0.1291494
0.6293933 0.3825440 0.1414310
0.6686984 0.3885846 0.1527121
0.7053522 0.4014351 0.1632323
0.7355518 0.4137254 0.1719000
0.7632673 0.4227589 0.1798548
0.7842017 0.4291825 0.1858632
0.8034670 0.4407465 0.1913926
0.8272775 0.4496319 0.1982266
0.8448849 0.4613332 0.2032802
0.8590121 0.4645940 0.2073349
0.8735895 0.4761942 0.2115188
0.8823375 0.4840902 0.2140297
0.8948629 0.4958741 0.2176246
0.0306812 0.2413825 0.0988219
0.0316597 0.2452849 0.0988089
0.0317831 0.2457720 0.0987863
0.0324177 0.2482598 0.0988370
0.0326534 0.2491764 0.0989734
0.0330639 0.2507643 0.0990638
0.0342051 0.2551177 0.0989653
0.0520367 0.2585085 0.0991988
0.0835918 0.2649679 0.0990839
0.1152775 0.2762864 0.0983233
0.1536065 0.2833946 0.0977831
0.2070388 0.2959715 0.0957053
0.2568450 0.3080549 0.0928024
0.2997345 0.3231764 0.0898982
0.3567063 0.3341998 0.0848097
0.4048575 0.3455914 0.0806826
0.4530025 0.3611085 0.0908042
0.5057367 0.3724631 0.1059397
0.5474985 0.3866074 0.1179259
0.5984372 0.3951312 0.1325461
0.6414952 0.4092253 0.1449044
0.6812212 0.4180803 0.1563063
0.7086621 0.4277781 0.1641823
0.7393314 0.4400372 0.1729848
0.7689102 0.4477302 0.1814743
0.7883787 0.4567698 0.1870621
0.8141739 0.4689512 0.1944657
0.8324908 0.4727488 0.1997229
0.8502079 0.4838650 0.2048080
0.8656515 0.4930156 0.2092405
0.8789447 0.4986390 0.2130559
0.8916259 0.5075830 0.2166955
0.9002199 0.5184123 0.2191622
0.0369829 0.2653731 0.0987041
0.0370893 0.2657569 0.0986746
0.0372072 0.2661813 0.0986413
0.0379413 0.2688067 0.0987001
0.0382522 0.2699096 0.0988693
0.0388232 0.2719215 0.0989463
0.0400880 0.2763178 0.0987982
0.0411911 0.2801433 0.0990791
0.0715241 0.2909130 0.0981011
0.1092334 0.2967443 0.0978895
0.1579176 0.3077388 0.0966356
0.2086058 0.3199215 0.0942093
0.2609242 0.3306631 0.0914016
0.3053811 0.3463787 0.0871581
0.3520426 0.3581885 0.0835726
0.4105212 0.3717994 0.0786114
0.4526997 0.3843804 0.0907173
0.5025731 0.3960150 0.1050317
0.5585357 0.4130793 0.1210938
0.6002010 0.4226821 0.1330523
0.6430978 0.4350463 0.1453643
0.6835602 0.4441937 0.1569777
0.7202890 0.4581723 0.1675193
0.7439379 0.4620981 0.1743069
0.7724357 0.4750671 0.1824862
0.7938486 0.4814965 0.1886320
0.8189278 0.4915835 0.1958301
0.8360775 0.4976104 0.2007523
0.8533239 0.5064247 0.2057023
0.8713570 0.5185577 0.2108781
0.8853287 0.5271745 0.2148882
0.8975040 0.5329329 0.2183827
0.9051540 0.5420430 0.2205783
0.0430595 0.2866532 0.0984867
0.0431560 0.2869893 0.0984500
0.0433193 0.2875585 0.0983865
0.0435814 0.2884715 0.0986169
0.0445891 0.2919827 0.0987479
0.0451799 0.2940408 0.0988225
0.0464510 0.2984696 0.0986145
0.0477074 0.3028470 0.0985320
0.0554597 0.3115045 0.0976188
0.1066486 0.3208974 0.0968539
0.1548387 0.3316185 0.0952501
0.2071244 0.3420284 0.0932298
0.2531973 0.3538546 0.0904978
0.3105958 0.3725714 0.0845291
0.3587843 0.3825736 0.0803075
0.4090131 0.3950347 0.0781786
0.4586986 0.4116842 0.0924391
0.5128998 0.4245261 0.1079956
0.5580071 0.4328811 0.1209420
0.6009389 0.4477819 0.1332641
0.6437971 0.4580921 0.1455650
0.6854265 0.4702130 0.1575133
0.7216399 0.4795782 0.1679071
0.7538428 0.4877006 0.1771498
0.7769459 0.4971025 0.1837807
0.8040437 0.5102831 0.1915582
0.8214903 0.5138476 0.1965656
0.8420489 0.5259589 0.2024662
0.8585874 0.5327842 0.2072130
0.8742859 0.5417389 0.2117187
0.8895050 0.5478782 0.2160868
0.9022787 0.5565622 0.2197531
0.9143612 0.5687599 0.2232209
0.0493519 0.3085768 0.0983362
0.0494776 0.3090149 0.0982739
0.0496300 0.3095456 0.0981972
0.0505313 0.3126859 0.0982311
0.0509616 0.3141854 0.0979956
0.0515531 0.3162462 0.0983358
0.0523631 0.3190683 0.0983016
0.0543385 0.3259509 0.0975721
0.0564703 0.3333785 0.0975106
0.0933236 0.3441554 0.0959941
0.1505568 0.3560409 0.0943209
0.2073541 0.3669951 0.0908517
0.2558641 0.3794352 0.0875652
0.3157294 0.3921943 0.0829331
0.3651986 0.4095187 0.0783237
0.4168421 0.4226913 0.0821044
0.4567031 0.4308239 0.0918663
0.5115868 0.4439930 0.1076188
0.5581743 0.4601015 0.1209900
0.6112802 0.4728757 0.1362322
0.6575772 0.4811984 0.1495201
0.6990930 0.4960292 0.1614358
0.7260205 0.5043719 0.1691644
0.7564120 0.5152808 0.1778872
0.7792335 0.5223256 0.1844373
0.8061190 0.5325826 0.1921538
0.8263612 0.5399183 0.1979636
0.8443024 0.5491266 0.2031130
0.8630611 0.5558714 0.2084971
0.8787860 0.5650424 0.2130103
0.8924499 0.5712836 0.2169321
0.9057258 0.5833457 0.2207424
0.9175887 0.5866906 0.2241472
0.0545513 0.3266922 0.0983612
0.0547143 0.3272601 0.0982656
0.0560396 0.3318777 0.0981570
0.0563705 0.3330307 0.0979483
0.0574720 0.3368683 0.0978767
0.0581219 0.3391326 0.0982989
0.0591079 0.3425682 0.0975755
0.0610727 0.3494136 0.0967321
0.0628360 0.3555574 0.0969978
0.0825984 0.3641057 0.0958614
0.1453498 0.3737995 0.0933232
0.2076575 0.3882719 0.0903281
0.2552685 0.4026442 0.0850581
0.3076925 0.4163850 0.0806161
0.3582745 0.4298539 0.0841602
0.4105015 0.4411109 0.0873911
0.4681019 0.4555278 0.0951379
0.5211665 0.4735554 0.1103683
0.5675271 0.4828267 0.1236745
0.6104797 0.4936180 0.1360025
0.6580661 0.5075419 0.1496605
0.6992418 0.5177271 0.1614785
0.7352503 0.5275630 0.1718135
0.7580029 0.5401537 0.1783438
0.7879604 0.5459293 0.1869421
0.8105521 0.5583765 0.1934262
0.8283486 0.5623819 0.1985341
0.8489522 0.5745099 0.2044476
0.8652148 0.5780669 0.2091152
0.8832327 0.5911732 0.2142866
0.8963459 0.5947239 0.2180503
0.9097924 0.6064271 0.2219096
0.9205132 0.6097485 0.2249867
0.0611262 0.3496002 0.0985518
0.0612819 0.3501426 0.0984433
0.0615376 0.3510337 0.0982619
0.0625804 0.3546667 0.0983102
0.0630315 0.3562384 0.0979674
0.0638048 0.3589328 0.0984656
0.0647662 0.3622825 0.0976645
0.0668848 0.3696638 0.0966448
0.0685084 0.3753208 0.0964985
0.0802035 0.3860749 0.0958146
0.1381189 0.3991914 0.0924818
0.2036682 0.4115365 0.0891157
0.2569767 0.4251635 0.0855617
0.3117929 0.4369793 0.0862053
0.3635779 0.4509139 0.0902047
0.4171714 0.4650576 0.0942642
0.4726598 0.4842529 0.0997735
0.5187063 0.4940583 0.1096622
0.5661560 0.5057259 0.1232809
0.6092553 0.5145030 0.1356510
0.6576615 0.5311450 0.1495443
0.6994677 0.5417682 0.1615433
0.7356521 0.5493670 0.1719288
0.7612514 0.5623047 0.1792762
0.7918892 0.5709784 0.1880697
0.8117015 0.5806684 0.1937561
0.8324067 0.5878514 0.1996988
0.8556922 0.5928832 0.2063821
0.8751489 0.6047735 0.2119664
0.8897786 0.6086365 0.2161653
0.9005744 0.6195865 0.2192639
0.9125451 0.6227816 0.2226997
0.9247804 0.6341861 0.2262114
0.0666795 0.3689486 0.0991309
0.0668833 0.3696588 0.0989707
0.0672091 0.3707937 0.0987098
0.0681976 0.3742378 0.0989611
0.0687142 0.3760378 0.0985222
0.0694372 0.3785568 0.0993689
0.0706183 0.3826720 0.0982803
0.0728901 0.3905871 0.0971702
0.0746471 0.3967089 0.0973486
0.0781241 0.4088233 0.0950283
0.1427008 0.4223416 0.0920626
0.2019495 0.4338627 0.0910818
0.2584421 0.4476992 0.0892821
0.3153644 0.4600737 0.0928337
0.3687333 0.4742401 0.0968997
0.4236998 0.4888842 0.1011028
0.4695345 0.5033734 0.1052614
0.5273230 0.5181462 0.1121353
0.5748742 0.5282256 0.1257832
0.6223751 0.5402469 0.1394166
0.6673256 0.5566300 0.1523181
0.7084472 0.5649342 0.1641206
0.7360227 0.5732521 0.1720352
0.7694352 0.5848683 0.1816250
0.7924075 0.5924540 0.1882184
0.8212320 0.5974701 0.1964915
0.8402131 0.6094643 0.2019393
0.8592279 0.6140102 0.2073969
0.8777871 0.6210614 0.2127236
0.8938432 0.6326564 0.2173320
0.9064577 0.6363865 0.2209525
0.9164253 0.6472003 0.2238134
0.9271899 0.6507501 0.2269029
0.0723299 0.3886355 0.1006799
0.0725835 0.3895191 0.1004614
0.0728180 0.3903362 0.1002560
0.0738527 0.3939411 0.1008430
0.0744724 0.3961002 0.1002728
0.0753085 0.3990131 0.0994660
0.0767562 0.4040574 0.1001995
0.0788646 0.4114032 0.0995796
0.0808562 0.4183424 0.0998892
0.0833985 0.4272001 0.0984705
0.1351734 0.4439706 0.0951742
0.2003393 0.4555740 0.0915422
0.2599469 0.4679641 0.0950984
0.3181590 0.4833158 0.0995045
0.3734429 0.4974938 0.1035739
0.4188874 0.5081427 0.1066302
0.4765252 0.5270242 0.1120495
0.5239689 0.5376469 0.1150984
0.5724690 0.5500559 0.1250928
0.6201490 0.5602396 0.1387777
0.6648464 0.5720054 0.1516065
0.7077253 0.5878358 0.1639134
0.7442929 0.5954908 0.1744088
0.7689630 0.6034365 0.1814895
0.7928051 0.6129194 0.1883326
0.8219908 0.6216313 0.1967093
0.8420702 0.6264949 0.2024724
0.8602934 0.6384478 0.2077027
0.8788010 0.6427494 0.2130146
0.8958656 0.6497214 0.2179124
0.9093879 0.6587591 0.2217935
0.9213061 0.6649029 0.2252142
0.9299638 0.6728060 0.2276991
0.0780343 0.4085105 0.1038993
0.0782907 0.4094036 0.1036659
0.0785618 0.4103484 0.1034149
0.0789054 0.4115452 0.1030907
0.0803088 0.4164349 0.1036047
0.0813220 0.4199652 0.1025707
0.0825828 0.4243580 0.1039759
0.0841884 0.4299521 0.1021520
0.0869426 0.4395482 0.1008333
0.0899231 0.4499326 0.0999799
0.1498141 0.4611882 0.0972188
0.2132110 0.4797730 0.0984877
0.2609792 0.4896295 0.1013167
0.3210414 0.5056104 0.1059034
0.3779597 0.5183415 0.1095574
0.4250069 0.5308048 0.1131346
0.4866905 0.5448148 0.1171557
0.5317233 0.5565180 0.1205146
0.5804823 0.5718239 0.1273928
0.6288913 0.5847031 0.1412869
0.6738614 0.5937465 0.1541940
0.7088143 0.6037899 0.1642260
0.7467327 0.6186872 0.1751091
0.7714804 0.6238104 0.1822121
0.8024088 0.6330711 0.1910889
0.8237196 0.6382911 0.1972055
0.8427035 0.6498626 0.2026541
0.8619705 0.6548121 0.2081840
0.8807635 0.6619434 0.2135779
0.8966851 0.6696815 0.2181476
0.9116892 0.6762925 0.2224540
0.9232097 0.6801411 0.2257606
0.9322414 0.6906095 0.2283528
0.0834980 0.4275467 0.1067224
0.0839042 0.4289620 0.1084227
0.0842186 0.4300573 0.1081250
0.0848282 0.4321813 0.1075320
0.0856237 0.4349528 0.1067258
0.0871100 0.4401314 0.1085394
