data/spectral_luts/portra_160_endura_premier.cube
TITLE "portra_160_endura_premier"
LUT_3D_SIZE 33
0.0383290 0.0612595 0.0723066
0.0383290 0.0612595 0.0723066
0.0384012 0.0612697 0.0723089
0.0387633 0.0613209 0.0723204
0.0393182 0.0613988 0.0723379
0.0409954 0.0616326 0.0723896
0.0452205 0.0622272 0.0725170
0.0523405 0.0632333 0.0727187
0.0639562 0.0648806 0.0730666
0.0790695 0.0669870 0.0734121
0.1006054 0.0699146 0.0736948
0.1256443 0.0730882 0.0737921
0.1543408 0.0763779 0.0736233
0.1908659 0.0799837 0.0730124
0.2251567 0.0828222 0.0720468
0.2653713 0.0855848 0.0704807
0.3033676 0.0875500 0.0684870
0.3477781 0.0890149 0.0656080
0.3920507 0.0896137 0.0733101
0.4343618 0.0896779 0.0854540
0.4669491 0.0948071 0.0948071
0.5114076 0.1075673 0.1075673
0.5448515 0.1171662 0.1171662
0.5666273 0.1234162 0.1234162
0.5958573 0.1318056 0.1318056
0.6250290 0.1401783 0.1401783
0.6486285 0.1469517 0.1469517
0.6733218 0.1540391 0.1540391
0.6939492 0.1599594 0.1599594
0.7124766 0.1652771 0.1652771
0.7318646 0.1708417 0.1708417
0.7472339 0.1752529 0.1752529
0.7634524 0.1799079 0.1799079
0.0383290 0.0612595 0.0723066
0.0383290 0.0612595 0.0723066
0.0384012 0.0612697 0.0723089
0.0387633 0.0613209 0.0723204
0.0394026 0.0614107 0.0723405
0.0411406 0.0616530 0.0723940
0.0452123 0.0622731 0.0725247
0.0530714 0.0633859 0.0727604
0.0652001 0.0651069 0.0731310
0.0808300 0.0673236 0.0734563
0.1006135 0.0700127 0.0737091
0.1256594 0.0731893 0.0738059
0.1606837 0.0771438 0.0735533
0.1909131 0.0801640 0.0730323
0.2252529 0.0831442 0.0720777
0.2654865 0.0859329 0.0705085
0.3035542 0.0880833 0.0685517
0.3551215 0.0895230 0.0650245
0.3922165 0.0900583 0.0733577
0.4344321 0.0898643 0.0854742
0.4671119 0.0948538 0.0948538
0.5116216 0.1076287 0.1076287
0.5451300 0.1172461 0.1172461
0.5666273 0.1234162 0.1234162
0.5958573 0.1318056 0.1318056
0.6250290 0.1401783 0.1401783
0.6486285 0.1469517 0.1469517
0.6733218 0.1540391 0.1540391
0.6939492 0.1599594 0.1599594
0.7124766 0.1652771 0.1652771
0.7318646 0.1708417 0.1708417
0.7472339 0.1752529 0.1752529
0.7634524 0.1799079 0.1799079
0.0383081 0.0613503 0.0723221
0.0383081 0.0613503 0.0723221
0.0384526 0.0613708 0.0723267
0.0388154 0.0614220 0.0723382
0.0394668 0.0615135 0.0723586
0.0414025 0.0618307 0.0724262
0.0456904 0.0624345 0.0725546
0.0530520 0.0635268 0.0727975
0.0651921 0.0652479 0.0731535
0.0808305 0.0674693 0.0734928
0.1006257 0.0701600 0.0737306
0.1307752 0.0740320 0.0738269
0.1607761 0.0775733 0.0736225
0.1910368 0.0806427 0.0731062
0.2254271 0.0837357 0.0721787
0.2688593 0.0868993 0.0704399
0.3137974 0.0892979 0.0680164
0.3556214 0.0908815 0.0651655
0.3927549 0.0914975 0.0735122
0.4352007 0.0919030 0.0856948
0.4717719 0.0961913 0.0961913
0.5160192 0.1088909 0.1088909
0.5461661 0.1175435 0.1175435
0.5767702 0.1263274 0.1263274
0.5976732 0.1323268 0.1323268
0.6291423 0.1413589 0.1413589
0.6497009 0.1472595 0.1472595
0.6769633 0.1550842 0.1550842
0.6956626 0.1604512 0.1604512
0.7124766 0.1652771 0.1652771
0.7318646 0.1708417 0.1708417
0.7482771 0.1755523 0.1755523
0.7634524 0.1799079 0.1799079
0.0382661 0.0615323 0.0723532
0.0383384 0.0615426 0.0723555
0.0384832 0.0615631 0.0723600
0.0388467 0.0616144 0.0723715
0.0395822 0.0617786 0.0724050
0.0417986 0.0620885 0.0724727
0.0461399 0.0627686 0.0726133
0.0541710 0.0639843 0.0729180
0.0671654 0.0659591 0.0732801
0.0826926 0.0682515 0.0736033
0.1035602 0.0711696 0.0738452
0.1308965 0.0747973 0.0739435
0.1609585 0.0784217 0.0737461
0.1979242 0.0823416 0.0730951
0.2339530 0.0856921 0.0720369
0.2694457 0.0886775 0.0706350
0.3145069 0.0913041 0.0682125
0.3600895 0.0931502 0.0651033
0.4042207 0.0942644 0.0768031
0.4363956 0.0950730 0.0860378
0.4805789 0.0987190 0.0987190
0.5179633 0.1094489 0.1094489
0.5486066 0.1182440 0.1182440
0.5787776 0.1269035 0.1269035
0.5995858 0.1328757 0.1328757
0.6306188 0.1417827 0.1417827
0.6513283 0.1477266 0.1477266
0.6791508 0.1557121 0.1557121
0.6982661 0.1611985 0.1611985
0.7176772 0.1667697 0.1667697
0.7353732 0.1718487 0.1718487
0.7520887 0.1766464 0.1766464
0.7673026 0.1810130 0.1810130
0.0380754 0.0623420 0.0725043
0.0381480 0.0623523 0.0725066
0.0384198 0.0624756 0.0725296
0.0387968 0.0625289 0.0725414
0.0397491 0.0627472 0.0725851
0.0420284 0.0631512 0.0726680
0.0469646 0.0639424 0.0728825
0.0549198 0.0652456 0.0731539
0.0684511 0.0673356 0.0735256
0.0827135 0.0696024 0.0738240
0.1036932 0.0727158 0.0740968
0.1346298 0.0768722 0.0741634
0.1679030 0.0810288 0.0739119
0.1985421 0.0846775 0.0733814
0.2347053 0.0881944 0.0723455
0.2767486 0.0919568 0.0705639
0.3189186 0.0945517 0.0682718
0.3615382 0.0970878 0.0653652
0.4058588 0.0986331 0.0772733
0.4421918 0.1011054 0.0877014
0.4869015 0.1018723 0.1005337
0.5208058 0.1102647 0.1102647
0.5540033 0.1197929 0.1197929
0.5811918 0.1275964 0.1275964
0.6046301 0.1343236 0.1343236
0.6336139 0.1426423 0.1426423
0.6541191 0.1485276 0.1485276
0.6826411 0.1567139 0.1567139
0.7032715 0.1626351 0.1626351
0.7221474 0.1680527 0.1680527
0.7390506 0.1729042 0.1729042
0.7558652 0.1777303 0.1777303
0.7711118 0.1821063 0.1821063
0.0375856 0.0643670 0.0728578
0.0378055 0.0643985 0.0728646
0.0380999 0.0644406 0.0728736
0.0384744 0.0646182 0.0729058
0.0397161 0.0647930 0.0729429
0.0421239 0.0653895 0.0731110
0.0477402 0.0664401 0.0733377
0.0568817 0.0680003 0.0736484
0.0696974 0.0699616 0.0739489
0.0856017 0.0728256 0.0742832
0.1085571 0.0762523 0.0745500
0.1351706 0.0802792 0.0746579
0.1686686 0.0845222 0.0743714
0.1995343 0.0884886 0.0738294
0.2360813 0.0928232 0.0728259
0.2817836 0.0976336 0.0709179
0.3211893 0.1010288 0.0687596
0.3642122 0.1044026 0.0657709
0.4090508 0.1071714 0.0781894
0.4521279 0.1085348 0.0905532
0.4898821 0.1097648 0.1013892
0.5269210 0.1120199 0.1120199
0.5568168 0.1206004 0.1206004
0.5873681 0.1293691 0.1293691
0.6143144 0.1371031 0.1371031
0.6404330 0.1445995 0.1445995
0.6614386 0.1506284 0.1506284
0.6869474 0.1579498 0.1579498
0.7083259 0.1640858 0.1640858
0.7269164 0.1694215 0.1694215
0.7459570 0.1748864 0.1748864
0.7610646 0.1792226 0.1792226
0.7770733 0.1838173 0.1838173
0.0366943 0.0684119 0.0735468
0.0369939 0.0684554 0.0735557
0.0372167 0.0684901 0.0735765
0.0378100 0.0689778 0.0736724
0.0393533 0.0692048 0.0737605
0.0423587 0.0701764 0.0739487
0.0484556 0.0710494 0.0741270
0.0589433 0.0731367 0.0744606
0.0708038 0.0754312 0.0747778
0.0876142 0.0784215 0.0750998
0.1122363 0.0824218 0.0753566
0.1409690 0.0871100 0.0754315
0.1746290 0.0917358 0.0750386
0.2080458 0.0966173 0.0744293
0.2467947 0.1011191 0.0731207
0.2842398 0.1052101 0.0715200
0.3340050 0.1089767 0.0684543
0.3783220 0.1124875 0.0693698
0.4156468 0.1153638 0.0800826
0.4586722 0.1163068 0.0924315
0.4934697 0.1192396 0.1024189
0.5309190 0.1212400 0.1131674
0.5647005 0.1246651 0.1228632
0.5922434 0.1307684 0.1307684
0.6223353 0.1394052 0.1394052
0.6455024 0.1460545 0.1460545
0.6728634 0.1539075 0.1539075
0.6950164 0.1602658 0.1602658
0.7140244 0.1657213 0.1657213
0.7340030 0.1714555 0.1714555
0.7528345 0.1768604 0.1768604
0.7692035 0.1815585 0.1815585
0.7877860 0.1918246 0.1868920
0.0349795 0.0754450 0.0747318
0.0351346 0.0754680 0.0747360
0.0354031 0.0760724 0.0748483
0.0362740 0.0762041 0.0748915
0.0383244 0.0765001 0.0749440
0.0422062 0.0770488 0.0750381
0.0497242 0.0786920 0.0752919
0.0604787 0.0808275 0.0755888
0.0744772 0.0828833 0.0758161
0.0931930 0.0861864 0.0761091
0.1177739 0.0902849 0.0762916
0.1471099 0.0951656 0.0762505
0.1784809 0.0996740 0.0758504
0.2167046 0.1045186 0.0748883
0.2490343 0.1088903 0.0738508
0.2962160 0.1136947 0.0714661
0.3368803 0.1173328 0.0689365
0.3819017 0.1224316 0.0703972
0.4302385 0.1255039 0.0842706
0.4640228 0.1305373 0.0939672
0.5024046 0.1325464 0.1049833
0.5371301 0.1376325 0.1149501
0.5702398 0.1393924 0.1244530
0.5985417 0.1446716 0.1325761
0.6284761 0.1461402 0.1411677
0.6523212 0.1518701 0.1480116
0.6824356 0.1568930 0.1566549
0.7016753 0.1621769 0.1621769
0.7246976 0.1717455 0.1687847
0.7440594 0.1821190 0.1743418
0.7619762 0.1913145 0.1794842
0.7810623 0.2035753 0.1849622
0.7974519 0.2181456 0.1896662
0.0327637 0.0827202 0.0758485
0.0332089 0.0827916 0.0758800
0.0335696 0.0837851 0.0760207
0.0347628 0.0839630 0.0760491
0.0373780 0.0843405 0.0760880
0.0425493 0.0846027 0.0761326
0.0497095 0.0865764 0.0764003
0.0627892 0.0885034 0.0766231
0.0782489 0.0917690 0.0769584
0.0956486 0.0943665 0.0771258
0.1218818 0.0993102 0.0772788
0.1520041 0.1054597 0.0772260
0.1847321 0.1096633 0.0766746
0.2193098 0.1150732 0.0757463
0.2611105 0.1208099 0.0741347
0.3002492 0.1265883 0.0721991
0.3415739 0.1313708 0.0697550
0.3905085 0.1359680 0.0728675
0.4358170 0.1407252 0.0858717
0.4733721 0.1459272 0.0966506
0.5208175 0.1499257 0.1102681
0.5534908 0.1522989 0.1196458
0.5867658 0.1589723 0.1291962
0.6082572 0.1629162 0.1353646
0.6362450 0.1667654 0.1433975
0.6702275 0.1772018 0.1531510
0.6919910 0.1824277 0.1593974
0.7176614 0.1967473 0.1667652
0.7362677 0.2029081 0.1721055
0.7567555 0.2162857 0.1779858
0.7754071 0.2218147 0.1833391
0.7927356 0.2354940 0.1883126
0.8062151 0.2424600 0.1921814
0.0287239 0.0949087 0.0774780
0.0294500 0.0950216 0.0774932
0.0301887 0.0951354 0.0775083
0.0319643 0.0954054 0.0775436
0.0360426 0.0960065 0.0776190
0.0425419 0.0969237 0.0777261
0.0502552 0.0994756 0.0780286
0.0638006 0.1014950 0.0782157
0.0813737 0.1041835 0.0784008
0.1019240 0.1088085 0.0786362
0.1318403 0.1133208 0.0785227
0.1593631 0.1188095 0.0783019
0.1943169 0.1250933 0.0775723
0.2296923 0.1294765 0.0763872
0.2715045 0.1366121 0.0746087
0.3147828 0.1425564 0.0721007
0.3578163 0.1489179 0.0692379
0.4049892 0.1553549 0.0770237
0.4429758 0.1608598 0.0879264
0.4889189 0.1682799 0.1011127
0.5295451 0.1734641 0.1127730
0.5642264 0.1811396 0.1227271
0.5972446 0.1869528 0.1322038
0.6251518 0.1927481 0.1402136
0.6523380 0.2014889 0.1480164
0.6815481 0.2074840 0.1564001
0.7083818 0.2196670 0.1641018
0.7281851 0.2250962 0.1697856
0.7510968 0.2306249 0.1763617
0.7714546 0.2392728 0.1822046
0.7899418 0.2514453 0.1875107
0.8020109 0.2613744 0.1909747
0.8169774 0.2682965 0.1952704
0.0243437 0.1073919 0.0789407
0.0251389 0.1075177 0.0789539
0.0265868 0.1077494 0.0789986
0.0293180 0.1081677 0.0790405
0.0335949 0.1088006 0.0791005
0.0414234 0.1099041 0.0792160
0.0532232 0.1141335 0.0795984
0.0681727 0.1163951 0.0797455
0.0855261 0.1191083 0.0798432
0.1102324 0.1256191 0.0800247
0.1366470 0.1297700 0.0797725
0.1660607 0.1369564 0.0794446
0.2019567 0.1421417 0.0784187
0.2399348 0.1515682 0.0771409
0.2863838 0.1572287 0.0745127
0.3322708 0.1679233 0.0716388
0.3773862 0.1764212 0.0691012
0.4185658 0.1843589 0.0809203
0.4638229 0.1900966 0.0939098
0.5029623 0.1975348 0.1051434
0.5412192 0.2060922 0.1161237
0.5791991 0.2122661 0.1270245
0.6093849 0.2203226 0.1356882
0.6402729 0.2262292 0.1445536
0.6698946 0.2322759 0.1530554
0.6966842 0.2410353 0.1607444
0.7185042 0.2473651 0.1670071
0.7462024 0.2541150 0.1749569
0.7653297 0.2635437 0.1804467
0.7828152 0.2708004 0.1854653
0.8047064 0.2878950 0.1917484
0.8196034 0.2955616 0.1960241
0.8295063 0.3041246 0.1988663
0.0151459 0.1280394 0.0809461
0.0144213 0.1315480 0.0812408
0.0167102 0.1319155 0.0812605
0.0205473 0.1325147 0.0812901
0.0270004 0.1334863 0.0813590
0.0360795 0.1347747 0.0814568
0.0518965 0.1369510 0.0815225
0.0671078 0.1392255 0.0815718
0.0885863 0.1462856 0.0817344
0.1188563 0.1512748 0.0814317
0.1472418 0.1559796 0.0809429
0.1837511 0.1667156 0.0800012
0.2211992 0.1725392 0.0785041
0.2544088 0.1806367 0.0767682
0.2936853 0.1877964 0.0746170
0.3474241 0.1980768 0.0703677
0.3850004 0.2024132 0.0712866
0.4346138 0.2131748 0.0855264
0.4850762 0.2221611 0.1000098
0.5206956 0.2274438 0.1102331
0.5617536 0.2351821 0.1220173
0.5958964 0.2423975 0.1318169
0.6294857 0.2520499 0.1414575
0.6518606 0.2589909 0.1478794
0.6863265 0.2695879 0.1577716
0.7074178 0.2712532 0.1638251
0.7348295 0.2789315 0.1716927
0.7588835 0.2899126 0.1785965
0.7773520 0.2975042 0.1838973
0.7972558 0.3059830 0.1896099
0.8150879 0.3180828 0.1947280
0.8301815 0.3265305 0.1990601
0.8401915 0.3359529 0.2019331
0.0132771 0.1540654 0.0827665
0.0133570 0.1545887 0.0827724
0.0134175 0.1549834 0.0828042
0.0135202 0.1556519 0.0828356
0.0186559 0.1568036 0.0828612
0.0323406 0.1587108 0.0828916
0.0496253 0.1609858 0.0828850
0.0690911 0.1638295 0.0828129
0.0955216 0.1715585 0.0825949
0.1277697 0.1788269 0.0820570
0.1597880 0.1843702 0.0811875
0.1911049 0.1934073 0.0800046
0.2299679 0.1998808 0.0781550
0.2684419 0.2079167 0.0758871
0.3104821 0.2182113 0.0726982
0.3576457 0.2247983 0.0684578
0.4062064 0.2377992 0.0773730
0.4545165 0.2435883 0.0912387
0.4953085 0.2554576 0.1029466
0.5348914 0.2595900 0.1143075
0.5726634 0.2685029 0.1251486
0.6115264 0.2802531 0.1363029
0.6418182 0.2887766 0.1449971
0.6728537 0.2945244 0.1539047
0.6976051 0.3028896 0.1610087
0.7300008 0.3121044 0.1703068
0.7527524 0.3237225 0.1768368
0.7712011 0.3260401 0.1821319
0.7923309 0.3351151 0.1881964
0.8113042 0.3475928 0.1936421
0.8282009 0.3572663 0.1984916
0.8453605 0.3669986 0.2034167
0.8591262 0.3807993 0.2073677
0.0170879 0.1772429 0.0837574
0.0171900 0.1778200 0.0837772
0.0173113 0.1785032 0.0837908
0.0174456 0.1792564 0.0837593
0.0177357 0.1808718 0.0837176
0.0253718 0.1867980 0.0836991
0.0504158 0.1899321 0.0835033
0.0693954 0.1947518 0.0833066
0.1010623 0.1998148 0.0827473
0.1371711 0.2061010 0.0817623
0.1641143 0.2152933 0.0807386
0.2059367 0.2250356 0.0785581
0.2414358 0.2313409 0.0766411
0.2900459 0.2394932 0.0728238
0.3350184 0.2538738 0.0678994
0.3729637 0.2597387 0.0678319
0.4271275 0.2726261 0.0833777
0.4645583 0.2803887 0.0941209
0.5173342 0.2926101 0.1092683
0.5542077 0.2970013 0.1198516
0.5966940 0.3106403 0.1320458
0.6283809 0.3142414 0.1411404
0.6627272 0.3273111 0.1509983
0.6863294 0.3364469 0.1577724
0.7191370 0.3398670 0.1671887
0.7433248 0.3529300 0.1741310
0.7652527 0.3626210 0.1804246
0.7839174 0.3650262 0.1857816
0.8063548 0.3783531 0.1922215
0.8242759 0.3880093 0.1973651
0.8430941 0.3985265 0.2027662
0.8596729 0.4125974 0.2075246
0.8698664 0.4157689 0.2104503
0.0223165 0.2045674 0.0841655
0.0224894 0.2054032 0.0840948
0.0226365 0.2061114 0.0841367
0.0228657 0.2072097 0.0840326
0.0246757 0.2156667 0.0837330
0.0252710 0.2183682 0.0835012
0.0454255 0.2216015 0.0831993
0.0742933 0.2254842 0.0826424
0.1119536 0.2315731 0.0816135
0.1455339 0.2375960 0.0804513
0.1804607 0.2465512 0.0785554
0.2242186 0.2598172 0.0753434
0.2598104 0.2664656 0.0729103
0.3058103 0.2746485 0.0684792
0.3526622 0.2908374 0.0620373
0.3923316 0.2973656 0.0733908
0.4439328 0.3083282 0.0882011
0.4863712 0.3204649 0.1003815
0.5263798 0.3262627 0.1118646
0.5795531 0.3425474 0.1271261
0.6148798 0.3470916 0.1372654
0.6443588 0.3572659 0.1457263
0.6738882 0.3644187 0.1542016
0.7076819 0.3750167 0.1639009
0.7309812 0.3783710 0.1705882
0.7553334 0.3923690 0.1775776
0.7856708 0.4029309 0.1862849
0.8034617 0.4061709 0.1913911
0.8258185 0.4197111 0.1978079
0.8435869 0.4308026 0.2029077
0.8572244 0.4333567 0.2068218
0.8688977 0.4434996 0.2101723
0.8839707 0.4588928 0.2144984
0.0299647 0.2384785 0.0833871
0.0301604 0.2392758 0.0833941
0.0304081 0.2402803 0.0832388
0.0307969 0.2418474 0.0830892
0.0314261 0.2443597 0.0828627
0.0321641 0.2472690 0.0825211
0.0434186 0.2502973 0.0821016
0.0793020 0.2602149 0.0806630
0.1197499 0.2694605 0.0789748
0.1529637 0.2754595 0.0771820
0.1941908 0.2833475 0.0745347
0.2305823 0.2904419 0.0717462
0.2729025 0.3041134 0.0667463
0.3183012 0.3156703 0.0615331
0.3698155 0.3250073 0.0669283
0.4110859 0.3321809 0.0787735
0.4656196 0.3503947 0.0944255
0.5068495 0.3570172 0.1062591
0.5476230 0.3633952 0.1179617
0.5890462 0.3788377 0.1298508
0.6289720 0.3845717 0.1413100
0.6614940 0.3956681 0.1506443
0.6940574 0.4038001 0.1599905
0.7188709 0.4141376 0.1671123
0.7424534 0.4180629 0.1738809
0.7762898 0.4332680 0.1835924
0.7954487 0.4369393 0.1890913
0.8178753 0.4467854 0.1955281
0.8356045 0.4534030 0.2006166
0.8532556 0.4640405 0.2056827
0.8709224 0.4747422 0.2107534
0.8828923 0.4777107 0.2141889
0.8933014 0.4923863 0.2171765
0.0390109 0.2725793 0.0816410
0.0392994 0.2735864 0.0814200
0.0396841 0.2749229 0.0814137
0.0402755 0.2769628 0.0809325
0.0410352 0.2796002 0.0805881
0.0419985 0.2829566 0.0800066
0.0520394 0.2874414 0.0790102
0.0917605 0.2955474 0.0771238
0.1322562 0.3022445 0.0749264
0.1743626 0.3101646 0.0722253
0.2078013 0.3166971 0.0691954
0.2458588 0.3301134 0.0643713
0.2934469 0.3425767 0.0591103
0.3417096 0.3521162 0.0618483
0.3827666 0.3599763 0.0706454
0.4406400 0.3799922 0.0872560
0.4848908 0.3878798 0.0999566
0.5227113 0.3942942 0.1108116
0.5647824 0.4011921 0.1228867
0.6103591 0.4174203 0.1359679
0.6462233 0.4229208 0.1462614
0.6823042 0.4380794 0.1566171
0.7041640 0.4418001 0.1628912
0.7375755 0.4467390 0.1724809
0.7630977 0.4612712 0.1798061
0.7848372 0.4648430 0.1860457
0.8061324 0.4753183 0.1921577
0.8267045 0.4795247 0.1980622
0.8463710 0.4933615 0.2037067
0.8621651 0.4967119 0.2082399
0.8798308 0.5072320 0.2133102
0.8946285 0.5226882 0.2175574
0.9063919 0.5263301 0.2209336
0.0480193 0.3039340 0.0789250
0.0482938 0.3048901 0.0786441
0.0487065 0.3063281 0.0786375
0.0492381 0.3081804 0.0780623
0.0500698 0.3110781 0.0775538
0.0509573 0.3141704 0.0764813
0.0591473 0.3224910 0.0742306
0.1042891 0.3286479 0.0720209
0.1494416 0.3365064 0.0693020
0.1872693 0.3438178 0.0661922
0.2316500 0.3528447 0.0620574
0.2667740 0.3682950 0.0664919
0.3149882 0.3783816 0.0693869
0.3568524 0.3869273 0.0718396
0.3995338 0.3955097 0.0754579
0.4587838 0.4096971 0.0924635
0.4995331 0.4230811 0.1041592
0.5420794 0.4307491 0.1163706
0.5862952 0.4413297 0.1290612
0.6265354 0.4539899 0.1406107
0.6648694 0.4607636 0.1516131
0.6895821 0.4680963 0.1587060
0.7230703 0.4800507 0.1683176
0.7471317 0.4842508 0.1752236
0.7700443 0.4890277 0.1817999
0.8031013 0.5042616 0.1912877
0.8229011 0.5079210 0.1969705
0.8419300 0.5190166 0.2024321
0.8608033 0.5228748 0.2078490
0.8789778 0.5389518 0.2130654
0.8883604 0.5420644 0.2157583
0.9039261 0.5535727 0.2202259
0.9151035 0.5616967 0.2234340
0.0574504 0.3367932 0.0749977
0.0579116 0.3383999 0.0743853
0.0575853 0.3372631 0.0744014
0.0589953 0.3421759 0.0735601
0.0600608 0.3458883 0.0719736
0.0613582 0.3504084 0.0706142
0.0767109 0.3557851 0.0690474
0.1199184 0.3621099 0.0663262
0.1610660 0.3693708 0.0668007
0.2000183 0.3769517 0.0689765
0.2464921 0.3864225 0.0716948
0.2860113 0.3977053 0.0749331
0.3287285 0.4125246 0.0791865
0.3810546 0.4232023 0.0822511
0.4260436 0.4353818 0.0857468
0.4733168 0.4447140 0.0966347
0.5173284 0.4532298 0.1092667
0.5615083 0.4675621 0.1219470
0.6025806 0.4782801 0.1337353
0.6452123 0.4858791 0.1459712
0.6715974 0.4909300 0.1535442
0.7077867 0.5071275 0.1639310
0.7303896 0.5117099 0.1704184
0.7654362 0.5177412 0.1804773
0.7893278 0.5291390 0.1873345
0.8111552 0.5378801 0.1935993
0.8329718 0.5496138 0.1998610
0.8527960 0.5543160 0.2055508
0.8692186 0.5584846 0.2102644
0.8872677 0.5723529 0.2154447
0.9024597 0.5772085 0.2198050
0.9118766 0.5874885 0.2225078
0.9221770 0.5913602 0.2254642
0.0656313 0.3652965 0.0703497
0.0659690 0.3664730 0.0706827
0.0668046 0.3693847 0.0692668
0.0673692 0.3713517 0.0682657
0.0687879 0.3762945 0.0687879
0.0701695 0.3811082 0.0701695
0.1064855 0.3864177 0.0716934
0.1433313 0.3924598 0.0734276
0.1852890 0.4062663 0.0773902
0.2243734 0.4141386 0.0796497
0.2633437 0.4252836 0.0828485
0.3065125 0.4348080 0.0855821
0.3513519 0.4443218 0.0883127
0.3961334 0.4540443 0.0911032
0.4430488 0.4666883 0.0947322
0.4916370 0.4831172 0.1018929
0.5361381 0.4920313 0.1146653
0.5755789 0.5000083 0.1259854
0.6225295 0.5113701 0.1394609
0.6514771 0.5170300 0.1477693
0.6900256 0.5303147 0.1588333
0.7201977 0.5361182 0.1674931
0.7477871 0.5444342 0.1754117
0.7740693 0.5560658 0.1829551
0.7964010 0.5606165 0.1893646
0.8262030 0.5669316 0.1979182
0.8474280 0.5820809 0.2040101
0.8649808 0.5866522 0.2090480
0.8833100 0.5918377 0.2143088
0.8959875 0.6048613 0.2179474
0.9093476 0.6093376 0.2217820
0.9230071 0.6197816 0.2257024
0.9300414 0.6229249 0.2277214
0.0756373 0.4001591 0.0756373
0.0766521 0.4036947 0.0766521
0.0770651 0.4051335 0.0770651
0.0777492 0.4075170 0.0777492
0.0791887 0.4125327 0.0791887
0.0836444 0.4162193 0.0802469
0.1289271 0.4224496 0.0820351
0.1642983 0.4286159 0.0838049
0.2115394 0.4377220 0.0864185
0.2385559 0.4462300 0.0888604
0.2825492 0.4555689 0.0915408
0.3286628 0.4655029 0.0943920
0.3743405 0.4757718 0.0973393
0.4210394 0.4857000 0.1001889
0.4705179 0.5049101 0.1057024
0.5173299 0.5144123 0.1092671
0.5485436 0.5212173 0.1182259
0.5938191 0.5299842 0.1312206
0.6398547 0.5422674 0.1444335
0.6706184 0.5536938 0.1532632
0.7024762 0.5604199 0.1624068
0.7290490 0.5660421 0.1700336
0.7605748 0.5748577 0.1790820
0.7861031 0.5858211 0.1864090
0.8120493 0.5906536 0.1938559
0.8322749 0.5954410 0.1996609
0.8531294 0.6089671 0.2056465
0.8732144 0.6140987 0.2114112
0.8892964 0.6187038 0.2160270
0.9048902 0.6298028 0.2205026
0.9149602 0.6366878 0.2233928
0.9274943 0.6407742 0.2269903
0.9383025 0.6501996 0.2300924
0.0843160 0.4303967 0.0843160
0.0849790 0.4327066 0.0849790
0.0853787 0.4340993 0.0853787
0.0860507 0.4364408 0.0860507
0.0870706 0.4399942 0.0870706
0.1144807 0.4445847 0.0883882
0.1596169 0.4516319 0.0904108
0.1921684 0.4579315 0.0922189
0.2256386 0.4669363 0.0948034
0.2704987 0.4764261 0.0975271
0.3031810 0.4838232 0.0996502
0.3508617 0.4942650 0.1026472
0.3981954 0.5045841 0.1056089
0.4471478 0.5197383 0.1099583
0.4876617 0.5314986 0.1133337
0.5337860 0.5410886 0.1160862
0.5740026 0.5497794 0.1255330
0.6112661 0.5575762 0.1362282
0.6515535 0.5659772 0.1477912
0.6853696 0.5805995 0.1574970
0.7172493 0.5870782 0.1666469
0.7403072 0.5922890 0.1732649
0.7652010 0.6003375 0.1804098
0.8005142 0.6130480 0.1905452
0.8229852 0.6174804 0.1969947
0.8460937 0.6231782 0.2036271
0.8640367 0.6281506 0.2087771
0.8827538 0.6414890 0.2141491
0.8940699 0.6459950 0.2173970
0.9105185 0.6512399 0.2221180
0.9248990 0.6640493 0.2262454
0.9357712 0.6667696 0.2293659
0.9423040 0.6700719 0.2312409
0.0919674 0.4570554 0.0919674
0.0926032 0.4592705 0.0926032
0.0931086 0.4610312 0.0931086
0.0980099 0.4642351 0.0940281
0.1321532 0.4688866 0.0953632
0.1591518 0.4735859 0.0967119
0.1845532 0.4779975 0.0979781
0.2199306 0.4871675 0.1006101
0.2526017 0.4936812 0.1024796
0.2912900 0.5020934 0.1048940
0.3403695 0.5131676 0.1080725
0.3788093 0.5218676 0.1105695
0.4226023 0.5316290 0.1133712
0.4628796 0.5478151 0.1180168
0.5120422 0.5584885 0.1210802
0.5446870 0.5656129 0.1231250
0.5903912 0.5756977 0.1302368
0.6237768 0.5829270 0.1398189
0.6678276 0.5923879 0.1524622
0.6951780 0.6002956 0.1603121
0.7308261 0.6131839 0.1705437
0.7546450 0.6181809 0.1773800
0.7797514 0.6242594 0.1845859
0.8037660 0.6326512 0.1914785
0.8270051 0.6445400 0.1981484
0.8505596 0.6494325 0.2049089
0.8685479 0.6548121 0.2100718
0.8884605 0.6641825 0.2157870
0.9058003 0.6751654 0.2207638
0.9196442 0.6784148 0.2247372
0.9283537 0.6821144 0.2272370
0.9423108 0.6956846 0.2312429
0.9485324 0.6992586 0.2330286
0.1028104 0.4861383 0.1003146
0.1028104 0.4861383 0.1003146
0.1178249 0.4880710 0.1008694
0.1478612 0.4930030 0.1022849
0.1647605 0.4957267 0.1030667
0.1906497 0.5002183 0.1043558
0.2130173 0.5072464 0.1063730
0.2529409 0.5127831 0.1079621
0.2873017 0.5229979 0.1108939
0.3280334 0.5321522 0.1135213
0.3625275 0.5400639 0.1157921
0.4020973 0.5491970 0.1184134
0.4527147 0.5605732 0.1216786
0.4892121 0.5691364 0.1241363
0.5219544 0.5764651 0.1262398
0.5693988 0.5939190 0.1312493
0.6072989 0.6020747 0.1350895
0.6492652 0.6118945 0.1471345
0.6800760 0.6183207 0.1559776
0.7093987 0.6280541 0.1643937
0.7405225 0.6345312 0.1733267
0.7655763 0.6465706 0.1805175
0.7948089 0.6527400 0.1889077
0.8174514 0.6589342 0.1954064
0.8390726 0.6683211 0.2016120
0.8594258 0.6730694 0.2074537
0.8808747 0.6847475 0.2136098
0.8973421 0.6903178 0.2183362
0.9096541 0.6958771 0.2218699
0.9251274 0.7013401 0.2263110
0.9376792 0.7107558 0.2299135
0.9454255 0.7132710 0.2321368
0.9543846 0.7173359 0.2347082
0.1352153 0.5097919 0.1071036
0.1538698 0.5125874 0.1079059
0.1656385 0.5144672 0.1084455
0.1818848 0.5171968 0.1092289
0.1971832 0.5198959 0.1100036
0.2209714 0.5249071 0.1114419
