data/spectral_luts/portra_400_endura_premier.cube
TITLE "portra_400_endura_premier"
LUT_3D_SIZE 33
0.0354820 0.0605073 0.0714334
0.0354820 0.0605073 0.0714334
0.0356792 0.0605364 0.0714401
0.0360033 0.0605841 0.0714510
0.0369190 0.0607175 0.0714814
0.0385014 0.0609443 0.0715324
0.0415948 0.0613779 0.0716275
0.0499788 0.0625621 0.0718708
0.0634740 0.0645051 0.0722376
0.0827514 0.0672284 0.0726319
0.1096096 0.0708654 0.0729740
0.1453825 0.0752184 0.0730124
0.1843245 0.0792674 0.0725298
0.2225413 0.0826420 0.0715792
0.2748341 0.0861384 0.0693937
0.3167088 0.0882475 0.0669818
0.3736647 0.0894902 0.0680331
0.4204860 0.0895922 0.0814715
0.4631726 0.0937232 0.0937232
0.5044561 0.1055721 0.1055721
0.5477672 0.1180030 0.1180030
0.5774366 0.1265186 0.1265186
0.6076354 0.1351861 0.1351861
0.6389160 0.1441641 0.1441641
0.6623515 0.1508904 0.1508904
0.6882826 0.1583330 0.1583330
0.7087367 0.1642037 0.1642037
0.7298475 0.1702628 0.1702628
0.7477765 0.1754087 0.1754087
0.7622509 0.1795630 0.1795630
0.7770259 0.1838037 0.1838037
0.7892200 0.1873036 0.1873036
0.8034914 0.1913997 0.1913997
0.0354820 0.0605073 0.0714334
0.0354820 0.0605073 0.0714334
0.0356792 0.0605364 0.0714401
0.0359957 0.0606157 0.0714564
0.0368584 0.0607415 0.0714851
0.0384942 0.0609760 0.0715378
0.0420138 0.0615164 0.0716537
0.0499611 0.0626862 0.0718913
0.0634650 0.0646454 0.0722601
0.0827527 0.0673749 0.0726751
0.1096260 0.0710139 0.0729951
0.1454222 0.0754253 0.0730387
0.1844029 0.0795817 0.0725877
0.2200882 0.0830265 0.0717301
0.2750951 0.0869128 0.0694515
0.3169980 0.0890554 0.0670279
0.3703110 0.0906356 0.0670705
0.4174826 0.0913373 0.0806095
0.4638774 0.0939254 0.0939254
0.5053315 0.1058234 0.1058234
0.5487517 0.1182856 0.1182856
0.5788994 0.1269384 0.1269384
0.6092484 0.1356491 0.1356491
0.6397542 0.1444047 0.1444047
0.6634971 0.1512192 0.1512192
0.6895253 0.1586897 0.1586897
0.7094576 0.1644106 0.1644106
0.7338223 0.1714036 0.1714036
0.7498558 0.1760055 0.1760055
0.7662918 0.1807228 0.1807228
0.7797723 0.1845919 0.1845919
0.7923951 0.1882149 0.1882149
0.8062740 0.1921983 0.1921983
0.0354525 0.0606292 0.0714543
0.0354167 0.0606239 0.0714530
0.0356499 0.0606584 0.0714610
0.0359633 0.0607513 0.0714796
0.0368798 0.0608849 0.0715100
0.0383811 0.0611471 0.0715664
0.0419863 0.0616531 0.0716767
0.0496488 0.0627828 0.0719061
0.0634504 0.0648355 0.0723111
0.0827580 0.0676148 0.0727117
0.1081221 0.0711559 0.0730569
0.1438807 0.0757406 0.0731385
0.1824362 0.0800973 0.0727166
0.2256200 0.0842835 0.0716564
0.2722643 0.0877759 0.0697318
0.3174134 0.0902175 0.0670932
0.3708707 0.0921411 0.0672312
0.4181377 0.0930736 0.0807975
0.4647029 0.0941624 0.0941624
0.5065256 0.1061661 0.1061661
0.5505464 0.1188007 0.1188007
0.5804459 0.1273824 0.1273824
0.6109783 0.1361456 0.1361456
0.6414685 0.1448967 0.1448967
0.6646816 0.1515592 0.1515592
0.6913237 0.1592059 0.1592059
0.7114974 0.1649960 0.1649960
0.7352990 0.1718274 0.1718274
0.7514547 0.1764644 0.1764644
0.7673778 0.1810345 0.1810345
0.7808784 0.1849094 0.1849094
0.7960474 0.1892631 0.1892631
0.8081441 0.1927351 0.1927351
0.0353260 0.0608447 0.0714905
0.0353150 0.0608899 0.0714982
0.0355304 0.0609218 0.0715055
0.0358981 0.0610229 0.0715260
0.0368051 0.0612022 0.0715640
0.0384633 0.0614401 0.0716171
0.0420510 0.0620729 0.0717483
0.0501604 0.0633598 0.0720241
0.0639991 0.0655287 0.0724216
0.0809156 0.0681015 0.0728167
0.1113158 0.0724714 0.0731997
0.1424795 0.0767785 0.0733291
0.1806252 0.0812050 0.0729554
0.2233619 0.0854280 0.0718815
0.2729055 0.0897036 0.0698884
0.3149426 0.0924517 0.0675095
0.3719783 0.0951140 0.0675491
0.4194807 0.0966193 0.0811830
0.4661684 0.0971136 0.0945830
0.5052375 0.1057964 0.1057964
0.5524735 0.1193539 0.1193539
0.5823561 0.1279306 0.1279306
0.6124356 0.1365638 0.1365638
0.6431010 0.1453653 0.1453653
0.6669106 0.1521990 0.1521990
0.6940389 0.1599852 0.1599852
0.7148789 0.1659666 0.1659666
0.7384098 0.1727203 0.1727203
0.7547212 0.1774019 0.1774019
0.7701793 0.1818386 0.1818386
0.7847832 0.1860301 0.1860301
0.8006791 0.1905925 0.1905925
0.8138821 0.1943820 0.1943820
0.0350074 0.0616867 0.0716330
0.0350793 0.0616974 0.0716354
0.0351829 0.0618817 0.0716678
0.0355425 0.0620195 0.0716943
0.0364266 0.0623186 0.0717522
0.0381817 0.0626566 0.0718222
0.0413290 0.0633573 0.0719803
0.0490762 0.0645434 0.0722349
0.0627166 0.0667762 0.0726395
0.0818604 0.0697607 0.0730823
0.1084057 0.0739733 0.0734936
0.1395954 0.0783626 0.0736447
0.1790682 0.0833372 0.0732801
0.2215958 0.0882302 0.0722946
0.2707594 0.0925887 0.0703099
0.3229156 0.0964155 0.0672174
0.3699516 0.0997681 0.0669674
0.4181502 0.1027148 0.0808011
0.4654785 0.1050563 0.0943850
0.5076303 0.1064832 0.1064832
0.5519271 0.1191970 0.1191970
0.5848231 0.1286386 0.1286386
0.6151243 0.1373355 0.1373355
0.6466368 0.1463801 0.1463801
0.6704811 0.1532238 0.1532238
0.6983253 0.1612155 0.1612155
0.7194904 0.1672901 0.1672901
0.7421737 0.1738006 0.1738006
0.7602340 0.1789842 0.1789842
0.7750676 0.1832416 0.1832416
0.7924259 0.1882237 0.1882237
0.8064544 0.1922501 0.1922501
0.8186531 0.2024551 0.1957513
0.0342637 0.0638763 0.0720197
0.0343677 0.0638919 0.0720232
0.0345128 0.0639137 0.0720279
0.0348151 0.0642075 0.0720796
0.0358285 0.0644823 0.0721330
0.0374686 0.0649707 0.0722255
0.0406572 0.0656855 0.0723825
0.0486488 0.0671377 0.0726734
0.0607041 0.0691818 0.0730349
0.0791352 0.0724493 0.0735369
0.1040723 0.0766178 0.0739804
0.1418785 0.0824654 0.0741311
0.1822233 0.0878921 0.0737268
0.2181925 0.0929434 0.0729655
0.2663909 0.0980261 0.0710780
0.3219036 0.1029544 0.0678248
0.3687194 0.1065352 0.0666137
0.4208541 0.1098839 0.0815771
0.4679187 0.1114732 0.0950854
0.5174377 0.1132829 0.1092980
0.5550287 0.1200872 0.1200872
0.5881492 0.1295933 0.1295933
0.6194881 0.1385880 0.1385880
0.6505908 0.1475149 0.1475149
0.6831344 0.1568554 0.1568554
0.7029161 0.1625331 0.1625331
0.7231830 0.1683500 0.1683500
0.7478725 0.1754362 0.1754362
0.7657823 0.1805766 0.1805766
0.7814423 0.1850712 0.1850712
0.8004370 0.1948871 0.1905230
0.8134901 0.2082344 0.1942694
0.8268054 0.2221657 0.1980911
0.0330013 0.0679257 0.0727009
0.0331197 0.0679438 0.0727047
0.0332553 0.0679645 0.0727090
0.0334272 0.0684477 0.0727884
0.0346602 0.0686338 0.0728265
0.0362937 0.0694532 0.0729879
0.0393117 0.0704675 0.0731842
0.0475055 0.0716374 0.0734157
0.0594965 0.0745416 0.0739039
0.0790213 0.0782887 0.0744301
0.1044843 0.0825308 0.0748009
0.1380543 0.0886417 0.0750499
0.1794773 0.0942607 0.0745610
0.2177760 0.0997696 0.0736929
0.2654776 0.1048122 0.0717203
0.3176013 0.1095809 0.0686767
0.3676302 0.1137208 0.0663011
0.4200033 0.1172547 0.0813329
0.4677314 0.1206963 0.0950316
0.5213605 0.1235913 0.1104240
0.5599163 0.1274852 0.1214900
0.5905946 0.1305819 0.1302952
0.6244789 0.1400205 0.1400205
0.6563734 0.1491746 0.1491746
0.6867145 0.1578830 0.1578830
0.7086334 0.1641740 0.1641740
0.7350041 0.1717428 0.1717428
0.7558750 0.1777331 0.1777331
0.7747570 0.1850949 0.1831525
0.7917480 0.2008429 0.1880291
0.8079177 0.2150342 0.1926701
0.8201970 0.2263720 0.1961944
0.8338028 0.2413351 0.2000995
0.0308315 0.0746482 0.0737466
0.0309487 0.0746706 0.0737713
0.0310707 0.0746898 0.0737749
0.0312628 0.0752840 0.0738871
0.0325492 0.0754830 0.0739240
0.0341483 0.0762926 0.0740740
0.0373814 0.0767733 0.0741791
0.0447013 0.0783851 0.0744542
0.0579758 0.0808919 0.0748506
0.0753274 0.0843881 0.0753350
0.1005619 0.0887113 0.0757114
0.1354740 0.0945355 0.0758481
0.1741435 0.1000948 0.0754255
0.2218693 0.1067487 0.0741801
0.2619670 0.1131675 0.0726335
0.3172182 0.1184239 0.0692790
0.3679733 0.1250133 0.0663996
0.4209437 0.1294942 0.0816028
0.4694828 0.1350833 0.0955343
0.5243064 0.1404663 0.1112695
0.5625579 0.1422276 0.1222482
0.5969777 0.1473853 0.1321272
0.6311480 0.1526013 0.1419346
0.6634243 0.1584215 0.1511983
0.6946418 0.1685248 0.1601582
0.7192953 0.1803038 0.1672341
0.7437454 0.1855130 0.1742517
0.7659611 0.2003945 0.1806279
0.7855514 0.2139300 0.1862506
0.8006399 0.2246645 0.1905812
0.8167263 0.2387443 0.1951983
0.8305914 0.2512985 0.1991778
0.8434128 0.2676510 0.2028577
0.0285887 0.0809619 0.0747328
0.0286929 0.0809786 0.0747357
0.0288495 0.0810037 0.0747401
0.0287745 0.0823918 0.0749376
0.0302570 0.0826307 0.0749983
0.0320224 0.0829088 0.0750647
0.0353092 0.0843487 0.0752944
0.0438449 0.0855782 0.0755148
0.0566681 0.0884143 0.0759573
0.0746476 0.0928562 0.0764782
0.1020002 0.0969636 0.0767402
0.1383442 0.1034958 0.0767712
0.1807871 0.1111462 0.0762481
0.2200496 0.1179378 0.0751995
0.2687044 0.1261342 0.0730831
0.3185703 0.1329909 0.0699681
0.3767289 0.1396370 0.0689125
0.4339117 0.1452661 0.0853249
0.4752897 0.1507007 0.0972009
0.5263065 0.1548892 0.1118435
0.5678294 0.1638549 0.1237612
0.6019844 0.1678754 0.1335642
0.6379178 0.1785546 0.1438776
0.6740638 0.1865179 0.1542520
0.7056513 0.1975942 0.1633181
0.7308657 0.2109361 0.1705550
0.7561243 0.2184956 0.1778046
0.7765791 0.2287624 0.1836754
0.7963167 0.2429421 0.1893404
0.8111765 0.2495244 0.1936054
0.8263159 0.2650611 0.1979506
0.8417010 0.2817184 0.2023664
0.8514885 0.2900136 0.2051755
0.0242474 0.0918607 0.0762202
0.0243346 0.0918800 0.0762441
0.0245513 0.0919158 0.0762494
0.0244786 0.0933268 0.0764500
0.0259874 0.0935779 0.0765065
0.0279907 0.0939029 0.0765725
0.0315788 0.0944682 0.0766903
0.0401228 0.0971509 0.0770778
0.0522759 0.0989155 0.0773212
0.0742653 0.1044238 0.0778787
0.0980184 0.1095751 0.0781864
0.1358370 0.1160607 0.0780630
0.1784764 0.1244436 0.0774103
0.2184556 0.1312523 0.0761619
0.2693135 0.1396623 0.0738249
0.3268948 0.1491110 0.0699348
0.3786103 0.1564091 0.0694526
0.4335850 0.1649467 0.0852311
0.4870904 0.1729666 0.1005879
0.5371350 0.1840949 0.1149515
0.5786780 0.1928972 0.1268749
0.6147019 0.2017628 0.1372143
0.6487593 0.2073982 0.1469893
0.6836384 0.2194320 0.1570001
0.7167928 0.2273405 0.1665159
0.7410282 0.2382052 0.1734718
0.7667429 0.2469330 0.1808523
0.7877347 0.2588433 0.1868773
0.8058715 0.2688243 0.1920828
0.8244367 0.2857347 0.1974113
0.8366411 0.2934990 0.2009141
0.8523829 0.3119519 0.2054322
0.8623085 0.3211330 0.2082810
0.0192122 0.1027769 0.0775939
0.0186304 0.1042185 0.0777771
0.0188824 0.1042615 0.0777822
0.0192504 0.1051087 0.0779202
0.0208701 0.1053857 0.0779737
0.0229634 0.1057401 0.0780568
0.0257141 0.1087114 0.0784154
0.0348861 0.1101005 0.0786073
0.0502143 0.1135584 0.0789775
0.0688131 0.1189369 0.0793752
0.0986079 0.1249522 0.0795459
0.1369224 0.1337118 0.0793761
0.1764567 0.1441565 0.0786755
0.2272654 0.1513904 0.0766542
0.2687584 0.1623401 0.0745204
0.3310834 0.1755489 0.0697300
0.3845891 0.1874008 0.0711685
0.4404186 0.1962651 0.0871924
0.4948936 0.2061272 0.1028276
0.5448228 0.2154622 0.1171580
0.5953859 0.2224669 0.1316703
0.6310949 0.2312007 0.1419193
0.6670405 0.2402143 0.1522363
0.6936334 0.2466794 0.1598688
0.7294123 0.2616149 0.1701379
0.7532824 0.2717018 0.1769889
0.7784598 0.2790867 0.1842152
0.7977608 0.2865836 0.1897549
0.8185058 0.3040265 0.1957090
0.8350750 0.3158356 0.2004646
0.8474259 0.3239844 0.2040095
0.8634120 0.3434976 0.2085977
0.8744443 0.3533949 0.2117642
0.0090321 0.1230606 0.0797545
0.0090355 0.1230886 0.0797794
0.0090438 0.1231563 0.0797848
0.0094978 0.1233296 0.0798210
0.0103900 0.1252635 0.0800284
0.0105299 0.1288865 0.0803597
0.0152194 0.1296815 0.0804629
0.0243044 0.1311132 0.0805910
0.0406388 0.1388869 0.0810910
0.0639530 0.1422432 0.0811661
0.0976589 0.1493393 0.0810724
0.1395545 0.1608330 0.0805082
0.1816823 0.1708996 0.0792439
0.2273004 0.1796948 0.0771708
0.2817395 0.1926565 0.0734056
0.3339064 0.1995871 0.0689845
0.3878409 0.2117037 0.0721018
0.4492028 0.2244233 0.0897136
0.5040413 0.2339544 0.1054531
0.5506959 0.2447640 0.1188436
0.6042201 0.2565216 0.1342059
0.6399685 0.2644978 0.1444662
0.6763681 0.2753772 0.1549134
0.7077418 0.2863891 0.1639181
0.7385483 0.2945251 0.1727600
0.7700371 0.3060625 0.1817978
0.7909623 0.3141617 0.1878036
0.8117477 0.3259993 0.1937693
0.8292692 0.3346096 0.1987983
0.8460485 0.3473256 0.2036142
0.8610907 0.3641744 0.2079315
0.8746982 0.3774965 0.2118371
0.8856802 0.3868764 0.2149891
0.0120148 0.1455412 0.0815601
0.0120230 0.1455984 0.0815813
0.0120355 0.1456855 0.0815846
0.0120673 0.1459063 0.0816118
0.0123303 0.1477192 0.0817654
0.0128462 0.1512112 0.0819815
0.0129870 0.1521494 0.0820474
0.0132446 0.1538519 0.0821063
0.0304809 0.1582766 0.0822386
0.0567143 0.1653026 0.0822518
0.0953915 0.1731199 0.0818637
0.1365830 0.1855991 0.0809713
0.1859503 0.1941527 0.0790783
0.2337429 0.2079587 0.0761324
0.2833068 0.2179448 0.0723027
0.3450079 0.2313540 0.0656519
0.4035437 0.2414537 0.0766088
0.4621135 0.2557476 0.0934192
0.5110190 0.2688518 0.1074558
0.5680067 0.2746674 0.1238121
0.6144359 0.2874562 0.1371380
0.6507263 0.2965517 0.1475538
0.6877019 0.3088940 0.1581664
0.7254717 0.3215416 0.1690069
0.7508237 0.3304015 0.1762833
0.7827845 0.3433130 0.1854565
0.8040156 0.3523684 0.1915501
0.8250855 0.3654011 0.1975975
0.8427284 0.3746510 0.2026613
0.8581063 0.3878920 0.2070749
0.8721092 0.3972947 0.2110940
0.8845385 0.4074267 0.2146614
0.8967139 0.4218538 0.2181559
0.0158007 0.1697870 0.0828013
0.0158165 0.1698804 0.0828359
0.0158400 0.1700193 0.0828502
0.0158930 0.1703328 0.0828783
0.0162632 0.1725051 0.0829577
0.0163561 0.1730459 0.0829651
0.0165292 0.1740483 0.0830076
0.0172444 0.1781269 0.0830455
0.0184640 0.1848603 0.0830249
0.0496911 0.1917319 0.0826986
0.0855435 0.1970246 0.0822053
0.1367834 0.2122521 0.0804270
0.1840936 0.2230207 0.0780861
0.2340838 0.2365488 0.0744271
0.2917912 0.2487930 0.0689907
0.3484884 0.2653522 0.0611479
0.4076854 0.2742432 0.0777975
0.4677440 0.2905996 0.0950352
0.5280821 0.3011105 0.1123531
0.5760185 0.3126315 0.1261116
0.6238693 0.3272809 0.1398455
0.6589314 0.3311651 0.1499088
0.6961913 0.3449369 0.1606030
0.7336547 0.3554308 0.1713555
0.7606527 0.3683381 0.1791043
0.7932093 0.3820609 0.1884486
0.8123631 0.3845613 0.1939460
0.8323663 0.3943461 0.1996872
0.8572836 0.4079760 0.2068388
0.8721455 0.4179235 0.2111044
0.8866811 0.4320134 0.2152763
0.8953272 0.4424138 0.2177579
0.9074534 0.4561835 0.2212383
0.0203653 0.1948582 0.0833969
0.0203879 0.1949734 0.0833915
0.0208306 0.1972212 0.0834165
0.0209017 0.1975792 0.0833976
0.0209830 0.1979883 0.0834103
0.0211228 0.1986890 0.0834225
0.0214009 0.2000757 0.0833689
0.0222509 0.2042489 0.0833107
0.0239737 0.2124310 0.0829413
0.0312772 0.2196310 0.0823179
0.0783981 0.2282466 0.0813226
0.1352514 0.2427617 0.0787243
0.1866745 0.2548342 0.0755280
0.2417531 0.2651289 0.0711684
0.2927704 0.2823450 0.0643801
0.3618893 0.2970666 0.0646534
0.4201644 0.3122740 0.0813792
0.4718665 0.3231082 0.0962184
0.5348367 0.3409210 0.1142918
0.5859834 0.3479254 0.1289717
0.6312656 0.3631323 0.1419683
0.6700704 0.3680164 0.1531059
0.7077339 0.3827250 0.1639158
0.7455836 0.3940203 0.1747793
0.7809948 0.4082107 0.1849428
0.8022948 0.4110715 0.1910562
0.8250409 0.4249888 0.1975847
0.8518354 0.4356224 0.2052751
0.8700495 0.4490764 0.2105028
0.8826379 0.4520987 0.2141159
0.8968769 0.4654613 0.2182027
0.9053095 0.4749746 0.2206230
0.9171523 0.4899144 0.2240220
0.0253297 0.2186328 0.0832595
0.0269230 0.2256769 0.0830736
0.0269933 0.2259821 0.0830430
0.0270735 0.2263298 0.0830600
0.0271764 0.2267750 0.0830663
0.0273504 0.2275252 0.0830387
0.0283324 0.2317082 0.0827771
0.0289352 0.2342345 0.0826184
0.0304972 0.2406404 0.0820068
0.0331419 0.2510644 0.0808086
0.0646141 0.2603256 0.0792053
0.1349526 0.2715415 0.0759588
0.1915943 0.2848421 0.0714431
0.2371946 0.2991978 0.0662783
0.3035869 0.3146751 0.0568077
0.3630491 0.3285563 0.0649862
0.4267479 0.3455890 0.0832687
0.4878251 0.3584684 0.1007988
0.5386124 0.3725850 0.1153755
0.6033621 0.3852324 0.1339596
0.6480626 0.4012565 0.1467893
0.6870515 0.4067807 0.1579797
0.7155805 0.4211468 0.1661679
0.7540046 0.4323697 0.1771962
0.7877976 0.4402565 0.1868953
0.8140807 0.4505698 0.1944389
0.8412749 0.4643981 0.2022441
0.8613802 0.4680833 0.2080146
0.8776845 0.4811457 0.2126942
0.8942567 0.4915340 0.2174506
0.9040863 0.4940370 0.2202719
0.9171364 0.5081189 0.2240175
0.9253424 0.5180338 0.2263727
0.0331975 0.2512782 0.0820288
0.0332668 0.2515446 0.0819902
0.0333323 0.2517959 0.0819533
0.0334235 0.2521454 0.0819728
0.0335671 0.2526946 0.0819616
0.0344813 0.2561587 0.0816868
0.0349940 0.2580782 0.0814937
0.0358497 0.2612455 0.0811125
0.0391717 0.2731413 0.0795691
0.0407904 0.2787472 0.0784980
0.0655165 0.2910399 0.0754820
0.1333006 0.3016055 0.0718595
0.1953758 0.3161684 0.0659725
0.2434044 0.3314752 0.0589103
0.3021588 0.3461987 0.0601499
0.3759716 0.3633818 0.0686952
0.4283418 0.3788620 0.0837262
0.4950626 0.3935331 0.1028761
0.5551727 0.4094396 0.1201286
0.6084719 0.4208546 0.1354262
0.6574258 0.4378280 0.1494767
0.6938708 0.4432655 0.1599369
0.7323329 0.4587177 0.1709761
0.7624901 0.4631342 0.1796317
0.7984070 0.4778751 0.1899404
0.8205066 0.4813814 0.1962833
0.8491286 0.4927635 0.2044982
0.8682462 0.4994231 0.2099852
0.8856539 0.5093793 0.2149815
0.9018593 0.5235437 0.2196327
0.9153118 0.5339038 0.2234938
0.9254068 0.5370107 0.2263912
0.9345244 0.5526810 0.2290081
0.0406120 0.2781258 0.0800691
0.0406705 0.2783298 0.0800292
0.0407518 0.2786129 0.0799734
0.0408905 0.2790960 0.0800250
0.0417370 0.2820454 0.0797278
0.0421181 0.2833731 0.0795543
0.0427142 0.2854500 0.0793098
0.0437326 0.2889984 0.0786196
0.0471251 0.3008183 0.0765607
0.0492440 0.3082009 0.0746533
0.0527839 0.3205343 0.0711173
0.1302869 0.3319238 0.0665234
0.1880812 0.3455086 0.0602679
0.2490789 0.3633627 0.0650762
0.3119081 0.3790825 0.0695881
0.3750485 0.3917527 0.0732246
0.4423814 0.4131960 0.0877558
0.5100228 0.4286708 0.1071699
0.5611425 0.4376731 0.1218420
0.6125408 0.4552062 0.1365940
0.6603085 0.4631523 0.1503041
0.7029714 0.4792358 0.1625489
0.7391449 0.4852431 0.1729313
0.7767347 0.4942231 0.1837201
0.8030170 0.5050791 0.1912635
0.8383966 0.5211458 0.2014180
0.8579574 0.5247666 0.2070322
0.8792700 0.5392178 0.2131492
0.8946814 0.5434083 0.2175725
0.9110637 0.5579830 0.2222745
0.9224827 0.5614127 0.2255519
0.9343906 0.5713764 0.2289697
0.9451541 0.5865769 0.2320589
0.0479515 0.3036975 0.0775837
0.0480190 0.3039328 0.0775255
0.0480956 0.3041997 0.0774590
0.0489044 0.3070178 0.0771238
0.0491533 0.3078848 0.0768987
0.0495572 0.3092920 0.0766766
0.0502590 0.3117371 0.0763815
0.0514929 0.3160365 0.0753748
0.0537921 0.3240473 0.0737551
0.0571990 0.3359174 0.0706209
0.0608889 0.3487733 0.0660787
0.1262982 0.3614904 0.0645389
0.1901040 0.3760861 0.0687281
0.2550005 0.3893958 0.0725481
0.3170517 0.4108685 0.0787111
0.3867485 0.4253409 0.0828649
0.4412730 0.4393009 0.0874377
0.5098635 0.4524673 0.1071241
0.5635950 0.4716028 0.1225459
0.6309404 0.4868738 0.1418750
0.6740130 0.4942600 0.1542374
0.7159377 0.5078149 0.1662705
0.7468815 0.5167490 0.1751518
0.7867042 0.5336826 0.1865815
0.8113844 0.5381349 0.1936651
0.8433609 0.5496873 0.2028428
0.8663138 0.5578962 0.2094306
0.8864420 0.5683573 0.2152077
0.9029334 0.5752525 0.2199410
0.9180138 0.5857247 0.2242693
0.9303739 0.5927466 0.2278168
0.9419969 0.6040849 0.2311528
0.9502620 0.6079269 0.2335250
0.0539552 0.3246153 0.0750574
0.0540392 0.3249082 0.0749713
0.0562016 0.3324421 0.0739016
0.0563747 0.3330453 0.0737118
0.0567131 0.3342241 0.0736072
0.0572625 0.3361385 0.0735181
0.0581163 0.3391133 0.0725070
0.0601435 0.3461762 0.0706536
0.0620420 0.3527910 0.0689648
0.0639949 0.3595950 0.0666247
0.0679775 0.3734709 0.0679775
0.1226603 0.3869642 0.0718502
0.1871835 0.4074495 0.0777298
0.2483241 0.4201244 0.0813677
0.3170462 0.4379004 0.0864697
0.3842103 0.4523104 0.0906056
0.4540704 0.4699044 0.0956553
0.5244494 0.4898048 0.1113105
0.5777478 0.5028686 0.1266079
0.6322525 0.5129474 0.1422516
0.6819647 0.5305607 0.1565197
0.7194657 0.5373425 0.1672830
0.7609601 0.5479589 0.1791926
0.7896063 0.5594525 0.1874145
0.8242394 0.5688229 0.1973546
0.8505988 0.5798715 0.2049202
0.8713359 0.5867829 0.2108720
0.8911852 0.5963464 0.2165691
0.9092346 0.6005787 0.2217495
0.9244872 0.6141833 0.2261272
0.9359204 0.6183578 0.2294087
0.9481667 0.6310158 0.2329236
0.9563636 0.6353729 0.2352762
0.0625167 0.3544447 0.0709241
0.0625952 0.3547182 0.0708242
0.0627247 0.3551697 0.0706582
0.0630191 0.3561954 0.0706731
0.0633824 0.3574611 0.0701957
0.0640673 0.3598474 0.0699892
0.0648966 0.3627367 0.0688255
0.0670790 0.3703406 0.0670790
0.0688500 0.3765109 0.0688500
0.0721524 0.3880171 0.0721524
0.0766123 0.4035558 0.0766123
0.1110361 0.4171980 0.0805278
0.1885846 0.4335620 0.0852245
0.2537358 0.4468072 0.0890261
0.3257146 0.4652148 0.0943093
0.3946554 0.4802865 0.0986351
0.4672455 0.5042585 0.1055154
0.5234874 0.5159673 0.1110344
0.5776898 0.5289969 0.1265913
0.6333035 0.5397078 0.1425532
0.6837554 0.5564781 0.1570337
0.7251636 0.5642087 0.1689184
0.7631672 0.5745434 0.1798260
0.7952923 0.5859165 0.1890464
0.8300020 0.5951803 0.1990086
0.8537379 0.6055070 0.2058212
0.8771049 0.6131710 0.2125278
0.9022304 0.6187074 0.2197392
0.9189492 0.6282299 0.2245378
0.9320875 0.6350437 0.2283086
0.9416595 0.6442473 0.2310559
0.9523724 0.6513654 0.2341307
0.9618047 0.6613758 0.2368379
0.0685186 0.3753565 0.0685186
0.0686233 0.3757211 0.0686233
0.0688321 0.3764488 0.0688321
0.0691480 0.3775491 0.0691480
0.0696344 0.3792441 0.0696344
0.0708307 0.3834122 0.0708307
0.0718602 0.3869988 0.0718602
0.0737119 0.3934506 0.0737119
0.0756070 0.4000533 0.0756070
0.0797017 0.4143198 0.0797017
0.0837267 0.4283436 0.0837267
0.1139870 0.4416518 0.0875464
0.1905705 0.4570913 0.0919777
0.2594256 0.4710898 0.0959955
0.3343430 0.4898719 0.1013863
0.4048165 0.5054975 0.1058710
0.4639002 0.5228330 0.1108466
0.5357273 0.5402961 0.1158587
0.5902091 0.5539887 0.1301845
0.6498640 0.5657994 0.1473063
0.6950551 0.5817630 0.1602769
0.7363353 0.5899464 0.1721249
0.7674891 0.5963986 0.1810665
0.8067878 0.6112605 0.1923458
0.8345209 0.6171832 0.2003056
0.8655624 0.6250452 0.2092150
0.8866037 0.6348528 0.2152541
0.9057460 0.6424264 0.2207482
0.9232336 0.6473074 0.2257674
0.9369146 0.6578689 0.2296941
0.9485525 0.6651774 0.2330343
0.9571967 0.6754587 0.2355154
0.9659845 0.6831663 0.2380376
0.0737257 0.3934985 0.0737257
0.0738823 0.3940443 0.0738823
0.0740846 0.3947491 0.0740846
0.0750430 0.3980883 0.0750430
0.0755918 0.4000002 0.0755918
0.0763628 0.4026865 0.0763628
0.0776447 0.4071530 0.0776447
0.0794547 0.4134592 0.0794547
0.0821235 0.4227578 0.0821235
0.0851796 0.4334055 0.0851796
0.0896434 0.4489581 0.0896434
0.1126548 0.4628257 0.0936236
0.1976940 0.4793051 0.0983534
0.2650982 0.4935044 0.1024288
0.3428044 0.5126190 0.1079150
0.4002769 0.5256870 0.1116657
0.4755158 0.5463843 0.1176061
0.5380033 0.5620516 0.1221029
0.5928571 0.5733458 0.1309445
0.6491266 0.5873112 0.1470947
0.6975442 0.5972314 0.1609913
0.7371815 0.6127439 0.1723678
0.7792868 0.6213740 0.1844526
0.8103897 0.6306713 0.1933796
0.8366830 0.6411577 0.2009262
0.8674563 0.6478222 0.2097585
0.8904812 0.6564130 0.2163670
0.9103610 0.6672441 0.2220728
0.9284720 0.6756859 0.2272709
0.9409609 0.6805590 0.2308555
0.9537401 0.6942601 0.2345233
0.9632195 0.6994314 0.2372440
0.9703673 0.7086105 0.2392955
0.0793611 0.4131332 0.0793611
0.0795908 0.4139335 0.0795908
0.0798659 0.4148919 0.0798659
0.0801205 0.4157791 0.0801205
0.0809067 0.4185181 0.0809067
0.0817774 0.4215518 0.0817774
0.0831564 0.4263564 0.0831564
0.0849735 0.4326876 0.0849735
0.0873464 0.4409550 0.0873464
0.0913791 0.4550055 0.0913791
0.0950578 0.4678226 0.0950578
0.1319975 0.4864236 0.1003965
0.1997759 0.5005187 0.1044421
0.2710950 0.5155532 0.1087572
0.3510908 0.5331979 0.1138214
0.4102553 0.5487039 0.1182719
0.4922186 0.5670370 0.1235338
0.5486957 0.5816526 0.1277287
0.6050156 0.5989388 0.1344342
0.6610497 0.6134426 0.1505168
0.7087841 0.6228594 0.1642173
0.7398684 0.6299301 0.1731389
0.7801527 0.6464332 0.1847011
0.8114626 0.6528422 0.1936875
0.8493538 0.6633977 0.2045628
0.8712181 0.6693668 0.2108382
0.8929663 0.6824288 0.2170803
0.9139050 0.6887644 0.2230900
0.9293650 0.6942322 0.2275272
0.9444025 0.7053712 0.2318432
0.9568390 0.7110798 0.2354127
0.9662027 0.7167805 0.2381002
0.9727806 0.7285501 0.2399882
0.0841407 0.4297859 0.0841407
0.0850750 0.4330413 0.0850750
0.0853535 0.4340115 0.0853535
0.0858891 0.4358777 0.0858891
0.0865458 0.4381655 0.0865458
0.0874209 0.4412144 0.0874209
