data/spectral_luts/portra_800_endura_premier.cube
TITLE "portra_800_endura_premier"
LUT_3D_SIZE 9
0.0404863 0.0618868 0.0732694
0.0424793 0.0621662 0.0733311
0.0774002 0.0670096 0.0741528
0.1931315 0.0805432 0.0738794
0.3553770 0.0903523 0.0667439
0.5125168 0.1078857 0.1078857
0.6261542 0.1405013 0.1405013
0.7152517 0.1660736 0.1660736
0.7761503 0.1835524 0.1835524
0.0400304 0.0638277 0.0737091
0.0422076 0.0644229 0.0738236
0.0798332 0.0706171 0.0748438
0.1968600 0.0864967 0.0747804
0.3593209 0.1011889 0.0680886
0.5192627 0.1098218 0.1098218
0.6368030 0.1435577 0.1435577
0.7265118 0.1693054 0.1693054
0.7946118 0.2000825 0.1888511
0.0323461 0.0882878 0.0778044
0.0365668 0.0882697 0.0778118
0.0806297 0.0980214 0.0790331
0.2115232 0.1212339 0.0785271
0.3783093 0.1450976 0.0706008
0.5486962 0.1688103 0.1182697
0.6731647 0.2077623 0.1539940
0.7632343 0.2402559 0.1798453
0.8305408 0.2975040 0.1991633
0.0156027 0.1686085 0.0855983
0.0164573 0.1736325 0.0859476
0.0671237 0.1847527 0.0861066
0.2348849 0.2241750 0.0807663
0.4292147 0.2659396 0.0839768
0.6054437 0.3034061 0.1345571
0.7209257 0.3381878 0.1677021
0.8143025 0.3846158 0.1945026
0.8757122 0.4356390 0.2121281
0.0427836 0.2856920 0.0861979
0.0432721 0.2873940 0.0861411
0.0505758 0.3128410 0.0832300
0.2469786 0.3602681 0.0663547
0.4726436 0.4134061 0.0964415
0.6493430 0.4535545 0.1471568
0.7737408 0.4947397 0.1828608
0.8564645 0.5306457 0.2066037
0.9163151 0.5741766 0.2237817
0.0723833 0.3888215 0.0816711
0.0725148 0.3892795 0.0814995
0.0811829 0.4194804 0.0811829
0.2547401 0.4729193 0.0965206
0.4997007 0.5341742 0.1141017
0.6834896 0.5780224 0.1569574
0.8019993 0.6157230 0.1909714
0.8875419 0.6472520 0.2155234
0.9388033 0.6780763 0.2302362
0.0963384 0.4722845 0.0963384
0.0963384 0.4722845 0.0963384
0.1054267 0.5039493 0.1054267
0.2682488 0.5592400 0.1212959
0.5152501 0.6190957 0.1384754
0.7035185 0.6713725 0.1627060
0.8233981 0.7103776 0.1971132
0.9038148 0.7384723 0.2201940
0.9527335 0.7650101 0.2342343
0.1179620 0.5476241 0.1348991
0.1179620 0.5476241 0.1348991
0.1255196 0.5739561 0.1308379
0.2640564 0.6369733 0.1436065
0.5317014 0.6965932 0.1607183
0.7149650 0.7462773 0.1749784
0.8374268 0.7782484 0.2011396
0.9162410 0.8042138 0.2237605
0.9621222 0.8274862 0.2910559
0.1402090 0.6251360 0.2109294
0.1402090 0.6251360 0.2109294
0.1444681 0.6399751 0.2147840
0.2933483 0.6980667 0.2118857
0.5449326 0.7518869 0.2092788
0.7214222 0.7948341 0.2277950
0.8383207 0.8264695 0.2644165
0.9173552 0.8503343 0.3164503
0.9616657 0.8702093 0.3754021
0.0402013 0.0621563 0.0749280
0.0436111 0.0626317 0.0753300
0.0823506 0.0681379 0.0770911
0.2017877 0.0822636 0.0787860
0.3593317 0.0919188 0.0752275
0.5168878 0.1091402 0.1091402
0.6303068 0.1416931 0.1416931
0.7196108 0.1673247 0.1673247
0.7811621 0.1849908 0.1849908
0.0394378 0.0645785 0.0759312
0.0436293 0.0654158 0.0764559
0.0841948 0.0725155 0.0786509
0.2056408 0.0890456 0.0809527
0.3676549 0.1048998 0.0778291
0.5274499 0.1130058 0.1121717
0.6414788 0.1448997 0.1448997
0.7309546 0.1705806 0.1705806
0.8003058 0.2143431 0.1904854
0.0305498 0.0908183 0.0822031
0.0363778 0.0917862 0.0829023
0.0859355 0.1026599 0.0854179
0.2187907 0.1266500 0.0877768
0.3947578 0.1506267 0.0828913
0.5546111 0.1767930 0.1199674
0.6771363 0.2133702 0.1551339
0.7687695 0.2532347 0.1814340
0.8323530 0.3034752 0.1996834
0.0175355 0.1797585 0.0939838
0.0178720 0.1816254 0.0945750
0.0678989 0.1981697 0.0963325
0.2421578 0.2325584 0.0933467
0.4341365 0.2748465 0.0853894
0.6117710 0.3172855 0.1363731
0.7339285 0.3587141 0.1714341
0.8172681 0.3964205 0.1953538
0.8752474 0.4421014 0.2119947
0.0457248 0.2959394 0.0979568
0.0477716 0.3030708 0.0982061
0.0537563 0.3239225 0.0970685
0.2542979 0.3716891 0.0844300
0.4714610 0.4245136 0.0961020
0.6528232 0.4669027 0.1481557
0.7763072 0.5064300 0.1835974
0.8628125 0.5441015 0.2084257
0.9172986 0.5853666 0.2240640
0.0759564 0.4012708 0.0980279
0.0761579 0.4019726 0.0978105
0.0842979 0.4303337 0.0924326
0.2618022 0.4835283 0.0995656
0.4958608 0.5437288 0.1168440
0.6810728 0.5923836 0.1562637
0.7993416 0.6247629 0.1902086
0.8890604 0.6605532 0.2159592
0.9368836 0.6852945 0.2296852
0.0988306 0.4809678 0.1124925
0.0988306 0.4809678 0.1124925
0.1084976 0.5146489 0.1084976
0.2621629 0.5717552 0.1248880
0.5102621 0.6337160 0.1426716
0.7004055 0.6812117 0.1618125
0.8214540 0.7155273 0.1965552
0.9041554 0.7452070 0.2202917
0.9506703 0.7710888 0.2712068
0.1198122 0.5540705 0.1582108
0.1198122 0.5540705 0.1582108
0.1282924 0.5836167 0.1569135
0.2719829 0.6427060 0.1478324
0.5285773 0.7022235 0.1623343
0.7133945 0.7491603 0.1758058
0.8360943 0.7812680 0.2007572
0.9145562 0.8105755 0.2544498
0.9608104 0.8308173 0.3161612
0.1402090 0.6251360 0.2109294
0.1402090 0.6251360 0.2109294
0.1444681 0.6399751 0.2147840
0.2933483 0.6980667 0.2118857
0.5435538 0.7534541 0.2194540
0.7214222 0.7948341 0.2277950
0.8439263 0.8292880 0.2757957
0.9173552 0.8503343 0.3164503
0.9616657 0.8702093 0.3754021
0.0365650 0.0652274 0.1006303
0.0446843 0.0663507 0.1009909
0.0901640 0.0730505 0.1057060
0.2148531 0.0877652 0.1124563
0.3755338 0.0983705 0.1213236
0.5339196 0.1140286 0.1357952
0.6454326 0.1460345 0.1641867
0.7262286 0.1692241 0.1977760
0.7930404 0.1884001 0.2456212
0.0348617 0.0696832 0.1052220
0.0429993 0.0716289 0.1073837
0.0932750 0.0798287 0.1120208
0.2193060 0.0979283 0.1218352
0.3845454 0.1139525 0.1307371
0.5445918 0.1229836 0.1467933
0.6578465 0.1495974 0.1732060
0.7405392 0.1733315 0.2061154
0.8079152 0.2271795 0.2561129
0.0198337 0.1012696 0.1214062
0.0294786 0.1047801 0.1258057
0.0920514 0.1166682 0.1307911
0.2270851 0.1396527 0.1422900
0.4125062 0.1675975 0.1554049
0.5744729 0.2014561 0.1740283
0.6935964 0.2366755 0.1997068
0.7747006 0.2729433 0.2308434
0.8403860 0.3241104 0.2847389
0.0217229 0.2016676 0.1518133
0.0224327 0.2051294 0.1558304
0.0609763 0.2250079 0.1614132
0.2461601 0.2608425 0.1756307
0.4448565 0.3031674 0.1890006
0.6163675 0.3471461 0.2033157
0.7384668 0.3860462 0.2235902
0.8282464 0.4237314 0.2575249
0.8837371 0.4734200 0.3138806
0.0554485 0.3298181 0.1857391
0.0568080 0.3345548 0.1913203
0.0651231 0.3635258 0.1970041
0.2545932 0.4075628 0.2028487
0.4783912 0.4558837 0.2085789
0.6587719 0.5045227 0.2249510
0.7775320 0.5429984 0.2491746
0.8637005 0.5750536 0.2902202
0.9154466 0.6070227 0.3399561
0.0868397 0.4391898 0.2164809
0.0880751 0.4434938 0.2216316
0.0975359 0.4764569 0.2258427
0.2417975 0.5317957 0.2312402
0.4978461 0.5819100 0.2311874
0.6853395 0.6259207 0.2523122
0.8055198 0.6562920 0.2833147
0.8859339 0.6877968 0.3215366
0.9335281 0.7106741 0.3744629
0.1113251 0.5245003 0.2561677
0.1113251 0.5245003 0.2561677
0.1219073 0.5613703 0.2606926
0.2341567 0.6158944 0.2679107
0.5027713 0.6724470 0.2705112
0.6906326 0.7131085 0.2894338
0.8151250 0.7454538 0.3206267
0.9038356 0.7736674 0.3612618
0.9458307 0.7916132 0.4059581
0.1322727 0.5974847 0.3047547
0.1322727 0.5974847 0.3047547
0.1406918 0.6268179 0.3029835
0.2286531 0.6814742 0.3135131
0.5193951 0.7368148 0.3204823
0.7095423 0.7833817 0.3392339
0.8277534 0.8101017 0.3676129
0.9078665 0.8338186 0.4104274
0.9550638 0.8523843 0.4508414
0.1508826 0.6623243 0.3586658
0.1508826 0.6623243 0.3586658
0.1556621 0.6789768 0.3579015
0.2545324 0.7336018 0.3717593
0.5350505 0.7862564 0.3819653
0.7162814 0.8266014 0.3984349
0.8361315 0.8529580 0.4235373
0.9143538 0.8765170 0.4670845
0.9557325 0.8877605 0.4968323
0.0339039 0.0714176 0.2023455
0.0477058 0.0733913 0.2034808
0.1125372 0.0820426 0.2153672
0.2366040 0.0961624 0.2317081
0.4011382 0.1071429 0.2524119
0.5525473 0.1193750 0.2762625
0.6547990 0.1487228 0.3098958
0.7436127 0.1742136 0.3512827
0.8041077 0.2067190 0.3939872
0.0291882 0.0796880 0.2189916
0.0446882 0.0821819 0.2254032
0.1115722 0.0934520 0.2308978
0.2421248 0.1106032 0.2545950
0.4100151 0.1253083 0.2713733
0.5596871 0.1368645 0.2937116
0.6680865 0.1570130 0.3261776
0.7563371 0.1955461 0.3649520
0.8184047 0.2545514 0.4046822
0.0344731 0.1197036 0.2561279
0.0357560 0.1240464 0.2609009
0.1089251 0.1396306 0.2733959
0.2548567 0.1640760 0.2877365
0.4384156 0.1931822 0.3108828
0.5906663 0.2325843 0.3383903
0.7083630 0.2621652 0.3593129
0.7921607 0.3089177 0.3957057
0.8476859 0.3520302 0.4418897
0.0506236 0.2393758 0.3130075
0.0509776 0.2414443 0.3142411
0.0550968 0.2682490 0.3285929
0.2667321 0.3030397 0.3432228
0.4652056 0.3442985 0.3662269
0.6355366 0.3817989 0.3830736
0.7519918 0.4200241 0.4045165
0.8314471 0.4527238 0.4359067
0.8858966 0.5004301 0.4731320
0.0677709 0.3727514 0.3581363
0.0700717 0.3807675 0.3671065
0.0794411 0.4134120 0.3732566
0.2488455 0.4531629 0.3858075
0.4906926 0.5113373 0.4085861
0.6613356 0.5459571 0.4242607
0.7820210 0.5796357 0.4455014
0.8632663 0.6129411 0.4761387
0.9139259 0.6364368 0.5080155
0.1007295 0.4875838 0.4045894
0.1026105 0.4941373 0.4057552
0.1126095 0.5289752 0.4187737
0.2131488 0.5755181 0.4309442
0.4966513 0.6290593 0.4490028
0.6827059 0.6670429 0.4601335
0.8054924 0.6948026 0.4850170
0.8847986 0.7156932 0.5162279
0.9332246 0.7411765 0.5491410
0.1244265 0.5701475 0.4534310
0.1253497 0.5733639 0.4539288
0.1358443 0.6099286 0.4585042
0.1924120 0.6646034 0.4701090
0.5028413 0.7159389 0.4872010
0.6962998 0.7554634 0.4933213
0.8152747 0.7843472 0.5239156
0.8968847 0.8065428 0.5413030
0.9425681 0.8218376 0.5739799
0.1459672 0.6451982 0.4888459
0.1459672 0.6451982 0.4888459
0.1549552 0.6765136 0.5007790
0.2079802 0.7286446 0.5124495
0.5205938 0.7823895 0.5250940
0.7009901 0.8170655 0.5414292
0.8235926 0.8437315 0.5581638
0.9041677 0.8592836 0.5752923
0.9460232 0.8733870 0.6082123
0.1616814 0.6999488 0.5318658
0.1616814 0.6999488 0.5318658
0.1682543 0.7228498 0.5428498
0.2425577 0.7729303 0.5547151
0.5222835 0.8208135 0.5680715
0.7097648 0.8552762 0.5750514
0.8329122 0.8790439 0.5920216
0.9061244 0.8986581 0.6232649
0.9514965 0.9082171 0.6410367
0.0649237 0.0649237 0.3628310
0.0825448 0.0657292 0.3656377
0.1546826 0.0733392 0.3841803
0.2834492 0.0914880 0.3987657
0.4385534 0.1039978 0.4220793
0.5793108 0.1270566 0.4426927
0.6839317 0.1570843 0.4766022
0.7621081 0.1795221 0.5114037
0.8206261 0.2343005 0.5467166
0.0710454 0.0744880 0.3841602
0.0813364 0.0789515 0.3874128
0.1539729 0.0913150 0.4031591
0.2863188 0.1102696 0.4180948
0.4476207 0.1276684 0.4421572
0.5883054 0.1470768 0.4609554
0.6972337 0.1754903 0.4956146
0.7798646 0.2301613 0.5299802
0.8351150 0.2848815 0.5629709
0.0828871 0.1346235 0.4254183
0.0861964 0.1438363 0.4369484
0.1497939 0.1616453 0.4506878
0.2964348 0.1927300 0.4714882
0.4665884 0.2262884 0.4943637
0.6182505 0.2588263 0.5140033
0.7261913 0.2909247 0.5322068
0.8071294 0.3371289 0.5640003
0.8607657 0.3878178 0.5912917
0.1023435 0.2742767 0.4932070
0.1032725 0.2804853 0.4964438
0.1062908 0.3066706 0.5069601
0.2973568 0.3418542 0.5260459
0.4976952 0.3869694 0.5479466
0.6481260 0.4193259 0.5613156
0.7631218 0.4514303 0.5853595
0.8440047 0.4970387 0.6107550
0.8924838 0.5302998 0.6333328
0.1193334 0.4196408 0.5524025
0.1192031 0.4288302 0.5519484
0.1217945 0.4565862 0.5609772
0.2752028 0.5013261 0.5796399
0.5008076 0.5437323 0.5980068
0.6761001 0.5772479 0.6092648
0.7901387 0.6088391 0.6195955
0.8695229 0.6392656 0.6415480
0.9159279 0.6610296 0.6611210
0.1307994 0.5288812 0.5923514
0.1318983 0.5406212 0.5961803
0.1343946 0.5746177 0.6048778
0.2335680 0.6152944 0.6206917
0.5079751 0.6628366 0.6347529
0.6817775 0.6968006 0.6449198
0.8071965 0.7224055 0.6564323
0.8861356 0.7440966 0.6718438
0.9289930 0.7641281 0.6904951
0.1410295 0.6122821 0.6279946
0.1417879 0.6228611 0.6306370
0.1501069 0.6596215 0.6453531
0.2194486 0.7027684 0.6488915
0.5071747 0.7510881 0.6642467
0.6928935 0.7876434 0.6731662
0.8150098 0.8088037 0.6882758
0.8953426 0.8260530 0.6947115
0.9375280 0.8384020 0.7117651
0.1563563 0.6813954 0.6623193
0.1563563 0.6813954 0.6623193
0.1673080 0.7195528 0.6693254
0.2211174 0.7642909 0.6830832
0.5272309 0.8095933 0.6936881
0.6980041 0.8440948 0.7014292
0.8231385 0.8638114 0.7078458
0.8978457 0.8826038 0.7250601
0.9457153 0.8941854 0.7321806
0.1716870 0.7348098 0.6926847
0.1716870 0.7348098 0.6926847
0.1789250 0.7600278 0.6970459
0.2707744 0.8055922 0.7028254
0.5525907 0.8490690 0.7125599
0.7080287 0.8763453 0.7199939
0.8324051 0.9009765 0.7341378
0.9052691 0.9139464 0.7448878
0.9462687 0.9240203 0.7599010
0.1199514 0.1084615 0.5145231
0.1466362 0.1098182 0.5192502
0.2182882 0.1126416 0.5290870
0.3380896 0.1186445 0.5500020
0.4790395 0.1238181 0.5680275
0.6078919 0.1352597 0.5902168
0.7089086 0.1642530 0.6118717
0.7885493 0.2184478 0.6373410
0.8377160 0.2776429 0.6681038
0.1145157 0.1127051 0.5293082
0.1464875 0.1152713 0.5382494
0.2186770 0.1199293 0.5544786
0.3418133 0.1247272 0.5711951
0.4855441 0.1331308 0.5909730
0.6202786 0.1692781 0.6058899
0.7213352 0.2137462 0.6289654
0.7983894 0.2594612 0.6576654
0.8473584 0.3135463 0.6813567
0.1263789 0.1673402 0.5769498
0.1294182 0.1736305 0.5875393
0.2116997 0.1920454 0.5979497
0.3467572 0.2228909 0.6117238
0.5144434 0.2532800 0.6323435
0.6439379 0.2917333 0.6519684
0.7475930 0.3230927 0.6690515
0.8239922 0.3760298 0.6891767
0.8740215 0.4183975 0.7066897
0.1432618 0.3094237 0.6357722
0.1450499 0.3245863 0.6420020
0.1659787 0.3440236 0.6516357
0.3516366 0.3768300 0.6637586
0.5339998 0.4206603 0.6817420
0.6776798 0.4535352 0.6985170
0.7852155 0.4856955 0.7107350
0.8532053 0.5216593 0.7263609
0.8998170 0.5553311 0.7404517
0.1568861 0.4599695 0.6832411
0.1582719 0.4718361 0.6880696
0.1626603 0.4962790 0.7033594
0.3291340 0.5379156 0.7149717
0.5445704 0.5783905 0.7302907
0.6912113 0.6074789 0.7348344
0.8045449 0.6380861 0.7483771
0.8756797 0.6662090 0.7576773
0.9203408 0.6868293 0.7760059
0.1681164 0.5685052 0.7223691
0.1692656 0.5806041 0.7263733
0.1715940 0.6078779 0.7344857
0.3063354 0.6523138 0.7507433
0.5364901 0.6871652 0.7570223
0.7056134 0.7199364 0.7673719
0.8124860 0.7425835 0.7791770
0.8900174 0.7699091 0.7879698
0.9307857 0.7823907 0.7978631
0.1771675 0.6518376 0.7539045
0.1782646 0.6652994 0.7577268
0.1804480 0.6953449 0.7653344
0.2985254 0.7351495 0.7734463
0.5548497 0.7791784 0.7861848
0.7041151 0.8039546 0.7951326
0.8254730 0.8278573 0.8025603
0.8970006 0.8438516 0.8122888
0.9378791 0.8548772 0.8188390
0.1842547 0.7117537 0.7785974
0.1850227 0.7223326 0.7812729
0.1868965 0.7509844 0.7878016
0.3149725 0.7918007 0.7953619
0.5633166 0.8351495 0.8065171
0.7142782 0.8606501 0.8145653
0.8258652 0.8829579 0.8248676
0.9036110 0.8956732 0.8313704
0.9430760 0.9052616 0.8369551
0.1906939 0.7615382 0.8010322
0.1906939 0.7615382 0.8010322
0.1923818 0.7894999 0.8069131
0.3387955 0.8308542 0.8196847
0.5687368 0.8660321 0.8239556
0.7205763 0.8940969 0.8322329
0.8345783 0.9132639 0.8383642
0.9065198 0.9273397 0.8467745
0.9452184 0.9338499 0.8522415
0.1931536 0.1416344 0.6301022
0.2188363 0.1426874 0.6337710
0.2870672 0.1463668 0.6465904
0.4050680 0.1523041 0.6672768
0.5311338 0.1564708 0.6817943
0.6479805 0.1626197 0.7032177
0.7407065 0.2119389 0.7212878
0.8105553 0.2687402 0.7422797
0.8538976 0.3152569 0.7614892
0.1874105 0.1468926 0.6484225
0.2150614 0.1479664 0.6521637
0.2872179 0.1520707 0.6664636
0.4090334 0.1571607 0.6841981
0.5436645 0.1829097 0.7006969
0.6579641 0.2218924 0.7207398
0.7492634 0.2568946 0.7330635
0.8183185 0.3062511 0.7544048
0.8686427 0.3693668 0.7743520
0.1592998 0.2147708 0.6916510
0.1972034 0.2208329 0.6957722
0.2844447 0.2396776 0.7105696
0.4141646 0.2634385 0.7219604
0.5575231 0.2962575 0.7365633
0.6793530 0.3331907 0.7548802
0.7746293 0.3779062 0.7723941
0.8391736 0.4138665 0.7822918
0.8877122 0.4627692 0.7986361
0.1758359 0.3685480 0.7492649
0.1762870 0.3759841 0.7508368
0.2447307 0.3921217 0.7585418
0.4177953 0.4246809 0.7704473
0.5824886 0.4632538 0.7883060
0.6989603 0.4902574 0.7946823
0.7973304 0.5294050 0.8093405
0.8679226 0.5535505 0.8207353
0.9080629 0.5864602 0.8325467
0.1867504 0.5030591 0.7872927
0.1881403 0.5211136 0.7921352
0.1906214 0.5450166 0.8007799
0.4105948 0.5816101 0.8110279
0.5824660 0.6074758 0.8223604
0.7205523 0.6420243 0.8309468
0.8191157 0.6629713 0.8386915
0.8866525 0.6893827 0.8489735
0.9246457 0.7071700 0.8557481
0.1951015 0.6125709 0.8163890
0.1962089 0.6243600 0.8202476
0.1994771 0.6479641 0.8316345
0.3961363 0.6809637 0.8400666
0.5851904 0.7163211 0.8468091
0.7222754 0.7441170 0.8578386
0.8285771 0.7661657 0.8604578
0.8946928 0.7820328 0.8667530
0.9336510 0.8023214 0.8757592
0.2026592 0.6922156 0.8427213
0.2034541 0.7019058 0.8454908
0.2053186 0.7257968 0.8519868
0.3870156 0.7667605 0.8603648
0.5918375 0.7989944 0.8704836
0.7336714 0.8261128 0.8738552
0.8368123 0.8424484 0.8800715
0.9011215 0.8570901 0.8873219
0.9392638 0.8675959 0.8921940
0.2081983 0.7471771 0.8620201
0.2091027 0.7594432 0.8651712
0.2107015 0.7832370 0.8707417
0.4055150 0.8179120 0.8776691
0.5952882 0.8531358 0.8867415
0.7403311 0.8750386 0.8892620
0.8370538 0.8954251 0.8971253
0.9066341 0.9060521 0.8957015
0.9441550 0.9150025 0.9024673
0.2127521 0.7856355 0.8778863
0.2134667 0.7961388 0.8803760
0.2150508 0.8217781 0.8858953
0.4289638 0.8543895 0.8917504
0.6160784 0.8840382 0.8958821
0.7504675 0.9064922 0.9023069
0.8461766 0.9238440 0.9036344
0.9069998 0.9337836 0.9083739
0.9462240 0.9421803 0.9136735
0.2716207 0.1694487 0.7270110
0.2931991 0.1701508 0.7294572
0.3683010 0.1728116 0.7387280
0.4698705 0.1779930 0.7567808
0.5952743 0.1962588 0.7715528
0.6907359 0.2377661 0.7853854
0.7712717 0.2764157 0.8011620
0.8354622 0.3315366 0.8174196
0.8778035 0.3891728 0.8345932
0.2658627 0.1744367 0.7443901
0.2954207 0.1789761 0.7491533
0.3685074 0.1985903 0.7599277
0.4736574 0.2164870 0.7727138
0.6023573 0.2526318 0.7874710
0.6984431 0.2866233 0.7994810
0.7805807 0.3291764 0.8158205
0.8440471 0.3781632 0.8286121
0.8840007 0.4228385 0.8425037
0.2431179 0.2776458 0.7782936
0.2797415 0.2830358 0.7815312
0.3628902 0.3028364 0.7902151
0.4904829 0.3307270 0.8068194
0.6141604 0.3610529 0.8169044
0.7136202 0.3924122 0.8273517
0.7970232 0.4307656 0.8399698
0.8609682 0.4682949 0.8491474
0.9004784 0.5133374 0.8618410
0.1964557 0.4208314 0.8211072
0.2464503 0.4286318 0.8247265
0.3485557 0.4506919 0.8358895
0.4870382 0.4824299 0.8459466
0.6270349 0.5093477 0.8537133
0.7328632 0.5389142 0.8618250
0.8228990 0.5694247 0.8706903
0.8793920 0.5967090 0.8798643
0.9168792 0.6271179 0.8861206
0.2066935 0.5512165 0.8567771
0.2085658 0.5702795 0.8633005
0.3229783 0.5894268 0.8682973
0.4886308 0.6100487 0.8748882
0.6351988 0.6432424 0.8821622
0.7508733 0.6669853 0.8912251
0.8340485 0.6908107 0.8949556
0.8936133 0.7149968 0.9027818
0.9292343 0.7257089 0.9041622
0.2137107 0.6559923 0.8812261
0.2146738 0.6669702 0.8845817
0.2914867 0.6855313 0.8898284
0.4817490 0.7128156 0.8965657
0.6300152 0.7424676 0.9051126
0.7527221 0.7670522 0.9103096
0.8422012 0.7859142 0.9127881
0.9035116 0.8005757 0.9171106
0.9365879 0.8112217 0.9209116
0.2185157 0.7266671 0.8979676
0.2194017 0.7401053 0.9010543
0.2927268 0.7629725 0.9092197
0.4827564 0.7897798 0.9149196
0.6368526 0.8142093 0.9192168
0.7593993 0.8381411 0.9224609
0.8499093 0.8568453 0.9272101
0.9087300 0.8656251 0.9280120
0.9446849 0.8817666 0.9335697
0.2228448 0.7832623 0.9130506
0.2235318 0.7932497 0.9154441
0.3127140 0.8147007 0.9201601
0.4832463 0.8388156 0.9247567
0.6399894 0.8667876 0.9316973
0.7695276 0.8877265 0.9343081
0.8530947 0.9036760 0.9358556
0.9139081 0.9132291 0.9390137
0.9464788 0.9225906 0.9431180
0.2259082 0.8153697 0.9237241
0.2265709 0.8256807 0.9260331
0.3408997 0.8470680 0.9304122
0.5100131 0.8735035 0.9349431
0.6587893 0.8975350 0.9384018
0.7681797 0.9153978 0.9404495
0.8584701 0.9319775 0.9441912
0.9163672 0.9410468 0.9448372
0.9473839 0.9479520 0.9475737
0.3630009 0.2151291 0.7997278
0.3908368 0.2187201 0.8020866
0.4493534 0.2324167 0.8117751
0.5514172 0.2626379 0.8229023
0.6408875 0.2863277 0.8324041
0.7302851 0.3227377 0.8439304
0.8037751 0.3588657 0.8562422
0.8583238 0.4099923 0.8683671
0.8938146 0.4552216 0.8805285
0.3600794 0.2614138 0.8131958
0.3894635 0.2649361 0.8178775
0.4499490 0.2806163 0.8242924
0.5543374 0.3000850 0.8338809
0.6459045 0.3299675 0.8432643
0.7368416 0.3686262 0.8548082
0.8136799 0.4070051 0.8670678
0.8654112 0.4436035 0.8759264
0.9001206 0.4936774 0.8886527
0.3475945 0.3597953 0.8422996
0.3806171 0.3645062 0.8446796
0.4605440 0.3839896 0.8519014
0.5595594 0.4051377 0.8603653
0.6650560 0.4305380 0.8680443
0.7480480 0.4570975 0.8747640
0.8266870 0.4969710 0.8863906
0.8789187 0.5324234 0.8942330
0.9109736 0.5658092 0.9032749
0.3266455 0.4868424 0.8742468
0.3671255 0.4926959 0.8765833
0.4485905 0.5124016 0.8826402
0.5591241 0.5281930 0.8880712
0.6723053 0.5513596 0.8941898
0.7701883 0.5843310 0.9020603
0.8398135 0.6098690 0.9099557
0.8922491 0.6382730 0.9146416
0.9239740 0.6582803 0.9205666
0.2958831 0.6108034 0.9019538
0.3484728 0.6148878 0.9036974
0.4444790 0.6289802 0.9079519
0.5672224 0.6569238 0.9144938
0.6735076 0.6726832 0.9182187
0.7766480 0.7003211 0.9259331
0.8510986 0.7165692 0.9285542
0.9027718 0.7293454 0.9303974
0.9368433 0.7491786 0.9356930
0.2618302 0.6959741 0.9195849
0.3249349 0.7038285 0.9217396
0.4338143 0.7193263 0.9257166
0.5667926 0.7483396 0.9315776
0.6820044 0.7634933 0.9364864
0.7782665 0.7867625 0.9400210
0.8609579 0.8047681 0.9424214
0.9142233 0.8183273 0.9467496
0.9430912 0.8275963 0.9477654
0.2627586 0.7682335 0.9332042
0.3146689 0.7743767 0.9346711
0.4313417 0.7905130 0.9382802
0.5728472 0.8170469 0.9458671
0.6855873 0.8350463 0.9488874
0.7883072 0.8511382 0.9502497
0.8627192 0.8667535 0.9529593
0.9172339 0.8792248 0.9559792
0.9466508 0.8878047 0.9567816
0.2847112 0.8177435 0.9453470
0.3327328 0.8235494 0.9465989
0.4435631 0.8389798 0.9497176
0.5771611 0.8597488 0.9526462
0.6947420 0.8815547 0.9566002
0.7977588 0.8980288 0.9578525
0.8715454 0.9125523 0.9617198
0.9185787 0.9197733 0.9623423
0.9493721 0.9273549 0.9645826
0.3166159 0.8488736 0.9511747
0.3625613 0.8547282 0.9523417
0.4563157 0.8680684 0.9548429
0.5903449 0.8881643 0.9582295
0.7012740 0.9092389 0.9626565
0.8039305 0.9258890 0.9645749
0.8715908 0.9366489 0.9655899
0.9238339 0.9469312 0.9688614
0.9523306 0.9512467 0.9683419
