data/spectral_luts/portra_160_endura_premier.cube
TITLE "portra_160_endura_premier"
LUT_3D_SIZE 5
0.0383290 0.0612595 0.0723066
0.0639562 0.0648806 0.0730666
0.3033676 0.0875500 0.0684870
0.5958573 0.1318056 0.1318056
0.7634524 0.1799079 0.1799079
0.0327637 0.0827202 0.0758485
0.0782489 0.0917690 0.0769584
0.3415739 0.1313708 0.0697550
0.6362450 0.1667654 0.1433975
0.8062151 0.2424600 0.1921814
0.0390109 0.2725793 0.0816410
0.1322562 0.3022445 0.0749264
0.4848908 0.3878798 0.0999566
0.7630977 0.4612712 0.1798061
0.9063919 0.5263301 0.2209336
0.1352153 0.5097919 0.1071036
0.3090533 0.5508268 0.1188812
0.6335428 0.6268873 0.1426219
0.8518254 0.6955379 0.2052722
0.9594862 0.7439408 0.2361725
0.4640574 0.7142711 0.1657921
0.5542936 0.7373226 0.1724083
0.7424762 0.7812843 0.1850259
0.9031059 0.8264489 0.2199905
0.9816599 0.8609139 0.3092231
0.0330563 0.0659737 0.1076651
0.0696402 0.0719824 0.1129652
0.3322684 0.0996085 0.1307556
0.6214405 0.1391484 0.1701665
0.7773376 0.1838931 0.2306654
0.0166881 0.1035246 0.1241788
0.0818916 0.1162164 0.1319597
0.3794060 0.1600711 0.1512991
0.6705312 0.2186603 0.1915940
0.8224034 0.2880245 0.2565910
0.0551137 0.3286519 0.1777519
0.0946880 0.3588461 0.1819757
0.5006955 0.4446917 0.1930860
0.7699782 0.5131934 0.2189898
0.9104120 0.5746870 0.3012026
0.1238524 0.5681470 0.2233250
0.2940890 0.6033082 0.2215363
0.6214694 0.6769052 0.2260029
0.8459485 0.7355056 0.2640505
0.9539445 0.7726707 0.3472700
0.4346617 0.7447162 0.2921894
0.5490569 0.7689086 0.2942435
0.7402261 0.8133559 0.3104555
0.8966362 0.8499377 0.3532390
0.9760232 0.8786340 0.4315608
0.0818671 0.0818671 0.4218646
0.0999102 0.0927798 0.4321136
0.3962417 0.1403166 0.4774999
0.6710526 0.1801170 0.5154724
0.8256464 0.2701739 0.5720000
0.0939203 0.1760126 0.4638595
0.0994521 0.1966758 0.4831330
0.4324448 0.2623990 0.5164350
0.7139613 0.3253149 0.5620391
0.8578058 0.3961877 0.6006312
0.1208780 0.4375562 0.5577838
0.1241259 0.4773065 0.5691000
0.5160544 0.5491096 0.5907807
0.7880293 0.6171434 0.6246319
0.9168995 0.6568308 0.6533179
0.1526358 0.6684327 0.6244718
0.2473144 0.7006589 0.6289143
0.6223547 0.7665154 0.6537610
0.8380067 0.8077874 0.6686540
0.9460747 0.8357107 0.6942989
0.4244547 0.8231199 0.6762422
0.5233692 0.8404443 0.6846370
0.7193215 0.8749064 0.6925314
0.8889429 0.9072798 0.7085924
0.9636368 0.9234564 0.7292887
0.1644671 0.2137768 0.7096545
0.1696566 0.2427833 0.7277353
0.4882267 0.3097678 0.7660633
0.7487196 0.3837310 0.7940318
0.8775401 0.4521206 0.8149189
0.1746088 0.3246956 0.7449897
0.1796324 0.3590237 0.7624925
0.5119061 0.4327893 0.7952268
0.7718917 0.4886927 0.8160822
0.8979885 0.5523705 0.8341107
0.1923090 0.5496586 0.8066597
0.1974759 0.5822068 0.8246617
0.5701514 0.6483983 0.8419961
0.8067751 0.6951991 0.8543398
0.9260038 0.7328657 0.8700979
0.2066581 0.7423438 0.8566540
0.3438655 0.7704037 0.8694908
0.6479298 0.8217643 0.8778051
0.8517972 0.8583502 0.8855768
0.9470884 0.8774788 0.8971633
0.4793394 0.8646561 0.8911860
0.5779332 0.8822908 0.8935147
0.7380948 0.9090186 0.9004601
0.8870338 0.9354724 0.9086001
0.9591343 0.9488822 0.9124821
0.2107707 0.4519266 0.8709828
0.2442490 0.4831596 0.8836628
0.5835108 0.5393981 0.9050720
0.8074546 0.5973714 0.9182801
0.9161892 0.6496358 0.9294619
0.2158876 0.5274347 0.8888108
0.2391641 0.5532529 0.8992548
0.5948525 0.6116518 0.9187973
0.8208066 0.6658449 0.9298650
0.9253755 0.7035347 0.9380393
0.2246924 0.6652981 0.9194882
0.3297288 0.6927581 0.9299241
0.6327334 0.7447836 0.9418853
0.8409937 0.7817497 0.9480969
0.9380404 0.8101127 0.9531978
0.3576070 0.8109428 0.9498556
0.4903276 0.8302783 0.9538100
0.6960938 0.8630421 0.9585601
0.8711218 0.8942405 0.9647388
0.9528385 0.9137683 0.9678929
0.5881605 0.8972755 0.9652568
0.6467371 0.9068056 0.9666473
0.7853261 0.9310443 0.9696010
0.9023133 0.9498187 0.9731779
0.9627475 0.9609114 0.9752236
