data/spectral_luts/portra_800_endura_premier.cube
TITLE "portra_800_endura_premier"
LUT_3D_SIZE 5
0.0404863 0.0618868 0.0732694
0.0774002 0.0670096 0.0741528
0.3553770 0.0903523 0.0667439
0.6261542 0.1405013 0.1405013
0.7761503 0.1835524 0.1835524
0.0323461 0.0882878 0.0778044
0.0806297 0.0980214 0.0790331
0.3783093 0.1450976 0.0706008
0.6731647 0.2077623 0.1539940
0.8305408 0.2975040 0.1991633
0.0427836 0.2856920 0.0861979
0.0505758 0.3128410 0.0832300
0.4726436 0.4134061 0.0964415
0.7737408 0.4947397 0.1828608
0.9163151 0.5741766 0.2237817
0.0963384 0.4722845 0.0963384
0.1054267 0.5039493 0.1054267
0.5152501 0.6190957 0.1384754
0.8233981 0.7103776 0.1971132
0.9527335 0.7650101 0.2342343
0.1402090 0.6251360 0.2109294
0.1444681 0.6399751 0.2147840
0.5449326 0.7518869 0.2092788
0.8383207 0.8264695 0.2644165
0.9616657 0.8702093 0.3754021
0.0365650 0.0652274 0.1006303
0.0901640 0.0730505 0.1057060
0.3755338 0.0983705 0.1213236
0.6454326 0.1460345 0.1641867
0.7930404 0.1884001 0.2456212
0.0198337 0.1012696 0.1214062
0.0920514 0.1166682 0.1307911
0.4125062 0.1675975 0.1554049
0.6935964 0.2366755 0.1997068
0.8403860 0.3241104 0.2847389
0.0554485 0.3298181 0.1857391
0.0651231 0.3635258 0.1970041
0.4783912 0.4558837 0.2085789
0.7775320 0.5429984 0.2491746
0.9154466 0.6070227 0.3399561
0.1113251 0.5245003 0.2561677
0.1219073 0.5613703 0.2606926
0.5027713 0.6724470 0.2705112
0.8151250 0.7454538 0.3206267
0.9458307 0.7916132 0.4059581
0.1508826 0.6623243 0.3586658
0.1556621 0.6789768 0.3579015
0.5350505 0.7862564 0.3819653
0.8361315 0.8529580 0.4235373
0.9557325 0.8877605 0.4968323
0.0649237 0.0649237 0.3628310
0.1546826 0.0733392 0.3841803
0.4385534 0.1039978 0.4220793
0.6839317 0.1570843 0.4766022
0.8206261 0.2343005 0.5467166
0.0828871 0.1346235 0.4254183
0.1497939 0.1616453 0.4506878
0.4665884 0.2262884 0.4943637
0.7261913 0.2909247 0.5322068
0.8607657 0.3878178 0.5912917
0.1193334 0.4196408 0.5524025
0.1217945 0.4565862 0.5609772
0.5008076 0.5437323 0.5980068
0.7901387 0.6088391 0.6195955
0.9159279 0.6610296 0.6611210
0.1410295 0.6122821 0.6279946
0.1501069 0.6596215 0.6453531
0.5071747 0.7510881 0.6642467
0.8150098 0.8088037 0.6882758
0.9375280 0.8384020 0.7117651
0.1716870 0.7348098 0.6926847
0.1789250 0.7600278 0.6970459
0.5525907 0.8490690 0.7125599
0.8324051 0.9009765 0.7341378
0.9462687 0.9240203 0.7599010
0.1931536 0.1416344 0.6301022
0.2870672 0.1463668 0.6465904
0.5311338 0.1564708 0.6817943
0.7407065 0.2119389 0.7212878
0.8538976 0.3152569 0.7614892
0.1592998 0.2147708 0.6916510
0.2844447 0.2396776 0.7105696
0.5575231 0.2962575 0.7365633
0.7746293 0.3779062 0.7723941
0.8877122 0.4627692 0.7986361
0.1867504 0.5030591 0.7872927
0.1906214 0.5450166 0.8007799
0.5824660 0.6074758 0.8223604
0.8191157 0.6629713 0.8386915
0.9246457 0.7071700 0.8557481
0.2026592 0.6922156 0.8427213
0.2053186 0.7257968 0.8519868
0.5918375 0.7989944 0.8704836
0.8368123 0.8424484 0.8800715
0.9392638 0.8675959 0.8921940
0.2127521 0.7856355 0.8778863
0.2150508 0.8217781 0.8858953
0.6160784 0.8840382 0.8958821
0.8461766 0.9238440 0.9036344
0.9462240 0.9421803 0.9136735
0.3630009 0.2151291 0.7997278
0.4493534 0.2324167 0.8117751
0.6408875 0.2863277 0.8324041
0.8037751 0.3588657 0.8562422
0.8938146 0.4552216 0.8805285
0.3475945 0.3597953 0.8422996
0.4605440 0.3839896 0.8519014
0.6650560 0.4305380 0.8680443
0.8266870 0.4969710 0.8863906
0.9109736 0.5658092 0.9032749
0.2958831 0.6108034 0.9019538
0.4444790 0.6289802 0.9079519
0.6735076 0.6726832 0.9182187
0.8510986 0.7165692 0.9285542
0.9368433 0.7491786 0.9356930
0.2627586 0.7682335 0.9332042
0.4313417 0.7905130 0.9382802
0.6855873 0.8350463 0.9488874
0.8627192 0.8667535 0.9529593
0.9466508 0.8878047 0.9567816
0.3166159 0.8488736 0.9511747
0.4563157 0.8680684 0.9548429
0.7012740 0.9092389 0.9626565
0.8715908 0.9366489 0.9655899
0.9523306 0.9512467 0.9683419
