data/spectral_luts/portra_160_endura_premier.cube
TITLE "portra_160_endura_premier"
LUT_3D_SIZE 9
0.0383290 0.0612595 0.0723066
0.0393182 0.0613988 0.0723379
0.0639562 0.0648806 0.0730666
0.1543408 0.0763779 0.0736233
0.3033676 0.0875500 0.0684870
0.4669491 0.0948071 0.0948071
0.5958573 0.1318056 0.1318056
0.6939492 0.1599594 0.1599594
0.7634524 0.1799079 0.1799079
0.0380754 0.0623420 0.0725043
0.0397491 0.0627472 0.0725851
0.0684511 0.0673356 0.0735256
0.1679030 0.0810288 0.0739119
0.3189186 0.0945517 0.0682718
0.4869015 0.1018723 0.1005337
0.6046301 0.1343236 0.1343236
0.7032715 0.1626351 0.1626351
0.7711118 0.1821063 0.1821063
0.0327637 0.0827202 0.0758485
0.0373780 0.0843405 0.0760880
0.0782489 0.0917690 0.0769584
0.1847321 0.1096633 0.0766746
0.3415739 0.1313708 0.0697550
0.5208175 0.1499257 0.1102681
0.6362450 0.1667654 0.1433975
0.7362677 0.2029081 0.1721055
0.8062151 0.2424600 0.1921814
0.0132771 0.1540654 0.0827665
0.0186559 0.1568036 0.0828612
0.0955216 0.1715585 0.0825949
0.2299679 0.1998808 0.0781550
0.4062064 0.2377992 0.0773730
0.5726634 0.2685029 0.1251486
0.6976051 0.3028896 0.1610087
0.7923309 0.3351151 0.1881964
0.8591262 0.3807993 0.2073677
0.0390109 0.2725793 0.0816410
0.0410352 0.2796002 0.0805881
0.1322562 0.3022445 0.0749264
0.2934469 0.3425767 0.0591103
0.4848908 0.3878798 0.0999566
0.6462233 0.4229208 0.1462614
0.7630977 0.4612712 0.1798061
0.8463710 0.4933615 0.2037067
0.9063919 0.5263301 0.2209336
0.0756373 0.4001591 0.0756373
0.0791887 0.4125327 0.0791887
0.2115394 0.4377220 0.0864185
0.3743405 0.4757718 0.0973393
0.5485436 0.5212173 0.1182259
0.7024762 0.5604199 0.1624068
0.8120493 0.5906536 0.1938559
0.8892964 0.6187038 0.2160270
0.9383025 0.6501996 0.2300924
0.1352153 0.5097919 0.1071036
0.1971832 0.5198959 0.1100036
0.3090533 0.5508268 0.1188812
0.4627860 0.5869626 0.1292527
0.6335428 0.6268873 0.1426219
0.7538803 0.6627698 0.1771606
0.8518254 0.6955379 0.2052722
0.9191301 0.7204109 0.2245897
0.9594862 0.7439408 0.2361725
0.3059438 0.6185494 0.1383186
0.3501987 0.6296642 0.1415087
0.4338334 0.6489944 0.1470568
0.5640292 0.6827730 0.1567517
0.6893259 0.7170553 0.1665912
0.7960791 0.7453030 0.1892722
0.8812370 0.7734089 0.2137138
0.9389637 0.7907088 0.2302822
0.9731305 0.8123051 0.2400886
0.4640574 0.7142711 0.1657921
0.4921191 0.7201105 0.1674681
0.5542936 0.7373226 0.1724083
0.6533517 0.7589852 0.1786257
0.7424762 0.7812843 0.1850259
0.8310508 0.8070017 0.1993096
0.9031059 0.8264489 0.2199905
0.9544019 0.8433236 0.2419410
0.9816599 0.8609139 0.3092231
0.0381679 0.0614973 0.0736464
0.0393793 0.0617100 0.0739538
0.0676173 0.0658607 0.0753671
0.1648700 0.0782054 0.0776947
0.3201724 0.0896495 0.0763548
0.4864500 0.1004041 0.1004041
0.6033169 0.1339466 0.1339466
0.6986399 0.1613058 0.1613058
0.7674611 0.1810584 0.1810584
0.0376032 0.0636130 0.0744143
0.0396913 0.0641492 0.0748130
0.0701070 0.0694301 0.0766359
0.1725766 0.0839457 0.0793324
0.3268329 0.0992515 0.0781662
0.4967858 0.1082165 0.1033706
0.6188234 0.1383972 0.1383972
0.7097239 0.1644870 0.1644870
0.7749990 0.1832219 0.1832219
0.0310189 0.0871331 0.0792000
0.0368423 0.0893661 0.0799681
0.0802467 0.0972334 0.0820454
0.1969960 0.1187968 0.0845118
0.3613563 0.1395600 0.0807870
0.5265356 0.1575976 0.1119093
0.6477071 0.1824257 0.1466873
0.7421089 0.2148864 0.1737820
0.8113413 0.2564245 0.1936527
0.0150750 0.1654261 0.0887565
0.0156234 0.1687324 0.0895995
0.0929706 0.1841222 0.0908386
0.2355728 0.2150742 0.0891257
0.4122499 0.2506118 0.0791246
0.5910687 0.2841603 0.1304312
0.7039894 0.3167323 0.1628411
0.7958197 0.3509893 0.1891978
0.8628345 0.3947472 0.2084320
0.0428666 0.2859811 0.0913986
0.0450806 0.2936949 0.0912705
0.1258890 0.3194297 0.0866443
0.2953257 0.3526629 0.0755105
0.4888899 0.3982046 0.1011044
0.6518375 0.4407304 0.1478728
0.7663150 0.4706541 0.1807295
0.8477500 0.5004165 0.2041025
0.9074187 0.5404113 0.2212283
0.0784825 0.4100719 0.0784825
0.0817189 0.4213481 0.0817189
0.2056925 0.4460923 0.0888209
0.3767208 0.4916287 0.1018905
0.5604586 0.5311736 0.1216457
0.7050342 0.5687619 0.1631410
0.8110922 0.5997130 0.1935812
0.8895961 0.6343930 0.2161130
0.9391527 0.6578386 0.2303364
0.1304560 0.5197076 0.1099495
0.1991058 0.5314038 0.1133065
0.3046809 0.5563157 0.1204566
0.4771698 0.5953592 0.1316627
0.6325066 0.6380239 0.1439081
0.7523176 0.6669549 0.1767120
0.8506232 0.6992860 0.2049272
0.9184724 0.7267852 0.2244009
0.9590947 0.7491159 0.2360601
0.3059438 0.6185494 0.1383186
0.3501987 0.6296642 0.1415087
0.4452058 0.6514282 0.1477553
0.5640292 0.6827730 0.1567517
0.6893259 0.7170553 0.1665912
0.7960791 0.7453030 0.1892722
0.8812370 0.7734089 0.2137138
0.9389637 0.7907088 0.2302822
0.9731305 0.8123051 0.2400886
0.4640574 0.7142711 0.1657921
0.4908186 0.7225722 0.1681747
0.5542936 0.7373226 0.1724083
0.6533517 0.7589852 0.1786257
0.7424762 0.7812843 0.1850259
0.8310508 0.8070017 0.1993096
0.9031059 0.8264489 0.2199905
0.9544110 0.8463486 0.2479398
0.9816599 0.8609139 0.3092231
0.0330563 0.0659737 0.1076651
0.0355371 0.0665356 0.1078365
0.0696402 0.0719824 0.1129652
0.1792898 0.0863849 0.1217872
0.3322684 0.0996085 0.1307556
0.4989668 0.1057593 0.1448005
0.6214405 0.1391484 0.1701665
0.7099453 0.1645506 0.1978021
0.7773376 0.1838931 0.2306654
0.0310777 0.0718758 0.1105435
0.0345852 0.0730065 0.1126287
0.0727565 0.0797319 0.1180327
0.1855041 0.0973687 0.1273894
0.3475008 0.1146638 0.1376353
0.5092731 0.1239367 0.1513345
0.6329110 0.1424406 0.1743166
0.7225265 0.1681616 0.2029234
0.7909481 0.1974563 0.2371390
0.0166881 0.1035246 0.1241788
0.0247560 0.1066865 0.1273196
0.0818916 0.1162164 0.1319597
0.2053114 0.1369061 0.1405793
0.3794060 0.1600711 0.1512991
0.5406098 0.1855665 0.1691484
0.6705312 0.2186603 0.1915940
0.7606545 0.2492528 0.2203385
0.8224034 0.2880245 0.2565910
0.0208168 0.1971516 0.1514552
0.0216502 0.2013094 0.1519979
0.0907664 0.2161164 0.1568988
0.2470565 0.2516633 0.1649593
0.4341158 0.2858294 0.1750529
0.6039962 0.3249553 0.1901249
0.7214751 0.3545086 0.2081520
0.8065369 0.3898613 0.2362193
0.8703526 0.4330793 0.2749639
0.0551137 0.3286519 0.1777519
0.0572091 0.3359523 0.1776726
0.0946880 0.3588461 0.1819757
0.2945915 0.3998478 0.1886485
0.5006955 0.4446917 0.1930860
0.6554912 0.4776794 0.2017607
0.7699782 0.5131934 0.2189898
0.8587177 0.5438285 0.2554395
0.9104120 0.5746870 0.3012026
0.0919764 0.4570865 0.1965371
0.0954270 0.4691088 0.2003668
0.1656886 0.4939763 0.2016333
0.3670454 0.5362885 0.1998699
0.5572761 0.5758153 0.2049729
0.7010302 0.6094388 0.2131308
0.8086652 0.6375677 0.2409495
0.8895318 0.6625304 0.2707885
0.9365543 0.6874327 0.3233897
0.1238524 0.5681470 0.2233250
0.1361521 0.5775213 0.2211869
0.2940890 0.6033082 0.2215363
0.4567793 0.6422756 0.2245520
0.6214694 0.6769052 0.2260029
0.7453925 0.7085973 0.2397349
0.8459485 0.7355056 0.2640505
0.9135823 0.7547992 0.3009040
0.9539445 0.7726707 0.3472700
0.2638854 0.6667641 0.2530426
0.3203166 0.6764570 0.2501234
0.4156661 0.6962507 0.2525214
0.5565709 0.7255992 0.2499435
0.6889258 0.7543802 0.2566890
0.7880965 0.7829509 0.2773871
0.8736955 0.8037958 0.3087293
0.9332004 0.8224552 0.3373853
0.9675058 0.8401104 0.3841577
0.4346617 0.7447162 0.2921894
0.4838296 0.7520486 0.2842184
0.5490569 0.7689086 0.2942435
0.6408669 0.7886064 0.2973420
0.7402261 0.8133559 0.3104555
0.8237673 0.8321795 0.3261187
0.8966362 0.8499377 0.3532390
0.9483680 0.8675768 0.3880932
0.9760232 0.8786340 0.4315608
0.0306306 0.0757428 0.2411787
0.0308302 0.0771620 0.2419815
0.0737642 0.0847383 0.2520474
0.1937394 0.1025425 0.2698835
0.3600771 0.1192246 0.2828572
0.5266982 0.1283123 0.3067553
0.6399402 0.1444581 0.3345166
0.7289711 0.1700112 0.3640769
0.7953302 0.1997018 0.4013142
0.0330145 0.0892308 0.2505737
0.0332817 0.0911995 0.2516018
0.0749229 0.0994883 0.2620628
0.1995106 0.1179745 0.2800217
0.3757773 0.1366817 0.3001948
0.5343908 0.1550411 0.3150238
0.6571128 0.1665202 0.3422192
0.7481192 0.2026904 0.3738889
0.8103303 0.2458362 0.4077939
0.0403638 0.1341630 0.2772656
0.0407628 0.1366046 0.2786512
0.0736378 0.1489534 0.2905041
0.2215199 0.1755275 0.3065078
0.4031408 0.2086877 0.3246822
0.5678617 0.2364895 0.3428934
0.6857799 0.2645786 0.3639722
0.7774776 0.2950654 0.3942725
0.8408689 0.3363144 0.4279302
0.0519531 0.2440129 0.3176398
0.0524743 0.2490610 0.3194557
0.0541358 0.2701420 0.3252447
0.2505561 0.3032883 0.3393835
0.4445821 0.3446897 0.3627270
0.6187863 0.3797934 0.3791870
0.7314497 0.4103310 0.4000084
0.8227704 0.4434212 0.4263012
0.8786250 0.4783195 0.4583105
0.0698510 0.3799987 0.3569641
0.0740078 0.3944817 0.3594178
0.0809779 0.4187662 0.3707006
0.2880100 0.4586331 0.3821876
0.5005493 0.4937994 0.3904058
0.6605631 0.5335343 0.4103900
0.7794237 0.5583481 0.4258561
0.8601000 0.5906621 0.4570766
0.9110892 0.6154664 0.4839935
0.1083934 0.5142859 0.3931263
0.1114374 0.5248914 0.3941802
0.1188277 0.5506402 0.4042347
0.3595123 0.5872356 0.4133925
0.5508867 0.6271716 0.4247831
0.7015224 0.6595083 0.4402784
0.8121465 0.6840450 0.4563989
0.8893985 0.7033586 0.4774663
0.9326506 0.7211013 0.5052630
0.1381009 0.6177909 0.4239137
0.1410408 0.6280339 0.4242145
0.2458059 0.6581724 0.4378952
0.4526203 0.6934144 0.4457881
0.6122205 0.7231597 0.4525188
0.7443404 0.7530184 0.4677962
0.8454549 0.7797266 0.4887543
0.9125094 0.7926021 0.5061760
0.9518673 0.8120086 0.5344241
0.2244976 0.7149285 0.4622081
0.2705529 0.7210045 0.4620432
0.4069567 0.7488139 0.4745757
0.5408430 0.7724633 0.4724468
0.6779964 0.8000931 0.4884004
0.7816956 0.8194991 0.4951953
0.8693122 0.8402212 0.5118510
0.9274019 0.8577436 0.5347977
0.9601064 0.8667261 0.5636879
0.4272524 0.7900118 0.4977845
0.4606102 0.7957975 0.4973586
0.5340827 0.8088827 0.4961445
0.6306233 0.8279825 0.5040100
0.7238271 0.8468843 0.5160218
0.8173478 0.8681498 0.5329853
0.8911798 0.8833380 0.5510058
0.9384850 0.8942782 0.5740430
0.9700618 0.9041080 0.5932502
0.0818671 0.0818671 0.4218646
0.0826089 0.0826089 0.4244489
0.0999102 0.0927798 0.4321136
0.2258686 0.1155613 0.4573692
0.3962417 0.1403166 0.4774999
0.5537544 0.1559881 0.4965512
0.6710526 0.1801170 0.5154724
0.7624953 0.2261926 0.5446953
0.8256464 0.2701739 0.5720000
0.0847966 0.1019379 0.4320712
0.0866383 0.1062719 0.4384878
0.1006129 0.1181319 0.4468286
0.2337405 0.1395825 0.4675393
0.4126307 0.1674803 0.4877860
0.5737932 0.1970217 0.5090811
0.6824214 0.2281650 0.5245922
0.7711290 0.2609818 0.5509508
0.8352655 0.3028725 0.5815632
0.0939203 0.1760126 0.4638595
0.0952330 0.1864144 0.4684330
0.0994521 0.1966758 0.4831330
0.2441774 0.2300377 0.4974674
0.4324448 0.2623990 0.5164350
0.6040694 0.2980442 0.5370244
0.7139613 0.3253149 0.5620391
0.8007764 0.3563422 0.5748193
0.8578058 0.3961877 0.6006312
0.1068745 0.2961499 0.5089936
0.1077518 0.3022463 0.5120504
0.1104769 0.3267489 0.5215449
0.2644681 0.3626139 0.5448990
0.4675941 0.3983374 0.5618426
0.6332386 0.4379981 0.5763275
0.7507663 0.4665641 0.5914539
0.8370715 0.4964125 0.6107497
0.8890510 0.5259606 0.6328497
0.1208780 0.4375562 0.5577838
0.1218321 0.4473612 0.5611081
0.1241259 0.4773065 0.5691000
0.2978569 0.5085825 0.5846338
0.5160544 0.5491096 0.5907807
0.6664319 0.5831070 0.6018009
0.7880293 0.6171434 0.6246319
0.8671285 0.6347759 0.6337380
0.9168995 0.6568308 0.6533179
0.1313629 0.5620695 0.5943147
0.1321440 0.5738226 0.5970361
0.1334879 0.5970591 0.6017187
0.3594525 0.6372792 0.6155192
0.5650497 0.6702074 0.6184365
0.7011977 0.6985111 0.6323444
0.8139573 0.7226694 0.6489599
0.8863795 0.7396378 0.6563838
0.9347953 0.7604544 0.6759353
0.1526358 0.6684327 0.6244718
0.1549251 0.6764088 0.6257178
0.2473144 0.7006589 0.6289143
0.4504398 0.7364341 0.6405380
0.6223547 0.7665154 0.6537610
0.7428144 0.7919808 0.6615328
0.8380067 0.8077874 0.6686540
0.9067504 0.8244871 0.6839328
0.9460747 0.8357107 0.6942989
0.1952865 0.7576848 0.6568333
0.2733312 0.7663559 0.6576865
0.4006955 0.7844706 0.6591104
0.5316948 0.8059392 0.6601292
0.6728110 0.8309094 0.6679590
0.7825645 0.8539118 0.6792971
0.8610989 0.8675146 0.6865679
0.9198146 0.8816512 0.7001814
0.9559242 0.8890644 0.7172926
0.4244547 0.8231199 0.6762422
0.4583442 0.8285687 0.6765116
0.5233692 0.8404443 0.6846370
0.6243560 0.8576787 0.6849566
0.7193215 0.8749064 0.6925314
0.8179380 0.8922589 0.6987709
0.8889429 0.9072798 0.7085924
0.9350587 0.9153975 0.7151039
0.9636368 0.9234564 0.7292887
0.1262466 0.1262466 0.5764890
0.1285825 0.1285825 0.5846274
0.1328861 0.1434909 0.5964091
0.2659546 0.1685760 0.6177964
0.4440520 0.2098534 0.6354453
0.5985634 0.2397953 0.6559148
0.7060525 0.2674641 0.6703831
0.7946984 0.3034424 0.6887023
0.8521899 0.3547709 0.7079753
0.1303432 0.1567141 0.5907620
0.1318021 0.1661756 0.5958450
0.1348848 0.1800876 0.6065857
0.2688884 0.2127498 0.6321263
0.4471713 0.2455145 0.6468085
0.6050727 0.2807696 0.6647276
0.7239049 0.3130559 0.6829808
0.8050948 0.3530583 0.7012414
0.8606095 0.3947989 0.7151784
0.1384206 0.2361044 0.6189048
0.1396135 0.2419382 0.6230611
0.1431384 0.2648765 0.6353424
0.2811396 0.2955230 0.6560934
0.4738118 0.3385691 0.6710548
0.6278245 0.3699463 0.6895370
0.7396429 0.4003669 0.7029136
0.8273777 0.4326246 0.7185186
0.8788877 0.4675405 0.7305016
0.1511278 0.3581173 0.6631784
0.1529723 0.3744301 0.6696050
0.1556702 0.3943600 0.6790048
0.2996367 0.4323695 0.6924917
0.4976640 0.4684930 0.7125112
0.6595306 0.5007776 0.7194421
0.7682746 0.5293704 0.7307523
0.8478258 0.5542058 0.7436060
0.8996648 0.5881309 0.7608265
0.1619744 0.4954073 0.7009698
0.1629905 0.5048100 0.7045097
0.1651973 0.5272147 0.7121987
0.3184254 0.5676640 0.7326292
0.5326596 0.5997913 0.7397799
0.6847029 0.6295711 0.7506143
0.7970964 0.6602099 0.7605944
0.8767425 0.6781776 0.7720383
0.9190637 0.6995122 0.7807199
0.1726407 0.6049197 0.7381325
0.1734417 0.6146532 0.7409233
0.1743526 0.6385922 0.7440969
0.3915205 0.6765276 0.7546793
0.5801499 0.7066016 0.7657760
0.7138968 0.7335113 0.7687438
0.8200023 0.7560379 0.7771102
0.8926025 0.7732546 0.7848755
0.9323483 0.7856622 0.8011003
0.1782608 0.7038271 0.7577137
0.1806483 0.7137849 0.7660322
0.2745994 0.7410907 0.7739289
0.4663947 0.7685759 0.7781824
0.6245713 0.7926697 0.7875941
0.7473856 0.8189679 0.7896863
0.8405446 0.8318551 0.7968661
0.9079668 0.8492091 0.8035890
0.9458361 0.8600805 0.8130682
0.2385390 0.7870625 0.7883894
0.3137053 0.7959279 0.7897683
0.4187627 0.8107935 0.7918400
0.5641077 0.8373475 0.7947198
0.6722874 0.8562244 0.8053683
0.7856236 0.8744836 0.8033602
0.8621976 0.8906096 0.8129715
0.9192640 0.9000360 0.8191906
0.9525495 0.9083784 0.8255611
0.4421050 0.8471302 0.8070846
0.4774105 0.8526509 0.8077086
0.5464724 0.8638242 0.8088413
0.6385556 0.8782127 0.8100306
0.7353835 0.8949951 0.8170385
0.8166156 0.9111355 0.8177057
0.8846194 0.9226723 0.8240484
0.9333696 0.9331278 0.8335624
0.9591763 0.9376199 0.8388982
0.1644671 0.2137768 0.7096545
0.1658054 0.2196926 0.7143173
0.1696566 0.2427833 0.7277353
0.3094081 0.2726359 0.7435846
0.4882267 0.3097678 0.7660633
0.6342614 0.3445430 0.7774444
0.7487196 0.3837310 0.7940318
0.8271888 0.4211629 0.8022144
0.8775401 0.4521206 0.8149189
0.1677259 0.2457610 0.7210087
0.1691843 0.2526332 0.7260899
0.1730716 0.2772693 0.7396337
0.3125619 0.3075052 0.7545947
0.5018505 0.3435973 0.7740116
0.6479556 0.3757049 0.7841766
0.7534620 0.4154872 0.8002606
0.8326041 0.4536529 0.8081959
0.8839794 0.4895175 0.8214869
0.1746088 0.3246956 0.7449897
0.1762134 0.3336552 0.7505804
0.1796324 0.3590237 0.7624925
0.3209676 0.3857661 0.7755918
0.5119061 0.4327893 0.7952268
0.6561779 0.4587431 0.8049502
0.7718917 0.4886927 0.8160822
0.8503164 0.5262603 0.8297112
0.8979885 0.5523705 0.8341107
0.1839461 0.4328893 0.7775221
0.1853047 0.4425160 0.7822558
0.1880187 0.4634639 0.7917117
0.3358284 0.4998702 0.8087013
0.5334122 0.5363178 0.8192788
0.6799351 0.5642021 0.8257614
0.7898912 0.5987706 0.8386055
0.8681626 0.6166202 0.8460320
0.9130392 0.6517624 0.8578071
0.1923090 0.5496586 0.8066597
0.1950630 0.5582621 0.8162549
0.1974759 0.5822068 0.8246617
0.3661093 0.6175996 0.8345001
0.5701514 0.6483983 0.8419961
0.7014735 0.6741838 0.8512064
0.8067751 0.6951991 0.8543398
0.8852801 0.7214478 0.8646083
0.9260038 0.7328657 0.8700979
0.2012420 0.6501578 0.8377836
0.2021758 0.6610435 0.8410369
0.2037483 0.6809542 0.8465158
0.4277786 0.7109138 0.8513489
0.5979498 0.7434658 0.8640732
0.7345324 0.7702861 0.8679031
0.8261171 0.7842181 0.8741321
0.8979586 0.8003001 0.8756948
0.9372970 0.8204537 0.8836310
0.2066581 0.7423438 0.8566540
0.2092347 0.7523355 0.8656311
0.3438655 0.7704037 0.8694908
0.4993586 0.7912483 0.8734998
0.6479298 0.8217643 0.8778051
0.7612884 0.8401601 0.8839358
0.8517972 0.8583502 0.8855768
0.9104961 0.8717923 0.8927175
0.9470884 0.8774788 0.8971633
0.3198546 0.8139910 0.8764635
0.3625567 0.8196294 0.8774835
0.4527361 0.8327569 0.8796965
0.5825524 0.8565909 0.8890258
0.6862173 0.8735316 0.8910697
0.7874097 0.8897516 0.8905689
0.8661447 0.9054565 0.8978949
0.9210897 0.9142744 0.9025385
0.9528756 0.9218694 0.9029688
0.4793394 0.8646561 0.8911860
0.5145035 0.8720613 0.8921636
0.5779332 0.8822908 0.8935147
0.6534470 0.8947002 0.8949596
0.7380948 0.9090186 0.9004601
0.8215176 0.9225811 0.9015196
0.8870338 0.9354724 0.9086001
0.9312442 0.9423747 0.9089155
0.9591343 0.9488822 0.9124821
0.1924307 0.3394091 0.8070837
0.1937274 0.3467363 0.8116016
0.1965526 0.3639317 0.8214450
0.3601942 0.3968318 0.8396593
0.5361257 0.4294609 0.8519279
0.6741993 0.4679474 0.8624663
0.7795781 0.4975187 0.8732584
0.8567622 0.5262595 0.8791410
0.9003924 0.5565773 0.8884074
0.1943302 0.3594609 0.8137018
0.1961872 0.3749951 0.8201718
0.1990064 0.3931058 0.8299943
0.3700409 0.4280525 0.8469727
0.5358694 0.4599336 0.8581590
0.6755230 0.4863223 0.8659891
0.7819574 0.5187408 0.8771010
0.8591377 0.5439382 0.8821819
0.9033578 0.5778461 0.8918957
0.1993875 0.4232090 0.8313221
0.2007796 0.4325337 0.8361725
0.2044297 0.4581687 0.8488899
0.3689499 0.4854115 0.8603659
0.5491419 0.5191107 0.8711606
0.6893485 0.5455306 0.8781992
0.7970043 0.5790420 0.8888167
0.8665611 0.6040540 0.8932912
0.9129335 0.6313742 0.9015445
0.2071195 0.5154932 0.8582614
0.2080295 0.5256400 0.8614320
0.2103109 0.5455706 0.8693809
0.3953989 0.5815864 0.8819837
0.5714622 0.6077571 0.8883867
0.6997415 0.6335403 0.8940790
0.8130882 0.6682375 0.9039545
0.8810718 0.6843183 0.9064821
0.9220883 0.7024466 0.9129685
0.2132843 0.6071165 0.8797405
0.2143156 0.6172960 0.8833336
0.2249861 0.6381964 0.8901589
0.4361964 0.6665875 0.8982609
0.5998991 0.6975085 0.9051242
0.7203496 0.7216669 0.9121555
0.8256844 0.7430182 0.9167832
0.8935868 0.7588843 0.9214644
0.9319695 0.7705529 0.9228741
0.2191332 0.6959233 0.9001190
0.2198758 0.7049974 0.9027063
0.3155674 0.7243965 0.9078351
0.4782026 0.7531128 0.9140093
0.6309860 0.7772608 0.9213313
0.7520853 0.8011885 0.9249675
0.8429025 0.8148116 0.9267505
0.9031488 0.8289140 0.9306599
0.9408654 0.8424204 0.9353579
0.2245325 0.7752897 0.9189308
0.2786293 0.7814561 0.9203603
0.4079514 0.7983992 0.9229636
0.5433979 0.8233657 0.9284899
0.6646941 0.8428268 0.9316112
0.7782606 0.8608189 0.9328833
0.8581025 0.8776332 0.9379739
0.9147939 0.8903324 0.9391236
0.9463814 0.8951709 0.9417337
0.3911993 0.8378766 0.9298065
0.4285663 0.8432596 0.9308113
0.5214970 0.8574988 0.9332880
0.6194412 0.8732459 0.9357115
0.7181539 0.8894829 0.9400597
0.8056347 0.9035454 0.9416075
0.8802910 0.9179158 0.9428952
0.9241391 0.9249191 0.9468021
0.9545627 0.9318932 0.9473047
0.5298972 0.8817850 0.9403796
0.5604859 0.8866727 0.9411262
0.6157085 0.8956273 0.9424117
0.6796044 0.9078507 0.9439474
0.7593836 0.9209022 0.9454236
0.8375376 0.9335141 0.9466076
0.8967787 0.9430656 0.9496098
0.9341613 0.9505214 0.9501241
0.9606659 0.9548424 0.9535974
0.2107707 0.4519266 0.8709828
0.2118974 0.4639341 0.8749086
0.2442490 0.4831596 0.8836628
0.4229760 0.5084742 0.8938881
0.5835108 0.5393981 0.9050720
0.7091439 0.5767234 0.9137380
0.8074546 0.5973714 0.9182801
0.8747810 0.6228285 0.9251409
0.9161892 0.6496358 0.9294619
0.2123129 0.4769826 0.8763560
0.2133239 0.4845128 0.8798784
0.2534756 0.5044154 0.8885496
0.4177618 0.5358045 0.8991659
0.5829012 0.5597751 0.9087935
0.7100081 0.5982450 0.9181503
0.8093085 0.6195928 0.9226466
0.8770902 0.6451372 0.9286016
0.9184318 0.6698063 0.9332225
0.2158876 0.5274347 0.8888108
0.2167559 0.5345733 0.8918361
0.2391641 0.5532529 0.8992548
0.4351008 0.5879428 0.9101971
0.5948525 0.6116518 0.9187973
0.7189171 0.6367097 0.9245200
0.8208066 0.6658449 0.9298650
0.8872309 0.6857922 0.9354223
0.9253755 0.7035347 0.9380393
0.2199652 0.5877665 0.9030178
0.2208293 0.5958591 0.9060283
0.2808309 0.6218256 0.9139946
0.4523788 0.6462019 0.9229077
0.6161109 0.6774091 0.9304056
0.7320238 0.7034283 0.9354736
0.8297921 0.7230859 0.9396291
0.8915199 0.7374675 0.9433361
0.9296006 0.7485892 0.9448571
0.2246924 0.6652981 0.9194882
0.2261191 0.6741106 0.9244589
0.3297288 0.6927581 0.9299241
0.4853713 0.7154646 0.9358528
0.6327334 0.7447836 0.9418853
0.7515738 0.7628205 0.9452780
0.8409937 0.7817497 0.9480969
0.9007369 0.7990270 0.9518854
0.9380404 0.8101127 0.9531978
0.2298733 0.7460553 0.9375392
0.2739848 0.7519986 0.9390731
0.4017319 0.7687744 0.9431387
0.5349966 0.7890403 0.9475221
0.6706156 0.8082623 0.9512351
0.7698516 0.8305057 0.9544622
0.8565732 0.8483794 0.9590905
0.9124749 0.8565593 0.9592034
0.9451969 0.8660759 0.9625132
0.3576070 0.8109428 0.9498556
0.3979450 0.8165159 0.9510459
0.4903276 0.8302783 0.9538100
0.5972406 0.8471352 0.9560667
0.6960938 0.8630421 0.9585601
0.7942528 0.8823090 0.9634141
0.8711218 0.8942405 0.9647388
0.9195419 0.9051299 0.9657803
0.9528385 0.9137683 0.9678929
0.4817322 0.8594561 0.9580039
0.5174863 0.8650079 0.9589899
0.5800201 0.8749597 0.9606564
0.6495298 0.8863356 0.9639161
0.7386579 0.9031368 0.9661205
0.8210648 0.9163495 0.9676363
0.8838680 0.9262130 0.9685888
0.9280476 0.9355312 0.9712171
0.9571832 0.9423537 0.9717568
0.5881605 0.8972755 0.9652568
0.6130612 0.9013143 0.9658607
0.6467371 0.9068056 0.9666473
0.7141382 0.9195041 0.9688715
0.7853261 0.9310443 0.9696010
0.8514248 0.9416533 0.9706502
0.9023133 0.9498187 0.9731779
0.9401261 0.9573472 0.9737554
0.9627475 0.9609114 0.9752236
