data/spectral_luts/portra_800_endura_premier.cube
TITLE "portra_800_endura_premier"
LUT_3D_SIZE 33
0.0404863 0.0618868 0.0732694
0.0404863 0.0618868 0.0732694
0.0403799 0.0618720 0.0732661
0.0406972 0.0619163 0.0732759
0.0424793 0.0621662 0.0733311
0.0465440 0.0627380 0.0734533
0.0533083 0.0636927 0.0736450
0.0638481 0.0651776 0.0739117
0.0774002 0.0670096 0.0741528
0.0993959 0.0699594 0.0744561
0.1289887 0.0736864 0.0745721
0.1585246 0.0770260 0.0744262
0.1931315 0.0805432 0.0738794
0.2252862 0.0834219 0.0730773
0.2686726 0.0864767 0.0714769
0.3135481 0.0887283 0.0692673
0.3553770 0.0903523 0.0667439
0.3959329 0.0909190 0.0744244
0.4314854 0.0914317 0.0846285
0.4752205 0.0971811 0.0971811
0.5125168 0.1078857 0.1078857
0.5433541 0.1167364 0.1167364
0.5739237 0.1255104 0.1255104
0.5944921 0.1314138 0.1314138
0.6261542 0.1405013 0.1405013
0.6470363 0.1464948 0.1464948
0.6746207 0.1544119 0.1544119
0.6946610 0.1601637 0.1601637
0.7152517 0.1660736 0.1660736
0.7329494 0.1711531 0.1711531
0.7504694 0.1761816 0.1761816
0.7647671 0.1802852 0.1802852
0.7761503 0.1835524 0.1835524
0.0404863 0.0618868 0.0732694
0.0404863 0.0618868 0.0732694
0.0403799 0.0618720 0.0732661
0.0406972 0.0619163 0.0732759
0.0424793 0.0621662 0.0733311
0.0467927 0.0627731 0.0734607
0.0533083 0.0636927 0.0736450
0.0638481 0.0651776 0.0739117
0.0773967 0.0671095 0.0742006
0.0994048 0.0701109 0.0745112
0.1290246 0.0739322 0.0746388
0.1586155 0.0774528 0.0744790
0.1955197 0.0813024 0.0739330
0.2281484 0.0842441 0.0730904
0.2689598 0.0873435 0.0715457
0.3139378 0.0898351 0.0694271
0.3557354 0.0913340 0.0669065
0.3999310 0.0923194 0.0755719
0.4322725 0.0935378 0.0848544
0.4758595 0.0973645 0.0973645
0.5133181 0.1081156 0.1081156
0.5447593 0.1171397 0.1171397
0.5748064 0.1257637 0.1257637
0.5960442 0.1318593 0.1318593
0.6271987 0.1408011 0.1408011
0.6481999 0.1468287 0.1468287
0.6767759 0.1550304 0.1550304
0.6962170 0.1606103 0.1606103
0.7162396 0.1663571 0.1663571
0.7345449 0.1716110 0.1716110
0.7515698 0.1764974 0.1764974
0.7689464 0.1814847 0.1814847
0.7779292 0.1840629 0.1840629
0.0404863 0.0618868 0.0732694
0.0404764 0.0619325 0.0732772
0.0403697 0.0619177 0.0732739
0.0406873 0.0619620 0.0732838
0.0424607 0.0622578 0.0733467
0.0467770 0.0628652 0.0734762
0.0532889 0.0638459 0.0736704
0.0638333 0.0654010 0.0739478
0.0781946 0.0676071 0.0742753
0.0994426 0.0706026 0.0745835
0.1291144 0.0745279 0.0747527
0.1587510 0.0781185 0.0746477
0.1957196 0.0820686 0.0740654
0.2284638 0.0853084 0.0732424
0.2693150 0.0884371 0.0717719
0.3143891 0.0911185 0.0695964
0.3564568 0.0933042 0.0671221
0.4006723 0.0943003 0.0757847
0.4331037 0.0957491 0.0850929
0.4771681 0.0977401 0.0977401
0.5149738 0.1085908 0.1085908
0.5488939 0.1183264 0.1183264
0.5767561 0.1263233 0.1263233
0.6002538 0.1330675 0.1330675
0.6287504 0.1412464 0.1412464
0.6528468 0.1481624 0.1481624
0.6785401 0.1555368 0.1555368
0.7007332 0.1619066 0.1619066
0.7186730 0.1670555 0.1670555
0.7371687 0.1723641 0.1723641
0.7542388 0.1772635 0.1772635
0.7705830 0.1819545 0.1819545
0.7838389 0.1857591 0.1857591
0.0403591 0.0624402 0.0733950
0.0403591 0.0624402 0.0733950
0.0402516 0.0624254 0.0733917
0.0406770 0.0625531 0.0734166
0.0423346 0.0628543 0.0734791
0.0466455 0.0636042 0.0736316
0.0531860 0.0646139 0.0738288
0.0637693 0.0662801 0.0741210
0.0798406 0.0687799 0.0744821
0.0995119 0.0716113 0.0748007
0.1292969 0.0757374 0.0749527
0.1590449 0.0795306 0.0748679
0.1961175 0.0836038 0.0743288
0.2289605 0.0869977 0.0735025
0.2700084 0.0905698 0.0721112
0.3152401 0.0935491 0.0699237
0.3573814 0.0958446 0.0674891
0.4019081 0.0976205 0.0761393
0.4382255 0.1000845 0.0865630
0.4829657 0.1018473 0.0994041
0.5172150 0.1092341 0.1092341
0.5511725 0.1189804 0.1189804
0.5785345 0.1268337 0.1268337
0.6076549 0.1351917 0.1351917
0.6305867 0.1417735 0.1417735
0.6552418 0.1488499 0.1488499
0.6816681 0.1564346 0.1564346
0.7031541 0.1626014 0.1626014
0.7223145 0.1681007 0.1681007
0.7393095 0.1729785 0.1729785
0.7586738 0.1785364 0.1785364
0.7750784 0.1832447 0.1832447
0.7887588 0.1871712 0.1871712
0.0400304 0.0638277 0.0737091
0.0399223 0.0638127 0.0737058
0.0399223 0.0638127 0.0737058
0.0403481 0.0639683 0.0737350
0.0422076 0.0644229 0.0738236
0.0469307 0.0651865 0.0739772
0.0537729 0.0662541 0.0741797
0.0636360 0.0679649 0.0744699
0.0798332 0.0706171 0.0748438
0.0996609 0.0738347 0.0752129
0.1296349 0.0780687 0.0754011
0.1595914 0.0822040 0.0752836
0.1968600 0.0864967 0.0747804
0.2298559 0.0900751 0.0739696
0.2712264 0.0943442 0.0726554
0.3166592 0.0976294 0.0704511
0.3593209 0.1011889 0.0680886
0.4041764 0.1036874 0.0767904
0.4405435 0.1062418 0.0872283
0.4854247 0.1083630 0.1001099
0.5192627 0.1098218 0.1098218
0.5535471 0.1196620 0.1196620
0.5831921 0.1281705 0.1281705
0.6107438 0.1360783 0.1360783
0.6368030 0.1435577 0.1435577
0.6596786 0.1501233 0.1501233
0.6875256 0.1581158 0.1581158
0.7082860 0.1640743 0.1640743
0.7265118 0.1693054 0.1693054
0.7435629 0.1741993 0.1741993
0.7649149 0.1803276 0.1803276
0.7817764 0.1851671 0.1851671
0.7946118 0.2000825 0.1888511
0.0393545 0.0665878 0.0742558
0.0392450 0.0665725 0.0742526
0.0392450 0.0665725 0.0742526
0.0397751 0.0669628 0.0743204
0.0417528 0.0673984 0.0744034
0.0460818 0.0680110 0.0745248
0.0533259 0.0693615 0.0747661
0.0646488 0.0713785 0.0750900
0.0797882 0.0743401 0.0755333
0.1024904 0.0778850 0.0758425
0.1319188 0.0821253 0.0759798
0.1669789 0.0871399 0.0758585
0.1982484 0.0919906 0.0754283
0.2399811 0.0970958 0.0745135
0.2765490 0.1012512 0.0732085
0.3227582 0.1057952 0.0709897
0.3657328 0.1088437 0.0684067
0.4104673 0.1111850 0.0785960
0.4432415 0.1134639 0.0880027
0.4879792 0.1151518 0.1008430
0.5257190 0.1171029 0.1116749
0.5564553 0.1204967 0.1204967
0.5882789 0.1296305 0.1296305
0.6185252 0.1383117 0.1383117
0.6422427 0.1451189 0.1451189
0.6640446 0.1513764 0.1513764
0.6926216 0.1595784 0.1595784
0.7119681 0.1651311 0.1651311
0.7347566 0.1716718 0.1716718
0.7536411 0.1770919 0.1770919
0.7720146 0.1889554 0.1823654
0.7898085 0.2053436 0.1874725
0.8020131 0.2205869 0.1909754
0.0378700 0.0717525 0.0751732
0.0377582 0.0717365 0.0751700
0.0377018 0.0723293 0.0753080
0.0384796 0.0724403 0.0753295
0.0408682 0.0727757 0.0753932
0.0454279 0.0740472 0.0756074
0.0527596 0.0757281 0.0758783
0.0640985 0.0770563 0.0760723
0.0796397 0.0802590 0.0764657
0.1028499 0.0842051 0.0768203
0.1364951 0.0899623 0.0769849
0.1684546 0.0944954 0.0768161
0.1998440 0.0985871 0.0763729
0.2419267 0.1038956 0.0752882
0.2786358 0.1079028 0.0739338
0.3249798 0.1123391 0.0716454
0.3680941 0.1154698 0.0690501
0.4136083 0.1197083 0.0794975
0.4467544 0.1228439 0.0890109
0.4924689 0.1270430 0.1021316
0.5304038 0.1294850 0.1130195
0.5651174 0.1339575 0.1229828
0.5935358 0.1390562 0.1311393
0.6245559 0.1440767 0.1400426
0.6480709 0.1485069 0.1467917
0.6784730 0.1555175 0.1555175
0.7000772 0.1636944 0.1617183
0.7212468 0.1749088 0.1677943
0.7443389 0.1887785 0.1744220
0.7645378 0.2043473 0.1802194
0.7800290 0.2110560 0.1846656
0.7967448 0.2244128 0.1894633
0.8086710 0.2391134 0.1928863
0.0357769 0.0783452 0.0763114
0.0357769 0.0783452 0.0763114
0.0358920 0.0783620 0.0763144
0.0364108 0.0793702 0.0764660
0.0391159 0.0797571 0.0765323
0.0442664 0.0801737 0.0766067
0.0515177 0.0821556 0.0768981
0.0632747 0.0838763 0.0771225
0.0813381 0.0871784 0.0775136
0.1031252 0.0909944 0.0778039
0.1373405 0.0966145 0.0779729
0.1698157 0.1017793 0.0778511
0.2084896 0.1077818 0.0772054
0.2443029 0.1124994 0.0762682
0.2879444 0.1173762 0.0744999
0.3289135 0.1241778 0.0725558
0.3728977 0.1291545 0.0697527
0.4183550 0.1327518 0.0808598
0.4633709 0.1388522 0.0937801
0.5021437 0.1425228 0.1049085
0.5374650 0.1482441 0.1150462
0.5713093 0.1504053 0.1247600
0.6027530 0.1560304 0.1337848
0.6324597 0.1651393 0.1423111
0.6586911 0.1690206 0.1498399
0.6882560 0.1800231 0.1583254
0.7140948 0.1944596 0.1657415
0.7341211 0.2035976 0.1714894
0.7548013 0.2170468 0.1774249
0.7731841 0.2278686 0.1827010
0.7893661 0.2366421 0.1873455
0.8080531 0.2521722 0.1927090
0.8193552 0.2651155 0.1959528
0.0323461 0.0882878 0.0778044
0.0323461 0.0882878 0.0778044
0.0324660 0.0883059 0.0778071
0.0334663 0.0884558 0.0778300
0.0365668 0.0882697 0.0778118
0.0418449 0.0909442 0.0781712
0.0502654 0.0921531 0.0783230
0.0630462 0.0953585 0.0787591
0.0806297 0.0980214 0.0790331
0.1033171 0.1027937 0.0794431
0.1385919 0.1079528 0.0794189
0.1719226 0.1139613 0.0791416
0.2115232 0.1212339 0.0785271
0.2481098 0.1269768 0.0775348
0.2960773 0.1342257 0.0755257
0.3337137 0.1391603 0.0734812
0.3783093 0.1450976 0.0706008
0.4243461 0.1496689 0.0825794
0.4691156 0.1546398 0.0954289
0.5094429 0.1623149 0.1070034
0.5486962 0.1688103 0.1182697
0.5798869 0.1732914 0.1272219
0.6136907 0.1851929 0.1369241
0.6462195 0.1936619 0.1462603
0.6731647 0.2077623 0.1539940
0.7005269 0.2130654 0.1618473
0.7238719 0.2207967 0.1685477
0.7452863 0.2339255 0.1746939
0.7632343 0.2402559 0.1798453
0.7851980 0.2553828 0.1861492
0.8003086 0.2620687 0.1904862
0.8176693 0.2792239 0.1954689
0.8305408 0.2975040 0.1991633
0.0275010 0.1001341 0.0794554
0.0275010 0.1001341 0.0794554
0.0268198 0.1022654 0.0797061
0.0281058 0.1024650 0.0797302
0.0313188 0.1029519 0.0797873
0.0374439 0.1038556 0.0799642
0.0471116 0.1067359 0.0803395
0.0620042 0.1089279 0.0805027
0.0825496 0.1121075 0.0808025
0.1083423 0.1176760 0.0810985
0.1398498 0.1224895 0.0808757
0.1741929 0.1291305 0.0806952
0.2151030 0.1387351 0.0798923
0.2521209 0.1433757 0.0786278
0.3010273 0.1517182 0.0762776
0.3436641 0.1605385 0.0737871
0.3894818 0.1678045 0.0725728
0.4375132 0.1776700 0.0863585
0.4835374 0.1850678 0.0995682
0.5209407 0.1943900 0.1103035
0.5605230 0.2013043 0.1216642
0.5931106 0.2093801 0.1310173
0.6246278 0.2149691 0.1400632
0.6586695 0.2274673 0.1498337
0.6834793 0.2360651 0.1569544
0.7140890 0.2426137 0.1657399
0.7341442 0.2490969 0.1714960
0.7561938 0.2642996 0.1778246
0.7776282 0.2744060 0.1839766
0.7948215 0.2823860 0.1889113
0.8136493 0.3003947 0.1943151
0.8279502 0.3092980 0.1984197
0.8386725 0.3214113 0.2014972
0.0182549 0.1186571 0.0816754
0.0182549 0.1186571 0.0816754
0.0186597 0.1187228 0.0816812
0.0186001 0.1220067 0.0819859
0.0222344 0.1226006 0.0821123
0.0290913 0.1236305 0.0821851
0.0403690 0.1252185 0.0823592
0.0557993 0.1308547 0.0827929
0.0778770 0.1342560 0.0829825
0.1074167 0.1390324 0.0830332
0.1467701 0.1507925 0.0828673
0.1849601 0.1568783 0.0822017
0.2198611 0.1659657 0.0813433
0.2582560 0.1714117 0.0796940
0.3092581 0.1835903 0.0766601
0.3526157 0.1922437 0.0740072
0.4001323 0.2027965 0.0756297
0.4471075 0.2074412 0.0891122
0.4936677 0.2152992 0.1024757
0.5312482 0.2245736 0.1132619
0.5711883 0.2319708 0.1247253
0.6074347 0.2414554 0.1351285
0.6364278 0.2482911 0.1434499
0.6695154 0.2580571 0.1529466
0.6938881 0.2653489 0.1599419
0.7260203 0.2760280 0.1691643
0.7464658 0.2836830 0.1750325
0.7715046 0.3013200 0.1822190
0.7898828 0.3099027 0.1874938
0.8084734 0.3222023 0.1928296
0.8241266 0.3311042 0.1973223
0.8397590 0.3443098 0.2018090
0.8518416 0.3620261 0.2052769
0.0123151 0.1476147 0.0841848
0.0123151 0.1476147 0.0841848
0.0123267 0.1476945 0.0841877
0.0123758 0.1480307 0.0842832
0.0122689 0.1472975 0.0842184
0.0147289 0.1484373 0.0843325
0.0280406 0.1503903 0.0844647
0.0466492 0.1576713 0.0847795
0.0752786 0.1619036 0.0848441
0.1086205 0.1673973 0.0847529
0.1469871 0.1773996 0.0841074
0.1874333 0.1842996 0.0831597
0.2237762 0.1938981 0.0817481
0.2732976 0.2015746 0.0791229
0.3160705 0.2136580 0.0764400
0.3671438 0.2205438 0.0724639
0.4158944 0.2307778 0.0801536
0.4575544 0.2423487 0.0921106
0.5037268 0.2472153 0.1053628
0.5463794 0.2588845 0.1176047
0.5829645 0.2676067 0.1281052
0.6200181 0.2790865 0.1387401
0.6526101 0.2876888 0.1480945
0.6804228 0.2902542 0.1560772
0.7091097 0.3018453 0.1643107
0.7377858 0.3104706 0.1725412
0.7623479 0.3227564 0.1795909
0.7817110 0.3317343 0.1851484
0.8014589 0.3448158 0.1908163
0.8190873 0.3540235 0.1958759
0.8367447 0.3645691 0.2009439
0.8544490 0.3859617 0.2060253
0.8652615 0.3999223 0.2091286
0.0156027 0.1686085 0.0855983
0.0156027 0.1686085 0.0855983
0.0156092 0.1686474 0.0855983
0.0162970 0.1727024 0.0858390
0.0164573 0.1736325 0.0859476
0.0166902 0.1749751 0.0859228
0.0170766 0.1771788 0.0860975
0.0352596 0.1804552 0.0861830
0.0671237 0.1847527 0.0861066
0.1039132 0.1947567 0.0856864
0.1503000 0.2028367 0.0845198
0.1887916 0.2118337 0.0833331
0.2348849 0.2241750 0.0807663
0.2782142 0.2315298 0.0786172
0.3223619 0.2455438 0.0750694
0.3787894 0.2540085 0.0700060
0.4292147 0.2659396 0.0839768
0.4773975 0.2721852 0.0978059
0.5147671 0.2847959 0.1085315
0.5574561 0.2953977 0.1207839
0.6054437 0.3034061 0.1345571
0.6305540 0.3122770 0.1417641
0.6646577 0.3252576 0.1515524
0.6982754 0.3353956 0.1612011
0.7209257 0.3381878 0.1677021
0.7537887 0.3521281 0.1771343
0.7749365 0.3615727 0.1832040
0.7955884 0.3747300 0.1891314
0.8143025 0.3846158 0.1945026
0.8354285 0.3988827 0.2005661
0.8509122 0.4102100 0.2050101
0.8650605 0.4202736 0.2090709
0.8757122 0.4356390 0.2121281
0.0213528 0.1998364 0.0867848
0.0213528 0.1998364 0.0867848
0.0213528 0.1998364 0.0867848
0.0214625 0.2003812 0.0868824
0.0216811 0.2014618 0.0869482
0.0219927 0.2029914 0.0869785
0.0225209 0.2055553 0.0869239
0.0233068 0.2093056 0.0868926
0.0533330 0.2187250 0.0866605
0.1038970 0.2263289 0.0856815
0.1476198 0.2340146 0.0842244
0.1946827 0.2427694 0.0824648
0.2374510 0.2581694 0.0795979
0.2828017 0.2663826 0.0764844
0.3393066 0.2814195 0.0708882
0.3867584 0.2919570 0.0717911
0.4372298 0.2996061 0.0862772
0.4879676 0.3127618 0.1008397
0.5237074 0.3177487 0.1110976
0.5767553 0.3337681 0.1263231
0.6177964 0.3453387 0.1381025
0.6522216 0.3528356 0.1479830
0.6758257 0.3625836 0.1547577
0.7098573 0.3732224 0.1645253
0.7338411 0.3802859 0.1714090
0.7659327 0.3915146 0.1806198
0.7883160 0.4050206 0.1870441
0.8079391 0.4157741 0.1926762
0.8267530 0.4187849 0.1980761
0.8456536 0.4339814 0.2035008
0.8612044 0.4445010 0.2079642
0.8763294 0.4603096 0.2123052
0.8856899 0.4701923 0.2149918
0.0282565 0.2313882 0.0870709
0.0282565 0.2313882 0.0870709
0.0282565 0.2313882 0.0870709
0.0283940 0.2319680 0.0871795
0.0286998 0.2332514 0.0872115
0.0291688 0.2352049 0.0871575
0.0292555 0.2355641 0.0870862
0.0309749 0.2425611 0.0866467
0.0392164 0.2483355 0.0859689
0.0936801 0.2557474 0.0851011
0.1499866 0.2707321 0.0822347
0.1965099 0.2796464 0.0799949
0.2386015 0.2877791 0.0771694
0.2864899 0.3051824 0.0722310
0.3444029 0.3159349 0.0661444
0.3927387 0.3243537 0.0735076
0.4456129 0.3391564 0.0886833
0.4967844 0.3503481 0.1033702
0.5390435 0.3630025 0.1154992
0.5908012 0.3705007 0.1303544
0.6287979 0.3855815 0.1412600
0.6627791 0.3906480 0.1510132
0.6866703 0.4006981 0.1578703
0.7200218 0.4090698 0.1674426
0.7544293 0.4213048 0.1773181
0.7788010 0.4356745 0.1843132
0.7980411 0.4393537 0.1898354
0.8200570 0.4498902 0.1961542
0.8395200 0.4642290 0.2017404
0.8551888 0.4680223 0.2062376
0.8705753 0.4783521 0.2106537
0.8854482 0.4944046 0.2149225
0.8947230 0.5042931 0.2175845
0.0349949 0.2580815 0.0870315
0.0349949 0.2580815 0.0870315
0.0349949 0.2580815 0.0870315
0.0351004 0.2584744 0.0869747
0.0354849 0.2599006 0.0870156
0.0360541 0.2619959 0.0869420
0.0369304 0.2651836 0.0866575
0.0397792 0.2752522 0.0857342
0.0416719 0.2818184 0.0844578
0.0882243 0.2908155 0.0827371
0.1436508 0.3001633 0.0804328
0.2001539 0.3139292 0.0769936
0.2480221 0.3291095 0.0716297
0.3001069 0.3394200 0.0656757
0.3483273 0.3488922 0.0609230
0.3980378 0.3581586 0.0750285
0.4527155 0.3771685 0.0907218
0.5043899 0.3859515 0.1055531
0.5565301 0.4040834 0.1205181
0.6007824 0.4109393 0.1332192
0.6407741 0.4174125 0.1446974
0.6727912 0.4284594 0.1538868
0.7053684 0.4369867 0.1632369
0.7303343 0.4480785 0.1704025
0.7659569 0.4633888 0.1806267
0.7872800 0.4675721 0.1867467
0.8114374 0.4788850 0.1936803
0.8288701 0.4823474 0.1986837
0.8481508 0.4974748 0.2042176
0.8658803 0.5080581 0.2093062
0.8792663 0.5118101 0.2131482
0.8954496 0.5280817 0.2177930
0.9077052 0.5384738 0.2213106
0.0427836 0.2856920 0.0861979
0.0427836 0.2856920 0.0861979
0.0427836 0.2856920 0.0861979
0.0428124 0.2857922 0.0861789
0.0432721 0.2873940 0.0861411
0.0439919 0.2899020 0.0861835
0.0464346 0.2984127 0.0850634
0.0479768 0.3037856 0.0843922
0.0505758 0.3128410 0.0832300
0.0766768 0.3236957 0.0798450
0.1404361 0.3338036 0.0767392
0.1965159 0.3444867 0.0725085
0.2469786 0.3602681 0.0663547
0.3014256 0.3713714 0.0673749
0.3642318 0.3870060 0.0718622
0.4162058 0.3970171 0.0802430
0.4726436 0.4134061 0.0964415
0.5109152 0.4207459 0.1074260
0.5625554 0.4326375 0.1222475
0.6086655 0.4467757 0.1354818
0.6493430 0.4535545 0.1471568
0.6824422 0.4683332 0.1566568
0.7145311 0.4744504 0.1658667
0.7380648 0.4787140 0.1726213
0.7737408 0.4947397 0.1828608
0.7952917 0.4989555 0.1890462
0.8195497 0.5106066 0.1960086
0.8397645 0.5261372 0.2018106
0.8564645 0.5306457 0.2066037
0.8764851 0.5424413 0.2123499
0.8906525 0.5502077 0.2164162
0.9039971 0.5631397 0.2202463
0.9163151 0.5741766 0.2237817
0.0511428 0.3148167 0.0854068
0.0511428 0.3148167 0.0854068
0.0511428 0.3148167 0.0854068
0.0511428 0.3148167 0.0854068
0.0515198 0.3161300 0.0847317
0.0524179 0.3192593 0.0846627
0.0536477 0.3235440 0.0838704
0.0553421 0.3294474 0.0828685
0.0588642 0.3417192 0.0806869
0.0686977 0.3539632 0.0765589
0.1291953 0.3628632 0.0736388
0.2023212 0.3764712 0.0688386
0.2523712 0.3868819 0.0718266
0.3015284 0.3999020 0.0755636
0.3666380 0.4189900 0.0810421
0.4199675 0.4299081 0.0841758
0.4766918 0.4408776 0.0976034
0.5303779 0.4599881 0.1130121
0.5736592 0.4681711 0.1254345
0.6146392 0.4760406 0.1371963
0.6580322 0.4934542 0.1496508
0.6927913 0.4997548 0.1596271
0.7216360 0.5059549 0.1679060
0.7515179 0.5215770 0.1764825
0.7815198 0.5272303 0.1850935
0.8078468 0.5398898 0.1926498
0.8275161 0.5452833 0.1982951
0.8555381 0.5613950 0.2063378
0.8716305 0.5662750 0.2109566
0.8844680 0.5768663 0.2146412
0.8985499 0.5845074 0.2186829
0.9116648 0.5965718 0.2224470
0.9220499 0.6000370 0.2254277
0.0590173 0.3422524 0.0836008
0.0590173 0.3422524 0.0836008
0.0590173 0.3422524 0.0836008
0.0590173 0.3422524 0.0836008
0.0595004 0.3439358 0.0835420
0.0602329 0.3464878 0.0827700
0.0616365 0.3513780 0.0820902
0.0634868 0.3578249 0.0802760
0.0658495 0.3660567 0.0789477
0.0692405 0.3778715 0.0739507
0.1314731 0.3897078 0.0726377
0.1958304 0.4072918 0.0776846
0.2491228 0.4212005 0.0816766
0.3142123 0.4351574 0.0856824
0.3678826 0.4466031 0.0889675
0.4225415 0.4581296 0.0922758
0.4816436 0.4797505 0.0990246
0.5348233 0.4904766 0.1142880
0.5788057 0.4991973 0.1269116
0.6204519 0.5073687 0.1388647
0.6641740 0.5247817 0.1514135
0.6992497 0.5318945 0.1614808
0.7286059 0.5376872 0.1699064
0.7653834 0.5545854 0.1804621
0.7916668 0.5601568 0.1880058
0.8146570 0.5721073 0.1946044
0.8426263 0.5781749 0.2026320
0.8625611 0.5928574 0.2083535
0.8786582 0.5983471 0.2129736
0.8935388 0.6043468 0.2172446
0.9050325 0.6163585 0.2205435
0.9167189 0.6206948 0.2238976
0.9297657 0.6302760 0.2276423
0.0659498 0.3664064 0.0827336
0.0659498 0.3664064 0.0827336
0.0659498 0.3664064 0.0827336
0.0659498 0.3664064 0.0827336
0.0662649 0.3675041 0.0823666
0.0671562 0.3706097 0.0818147
0.0686577 0.3758409 0.0798835
0.0706487 0.3827778 0.0781742
0.0746518 0.3967251 0.0749713
0.0781496 0.4089119 0.0781496
0.1319575 0.4223495 0.0820063
0.1965388 0.4370434 0.0862237
0.2588185 0.4495472 0.0898125
0.3131119 0.4614865 0.0932392
0.3776271 0.4756971 0.0973179
0.4346310 0.4933128 0.1023738
0.4844522 0.5069339 0.1062833
0.5384965 0.5182956 0.1153422
0.5830804 0.5276201 0.1281385
0.6390272 0.5446088 0.1441960
0.6801125 0.5555429 0.1559881
0.7047282 0.5612656 0.1630532
0.7388124 0.5733333 0.1728359
0.7705386 0.5800987 0.1819417
0.7973546 0.5896512 0.1896383
0.8200936 0.6010544 0.1961647
0.8482654 0.6075076 0.2042505
0.8663964 0.6155266 0.2094543
0.8838121 0.6269203 0.2144529
0.9011133 0.6316899 0.2194186
0.9098976 0.6406735 0.2219398
0.9237614 0.6480962 0.2259189
0.9351090 0.6572919 0.2291759
0.0723833 0.3888215 0.0816711
0.0723833 0.3888215 0.0816711
0.0723833 0.3888215 0.0816711
0.0723833 0.3888215 0.0816711
0.0725148 0.3892795 0.0814995
0.0735994 0.3930586 0.0806018
0.0761244 0.4018559 0.0775004
0.0782930 0.4094118 0.0782930
0.0811829 0.4194804 0.0811829
0.0851132 0.4331744 0.0851132
0.1157460 0.4472674 0.0891581
0.1891674 0.4596694 0.0927177
0.2547401 0.4729193 0.0965206
0.3206869 0.4876149 0.1007385
0.3776751 0.5000575 0.1043097
0.4404601 0.5186929 0.1096583
0.4997007 0.5341742 0.1141017
0.5409068 0.5433934 0.1167477
0.6002266 0.5558439 0.1330597
0.6426410 0.5691516 0.1452332
0.6834896 0.5780224 0.1569574
0.7189955 0.5883602 0.1671481
0.7420360 0.5940176 0.1737611
0.7787384 0.6067902 0.1842952
0.8019993 0.6157230 0.1909714
0.8326365 0.6227439 0.1997648
0.8531517 0.6335383 0.2056529
0.8707209 0.6389987 0.2106955
0.8875419 0.6472520 0.2155234
0.9061036 0.6573850 0.2208509
0.9156278 0.6611186 0.2235845
0.9280409 0.6713118 0.2271472
0.9388033 0.6780763 0.2302362
0.0781395 0.4088768 0.0816354
0.0781395 0.4088768 0.0816354
0.0781395 0.4088768 0.0816354
0.0781395 0.4088768 0.0816354
0.0781395 0.4088768 0.0816354
0.0791348 0.4123447 0.0794131
0.0820524 0.4225099 0.0820524
0.0844228 0.4307687 0.0844228
0.0873268 0.4408869 0.0873268
0.0911987 0.4543770 0.0911987
0.1141779 0.4671844 0.0948746
0.1946353 0.4828151 0.0993609
0.2596094 0.4959830 0.1031402
0.3181027 0.5093204 0.1069683
0.3815838 0.5233620 0.1109984
0.4405724 0.5413141 0.1161509
0.5007754 0.5571797 0.1207046
0.5565087 0.5689324 0.1240778
0.6029158 0.5792352 0.1338315
0.6445785 0.5885181 0.1457893
0.6868782 0.6055467 0.1579300
0.7225310 0.6127177 0.1681628
0.7456884 0.6187947 0.1748094
0.7815228 0.6270794 0.1850943
0.8053880 0.6389569 0.1919440
0.8366659 0.6494434 0.2009213
0.8561439 0.6554033 0.2065117
0.8748801 0.6668856 0.2118893
0.8938742 0.6721547 0.2173409
0.9095083 0.6797041 0.2218281
0.9246672 0.6888162 0.2261789
0.9319764 0.6925497 0.2282768
0.9419737 0.6973845 0.2311461
0.0838788 0.4288733 0.0838788
0.0838788 0.4288733 0.0838788
0.0838788 0.4288733 0.0838788
0.0838788 0.4288733 0.0838788
0.0838788 0.4288733 0.0838788
0.0847761 0.4319997 0.0847761
0.0867804 0.4389830 0.0867804
0.0888814 0.4463033 0.0888814
0.0926799 0.4595377 0.0926799
0.0973056 0.4756543 0.0973056
0.1180773 0.4895584 0.1012963
0.1957383 0.5026268 0.1050471
0.2530911 0.5173415 0.1092704
0.3302661 0.5339637 0.1140412
0.3899214 0.5473168 0.1178738
0.4502031 0.5615522 0.1219595
0.5010660 0.5727805 0.1251823
0.5579134 0.5930058 0.1309872
0.6051853 0.6032171 0.1344829
0.6515918 0.6139594 0.1478022
0.6885822 0.6233128 0.1584191
0.7240179 0.6320229 0.1685896
0.7599826 0.6472828 0.1789120
0.7852798 0.6541231 0.1861727
0.8182304 0.6633123 0.1956300
0.8389665 0.6696809 0.2015816
0.8607400 0.6827117 0.2078308
0.8813158 0.6884114 0.2137364
0.8975280 0.6940331 0.2183896
0.9136358 0.7042302 0.2230127
0.9277909 0.7115895 0.2270754
0.9350755 0.7154762 0.2291663
0.9464938 0.7243769 0.2324435
0.0899813 0.4501355 0.0899813
0.0899813 0.4501355 0.0899813
0.0899813 0.4501355 0.0899813
0.0899813 0.4501355 0.0899813
0.0899813 0.4501355 0.0899813
0.0908032 0.4529989 0.0908032
0.0926044 0.4592745 0.0926044
0.0950944 0.4679503 0.0950944
0.0990099 0.4815924 0.0990099
0.1024595 0.4936111 0.1024595
0.1154829 0.5082237 0.1066535
0.2021820 0.5225171 0.1107559
0.2631885 0.5382627 0.1152751
0.3260909 0.5573348 0.1207491
0.3876230 0.5712121 0.1247321
0.4499278 0.5852343 0.1287567
0.5156386 0.6009447 0.1332658
0.5583017 0.6106293 0.1360454
0.6059158 0.6244311 0.1400067
0.6628765 0.6409565 0.1510411
0.6911063 0.6493938 0.1591435
0.7268994 0.6584295 0.1694166
0.7616413 0.6660358 0.1793881
0.7873731 0.6759285 0.1867735
0.8214546 0.6903476 0.1965554
0.8429188 0.6951483 0.2027159
0.8627617 0.7009096 0.2084111
0.8839210 0.7093228 0.2144842
0.9011137 0.7205283 0.2194187
0.9166373 0.7243398 0.2238742
0.9302991 0.7292702 0.2277953
0.9390116 0.7408130 0.2302960
0.9503492 0.7462481 0.2335500
0.0963384 0.4722845 0.0963384
0.0963384 0.4722845 0.0963384
0.0963384 0.4722845 0.0963384
0.0963384 0.4722845 0.0963384
0.0963384 0.4722845 0.0963384
0.0967297 0.4736477 0.0967297
