data/spectral_luts/portra_400_supra_endura.cube
TITLE "portra_400_supra_endura"
LUT_3D_SIZE 5
0.0767948 0.0601254 0.0732772
0.0848672 0.0613987 0.0735413
0.3970769 0.0929184 0.0747527
0.6835925 0.1569869 0.1569869
0.8168259 0.1952269 0.1952269
0.0753289 0.0854968 0.0762004
0.0809557 0.0896410 0.0762307
0.4066005 0.1457309 0.0774861
0.7275448 0.2062487 0.1696019
0.8618088 0.2983548 0.2081376
0.0319553 0.2464499 0.0779277
0.0356185 0.2603942 0.0769343
0.4370208 0.3693124 0.0862172
0.8088984 0.4744740 0.1929516
0.9345277 0.5491480 0.2290090
0.0833684 0.4270950 0.0833684
0.0885812 0.4452573 0.0885812
0.4830256 0.5770543 0.1264089
0.8499563 0.6763538 0.2047358
0.9707459 0.7339491 0.2394042
0.1165416 0.5426753 0.1165416
0.1269633 0.5789859 0.1269633
0.5613925 0.7182969 0.1669476
0.8658600 0.8003053 0.2093004
0.9755008 0.8512771 0.2407689
0.0735052 0.0628482 0.0892452
0.0900928 0.0669338 0.0934001
0.4161212 0.1050408 0.1089959
0.6981688 0.1611705 0.1611705
0.8254647 0.2182467 0.2351713
0.0676337 0.1012285 0.0982333
0.0799093 0.1103299 0.1053085
0.4329578 0.1758910 0.1201300
0.7387102 0.2441589 0.1728065
0.8699317 0.3465270 0.2541673
0.0469841 0.3003272 0.1189725
0.0515150 0.3161132 0.1247885
0.4778819 0.4307588 0.1144874
0.8195642 0.5243447 0.1960128
0.9348972 0.5991417 0.2825888
0.0946353 0.4663505 0.1253604
0.1008350 0.4879512 0.1329829
0.4919412 0.6252681 0.1402470
0.8507173 0.7220626 0.2049542
0.9619889 0.7781433 0.3149790
0.1251488 0.5726641 0.1801226
0.1372049 0.6146691 0.1818018
0.5406904 0.7500246 0.1822058
0.8642780 0.8351426 0.2661434
0.9705570 0.8747145 0.3867580
0.0835153 0.0835153 0.4276069
0.1109786 0.0873251 0.4408810
0.4842843 0.1322040 0.5020832
0.7378115 0.1935423 0.5500824
0.8568190 0.3003224 0.6058503
0.0924804 0.1576409 0.4588428
0.0975304 0.1727120 0.4764377
0.4910298 0.2512014 0.5311668
0.7721641 0.3375763 0.5768511
0.8889577 0.4328679 0.6363339
0.1114053 0.4040883 0.5247797
0.1167684 0.4309263 0.5434656
0.5126616 0.5456284 0.5901900
0.8191133 0.6148378 0.6253224
0.9321280 0.6707237 0.6733490
0.1250042 0.5721602 0.5714810
0.1361580 0.6110217 0.5913901
0.5138064 0.7325078 0.6269162
0.8345681 0.8007511 0.6587297
0.9483302 0.8315073 0.6954585
0.1543249 0.6743177 0.6157482
0.1692226 0.7262232 0.6376252
0.5604699 0.8400551 0.6644895
0.8444148 0.8953310 0.6939977
0.9559827 0.9193375 0.7198805
0.1559925 0.1559925 0.6801278
0.2121233 0.1641035 0.7073076
0.5816865 0.2420336 0.7593894
0.7931714 0.3254475 0.7904591
0.8962511 0.4323282 0.8211971
0.1653846 0.2615059 0.7128512
0.1731431 0.2963002 0.7398829
0.5856402 0.3795218 0.7879677
0.8209659 0.4592494 0.8154007
0.9140263 0.5392154 0.8373770
0.1804014 0.4864427 0.7651720
0.1872291 0.5334188 0.7889605
0.5878534 0.6217542 0.8303947
0.8447269 0.6807549 0.8475612
0.9385833 0.7228817 0.8617519
0.1912130 0.6459668 0.8028412
0.1974655 0.6989437 0.8246256
0.5947968 0.7929614 0.8558681
0.8471476 0.8433266 0.8689014
0.9482297 0.8684525 0.8802019
0.1994260 0.7562130 0.8314564
0.2035217 0.7998270 0.8457261
0.6266625 0.8820732 0.8691919
0.8566960 0.9241647 0.8810872
0.9511057 0.9417956 0.8911032
0.2224294 0.3665303 0.8386125
0.4017627 0.3983682 0.8575915
0.6821615 0.4560194 0.8825713
0.8498952 0.5239874 0.9018674
0.9292311 0.5939384 0.9157141
0.2063501 0.4458837 0.8555809
0.3901850 0.4848676 0.8747281
0.6805125 0.5464456 0.8979991
0.8563988 0.6056672 0.9137380
0.9368765 0.6593214 0.9248688
0.2154640 0.6130758 0.8873348
0.3425256 0.6442527 0.9011172
0.6866652 0.7046734 0.9229696
0.8678545 0.7514855 0.9325253
0.9459737 0.7822875 0.9389111
0.2222899 0.7478672 0.9111173
0.3564111 0.7807000 0.9223899
0.6919061 0.8386776 0.9376038
0.8756541 0.8715900 0.9467599
0.9520391 0.8932553 0.9514932
0.2341694 0.8381137 0.9273469
0.4589471 0.8673384 0.9354994
0.7129560 0.9120274 0.9473311
0.8787702 0.9413095 0.9523960
0.9560599 0.9560940 0.9562489
