data/spectral_luts/portra_400_portra_endura.cube
TITLE "portra_400_portra_endura"
LUT_3D_SIZE 9
0.0828340 0.0758817 0.0883377
0.0852291 0.0762509 0.0884518
0.1238235 0.0822456 0.0899755
0.2507501 0.0992033 0.0909615
0.4128679 0.1173510 0.0859300
0.5631701 0.1364948 0.1224239
0.6732134 0.1657057 0.1540080
0.7567240 0.2055041 0.1779767
0.8196532 0.2556538 0.1960383
0.0819850 0.0802112 0.0889334
0.0846461 0.0816460 0.0891965
0.1235142 0.0897693 0.0909485
0.2480715 0.1120324 0.0922964
0.4142288 0.1367041 0.0871446
0.5761638 0.1628433 0.1261533
0.6863289 0.1948957 0.1577723
0.7704608 0.2384980 0.1819194
0.8296356 0.2810160 0.1989034
0.0732117 0.1167471 0.0932649
0.0778204 0.1189203 0.0935734
0.1188529 0.1289263 0.0950461
0.2515012 0.1578534 0.0953721
0.4298073 0.1944716 0.0872051
0.5937136 0.2297134 0.1311903
0.7173697 0.2643412 0.1666815
0.7977528 0.3079081 0.1897526
0.8551027 0.3522132 0.2062129
0.0419056 0.1786671 0.0975735
0.0528839 0.1815909 0.0978861
0.1064581 0.1964065 0.0988708
0.2537369 0.2351816 0.0966138
0.4427159 0.2822419 0.0878518
0.6223639 0.3269227 0.1394134
0.7450119 0.3696799 0.1746152
0.8274795 0.4084054 0.1982846
0.8829036 0.4470630 0.2141922
0.0369829 0.2653731 0.0987041
0.0382522 0.2699096 0.0988693
0.0715241 0.2909130 0.0981011
0.2609242 0.3306631 0.0914016
0.4526997 0.3843804 0.0907173
0.6430978 0.4350463 0.1453643
0.7724357 0.4750671 0.1824862
0.8533239 0.5064247 0.2057023
0.9051540 0.5420430 0.2205783
0.0611262 0.3496002 0.0985518
0.0630315 0.3562384 0.0979674
0.0685084 0.3753208 0.0964985
0.2569767 0.4251635 0.0855617
0.4726598 0.4842529 0.0997735
0.6576615 0.5311450 0.1495443
0.7918892 0.5709784 0.1880697
0.8751489 0.6047735 0.2119664
0.9247804 0.6341861 0.2262114
0.0834980 0.4275467 0.1067224
0.0856237 0.4349528 0.1067258
0.0933867 0.4620003 0.1057365
0.2622968 0.5072953 0.1063870
0.4785076 0.5623743 0.1221955
0.6713237 0.6157871 0.1534656
0.8017570 0.6524244 0.1909019
0.8872020 0.6816158 0.2154258
0.9362167 0.7051741 0.2294938
0.1025380 0.4938847 0.1377902
0.1050050 0.5024801 0.1355595
0.1131574 0.5308843 0.1359785
0.2818737 0.5807206 0.1299598
0.4939589 0.6321033 0.1422088
0.6866586 0.6789271 0.1578669
0.8150333 0.7127374 0.1947124
0.8930352 0.7400549 0.2171000
0.9393160 0.7624954 0.2570580
0.1206614 0.5570292 0.1849688
0.1237475 0.5677818 0.1828435
0.1315705 0.5950382 0.1810728
0.3119951 0.6390786 0.1797156
0.5255206 0.6879375 0.1821777
0.7058622 0.7336758 0.1887612
0.8173136 0.7604924 0.2137718
0.8978542 0.7871014 0.2598086
0.9432281 0.8053464 0.3069083
0.0826698 0.0765542 0.0914769
0.0861313 0.0771470 0.0920428
0.1294650 0.0846001 0.0952089
0.2593144 0.1027248 0.0992647
0.4141491 0.1225977 0.1002227
0.5678025 0.1431780 0.1237535
0.6816306 0.1742540 0.1564238
0.7614183 0.2169631 0.1793241
0.8220988 0.2629625 0.1967403
0.0813755 0.0832652 0.0927073
0.0852024 0.0850746 0.0935441
0.1278844 0.0945222 0.0967951
0.2569726 0.1179366 0.1015102
0.4186905 0.1439914 0.1028490
0.5789313 0.1732953 0.1269476
0.6953679 0.2058669 0.1603666
0.7739913 0.2477299 0.1829327
0.8327441 0.2915186 0.2035427
0.0704994 0.1249937 0.0988161
0.0758771 0.1283965 0.0997230
0.1203527 0.1399093 0.1027173
0.2544620 0.1692537 0.1063677
0.4351509 0.2076812 0.1062186
0.5989367 0.2414815 0.1326895
0.7194763 0.2764572 0.1672861
0.7981027 0.3147418 0.1898530
0.8570242 0.3651919 0.2067644
0.0235704 0.1974053 0.1048057
0.0386374 0.1995196 0.1059281
0.1037798 0.2150746 0.1084825
0.2576140 0.2556394 0.1094718
0.4471793 0.2991834 0.1063811
0.6277416 0.3444271 0.1409569
0.7476661 0.3807201 0.1753770
0.8328102 0.4172816 0.1998146
0.8840286 0.4611383 0.2145150
0.0419442 0.2827674 0.1073981
0.0428403 0.2858894 0.1077722
0.0613069 0.3066006 0.1095179
0.2594898 0.3517299 0.1064347
0.4648401 0.4002624 0.0982942
0.6464015 0.4481482 0.1463126
0.7744396 0.4864370 0.1830614
0.8560305 0.5240875 0.2064791
0.9086889 0.5541232 0.2215929
0.0641565 0.3601583 0.1082869
0.0662213 0.3673521 0.1089786
0.0721278 0.3879313 0.1100319
0.2649288 0.4377615 0.1023880
0.4739557 0.4936698 0.1024763
0.6671002 0.5427752 0.1522534
0.7907333 0.5782014 0.1877379
0.8739576 0.6123453 0.2116245
0.9232731 0.6427996 0.2257788
0.0845741 0.4312959 0.1131116
0.0870734 0.4400039 0.1130257
0.0937066 0.4631148 0.1119510
0.2744811 0.5141603 0.1083574
0.4807752 0.5694991 0.1242404
0.6744726 0.6202186 0.1543694
0.8009428 0.6573191 0.1906682
0.8862210 0.6869615 0.2151443
0.9353313 0.7104108 0.2326076
0.1025380 0.4938847 0.1377902
0.1056138 0.5046014 0.1385868
0.1131574 0.5308843 0.1359785
0.2818737 0.5807206 0.1299598
0.4939589 0.6321033 0.1422088
0.6867986 0.6808569 0.1579071
0.8150333 0.7127374 0.1947124
0.8930352 0.7400549 0.2171000
0.9388798 0.7634707 0.2661510
0.1206614 0.5570292 0.1849688
0.1237475 0.5677818 0.1828435
0.1322805 0.5975117 0.1803435
0.3119951 0.6390786 0.1797156
0.5253764 0.6908609 0.1812810
0.7058622 0.7336758 0.1887612
0.8166459 0.7634221 0.2264888
0.8978542 0.7871014 0.2598086
0.9432281 0.8053464 0.3069083
0.0779935 0.0834415 0.1395294
0.0840280 0.0850235 0.1430181
0.1364105 0.0946215 0.1488009
0.2744832 0.1158805 0.1631862
0.4279063 0.1381326 0.1796570
0.5818570 0.1631952 0.1946340
0.6897683 0.1980238 0.2263288
0.7665321 0.2393755 0.2581685
0.8262609 0.2835980 0.3018786
0.0741232 0.0961457 0.1428010
0.0810950 0.0989387 0.1465617
0.1330775 0.1100929 0.1557426
0.2699854 0.1358358 0.1671311
0.4329843 0.1641204 0.1839725
0.5954915 0.1947938 0.2046733
0.6998335 0.2280132 0.2306286
0.7778000 0.2681177 0.2597909
0.8371830 0.3149324 0.3066865
0.0506543 0.1455958 0.1556285
0.0600987 0.1495821 0.1598413
0.1201870 0.1649399 0.1692235
0.2694680 0.1958420 0.1806084
0.4476405 0.2316924 0.1961524
0.6109858 0.2656658 0.2107937
0.7233410 0.3034354 0.2362086
0.8077119 0.3436911 0.2734860
0.8594940 0.3891946 0.3189281
0.0283003 0.2315729 0.1726493
0.0290012 0.2345092 0.1757285
0.0873155 0.2515617 0.1823293
0.2671317 0.2916316 0.1953726
0.4606674 0.3359456 0.2065891
0.6385077 0.3790547 0.2247733
0.7561495 0.4134616 0.2515284
0.8349258 0.4493031 0.2826893
0.8840334 0.4841607 0.3295121
0.0538981 0.3244165 0.1895538
0.0556210 0.3304191 0.1899498
0.0613556 0.3503995 0.1993607
0.2613871 0.3940747 0.2078989
0.4704527 0.4390662 0.2159512
0.6571823 0.4847051 0.2291500
0.7801012 0.5192290 0.2543946
0.8533564 0.5472125 0.2917951
0.9068204 0.5791597 0.3406135
0.0779765 0.4083091 0.2027934
0.0795140 0.4136657 0.2029211
0.0861570 0.4368110 0.2125741
0.2521497 0.4846444 0.2199160
0.4787165 0.5383678 0.2297121
0.6641350 0.5821843 0.2423986
0.7891218 0.6136890 0.2648598
0.8724625 0.6445667 0.3049599
0.9207845 0.6639914 0.3464095
0.0967711 0.4737919 0.2182459
0.0999940 0.4850210 0.2223747
0.1070050 0.5094484 0.2258236
0.2535042 0.5591415 0.2324207
0.4822137 0.6088709 0.2438908
0.6791778 0.6568160 0.2619519
0.8036298 0.6887795 0.2887029
0.8824256 0.7116550 0.3164409
0.9319143 0.7357826 0.3638798
0.1137223 0.5328526 0.2453503
0.1169591 0.5441300 0.2448904
0.1254623 0.5737564 0.2481219
0.2825496 0.6202535 0.2560748
0.4964286 0.6656232 0.2613967
0.6903937 0.7131630 0.2833103
0.8065140 0.7442262 0.3124018
0.8879390 0.7645341 0.3464851
0.9366553 0.7833374 0.3923890
0.1287479 0.5852036 0.2690192
0.1326016 0.5986307 0.2770869
0.1403915 0.6257716 0.2750330
0.3036013 0.6681299 0.2855884
0.5138788 0.7139701 0.2937369
0.6996042 0.7547773 0.3079958
0.8170332 0.7855572 0.3389641
0.8913553 0.8047675 0.3752326
0.9414360 0.8223847 0.4136942
0.0685887 0.0984898 0.2703587
0.0827139 0.1017808 0.2723637
0.1478280 0.1139964 0.2846654
0.2923194 0.1373341 0.3038425
0.4484247 0.1638903 0.3279949
0.6018167 0.1918824 0.3477258
0.7048431 0.2279163 0.3763723
0.7796596 0.2679749 0.4155923
0.8353280 0.3154751 0.4470538
0.0561207 0.1191342 0.2775771
0.0728308 0.1224498 0.2841579
0.1419680 0.1362769 0.2942781
0.2884533 0.1643782 0.3191480
0.4525264 0.1941577 0.3358308
0.6115389 0.2264853 0.3614802
0.7146016 0.2617783 0.3838584
0.7908812 0.3015435 0.4196505
0.8431714 0.3445025 0.4503046
0.0468250 0.1776978 0.2997729
0.0474309 0.1827239 0.3018838
0.1179238 0.2006638 0.3168336
0.2848491 0.2301023 0.3331320
0.4667632 0.2678499 0.3581429
0.6274410 0.3011496 0.3769653
0.7364941 0.3364033 0.4018035
0.8119226 0.3757455 0.4306162
0.8666002 0.4182357 0.4676123
0.0544853 0.2751608 0.3264623
0.0549742 0.2791008 0.3281659
0.0567717 0.2979175 0.3344285
0.2787566 0.3351893 0.3580187
0.4736081 0.3750816 0.3727684
0.6500787 0.4175294 0.3969108
0.7636067 0.4508157 0.4172112
0.8341854 0.4776932 0.4518401
0.8876466 0.5109063 0.4776108
0.0660521 0.3667628 0.3485776
0.0692634 0.3779512 0.3507070
0.0750149 0.3979902 0.3646264
0.2514762 0.4405532 0.3786863
0.4737267 0.4837794 0.3919964
0.6639680 0.5261184 0.4156038
0.7785968 0.5575745 0.4316766
0.8561206 0.5814136 0.4594029
0.9059869 0.6112259 0.4959380
0.0912761 0.4546467 0.3678088
0.0933468 0.4618612 0.3694972
0.1002787 0.4860130 0.3802491
0.2461241 0.5337792 0.3957155
0.4722387 0.5794711 0.4146599
0.6673256 0.6220590 0.4307599
0.7882954 0.6487694 0.4543391
0.8720261 0.6762506 0.4788193
0.9198286 0.6963426 0.5081093
0.1116605 0.5256688 0.3906376
0.1135515 0.5322573 0.3921220
0.1221392 0.5621782 0.4029414
0.2260727 0.6073599 0.4138318
0.4850717 0.6534128 0.4320260
0.6789728 0.6939185 0.4482234
0.7961863 0.7216851 0.4644333
0.8740225 0.7412947 0.4935263
0.9249332 0.7578291 0.5193358
0.1270263 0.5792054 0.4097827
0.1298435 0.5890209 0.4113121
0.1387133 0.6199247 0.4248517
0.2622331 0.6660687 0.4347902
0.5026442 0.7116119 0.4530508
0.6885074 0.7473266 0.4693832
0.8051020 0.7744715 0.4863944
0.8810250 0.7931617 0.5115948
0.9308362 0.8093761 0.5407912
0.1418839 0.6309714 0.4389233
0.1457265 0.6443598 0.4407086
0.1535950 0.6717747 0.4538620
0.2910212 0.7100153 0.4561537
0.5226974 0.7527103 0.4742937
0.6973308 0.7912226 0.4913467
0.8074240 0.8125502 0.5083938
0.8903428 0.8338431 0.5335216
0.9348128 0.8436874 0.5587655
0.0847931 0.1172136 0.4320591
0.0987014 0.1222517 0.4363961
0.1763759 0.1397126 0.4486488
0.3201352 0.1651871 0.4731644
0.4828402 0.1968363 0.4958089
0.6225873 0.2272593 0.5204073
0.7239764 0.2675799 0.5382229
0.7977711 0.3054681 0.5606095
0.8502483 0.3572306 0.5869311
0.0876613 0.1460471 0.4420521
0.0889014 0.1518594 0.4463729
0.1703924 0.1692285 0.4638170
0.3244322 0.1981748 0.4834063
0.4854987 0.2316047 0.5025927
0.6362617 0.2634740 0.5299647
0.7311745 0.2981058 0.5462452
0.8047211 0.3345083 0.5680529
0.8578242 0.3850518 0.6002367
0.0930375 0.2117985 0.4607835
0.0941791 0.2189699 0.4647611
0.1392791 0.2359138 0.4838982
0.3128416 0.2691622 0.5002075
0.4856813 0.3058875 0.5218133
0.6477875 0.3375672 0.5450646
0.7486745 0.3801476 0.5583386
0.8235502 0.4124742 0.5817764
0.8737731 0.4556391 0.6091700
0.1020317 0.3097281 0.4921208
0.1032921 0.3199556 0.4965120
0.1061186 0.3377427 0.5063601
0.2989718 0.3805929 0.5308380
0.4927361 0.4144891 0.5470415
0.6682750 0.4540638 0.5636622
0.7705196 0.4810076 0.5832431
0.8423660 0.5159930 0.6026696
0.8900992 0.5395344 0.6211619
0.1077175 0.4068757 0.5119309
0.1086660 0.4139735 0.5152356
0.1140416 0.4410826 0.5339649
0.2733444 0.4845349 0.5531232
0.4955497 0.5248655 0.5624146
0.6676704 0.5575079 0.5832835
0.7815943 0.5850788 0.5957017
0.8596480 0.6109521 0.6137007
0.9062843 0.6357887 0.6415267
0.1147098 0.4971175 0.5362931
0.1155623 0.5050585 0.5392631
0.1197868 0.5312873 0.5539818
0.2524048 0.5756851 0.5652974
0.4954612 0.6200678 0.5827486
0.6814042 0.6566947 0.6032281
0.7917152 0.6791009 0.6111507
0.8667801 0.6991745 0.6288347
0.9156170 0.7172804 0.6460500
0.1227518 0.5643124 0.5539583
0.1252662 0.5730731 0.5567238
0.1345786 0.6055186 0.5743208
0.2580479 0.6476032 0.5839255
0.4993927 0.6865770 0.5966311
0.6808325 0.7228982 0.6161978
0.7944697 0.7461083 0.6274060
0.8753228 0.7661827 0.6447836
0.9229642 0.7788348 0.6617160
0.1392462 0.6217814 0.5797476
0.1426225 0.6335447 0.5830072
0.1504140 0.6606915 0.5897118
0.2568569 0.6980000 0.6032999
0.5124658 0.7427890 0.6189249
0.6902586 0.7739685 0.6281049
0.8057289 0.7992847 0.6392336
0.8796055 0.8160632 0.6560841
0.9283984 0.8281864 0.6733083
0.1528249 0.6690916 0.5952797
0.1561350 0.6806244 0.5980604
0.1641739 0.7086331 0.6134546
0.3088288 0.7462758 0.6196262
0.5332510 0.7835409 0.6306962
0.6980729 0.8128673 0.6394270
0.8077320 0.8375904 0.6566653
0.8824808 0.8506451 0.6669586
0.9322962 0.8629301 0.6834927
0.1251934 0.1575819 0.5728194
0.1276274 0.1620409 0.5780953
0.2229511 0.1813570 0.5928099
0.3615950 0.2098457 0.6182075
0.5165193 0.2444652 0.6340598
0.6590623 0.2782007 0.6537308
0.7433419 0.3129095 0.6702808
0.8169158 0.3584536 0.6849254
0.8652403 0.4053567 0.7084581
0.1274246 0.1889952 0.5805933
0.1289433 0.1939396 0.5858845
0.2184411 0.2149548 0.6035150
0.3645374 0.2427914 0.6256623
0.5165998 0.2741915 0.6399673
0.6616110 0.3079525 0.6592156
0.7565702 0.3485687 0.6766399
0.8226575 0.3870113 0.6974019
0.8718113 0.4338931 0.7127503
0.1329878 0.2581695 0.5999762
0.1344534 0.2640523 0.6050827
0.1896215 0.2850347 0.6213992
0.3617887 0.3136229 0.6429090
0.5269763 0.3539911 0.6578116
0.6712807 0.3897184 0.6759867
0.7688907 0.4195561 0.6907538
0.8363030 0.4528811 0.7098556
0.8831811 0.4917006 0.7233543
0.1402053 0.3515925 0.6251231
0.1417488 0.3595416 0.6305006
0.1469315 0.3845361 0.6485578
0.3404622 0.4207861 0.6644480
0.5189800 0.4524978 0.6840439
0.6879534 0.4920934 0.6993886
0.7803092 0.5183663 0.7126008
0.8505365 0.5475522 0.7246596
0.8953277 0.5711493 0.7329497
0.1476587 0.4475641 0.6510917
0.1489561 0.4559414 0.6556119
0.1523253 0.4797514 0.6673509
0.3225485 0.5201757 0.6819067
0.5271438 0.5576708 0.7011093
0.6942882 0.5943623 0.7143575
0.7945149 0.6143083 0.7259663
0.8648641 0.6382975 0.7368008
0.9101562 0.6651757 0.7529511
0.1525109 0.5321918 0.6679974
0.1537026 0.5415569 0.6721495
0.1592612 0.5734513 0.6915163
0.2912962 0.6067146 0.7030213
0.5264812 0.6487715 0.7192301
0.6956819 0.6835365 0.7254780
0.8025718 0.7049346 0.7364973
0.8694639 0.7201558 0.7516297
0.9167958 0.7370911 0.7585906
0.1586274 0.6017131 0.6893082
0.1599149 0.6134390 0.6937940
0.1625369 0.6395868 0.7029295
0.3005448 0.6803276 0.7195792
0.5303597 0.7161626 0.7279536
0.6937602 0.7477518 0.7409484
0.8067734 0.7702014 0.7490219
0.8770185 0.7855845 0.7586712
0.9232335 0.7992268 0.7723932
0.1635292 0.6566856 0.7063866
0.1646100 0.6678659 0.7101524
0.1668491 0.6931634 0.7179537
0.3119797 0.7299798 0.7269993
0.5305918 0.7664607 0.7395122
0.7045556 0.7961733 0.7522013
0.8091960 0.8166823 0.7598937
0.8800774 0.8315380 0.7690818
0.9240720 0.8418140 0.7745596
0.1680029 0.7053970 0.7219736
0.1690525 0.7177002 0.7256306
0.1726793 0.7382669 0.7312567
0.3492185 0.7705488 0.7388421
0.5569507 0.8075189 0.7533470
0.7122039 0.8342147 0.7625950
0.8158578 0.8548912 0.7721444
0.8840724 0.8661360 0.7778842
0.9274403 0.8764884 0.7858292
0.1562797 0.2167873 0.6811284
0.1796473 0.2266745 0.6878169
0.2771360 0.2442841 0.7009083
0.4096374 0.2736593 0.7190961
0.5589328 0.3086079 0.7381796
0.6849343 0.3412034 0.7513174
0.7698300 0.3764655 0.7636841
0.8351241 0.4194357 0.7777162
0.8802993 0.4582388 0.7900273
0.1590176 0.2486552 0.6906676
0.1720852 0.2551495 0.6967270
0.2772000 0.2746545 0.7100130
0.4153974 0.3070890 0.7265769
0.5611755 0.3355063 0.7453316
0.6872784 0.3792661 0.7581914
0.7747945 0.4082504 0.7708877
0.8387970 0.4419568 0.7813348
0.8840386 0.4812146 0.7934838
0.1638327 0.3157673 0.7074441
0.1655679 0.3233758 0.7134897
0.2579017 0.3459131 0.7270303
0.4012489 0.3717139 0.7408053
0.5580120 0.4066992 0.7583079
0.7002044 0.4445462 0.7694833
0.7882627 0.4755281 0.7817523
0.8493422 0.5006702 0.7920131
0.8931128 0.5338498 0.8027533
0.1695618 0.4000919 0.7274053
0.1713164 0.4132271 0.7335186
0.2141383 0.4328521 0.7452189
0.3998242 0.4678358 0.7602983
0.5626088 0.4971534 0.7750297
0.7041808 0.5279424 0.7837158
0.7971002 0.5547934 0.7947183
0.8626521 0.5812944 0.8046426
0.9026691 0.6080939 0.8120779
0.1751344 0.4913476 0.7468210
0.1767080 0.5016043 0.7523037
0.1799750 0.5302408 0.7636864
0.3756115 0.5553186 0.7785660
0.5583706 0.5917621 0.7898751
0.7109886 0.6201339 0.8027040
0.8064122 0.6452246 0.8073600
0.8709762 0.6681316 0.8143992
0.9141824 0.6854569 0.8222517
0.1806050 0.5732191 0.7658811
0.1821557 0.5851576 0.7712843
0.1849002 0.6111380 0.7808465
0.3573647 0.6400144 0.7913940
0.5587135 0.6763306 0.8015705
0.7110271 0.7078587 0.8137518
0.8075156 0.7274893 0.8209520
0.8791787 0.7430160 0.8286677
0.9196457 0.7579595 0.8336400
0.1841998 0.6382406 0.7784061
0.1854471 0.6492350 0.7827519
0.1879240 0.6728556 0.7913817
0.3578183 0.7057773 0.8045932
0.5637007 0.7381955 0.8133109
0.7217786 0.7677329 0.8191754
0.8107320 0.7859278 0.8276459
0.8798563 0.8006011 0.8331278
0.9247997 0.8136680 0.8394884
0.1884890 0.6938398 0.7933503
0.1893554 0.7024410 0.7963688
0.1914697 0.7249742 0.8037355
0.3734857 0.7526907 0.8117250
0.5755944 0.7848449 0.8194829
0.7191268 0.8120573 0.8300429
0.8203151 0.8317034 0.8362066
0.8841771 0.8418919 0.8426290
0.9249648 0.8515705 0.8469995
0.1911130 0.7360365 0.8024925
0.1919220 0.7449923 0.8053114
0.1934520 0.7630448 0.8106419
0.4102363 0.7961112 0.8221710
0.5975167 0.8264349 0.8287739
0.7290881 0.8487172 0.8376561
0.8221948 0.8669434 0.8400691
0.8919609 0.8782070 0.8448290
0.9280372 0.8872413 0.8507577
0.2123159 0.3078898 0.7608505
0.2548247 0.3136253 0.7654052
0.3411939 0.3317418 0.7757178
0.4695203 0.3548325 0.7897840
0.6045021 0.3857533 0.8049193
0.7137858 0.4190678 0.8150096
0.7917274 0.4488779 0.8263451
0.8552039 0.4841048 0.8335010
0.8932517 0.5170178 0.8432527
0.1964470 0.3322102 0.7671803
0.2424488 0.3382478 0.7717432
0.3435215 0.3581924 0.7829599
0.4685828 0.3842916 0.7955652
0.6024532 0.4129921 0.8097866
0.7161344 0.4413739 0.8201711
0.8010808 0.4722998 0.8303283
0.8583558 0.5071649 0.8370076
0.8955457 0.5336142 0.8456496
0.1840837 0.3843190 0.7780015
0.2146408 0.3966475 0.7836501
0.3240036 0.4115791 0.7929950
0.4578239 0.4367253 0.8088230
0.6118993 0.4728358 0.8217395
0.7264961 0.4994036 0.8297663
0.8048527 0.5241477 0.8395739
0.8640618 0.5528247 0.8449333
0.9013869 0.5793183 0.8532869
0.1889050 0.4625525 0.7947996
0.1900588 0.4676526 0.7988195
0.3105409 0.4930881 0.8094169
0.4607628 0.5152293 0.8238800
0.6044171 0.5483503 0.8345342
0.7283457 0.5715069 0.8415608
0.8114918 0.5976679 0.8497252
0.8708546 0.6176648 0.8575388
0.9095919 0.6440893 0.8613303
0.1941868 0.5435898 0.8132023
0.1954517 0.5525641 0.8176093
0.2860628 0.5699576 0.8256119
0.4453800 0.6016227 0.8364679
0.6129141 0.6329454 0.8476455
0.7334889 0.6564191 0.8564588
0.8208674 0.6743714 0.8603655
0.8822106 0.6969150 0.8680453
0.9186591 0.7130300 0.8702273
0.1978202 0.6142602 0.8258616
0.1992135 0.6287209 0.8307157
0.2514693 0.6457681 0.8375235
0.4425932 0.6727630 0.8471926
0.6114443 0.7044029 0.8559589
0.7360036 0.7283838 0.8656523
0.8257919 0.7485946 0.8693402
0.8840140 0.7617106 0.8742952
0.9224003 0.7719527 0.8798147
0.2009796 0.6747718 0.8368691
0.2019103 0.6857777 0.8401120
0.2512263 0.7050016 0.8469717
0.4360939 0.7306015 0.8551596
0.6183688 0.7600523 0.8673772
0.7372292 0.7831160 0.8721920
0.8236605 0.8007649 0.8781136
0.8893196 0.8147029 0.8801979
0.9269376 0.8241107 0.8854281
0.2036922 0.7240816 0.8463202
0.2053261 0.7350073 0.8520129
0.2848331 0.7525244 0.8576522
0.4593584 0.7774388 0.8648689
0.6265656 0.8045796 0.8716328
0.7439677 0.8272402 0.8801451
0.8329374 0.8413416 0.8827309
0.8916929 0.8537814 0.8871382
0.9303703 0.8628693 0.8882151
0.2068525 0.7687997 0.8573314
0.2073404 0.7742704 0.8590311
0.3258190 0.7923415 0.8643427
0.4810987 0.8152822 0.8704095
0.6384497 0.8412787 0.8790729
0.7536032 0.8631975 0.8829823
0.8344821 0.8765066 0.8892502
0.8950500 0.8888186 0.8908451
0.9296848 0.8943272 0.8943236
0.2968728 0.3972217 0.8242009
0.3414543 0.4035590 0.8282932
0.4180228 0.4206102 0.8362263
0.5260499 0.4418297 0.8458300
0.6545902 0.4679196 0.8558874
0.7489206 0.4914025 0.8663453
0.8175490 0.5217229 0.8730380
0.8711495 0.5433338 0.8796847
0.9061580 0.5763276 0.8861383
0.2975436 0.4188155 0.8288992
0.3323342 0.4237595 0.8319596
0.4121370 0.4352711 0.8387637
0.5254629 0.4572774 0.8485906
0.6522238 0.4895264 0.8593898
0.7507889 0.5142115 0.8699818
0.8191815 0.5377563 0.8754575
0.8737626 0.5663424 0.8840653
0.9087145 0.5897797 0.8879928
0.2733509 0.4577354 0.8357093
0.3280811 0.4653951 0.8400980
0.4116780 0.4835880 0.8478122
0.5266429 0.5064512 0.8571409
0.6532903 0.5333236 0.8675476
0.7512804 0.5584109 0.8765935
0.8233090 0.5833303 0.8819978
0.8774880 0.6024755 0.8890123
0.9129504 0.6293511 0.8931419
0.2532644 0.5248846 0.8491186
0.3027289 0.5314637 0.8524473
0.3978320 0.5452404 0.8590645
0.5247731 0.5705001 0.8684171
0.6566361 0.5961049 0.8800950
0.7513995 0.6181997 0.8858757
0.8317682 0.6409554 0.8907300
0.8826879 0.6627508 0.8965792
0.9174914 0.6788415 0.9001664
0.2234952 0.5942329 0.8615676
0.2777658 0.6007969 0.8644947
0.3767014 0.6146014 0.8703548
0.5189251 0.6444409 0.8798872
0.6579837 0.6658720 0.8892798
0.7580146 0.6861374 0.8943788
0.8328243 0.7080562 0.8995861
0.8911837 0.7241950 0.9046046
0.9218763 0.7386913 0.9065893
0.2122679 0.6594940 0.8728044
0.2552231 0.6642452 0.8746856
0.3839194 0.6815725 0.8812007
0.5213100 0.7074319 0.8911479
0.6576645 0.7290304 0.8976613
0.7603048 0.7494829 0.9023499
0.8387800 0.7658041 0.9088963
0.8920778 0.7779123 0.9109746
0.9280303 0.7943389 0.9152573
0.2143726 0.7115510 0.8835323
0.2602009 0.7166086 0.8853502
0.3801452 0.7324654 0.8907803
0.5248235 0.7606440 0.8983728
0.6648192 0.7814271 0.9043263
0.7614995 0.8022645 0.9084966
0.8414414 0.8146877 0.9133624
0.8965629 0.8266703 0.9152646
0.9295508 0.8354323 0.9198498
0.2414917 0.7580931 0.8902520
0.2949145 0.7642556 0.8922553
0.3970014 0.7781823 0.8965734
0.5363825 0.7999247 0.9027304
0.6759546 0.8227242 0.9084019
0.7711995 0.8415140 0.9153978
0.8458751 0.8532760 0.9176916
0.9001593 0.8650066 0.9216972
0.9326816 0.8732776 0.9238912
0.2958241 0.7954082 0.8969532
0.3449760 0.8017381 0.8988377
0.4433518 0.8146559 0.9027449
0.5589731 0.8374140 0.9112552
0.6824829 0.8577898 0.9159658
0.7721015 0.8724736 0.9189615
0.8475612 0.8873718 0.9213601
0.9034421 0.8962595 0.9250945
0.9350470 0.9039567 0.9260179
