data/spectral_luts/portra_400_endura_premier.cube
TITLE "portra_400_endura_premier"
LUT_3D_SIZE 5
0.0354820 0.0605073 0.0714334
0.0634740 0.0645051 0.0722376
0.3736647 0.0894902 0.0680331
0.6623515 0.1508904 0.1508904
0.8034914 0.1913997 0.1913997
0.0285887 0.0809619 0.0747328
0.0566681 0.0884143 0.0759573
0.3767289 0.1396370 0.0689125
0.7056513 0.1975942 0.1633181
0.8514885 0.2900136 0.2051755
0.0331975 0.2512782 0.0820288
0.0391717 0.2731413 0.0795691
0.4283418 0.3788620 0.0837262
0.7984070 0.4778751 0.1899404
0.9345244 0.5526810 0.2290081
0.0841407 0.4297859 0.0841407
0.0943992 0.4655280 0.0943992
0.4880382 0.5885131 0.1296977
0.8498967 0.6849397 0.2047187
0.9788746 0.7444286 0.2417372
0.1206935 0.5571410 0.1206935
0.1337431 0.6026077 0.1337431
0.5576777 0.7217108 0.1679274
0.8758446 0.8056905 0.2121661
0.9891672 0.8523676 0.2446914
0.0323175 0.0638871 0.0963489
0.0782951 0.0711099 0.1016259
0.4048956 0.0993439 0.1172672
0.6873878 0.1580762 0.1619538
0.8188394 0.1995891 0.2459667
0.0171181 0.0967890 0.1062750
0.0644879 0.1090093 0.1150426
0.4199032 0.1655394 0.1303372
0.7302672 0.2394825 0.1703832
0.8639493 0.3337309 0.2642451
0.0467847 0.2996324 0.1364465
0.0546469 0.3270255 0.1431226
0.4738758 0.4349434 0.1452650
0.8191527 0.5287260 0.1958947
0.9386521 0.5999668 0.2876601
0.0966111 0.4732345 0.1595069
0.1080675 0.5131502 0.1682765
0.4960078 0.6398839 0.1676900
0.8586003 0.7342019 0.2072167
0.9741076 0.7859479 0.3155001
0.1305202 0.5913785 0.2211321
0.1449691 0.6417208 0.2218430
0.5482913 0.7553276 0.2238782
0.8773116 0.8370560 0.2775928
0.9853055 0.8756759 0.3848243
0.0842572 0.0842572 0.4301918
0.1330259 0.0882604 0.4441397
0.4743952 0.1128761 0.4931690
0.7344712 0.1715899 0.5407098
0.8567566 0.2864434 0.6036221
0.0934175 0.1469385 0.4621075
0.1006815 0.1726625 0.4874164
0.4818646 0.2467082 0.5255933
0.7728755 0.3241866 0.5733781
0.8907193 0.4241126 0.6400226
0.1156411 0.4031801 0.5395376
0.1229052 0.4434640 0.5648471
0.5059667 0.5441800 0.5941307
0.8277372 0.6186133 0.6328152
0.9408597 0.6769915 0.6835037
0.1319085 0.5897740 0.5962156
0.1448303 0.6412372 0.6191162
0.5166255 0.7449938 0.6410011
0.8496994 0.8146461 0.6726688
0.9625793 0.8439069 0.7081374
0.1625332 0.7029166 0.6465862
0.1761013 0.7501896 0.6652038
0.5746443 0.8486336 0.6809688
0.8642495 0.9043582 0.7088909
0.9718489 0.9260704 0.7329774
0.1649043 0.1649043 0.7111778
0.2488452 0.1710513 0.7325948
0.5799842 0.2258877 0.7736303
0.7985727 0.3043345 0.8019147
0.9001315 0.4193922 0.8372113
0.1756739 0.2530141 0.7487004
0.2221837 0.2880242 0.7688761
0.5818455 0.3630340 0.8055540
0.8284064 0.4524300 0.8330570
0.9197910 0.5323493 0.8572399
0.1941133 0.5044658 0.8129459
0.1989048 0.5483592 0.8296404
0.5901555 0.6321126 0.8589815
0.8600805 0.6901661 0.8727328
0.9493257 0.7336371 0.8896825
0.2058162 0.6780398 0.8537207
0.2095582 0.7222705 0.8667583
0.6067636 0.8072894 0.8899723
0.8673625 0.8598526 0.9020487
0.9629692 0.8829165 0.9118078
0.2134492 0.7803907 0.8803150
0.2159168 0.8177646 0.8889124
0.6388543 0.8915014 0.9064176
0.8820813 0.9331741 0.9132755
0.9673347 0.9491217 0.9238878
0.2654856 0.3584183 0.8633497
0.4184898 0.3893318 0.8768246
0.6832739 0.4446653 0.8959306
0.8620802 0.5171517 0.9141710
0.9355891 0.5850638 0.9281716
0.2293899 0.4485264 0.8840101
0.4106369 0.4824184 0.8970178
0.6859012 0.5406249 0.9144167
0.8723541 0.6003680 0.9285260
0.9454421 0.6609505 0.9400670
0.2251292 0.6272839 0.9210098
0.3705641 0.6554594 0.9300250
0.6952553 0.7102981 0.9445213
0.8886427 0.7594945 0.9524066
0.9588639 0.7923092 0.9583583
0.2325310 0.7673527 0.9467989
0.3810618 0.7970451 0.9540184
0.7056416 0.8515664 0.9640015
0.9008855 0.8861461 0.9694912
0.9680613 0.9056641 0.9729666
0.2923746 0.8507569 0.9606550
0.4686760 0.8745922 0.9652807
0.7329067 0.9188392 0.9731144
0.9058046 0.9481629 0.9767091
0.9725682 0.9601512 0.9784071
