data/spectral_luts/portra_400_supra_endura.cube
TITLE "portra_400_supra_endura"
LUT_3D_SIZE 33
0.0767948 0.0601254 0.0732772
0.0767948 0.0601254 0.0732772
0.0763759 0.0600615 0.0732566
0.0757633 0.0599681 0.0732264
0.0746730 0.0598015 0.0731720
0.0744293 0.0597643 0.0731597
0.0759428 0.0599954 0.0732353
0.0796199 0.0605550 0.0734134
0.0848672 0.0613987 0.0735413
0.0943903 0.0629613 0.0738973
0.1104339 0.0654295 0.0742455
0.1422167 0.0699139 0.0747107
0.1810309 0.0748985 0.0746464
0.2237958 0.0797504 0.0739404
0.2921662 0.0860312 0.0717035
0.3374669 0.0896164 0.0693754
0.3970769 0.0929184 0.0747527
0.4521555 0.0948665 0.0905611
0.5010993 0.1046087 0.1046087
0.5342705 0.1141293 0.1141293
0.5743698 0.1256384 0.1256384
0.6048507 0.1343869 0.1343869
0.6348737 0.1430039 0.1430039
0.6618664 0.1507512 0.1507512
0.6835925 0.1569869 0.1569869
0.7076111 0.1638806 0.1638806
0.7255715 0.1690355 0.1690355
0.7454118 0.1747300 0.1747300
0.7614919 0.1793452 0.1793452
0.7754766 0.1833590 0.1833590
0.7893211 0.1873326 0.1873326
0.8028412 0.1912130 0.1912130
0.8168259 0.1952269 0.1952269
0.0767948 0.0601254 0.0732772
0.0767948 0.0601254 0.0732772
0.0763759 0.0600615 0.0732566
0.0757591 0.0600377 0.0732365
0.0746685 0.0598711 0.0731821
0.0744200 0.0599033 0.0731800
0.0760726 0.0602352 0.0732740
0.0796069 0.0608577 0.0734569
0.0846447 0.0616846 0.0735767
0.0944005 0.0632081 0.0738706
0.1104524 0.0656909 0.0742794
0.1422888 0.0703610 0.0747121
0.1793588 0.0752908 0.0746549
0.2240767 0.0807596 0.0740281
0.2896616 0.0870656 0.0719124
0.3379242 0.0908800 0.0694197
0.3977219 0.0946068 0.0749379
0.4498871 0.0972995 0.0899100
0.5020094 0.1048699 0.1048699
0.5354145 0.1144577 0.1144577
0.5776389 0.1265767 0.1265767
0.6061093 0.1347481 0.1347481
0.6364245 0.1434490 0.1434490
0.6632203 0.1511398 0.1511398
0.6851585 0.1574364 0.1574364
0.7090486 0.1642932 0.1642932
0.7265153 0.1693064 0.1693064
0.7488905 0.1757284 0.1757284
0.7635583 0.1799383 0.1799383
0.7780434 0.1840957 0.1840957
0.7937505 0.1886039 0.1886039
0.8055398 0.1919876 0.1919876
0.8196540 0.1960386 0.1960386
0.0768779 0.0603581 0.0733135
0.0768733 0.0604414 0.0733256
0.0763585 0.0603628 0.0733004
0.0757450 0.0602691 0.0732701
0.0746056 0.0601787 0.0732258
0.0743738 0.0602271 0.0732265
0.0760577 0.0604848 0.0733102
0.0794995 0.0611682 0.0734390
0.0844192 0.0620736 0.0736266
0.0940522 0.0636682 0.0739268
0.1096580 0.0663030 0.0743488
0.1410674 0.0709907 0.0747865
0.1778034 0.0761959 0.0747715
0.2320988 0.0827968 0.0739547
0.2902246 0.0887608 0.0720586
0.3386798 0.0929786 0.0695087
0.3985761 0.0968517 0.0751830
0.4507252 0.0994512 0.0901506
0.5031015 0.1051833 0.1051833
0.5393316 0.1155819 0.1155819
0.5792785 0.1270473 0.1270473
0.6097223 0.1357851 0.1357851
0.6381369 0.1439405 0.1439405
0.6671965 0.1522810 0.1522810
0.6865259 0.1578288 0.1578288
0.7109074 0.1648267 0.1648267
0.7298489 0.1702632 0.1702632
0.7497038 0.1759618 0.1759618
0.7649248 0.1803305 0.1803305
0.7795934 0.1845406 0.1845406
0.7949005 0.1889340 0.1889340
0.8093343 0.1930767 0.1930767
0.8209599 0.1964134 0.1964134
0.0769405 0.0609566 0.0734025
0.0769405 0.0609566 0.0734025
0.0764070 0.0609594 0.0733888
0.0757033 0.0609359 0.0733667
0.0745599 0.0608482 0.0733229
0.0743811 0.0608208 0.0733140
0.0761055 0.0613683 0.0734403
0.0796580 0.0620913 0.0735756
0.0848345 0.0631448 0.0737261
0.0933594 0.0648230 0.0740095
0.1114519 0.0679095 0.0745238
0.1388038 0.0725268 0.0749142
0.1764661 0.0780931 0.0749263
0.2301566 0.0848267 0.0741986
0.2882372 0.0913224 0.0723436
0.3368175 0.0957543 0.0698534
0.3999671 0.1005127 0.0755823
0.4522582 0.1033800 0.0905906
0.5046549 0.1056292 0.1056292
0.5386420 0.1153840 0.1153840
0.5812274 0.1276066 0.1276066
0.6119860 0.1364348 0.1364348
0.6402366 0.1445431 0.1445431
0.6693459 0.1528979 0.1528979
0.6888928 0.1585082 0.1585082
0.7153265 0.1660950 0.1660950
0.7327479 0.1710952 0.1710952
0.7535094 0.1770541 0.1770541
0.7702965 0.1818722 0.1818722
0.7841265 0.1858416 0.1858416
0.7985188 0.1899725 0.1899725
0.8125513 0.1940000 0.1940000
0.8251191 0.2048673 0.1976071
0.0772421 0.0625252 0.0735769
0.0770493 0.0624955 0.0735677
0.0765620 0.0626405 0.0735760
0.0757234 0.0626213 0.0735515
0.0745665 0.0626629 0.0735271
0.0742143 0.0628291 0.0735417
0.0757666 0.0634386 0.0736697
0.0792588 0.0642077 0.0737453
0.0841176 0.0653225 0.0739513
0.0937349 0.0672898 0.0742919
0.1099312 0.0704970 0.0746812
0.1366950 0.0750102 0.0750737
0.1735844 0.0809470 0.0751938
0.2261056 0.0882069 0.0746241
0.2865936 0.0949399 0.0727294
0.3442880 0.1006203 0.0695662
0.3985696 0.1051668 0.0751812
0.4544277 0.1089713 0.0912133
0.5046511 0.1125667 0.1056281
0.5410960 0.1160883 0.1160883
0.5839084 0.1283761 0.1283761
0.6152830 0.1373811 0.1373811
0.6458813 0.1461632 0.1461632
0.6735073 0.1540923 0.1540923
0.6943259 0.1600676 0.1600676
0.7193723 0.1672562 0.1672562
0.7374818 0.1724539 0.1724539
0.7588187 0.1785779 0.1785779
0.7747502 0.1831505 0.1831505
0.7888432 0.1871954 0.1871954
0.8046712 0.1926762 0.1917383
0.8176668 0.2042782 0.1954682
0.8295707 0.2142356 0.1988848
0.0774014 0.0660572 0.0740793
0.0774014 0.0660572 0.0740793
0.0768126 0.0659654 0.0740522
0.0758821 0.0661191 0.0740508
0.0743915 0.0661744 0.0739610
0.0738688 0.0663924 0.0739783
0.0754203 0.0669261 0.0740307
0.0789406 0.0677692 0.0741693
0.0832796 0.0687529 0.0742835
0.0922947 0.0709599 0.0745950
0.1070229 0.0742182 0.0750016
0.1385070 0.0797204 0.0755549
0.1762624 0.0857662 0.0755873
0.2223381 0.0925836 0.0751190
0.2826487 0.1001049 0.0733198
0.3434381 0.1064444 0.0699717
0.3978001 0.1115090 0.0749603
0.4541864 0.1166540 0.0911440
0.5076278 0.1201678 0.1064825
0.5529577 0.1250196 0.1194928
0.5877750 0.1294859 0.1294859
0.6187905 0.1383878 0.1383878
0.6501085 0.1473765 0.1473765
0.6768393 0.1550486 0.1550486
0.7051891 0.1631855 0.1631855
0.7238303 0.1685358 0.1685358
0.7431679 0.1740859 0.1740859
0.7649167 0.1803282 0.1803282
0.7795349 0.1845238 0.1845238
0.7950767 0.1922418 0.1889845
0.8101646 0.2070917 0.1933150
0.8234149 0.2194885 0.1971180
0.8355746 0.2306530 0.2006080
0.0770162 0.0709164 0.0746698
0.0770162 0.0709164 0.0746698
0.0769156 0.0709005 0.0746654
0.0758858 0.0711150 0.0746705
0.0740033 0.0708040 0.0745246
0.0733866 0.0712909 0.0745144
0.0748730 0.0719162 0.0745711
0.0784822 0.0724820 0.0746721
0.0827967 0.0741722 0.0748294
0.0921848 0.0763495 0.0751128
0.1071814 0.0793872 0.0754597
0.1341288 0.0850143 0.0759648
0.1721681 0.0912812 0.0761640
0.2166122 0.0988507 0.0758558
0.2791392 0.1066827 0.0739402
0.3403538 0.1142077 0.0705749
0.3978324 0.1206570 0.0749696
0.4546403 0.1262427 0.0912743
0.5090951 0.1311658 0.1069036
0.5570868 0.1355498 0.1206779
0.5903202 0.1398235 0.1302164
0.6238089 0.1436967 0.1398282
0.6547385 0.1487225 0.1487054
0.6826345 0.1567120 0.1567120
0.7115991 0.1650252 0.1650252
0.7327871 0.1729763 0.1711065
0.7554123 0.1819468 0.1776003
0.7710560 0.1900484 0.1820902
0.7878348 0.2007152 0.1869060
0.8019062 0.2101316 0.1909447
0.8159778 0.2224540 0.1949834
0.8304875 0.2357685 0.1991480
0.8429711 0.2483077 0.2027309
0.0763724 0.0773034 0.0754176
0.0763821 0.0772930 0.0753551
0.0763821 0.0772930 0.0753551
0.0754968 0.0777083 0.0753272
0.0733526 0.0773605 0.0752388
0.0724721 0.0780961 0.0752588
0.0740389 0.0783410 0.0752731
0.0770998 0.0794552 0.0753727
0.0820549 0.0811940 0.0755227
0.0901194 0.0834401 0.0757147
0.1045029 0.0867857 0.0760972
0.1309863 0.0920573 0.0765699
0.1684749 0.0987973 0.0768650
0.2235464 0.1078437 0.0763150
0.2761413 0.1162619 0.0746637
0.3379292 0.1241674 0.0711342
0.3952815 0.1319833 0.0742374
0.4555658 0.1372460 0.0915399
0.5111386 0.1438233 0.1074901
0.5600534 0.1499652 0.1215294
0.5956776 0.1535517 0.1317540
0.6280661 0.1603762 0.1410500
0.6600120 0.1678989 0.1502190
0.6907380 0.1759775 0.1590378
0.7194247 0.1850507 0.1672713
0.7405555 0.1930708 0.1733361
0.7617298 0.1983464 0.1794135
0.7796736 0.2091790 0.1845636
0.7948624 0.2191860 0.1889230
0.8111519 0.2316929 0.1935984
0.8257015 0.2457392 0.1977743
0.8388596 0.2586220 0.2015509
0.8529873 0.2759564 0.2056057
0.0753289 0.0854968 0.0762004
0.0753289 0.0854968 0.0762004
0.0753289 0.0854968 0.0762004
0.0745687 0.0861823 0.0762150
0.0720054 0.0857484 0.0760683
0.0713540 0.0856303 0.0759926
0.0729023 0.0871168 0.0761410
0.0764000 0.0876754 0.0761649
0.0809557 0.0896410 0.0762307
0.0894472 0.0923410 0.0765404
0.1050458 0.0953576 0.0768087
0.1327914 0.1012833 0.0773857
0.1732212 0.1089959 0.0776360
0.2183183 0.1169659 0.0771246
0.2825589 0.1286779 0.0748537
0.3361915 0.1370685 0.0716398
0.4066005 0.1457309 0.0774861
0.4675274 0.1525356 0.0949731
0.5147847 0.1610550 0.1085366
0.5641406 0.1675682 0.1227025
0.6020805 0.1761391 0.1335918
0.6360404 0.1810748 0.1433388
0.6686528 0.1903876 0.1526990
0.6983357 0.1957958 0.1612184
0.7275448 0.2062487 0.1696019
0.7491937 0.2157303 0.1758154
0.7714095 0.2239513 0.1821917
0.7892341 0.2347727 0.1873076
0.8057047 0.2485169 0.1920349
0.8202157 0.2565524 0.1961998
0.8356062 0.2733421 0.2006171
0.8494050 0.2880340 0.2045775
0.8618088 0.2983548 0.2081376
0.0737438 0.0950904 0.0771135
0.0737541 0.0950810 0.0770621
0.0737541 0.0950810 0.0770621
0.0726553 0.0965514 0.0771438
0.0700585 0.0961050 0.0770074
0.0694272 0.0959880 0.0769348
0.0711915 0.0962493 0.0768377
0.0746071 0.0984871 0.0770105
0.0787931 0.0991687 0.0770194
0.0883548 0.1025207 0.0773282
0.1014908 0.1068835 0.0778168
0.1280083 0.1121046 0.0783046
0.1695741 0.1211151 0.0785343
0.2164965 0.1314149 0.0778854
0.2797971 0.1427096 0.0754656
0.3471178 0.1543681 0.0709661
0.4056748 0.1632581 0.0772204
0.4678433 0.1718426 0.0950637
0.5275509 0.1807455 0.1122007
0.5702671 0.1913076 0.1244609
0.6075683 0.1975573 0.1351669
0.6428295 0.2052219 0.1452873
0.6743764 0.2115944 0.1543418
0.7087227 0.2234824 0.1641997
0.7365416 0.2303872 0.1721841
0.7595264 0.2436741 0.1787810
0.7814825 0.2511994 0.1850828
0.8002075 0.2647256 0.1904571
0.8159732 0.2735690 0.1949821
0.8325870 0.2911291 0.1997505
0.8453983 0.3011295 0.2034276
0.8612669 0.3200597 0.2079821
0.8725716 0.3305326 0.2112267
0.0712595 0.1068818 0.0779944
0.0706877 0.1091990 0.0781869
0.0707006 0.1091888 0.0781344
0.0692643 0.1089341 0.0780436
0.0667583 0.1084896 0.0778783
0.0664870 0.1084303 0.0778124
0.0678050 0.1110849 0.0779668
0.0714952 0.1125150 0.0780382
0.0768307 0.1134151 0.0781246
0.0843854 0.1172332 0.0784874
0.1008557 0.1210216 0.0789214
0.1291426 0.1288027 0.0794199
0.1658039 0.1390036 0.0794898
0.2216578 0.1490875 0.0782252
0.2773620 0.1605630 0.0757402
0.3466955 0.1744153 0.0707011
0.4090913 0.1853579 0.0782010
0.4724808 0.1956744 0.0963948
0.5337135 0.2068258 0.1139694
0.5758681 0.2146872 0.1260684
0.6243596 0.2246865 0.1399862
0.6594720 0.2324091 0.1500640
0.6914201 0.2400487 0.1592336
0.7161764 0.2500238 0.1663390
0.7467605 0.2637052 0.1751171
0.7691136 0.2752244 0.1815327
0.7934038 0.2848057 0.1885044
0.8106097 0.2944078 0.1934427
0.8295015 0.3126709 0.1988650
0.8432150 0.3224540 0.2028009
0.8570511 0.3323634 0.2067721
0.8706868 0.3486761 0.2106857
0.8819132 0.3593460 0.2139079
0.0665724 0.1236339 0.0789456
0.0665724 0.1236339 0.0789456
0.0665813 0.1236279 0.0789159
0.0645305 0.1232778 0.0788445
0.0614702 0.1237527 0.0787888
0.0610350 0.1257576 0.0788287
0.0630252 0.1271501 0.0789494
0.0669615 0.1278108 0.0790422
0.0718529 0.1318709 0.0793539
0.0808708 0.1345386 0.0796571
0.0982066 0.1387103 0.0799778
0.1295997 0.1477916 0.0802613
0.1683997 0.1596393 0.0799139
0.2195761 0.1697630 0.0784771
0.2853028 0.1841952 0.0748916
0.3456559 0.1942595 0.0701684
0.4089197 0.2086003 0.0781518
0.4737703 0.2209823 0.0967649
0.5364886 0.2344120 0.1147659
0.5833124 0.2449721 0.1282050
0.6325898 0.2556897 0.1423484
0.6693227 0.2678463 0.1528913
0.7021971 0.2778574 0.1623267
0.7291719 0.2878111 0.1700689
0.7585387 0.2981427 0.1784976
0.7862814 0.3109121 0.1864602
0.8055665 0.3206663 0.1919952
0.8227993 0.3306408 0.1969413
0.8387607 0.3406456 0.2015225
0.8524395 0.3506255 0.2054485
0.8689415 0.3698916 0.2101848
0.8807158 0.3809746 0.2135642
0.8930365 0.3918852 0.2171004
0.0597868 0.1414731 0.0796766
0.0592691 0.1426267 0.0797286
0.0592691 0.1426267 0.0797286
0.0560131 0.1421110 0.0796978
0.0534406 0.1417102 0.0796745
0.0527301 0.1453714 0.0798415
0.0553985 0.1458013 0.0799261
0.0597744 0.1478506 0.0800936
0.0653523 0.1501607 0.0802967
0.0746188 0.1559244 0.0805584
0.0943098 0.1607964 0.0807198
0.1226748 0.1703288 0.0807339
0.1703805 0.1806797 0.0798607
0.2246209 0.1973408 0.0775531
0.2826590 0.2091529 0.0739264
0.3588876 0.2268076 0.0661949
0.4232158 0.2378902 0.0822550
0.4898743 0.2548709 0.1013869
0.5431812 0.2679308 0.1166868
0.5983700 0.2761540 0.1325268
0.6404791 0.2877812 0.1446127
0.6776932 0.3012521 0.1552937
0.7132411 0.3121706 0.1654965
0.7448758 0.3229453 0.1745761
0.7699013 0.3332295 0.1817588
0.7977108 0.3464161 0.1897406
0.8170766 0.3566932 0.1952988
0.8343503 0.3671234 0.2002566
0.8503878 0.3777838 0.2048596
0.8641967 0.3887388 0.2088230
0.8781331 0.3997853 0.2128229
0.8898641 0.4111777 0.2161899
0.9020562 0.4229638 0.2196892
0.0467389 0.1653507 0.0803638
0.0467313 0.1653538 0.0803776
0.0447633 0.1650854 0.0804048
0.0400388 0.1661930 0.0804442
0.0379256 0.1659209 0.0804704
0.0398261 0.1661866 0.0805156
0.0417150 0.1682314 0.0806339
0.0488449 0.1692516 0.0807280
0.0515242 0.1768696 0.0808525
0.0674497 0.1793286 0.0809193
0.0848638 0.1840883 0.0809198
0.1213418 0.1964325 0.0803500
0.1650372 0.2087100 0.0790432
0.2208287 0.2255024 0.0760087
0.2938680 0.2409953 0.0702356
0.3585523 0.2583243 0.0636956
0.4237455 0.2706576 0.0824070
0.4954557 0.2898540 0.1029889
0.5588636 0.3004375 0.1211879
0.6064345 0.3134612 0.1348414
0.6464408 0.3253030 0.1463238
0.6846247 0.3320771 0.1572832
0.7213023 0.3463219 0.1678102
0.7555639 0.3579823 0.1776437
0.7787608 0.3687992 0.1843016
0.8063166 0.3803461 0.1922105
0.8258576 0.3857282 0.1978191
0.8432437 0.3968136 0.2028091
0.8630908 0.4078090 0.2085056
0.8764980 0.4189830 0.2123536
0.8900263 0.4307864 0.2162364
0.8995708 0.4424345 0.2189759
0.9106794 0.4535730 0.2221642
0.0239966 0.1929172 0.0804866
0.0233093 0.1928242 0.0804886
0.0199165 0.1923722 0.0805340
0.0197911 0.1918981 0.0805417
0.0197736 0.1918075 0.0805793
0.0202046 0.1940346 0.0806191
0.0205475 0.1946114 0.0806371
0.0259127 0.1973759 0.0806406
0.0314600 0.2041209 0.0804937
0.0498662 0.2085122 0.0803653
0.0723393 0.2138823 0.0801362
0.1152405 0.2274787 0.0788658
0.1662275 0.2394056 0.0768398
0.2265777 0.2534436 0.0729896
0.2895547 0.2717501 0.0660971
0.3697646 0.2883862 0.0669137
0.4384799 0.3088343 0.0866360
0.4955499 0.3200440 0.1030159
0.5646974 0.3372668 0.1228623
0.6123328 0.3462399 0.1365343
0.6530644 0.3592788 0.1482249
0.6920044 0.3669103 0.1594013
0.7283899 0.3797114 0.1698444
0.7638209 0.3949358 0.1800137
0.7954624 0.4071258 0.1890952
0.8155565 0.4127692 0.1948625
0.8353948 0.4243347 0.2005564
0.8570216 0.4355257 0.2067636
0.8727924 0.4468202 0.2112901
0.8857153 0.4525349 0.2149991
0.8991229 0.4645927 0.2188473
0.9086987 0.4756395 0.2215957
0.9196620 0.4878669 0.2247423
0.0248762 0.2165809 0.0798044
0.0255704 0.2197134 0.0796891
0.0254694 0.2192604 0.0797203
0.0258058 0.2207641 0.0796716
0.0258314 0.2208782 0.0797157
0.0259210 0.2212765 0.0797424
0.0265005 0.2238334 0.0796149
0.0271822 0.2267997 0.0795036
0.0275374 0.2283284 0.0795120
0.0295631 0.2368333 0.0789179
0.0539363 0.2427755 0.0784150
0.1104258 0.2538811 0.0767017
0.1668708 0.2668413 0.0736101
0.2167992 0.2836271 0.0688461
0.2991163 0.3023780 0.0587822
0.3704353 0.3182610 0.0671062
0.4364546 0.3397524 0.0860547
0.5131068 0.3548546 0.1080550
0.5652753 0.3705465 0.1230281
0.6266515 0.3822146 0.1406440
0.6702587 0.3963996 0.1531599
0.7089354 0.4045422 0.1642607
0.7356661 0.4163679 0.1719328
0.7706881 0.4291354 0.1819846
0.8012723 0.4361600 0.1907627
0.8232176 0.4480135 0.1970614
0.8494793 0.4601580 0.2045989
0.8649566 0.4658262 0.2090411
0.8807995 0.4771379 0.2135882
0.8953524 0.4894106 0.2177651
0.9072188 0.4950864 0.2211709
0.9195394 0.5072893 0.2247072
0.9275420 0.5185193 0.2270040
0.0319553 0.2464499 0.0779277
0.0318530 0.2460472 0.0779764
0.0317803 0.2457610 0.0780105
0.0317490 0.2456376 0.0780995
0.0318160 0.2459016 0.0781212
0.0324547 0.2484040 0.0779515
0.0326653 0.2492227 0.0779274
0.0335162 0.2525001 0.0777551
0.0356185 0.2603942 0.0769343
0.0369668 0.2653149 0.0764384
0.0387114 0.2708501 0.0755780
0.1029650 0.2821699 0.0730982
0.1662399 0.2962961 0.0687494
0.2204235 0.3143813 0.0619100
0.2920881 0.3315996 0.0559598
0.3809280 0.3516153 0.0701177
0.4370208 0.3693124 0.0862172
0.5115407 0.3849495 0.1076055
0.5833200 0.4070556 0.1282073
0.6316252 0.4173254 0.1420715
0.6757985 0.4322107 0.1547499
0.7152032 0.4407213 0.1660596
0.7520360 0.4544646 0.1766312
0.7762457 0.4608779 0.1835797
0.8088984 0.4744740 0.1929516
0.8307490 0.4778167 0.1992230
0.8577729 0.4935600 0.2069792
0.8726344 0.4961877 0.2112447
0.8884026 0.5077286 0.2157704
0.9028569 0.5201489 0.2199190
0.9161391 0.5317357 0.2237312
0.9270076 0.5372535 0.2268506
0.9345277 0.5491480 0.2290090
0.0389252 0.2722794 0.0754388
0.0388583 0.2720448 0.0754793
0.0387973 0.2718307 0.0755161
0.0388424 0.2719891 0.0756156
0.0395418 0.2744295 0.0753994
0.0396951 0.2749610 0.0753905
0.0405383 0.2778689 0.0750744
0.0409270 0.2792231 0.0749468
0.0431917 0.2871140 0.0737723
0.0448848 0.2930130 0.0727906
0.0471229 0.3008108 0.0711333
0.0924837 0.3110916 0.0680005
0.1528239 0.3241026 0.0630542
0.2233794 0.3456345 0.0599880
0.3003447 0.3642069 0.0653185
0.3763131 0.3822084 0.0704852
0.4488818 0.4038722 0.0896215
0.5245066 0.4205234 0.1113269
0.5846485 0.4336644 0.1285885
0.6353883 0.4503418 0.1431516
0.6789922 0.4602444 0.1556666
0.7176985 0.4743845 0.1667759
0.7561032 0.4833199 0.1777985
0.7900491 0.4913793 0.1875415
0.8157945 0.5039883 0.1949309
0.8452658 0.5172470 0.2033895
0.8631884 0.5230800 0.2085336
0.8802565 0.5342615 0.2134324
0.8958306 0.5408434 0.2179024
0.9101886 0.5524270 0.2220233
0.9213505 0.5553610 0.2252270
0.9324378 0.5661863 0.2284092
0.9436001 0.5779377 0.2316129
0.0463748 0.2982042 0.0721107
0.0463342 0.2980627 0.0721432
0.0463512 0.2981220 0.0721296
0.0470294 0.3004849 0.0717832
0.0471366 0.3008586 0.0716945
0.0472964 0.3014153 0.0716999
0.0482122 0.3046061 0.0711735
0.0486452 0.3061147 0.0709259
0.0499728 0.3107401 0.0701177
0.0528298 0.3206942 0.0678093
0.0553372 0.3294305 0.0653140
0.0778216 0.3406959 0.0606535
0.1484277 0.3548044 0.0626199
0.2302582 0.3737860 0.0680679
0.3082815 0.3977043 0.0749328
0.3854572 0.4165113 0.0803307
0.4476542 0.4317715 0.0892691
0.5248597 0.4492871 0.1114283
0.5830278 0.4679669 0.1281234
0.6469794 0.4819860 0.1464784
0.6928232 0.4897452 0.1596363
0.7316455 0.5062954 0.1707788
0.7600833 0.5140024 0.1789409
0.7955782 0.5277477 0.1891285
0.8197383 0.5319332 0.1960628
0.8495812 0.5447384 0.2046281
0.8692778 0.5513219 0.2102813
0.8861464 0.5623187 0.2151229
0.9005157 0.5681727 0.2192471
0.9148216 0.5792631 0.2233531
0.9261302 0.5823998 0.2265988
0.9384611 0.5964954 0.2301380
0.9480268 0.5997162 0.2328835
0.0528541 0.3207790 0.0681422
0.0528818 0.3208754 0.0681144
0.0546944 0.3271908 0.0668041
0.0547835 0.3275014 0.0667085
0.0555245 0.3300830 0.0662130
0.0557494 0.3308667 0.0661272
0.0561093 0.3321205 0.0657185
0.0565738 0.3337388 0.0653431
0.0580146 0.3387589 0.0641178
0.0596452 0.3444403 0.0623490
0.0617365 0.3517266 0.0617365
0.0665295 0.3667167 0.0660389
0.1426493 0.3852172 0.0713488
0.2168500 0.4022480 0.0762369
0.3022143 0.4230497 0.0822073
0.3823022 0.4428450 0.0878888
0.4578101 0.4587161 0.0924441
0.5363667 0.4816315 0.1147310
0.5982320 0.4959179 0.1324872
0.6483192 0.5076576 0.1468630
0.6934732 0.5226576 0.1598228
0.7339761 0.5321471 0.1714478
0.7728018 0.5415998 0.1825913
0.8007112 0.5539001 0.1906017
0.8318543 0.5618523 0.1995402
0.8535185 0.5731182 0.2057582
0.8731097 0.5771543 0.2113812
0.8900415 0.5879168 0.2162408
0.9058506 0.5940861 0.2207783
0.9198232 0.6057405 0.2247886
0.9316992 0.6115752 0.2281972
0.9435084 0.6221941 0.2315866
0.9535635 0.6280466 0.2344726
0.0609588 0.3490170 0.0617505
0.0610073 0.3491857 0.0616872
0.0610762 0.3494258 0.0615968
0.0617496 0.3517722 0.0617496
0.0618967 0.3522846 0.0618967
0.0621922 0.3533143 0.0621922
0.0625223 0.3544644 0.0625223
0.0630767 0.3563959 0.0630767
0.0644973 0.3613455 0.0644973
0.0664900 0.3682883 0.0664900
0.0701212 0.3809399 0.0701212
0.0739448 0.3942620 0.0739448
0.1383419 0.4099934 0.0784599
0.2195326 0.4258226 0.0830032
0.3094126 0.4476376 0.0892644
0.3902029 0.4676783 0.0950164
0.4725671 0.4919596 0.1019854
0.5350788 0.5071623 0.1143613
0.5978870 0.5216798 0.1323882
0.6489203 0.5314652 0.1470355
0.6945470 0.5466169 0.1601310
0.7356163 0.5564325 0.1719185
0.7747355 0.5661736 0.1831463
0.8028093 0.5783821 0.1912039
0.8344614 0.5865904 0.2002885
0.8581266 0.5983324 0.2070808
0.8766714 0.6047130 0.2124034
0.8980788 0.6094657 0.2185476
0.9144158 0.6206201 0.2232366
0.9271208 0.6265182 0.2268831
0.9362931 0.6368213 0.2295157
0.9471024 0.6428061 0.2326181
0.9579839 0.6535352 0.2357413
0.0669063 0.3697388 0.0669063
0.0669564 0.3699134 0.0669564
0.0670417 0.3702107 0.0670417
0.0676754 0.3724184 0.0676754
0.0678818 0.3731378 0.0678818
0.0681730 0.3741521 0.0681730
0.0685110 0.3753298 0.0685110
0.0697651 0.3796993 0.0697651
0.0707332 0.3830722 0.0707332
0.0735967 0.3930491 0.0735967
0.0765568 0.4033625 0.0765568
0.0806574 0.4176495 0.0806574
0.1338598 0.4334517 0.0851928
0.2266448 0.4512771 0.0903090
0.3196296 0.4738326 0.0967827
0.4018648 0.4943607 0.1026746
0.4649833 0.5144033 0.1084271
0.5491529 0.5321244 0.1184008
0.6078016 0.5462382 0.1352338
0.6616672 0.5591021 0.1506940
0.7067617 0.5742264 0.1636368
0.7475620 0.5842246 0.1753471
0.7764770 0.5921746 0.1836462
0.8121254 0.6056786 0.1938778
0.8364362 0.6109204 0.2008553
0.8671947 0.6186961 0.2096834
0.8858262 0.6297566 0.2150310
0.9029245 0.6362077 0.2199384
0.9165866 0.6400394 0.2238597
0.9315299 0.6508158 0.2281486
0.9429876 0.6568649 0.2314371
0.9513199 0.6672679 0.2338286
0.9608293 0.6712061 0.2365579
0.0725405 0.3893691 0.0725405
0.0726028 0.3895862 0.0726028
0.0726765 0.3898432 0.0726765
0.0733268 0.3921087 0.0733268
0.0735972 0.3930508 0.0735972
0.0738943 0.3940859 0.0738943
0.0743584 0.3957030 0.0743584
0.0756789 0.4003039 0.0756789
0.0768023 0.4042180 0.0768023
0.0789872 0.4118304 0.0789872
0.0826757 0.4246816 0.0826757
0.0869193 0.4394670 0.0869193
0.1354111 0.4550086 0.0913800
0.2292840 0.4751642 0.0971649
0.3257378 0.4982845 0.1038008
0.3929362 0.5137100 0.1082281
0.4787511 0.5386804 0.1153950
0.5425881 0.5547117 0.1199962
0.6065767 0.5678059 0.1348822
0.6612570 0.5811191 0.1505763
0.7064684 0.5922570 0.1635526
0.7481940 0.6068458 0.1755285
0.7878293 0.6167997 0.1869044
0.8148763 0.6248637 0.1946673
0.8381062 0.6337541 0.2013346
0.8690867 0.6425547 0.2102265
0.8887902 0.6495996 0.2158817
0.9052106 0.6603274 0.2205946
0.9208037 0.6667773 0.2250700
0.9331611 0.6708132 0.2286168
0.9454777 0.6815192 0.2321518
0.9570356 0.6880431 0.2354691
0.9636174 0.6984853 0.2373582
0.0780476 0.4085566 0.0780476
0.0781342 0.4088585 0.0781342
0.0782294 0.4091901 0.0782294
0.0783700 0.4096799 0.0783700
0.0791959 0.4125575 0.0791959
0.0795152 0.4136699 0.0795152
0.0800112 0.4153983 0.0800112
0.0808911 0.4184637 0.0808911
0.0826536 0.4246047 0.0826536
0.0847027 0.4317440 0.0847027
0.0885098 0.4450083 0.0885098
0.0935736 0.4626516 0.0935736
0.1307700 0.4771966 0.0977483
0.2371603 0.4994847 0.1041453
0.3366292 0.5214143 0.1104394
0.4044462 0.5387763 0.1154225
0.4917071 0.5585377 0.1210943
0.5559800 0.5743642 0.1256368
0.6191279 0.5940849 0.1384846
0.6701487 0.6068261 0.1531283
0.7174494 0.6161504 0.1667043
0.7477809 0.6246725 0.1754099
0.7882313 0.6393077 0.1870198
0.8154603 0.6447164 0.1948349
0.8470651 0.6537341 0.2039060
0.8697475 0.6612977 0.2104162
0.8905095 0.6729214 0.2163751
0.9077908 0.6797460 0.2213351
0.9215932 0.6841164 0.2252966
0.9367950 0.6936489 0.2296598
0.9482089 0.7000948 0.2329357
0.9582866 0.7043974 0.2358282
0.9656025 0.7152842 0.2379279
0.0833684 0.4270950 0.0833684
0.0835430 0.4277034 0.0835430
0.0836790 0.4281774 0.0836790
0.0839172 0.4290072 0.0839172
0.0841435 0.4297955 0.0841435
0.0849425 0.4325796 0.0849425
