data/spectral_luts/provia_100f_ilfochrome_m.cube
TITLE "provia_100f_ilfochrome_m"
LUT_3D_SIZE 5
0.0584083 0.0676321 0.0745619
0.0605533 0.0686306 0.0749600
0.3099419 0.0823518 0.0777253
0.7762855 0.1835912 0.1835912
0.8665366 0.4249187 0.2094946
0.0578500 0.0690546 0.0751492
0.0591774 0.0731715 0.0768046
0.3553185 0.1347428 0.0899609
0.8203350 0.3139965 0.1962340
0.9076859 0.5825225 0.2213050
0.0148617 0.1311457 0.0975175
0.0204882 0.1954854 0.1151637
0.4509869 0.4260345 0.1151625
0.9347194 0.7203676 0.2290640
0.9876525 0.8844883 0.2442566
0.0654925 0.3648128 0.1514062
0.0874616 0.4413566 0.1629700
0.5883960 0.7709129 0.1820491
0.9951037 0.9434391 0.2463952
1.0000000 0.9687574 0.3730357
0.1195975 0.5533225 0.2370358
0.1295459 0.5879840 0.2458112
0.6969100 0.8651416 0.2717124
0.9873448 0.9663435 0.3803908
0.9920545 0.9783902 0.5408120
0.0581107 0.0678930 0.0759572
0.0605258 0.0695171 0.0779304
0.3416539 0.0878876 0.0998267
0.7857010 0.1898503 0.1862935
0.8664581 0.4603503 0.3250029
0.0568410 0.0700556 0.0794486
0.0571654 0.0797447 0.0912334
0.3846973 0.1576093 0.1359624
0.8265659 0.3546349 0.2129021
0.9035908 0.6170363 0.3737538
0.0139311 0.1582960 0.1244681
0.0269394 0.2257484 0.1582877
0.4769712 0.4744712 0.2172073
0.9336749 0.7672299 0.2913709
0.9778708 0.9108426 0.4552144
0.0739637 0.3943280 0.2036413
0.0964235 0.4725810 0.2281959
0.5985197 0.7997870 0.2700217
0.9839767 0.9571127 0.3665772
0.9921597 0.9767501 0.5275725
0.1216431 0.5604495 0.2709491
0.1330637 0.6002407 0.2854304
0.7002532 0.8728322 0.3339669
0.9839720 0.9698659 0.4434806
0.9890451 0.9806423 0.5988439
0.0468495 0.0753692 0.1480280
0.0625388 0.0788469 0.1848889
0.4090239 0.1075324 0.2825688
0.7994298 0.2514651 0.4681883
0.8735726 0.5211803 0.6842915
0.0364608 0.0842043 0.1998658
0.0526662 0.1009182 0.2541896
0.4562005 0.2080194 0.4004007
0.8372415 0.4213727 0.5802863
0.9077601 0.6800393 0.7611837
0.0651624 0.2283751 0.3636627
0.0903679 0.3002364 0.4514825
0.5506263 0.5747522 0.6354784
0.9285558 0.8318264 0.7834914
0.9682527 0.9402198 0.8618237
0.1219299 0.4866334 0.5614490
0.1422643 0.5746268 0.6322967
0.6678350 0.8773898 0.7937307
0.9655542 0.9780415 0.8641443
0.9796515 0.9849028 0.9001090
0.1586777 0.6257603 0.6894835
0.1709673 0.6857522 0.7323022
0.7624616 0.9228694 0.8386021
0.9681960 0.9822004 0.8869477
0.9799218 0.9852875 0.9153121
0.0709395 0.0709395 0.3837911
0.1469366 0.0891285 0.4471643
0.5615290 0.1603461 0.5869061
0.8250898 0.3209766 0.7046855
0.8874156 0.5725877 0.8289873
0.0828865 0.0828865 0.4254162
0.1482938 0.1065284 0.4954536
0.5950798 0.2514996 0.6500238
0.8573394 0.4821316 0.7837662
0.9216719 0.7360483 0.8902503
0.1512094 0.2989664 0.6634629
0.1711839 0.3967643 0.7330569
0.7070064 0.6819186 0.8613099
0.9410233 0.8738945 0.9292998
0.9718986 0.9540938 0.9560178
0.1989011 0.5732746 0.8296276
0.2128667 0.6869321 0.8782856
0.8012847 0.9241415 0.9470581
0.9680826 0.9801186 0.9633544
0.9797602 0.9845666 0.9651589
0.2162095 0.6925579 0.8899324
0.2236983 0.7693269 0.9160246
0.8534678 0.9490466 0.9579008
0.9706151 0.9821823 0.9649187
0.9800981 0.9847613 0.9650477
0.2058585 0.1642530 0.6104789
0.3486696 0.2154803 0.6551985
0.7362711 0.3482845 0.7454426
0.8675490 0.5117829 0.8252564
0.9088341 0.6718124 0.8846492
0.1976636 0.1598558 0.6064183
0.3436904 0.2150477 0.6537372
0.7362711 0.3482845 0.7454426
0.8770809 0.5595852 0.8437937
0.9329885 0.7848585 0.9173560
0.1892103 0.4466759 0.7958634
0.3689069 0.5409961 0.8396676
0.8346865 0.7711666 0.9148424
0.9521223 0.9058741 0.9480127
0.9750171 0.9652742 0.9608631
0.2241385 0.7265804 0.9175580
0.4521292 0.8164557 0.9401394
0.9012583 0.9567953 0.9617376
0.9722867 0.9818881 0.9648459
0.9801939 0.9847489 0.9656929
0.3141143 0.7957097 0.9374008
0.5879840 0.8712770 0.9513552
0.9263362 0.9698332 0.9638162
0.9742754 0.9831707 0.9654929
0.9805104 0.9848803 0.9662113
