data/spectral_luts/provia_100f_ilfochrome_m.cube
TITLE "provia_100f_ilfochrome_m"
LUT_3D_SIZE 33
0.0584083 0.0676321 0.0745619
0.0584083 0.0676321 0.0745619
0.0584083 0.0676321 0.0745619
0.0584078 0.0676334 0.0745624
0.0584025 0.0676470 0.0745681
0.0583594 0.0677582 0.0746141
0.0587474 0.0680204 0.0747199
0.0596662 0.0683449 0.0748480
0.0605533 0.0686306 0.0749600
0.0621523 0.0691084 0.0751458
0.0691618 0.0700283 0.0754771
0.0835952 0.0715457 0.0759950
0.1054511 0.0734893 0.0766154
0.1369160 0.0759750 0.0773446
0.1890666 0.0791156 0.0780789
0.2484614 0.0815034 0.0782896
0.3099419 0.0823518 0.0777253
0.3799623 0.0809292 0.0761353
0.4528144 0.0907502 0.0907502
0.5335203 0.1139140 0.1139140
0.6133206 0.1368179 0.1368179
0.6726907 0.1538579 0.1538579
0.7167771 0.1665114 0.1665114
0.7503631 0.1761511 0.1761511
0.7762855 0.1835912 0.1835912
0.7947428 0.1888887 0.1888887
0.8085486 0.2233997 0.1928512
0.8196173 0.2586939 0.1960280
0.8294085 0.2917356 0.1988382
0.8391016 0.3249521 0.2016203
0.8484144 0.3575273 0.2042932
0.8573214 0.3893461 0.2068497
0.8665366 0.4249187 0.2094946
0.0584083 0.0676321 0.0745619
0.0584083 0.0676321 0.0745619
0.0584083 0.0676321 0.0745619
0.0584076 0.0676339 0.0745626
0.0584001 0.0676532 0.0745706
0.0583559 0.0677673 0.0746179
0.0587523 0.0680442 0.0747296
0.0596690 0.0683778 0.0748614
0.0605733 0.0686602 0.0749719
0.0623733 0.0692035 0.0751832
0.0693390 0.0700696 0.0754927
0.0839403 0.0716096 0.0760181
0.1060209 0.0735939 0.0766518
0.1406241 0.0764007 0.0774747
0.1907184 0.0796490 0.0782425
0.2503549 0.0820703 0.0784352
0.3121470 0.0832752 0.0779639
0.3827316 0.0824420 0.0764614
0.4561780 0.0917156 0.0917156
0.5373803 0.1150219 0.1150219
0.6178716 0.1381240 0.1381240
0.6740844 0.1542580 0.1542580
0.7203622 0.1675404 0.1675404
0.7517300 0.1765434 0.1765434
0.7780632 0.1841014 0.1841014
0.7977377 0.1964798 0.1897483
0.8105416 0.2318732 0.1934232
0.8212510 0.2654615 0.1964969
0.8313176 0.2986153 0.1993862
0.8409128 0.3322105 0.2021401
0.8502727 0.3649386 0.2048266
0.8600098 0.3999569 0.2076213
0.8688966 0.4334337 0.2101719
0.0584083 0.0676321 0.0745619
0.0584083 0.0676321 0.0745619
0.0584083 0.0676321 0.0745619
0.0584072 0.0676348 0.0745630
0.0583930 0.0676717 0.0745783
0.0583413 0.0678048 0.0746334
0.0587845 0.0680817 0.0747449
0.0596623 0.0684055 0.0748728
0.0605856 0.0687103 0.0749924
0.0625216 0.0692646 0.0752073
0.0697410 0.0701648 0.0755286
0.0846980 0.0717107 0.0760533
0.1065877 0.0737286 0.0766996
0.1416494 0.0767606 0.0775975
0.1923901 0.0803589 0.0784625
0.2541564 0.0830436 0.0786745
0.3144023 0.0844330 0.0782490
0.3855402 0.0840858 0.0768103
0.4595792 0.0926918 0.0926918
0.5415546 0.1162199 0.1162199
0.6219643 0.1392987 0.1392987
0.6778315 0.1553334 0.1553334
0.7218026 0.1679538 0.1679538
0.7552570 0.1775557 0.1775557
0.7813450 0.1850433 0.1850433
0.7997461 0.2053939 0.1903247
0.8123184 0.2383376 0.1939332
0.8234793 0.2745872 0.1971365
0.8335813 0.3077234 0.2000359
0.8429615 0.3395421 0.2027282
0.8529978 0.3752414 0.2056087
0.8619760 0.4077604 0.2081856
0.8703702 0.4393453 0.2105949
0.0584083 0.0676321 0.0745619
0.0584083 0.0676321 0.0745619
0.0584076 0.0676339 0.0745626
0.0584049 0.0676408 0.0745655
0.0583771 0.0677127 0.0745953
0.0583176 0.0678658 0.0746586
0.0587814 0.0681604 0.0747772
0.0596449 0.0684779 0.0749026
0.0606443 0.0688672 0.0750562
0.0626564 0.0693724 0.0752503
0.0707881 0.0703570 0.0755996
0.0854516 0.0718362 0.0760980
0.1083213 0.0740770 0.0768212
0.1437147 0.0774625 0.0778350
0.1954282 0.0813688 0.0787663
0.2561989 0.0845669 0.0791011
0.3210731 0.0867727 0.0787811
0.3886789 0.0875058 0.0775458
0.4633485 0.0937736 0.0937736
0.5462759 0.1175750 0.1175750
0.6265810 0.1406238 0.1406238
0.6825123 0.1566769 0.1566769
0.7261297 0.1691957 0.1691957
0.7609735 0.1791964 0.1791964
0.7863803 0.1864885 0.1864885
0.8033044 0.2186623 0.1913460
0.8154371 0.2513953 0.1948283
0.8258991 0.2840020 0.1978310
0.8364560 0.3193306 0.2008610
0.8459845 0.3518102 0.2035958
0.8549797 0.3830966 0.2061776
0.8652584 0.4210695 0.2091277
0.8749229 0.4572967 0.2119015
0.0584069 0.0676357 0.0745634
0.0584066 0.0676366 0.0745637
0.0583930 0.0676717 0.0745783
0.0583735 0.0677218 0.0745990
0.0583295 0.0678353 0.0746460
0.0582579 0.0680192 0.0747221
0.0587698 0.0683186 0.0748423
0.0595877 0.0686458 0.0749717
0.0605651 0.0690979 0.0751509
0.0630648 0.0695544 0.0753219
0.0711902 0.0704912 0.0756511
0.0865662 0.0721098 0.0761986
0.1095297 0.0746935 0.0770470
0.1457801 0.0787555 0.0782803
0.2014861 0.0834788 0.0793894
0.2602649 0.0871641 0.0798451
0.3258934 0.0901430 0.0796232
0.3921434 0.0926597 0.0786848
0.4769308 0.0976720 0.0976720
0.5517026 0.1191326 0.1191326
0.6320601 0.1421964 0.1421964
0.6873765 0.1580730 0.1580730
0.7308697 0.1705562 0.1705562
0.7664725 0.1807747 0.1807747
0.7903557 0.2035021 0.1876295
0.8073250 0.2357756 0.1925000
0.8200997 0.2693285 0.1961665
0.8298850 0.3001250 0.1989750
0.8408722 0.3363412 0.2021285
0.8505601 0.3690572 0.2049091
0.8598876 0.4015757 0.2075862
0.8690394 0.4352909 0.2102129
0.8792070 0.4738884 0.2131311
0.0583523 0.0677764 0.0746217
0.0583413 0.0678048 0.0746334
0.0583216 0.0678556 0.0746544
0.0582884 0.0679408 0.0746897
0.0582367 0.0680735 0.0747446
0.0581675 0.0682505 0.0748178
0.0587737 0.0685501 0.0749372
0.0595282 0.0689967 0.0751156
0.0605090 0.0692867 0.0752282
0.0632846 0.0697355 0.0753941
0.0725547 0.0708401 0.0757826
0.0884198 0.0728792 0.0764879
0.1125634 0.0764292 0.0776784
0.1478433 0.0808528 0.0790031
0.2047072 0.0867391 0.0804102
0.2643387 0.0915921 0.0811366
0.3311801 0.0961010 0.0811366
0.4041686 0.1015895 0.0803478
0.4822268 0.1071345 0.0991920
0.5613198 0.1218928 0.1218928
0.6382926 0.1439852 0.1439852
0.6934227 0.1598083 0.1598083
0.7371576 0.1723609 0.1723609
0.7727293 0.1914910 0.1825705
0.7957308 0.2231750 0.1891723
0.8125287 0.2553099 0.1939935
0.8256901 0.2901421 0.1977710
0.8352673 0.3209254 0.2005198
0.8458008 0.3557830 0.2035431
0.8552132 0.3873271 0.2062446
0.8654713 0.4225864 0.2091888
0.8743797 0.4561278 0.2117456
0.8852913 0.4975166 0.2148774
0.0582282 0.0680952 0.0747536
0.0582155 0.0681278 0.0747670
0.0581910 0.0681904 0.0747929
0.0581604 0.0682684 0.0748251
0.0581220 0.0683662 0.0748655
0.0580255 0.0686115 0.0749667
0.0587732 0.0689938 0.0751189
0.0595260 0.0692645 0.0752250
0.0604337 0.0694927 0.0753126
0.0637759 0.0701305 0.0755512
0.0730371 0.0717830 0.0761559
0.0892917 0.0747878 0.0772228
0.1141924 0.0792203 0.0787008
0.1534450 0.0851965 0.0804530
0.2096098 0.0917131 0.0819745
0.2739754 0.0992065 0.0831902
0.3371160 0.1057549 0.0835161
0.4115973 0.1132213 0.0827080
0.4911392 0.1213400 0.1017500
0.5683048 0.1309723 0.1238977
0.6454814 0.1460485 0.1460485
0.7053283 0.1632254 0.1632254
0.7452506 0.1896700 0.1746837
0.7801270 0.2172049 0.1846937
0.8025842 0.2484597 0.1911393
0.8191079 0.2802988 0.1958818
0.8319051 0.3153904 0.1995548
0.8423590 0.3476565 0.2025552
0.8524693 0.3811119 0.2054570
0.8622934 0.4136920 0.2082767
0.8713937 0.4460078 0.2108886
0.8815061 0.4828893 0.2137911
0.8919598 0.5231981 0.2167914
0.0580704 0.0684976 0.0749197
0.0580581 0.0685289 0.0749327
0.0580183 0.0686297 0.0749742
0.0579572 0.0687844 0.0750380
0.0579109 0.0689011 0.0750861
0.0578536 0.0690454 0.0751455
0.0587750 0.0693008 0.0752443
0.0595546 0.0695900 0.0753575
0.0601778 0.0702034 0.0756031
0.0638465 0.0717930 0.0762206
0.0735413 0.0745966 0.0772639
0.0905612 0.0788992 0.0787826
0.1172291 0.0843169 0.0805229
0.1569431 0.0915351 0.0826132
0.2131992 0.1002544 0.0846403
0.2787119 0.1089153 0.0858779
0.3436269 0.1186600 0.0865463
0.4198681 0.1288884 0.0857094
0.4976861 0.1386968 0.1036290
0.5829159 0.1509199 0.1280912
0.6565126 0.1663374 0.1492146
0.7145589 0.1941770 0.1658747
0.7579963 0.2226151 0.1783419
0.7891588 0.2507698 0.1872860
0.8110375 0.2798556 0.1935655
0.8275592 0.3123879 0.1983075
0.8394060 0.3443681 0.2017077
0.8501739 0.3776985 0.2047982
0.8600410 0.4100153 0.2076302
0.8703492 0.4448690 0.2105888
0.8808701 0.4817298 0.2136085
0.8908846 0.5187340 0.2164828
0.8988377 0.5489267 0.2187655
0.0578500 0.0690546 0.0751492
0.0578395 0.0690809 0.0751601
0.0578223 0.0691241 0.0751779
0.0578012 0.0691770 0.0751996
0.0577724 0.0692490 0.0752292
0.0576924 0.0694491 0.0753114
0.0585269 0.0701781 0.0756032
0.0589237 0.0715557 0.0761581
0.0591774 0.0731715 0.0768046
0.0630112 0.0757823 0.0778096
0.0737426 0.0796493 0.0792157
0.0916414 0.0845535 0.0808754
0.1177794 0.0913190 0.0830377
0.1629962 0.1005634 0.0855759
0.2217460 0.1113415 0.0878696
0.2838543 0.1218660 0.0892585
0.3553185 0.1347428 0.0899609
0.4287384 0.1472750 0.0890080
0.5085987 0.1616200 0.1067611
0.5960945 0.1792436 0.1318737
0.6731630 0.2006322 0.1539935
0.7246231 0.2279462 0.1687633
0.7674992 0.2553385 0.1810694
0.7989300 0.2862955 0.1900905
0.8203350 0.3139965 0.1962340
0.8374231 0.3484800 0.2011386
0.8484983 0.3794456 0.2043173
0.8597441 0.4144643 0.2075450
0.8689074 0.4440050 0.2101750
0.8797689 0.4807563 0.2132924
0.8902982 0.5175141 0.2163145
0.8986003 0.5478576 0.2186973
0.9076859 0.5825225 0.2213050
0.0576842 0.0694696 0.0753198
0.0576759 0.0694901 0.0753283
0.0576265 0.0696131 0.0753787
0.0575220 0.0698723 0.0754850
0.0573263 0.0703543 0.0756823
0.0568803 0.0714364 0.0761236
0.0574086 0.0731040 0.0767903
0.0574011 0.0753457 0.0776814
0.0574197 0.0778093 0.0786476
0.0616465 0.0812576 0.0799391
0.0730523 0.0865944 0.0818225
0.0920022 0.0931202 0.0839964
0.1202571 0.1015094 0.0865590
0.1652373 0.1120793 0.0892751
0.2257018 0.1249780 0.0917171
0.2935755 0.1397279 0.0935417
0.3630029 0.1540159 0.0938796
0.4414918 0.1709643 0.0927320
0.5241872 0.1908022 0.1112353
0.6076055 0.2151710 0.1351775
0.6848553 0.2399867 0.1573494
0.7354166 0.2637963 0.1718612
0.7788233 0.2946768 0.1843195
0.8096009 0.3249612 0.1931532
0.8314329 0.3548412 0.1994193
0.8480600 0.3891533 0.2041915
0.8587522 0.4189046 0.2072603
0.8702656 0.4552923 0.2105649
0.8807784 0.4898366 0.2135822
0.8909972 0.5229097 0.2165151
0.8986248 0.5499748 0.2187044
0.9073563 0.5813572 0.2212104
0.9159223 0.6141835 0.2236690
0.0569824 0.0711906 0.0760236
0.0569485 0.0712724 0.0760569
0.0567775 0.0716826 0.0762237
0.0564932 0.0723578 0.0764975
0.0560419 0.0734124 0.0769234
0.0553255 0.0754094 0.0777225
0.0554282 0.0780604 0.0787620
0.0549971 0.0807629 0.0798104
0.0545972 0.0845959 0.0812691
0.0591950 0.0895233 0.0830446
0.0711919 0.0954758 0.0850874
0.0900504 0.1039028 0.0878189
0.1224015 0.1150867 0.0910270
0.1700650 0.1273491 0.0938003
0.2334862 0.1436439 0.0965120
0.2996881 0.1599688 0.0980535
0.3692037 0.1796218 0.0987726
0.4532994 0.2042351 0.0973597
0.5386621 0.2291445 0.1153898
0.6233535 0.2539307 0.1396974
0.6995777 0.2817033 0.1615749
0.7505433 0.3086329 0.1762028
0.7912920 0.3378007 0.1878982
0.8209935 0.3658696 0.1964230
0.8434100 0.3983333 0.2028569
0.8586363 0.4293962 0.2072271
0.8698489 0.4610257 0.2104452
0.8816655 0.4982680 0.2138368
0.8921104 0.5314666 0.2168346
0.9013779 0.5620909 0.2194945
0.9103180 0.5941750 0.2220605
0.9186930 0.6238770 0.2244642
0.9266638 0.6550530 0.2267520
0.0553474 0.0749955 0.0775585
0.0553474 0.0749955 0.0775585
0.0550483 0.0756629 0.0778249
0.0546792 0.0764754 0.0781479
0.0537973 0.0783684 0.0788956
0.0529752 0.0811873 0.0799913
0.0521751 0.0850976 0.0814808
0.0508849 0.0892179 0.0830212
0.0500879 0.0941321 0.0848096
0.0545096 0.1006112 0.0871006
0.0675452 0.1085799 0.0897215
0.0883484 0.1184910 0.0926979
0.1230419 0.1311906 0.0959711
0.1745681 0.1481649 0.0994446
0.2416758 0.1680881 0.1021784
0.3108722 0.1902546 0.1038398
0.3841994 0.2152947 0.1039956
0.4717287 0.2408655 0.1007239
0.5533848 0.2684827 0.1196154
0.6437121 0.2967908 0.1455407
0.7120690 0.3238295 0.1651601
0.7677782 0.3544042 0.1811495
0.8064299 0.3844291 0.1922431
0.8376022 0.4176870 0.2011900
0.8585421 0.4487591 0.2072001
0.8721336 0.4801396 0.2111010
0.8829317 0.5101016 0.2142002
0.8945991 0.5464651 0.2175489
0.9045592 0.5778418 0.2204076
0.9134954 0.6069838 0.2229724
0.9219778 0.6375005 0.2254070
0.9296459 0.6653963 0.2276079
0.9374304 0.6953491 0.2298421
0.0527547 0.0805235 0.0797384
0.0527547 0.0805235 0.0797384
0.0522493 0.0815382 0.0801321
0.0515930 0.0828278 0.0806297
0.0500902 0.0856697 0.0817154
0.0486689 0.0895911 0.0831808
0.0466529 0.0948837 0.0851116
0.0442284 0.1007209 0.0872080
0.0416798 0.1080593 0.0898073
0.0468544 0.1156533 0.0923213
0.0607826 0.1251154 0.0952134
0.0852343 0.1374189 0.0985396
0.1220639 0.1540663 0.1023873
0.1756757 0.1753215 0.1061310
0.2460737 0.2013279 0.1089587
0.3160313 0.2253575 0.1096827
0.3946058 0.2537177 0.1084673
0.4819315 0.2812470 0.1041075
0.5720897 0.3103200 0.1249840
0.6572648 0.3406674 0.1494305
0.7312705 0.3723920 0.1706712
0.7814629 0.4013810 0.1850772
0.8231089 0.4381166 0.1970302
0.8521862 0.4698474 0.2053758
0.8726895 0.5011583 0.2112606
0.8859243 0.5313610 0.2150591
0.8969321 0.5619611 0.2182185
0.9063730 0.5905337 0.2209282
0.9170336 0.6238262 0.2239879
0.9261558 0.6551123 0.2266062
0.9336209 0.6802925 0.2287488
0.9431944 0.7153364 0.2314965
0.9505090 0.7438741 0.2335959
0.0480984 0.0892191 0.0830503
0.0480984 0.0892191 0.0830503
0.0479294 0.0895096 0.0831585
0.0462522 0.0923108 0.0841944
0.0438367 0.0960999 0.0855733
0.0408440 0.1021339 0.0877105
0.0370519 0.1085660 0.0899755
0.0328503 0.1157479 0.0924511
0.0299830 0.1234616 0.0950224
0.0332750 0.1351465 0.0986052
0.0499005 0.1473280 0.1018951
0.0771814 0.1632618 0.1057174
0.1196432 0.1837664 0.1096744
0.1798129 0.2070409 0.1126809
0.2544994 0.2345924 0.1143452
0.3281095 0.2631408 0.1141173
0.4105993 0.2927761 0.1113338
0.4955763 0.3241134 0.1063330
0.5848654 0.3560187 0.1286508
0.6757421 0.3893042 0.1547337
0.7454135 0.4201798 0.1747304
0.7970986 0.4557010 0.1895648
0.8385822 0.4922422 0.2014713
0.8666705 0.5211627 0.2095330
0.8868492 0.5525925 0.2153246
0.8994820 0.5811405 0.2189504
0.9113071 0.6141816 0.2223444
0.9214463 0.6448838 0.2252544
0.9305902 0.6734822 0.2278789
0.9409980 0.7084786 0.2308661
0.9480335 0.7330493 0.2328854
0.9552389 0.7601213 0.2349534
0.9599856 0.7801205 0.2363158
0.0406210 0.1007466 0.0872301
0.0406210 0.1007466 0.0872301
0.0403277 0.1011472 0.0873712
0.0380464 0.1041769 0.0884398
0.0344494 0.1087829 0.0900545
0.0292420 0.1170826 0.0928791
0.0231386 0.1253648 0.0956247
0.0165845 0.1339084 0.0983796
0.0120183 0.1455659 0.1018776
0.0139735 0.1585660 0.1054015
0.0270459 0.1746556 0.1093060
0.0634769 0.1915962 0.1126559
0.1155621 0.2131406 0.1159420
0.1836984 0.2407314 0.1184282
0.2632334 0.2709169 0.1188411
0.3404579 0.3003875 0.1173033
0.4241844 0.3325160 0.1136189
0.5124210 0.3664154 0.1078582
0.6094276 0.4064525 0.1357005
0.6998863 0.4446660 0.1616635
0.7646765 0.4779137 0.1802592
0.8185813 0.5157031 0.1957307
0.8548893 0.5431583 0.2061516
0.8825612 0.5769575 0.2140939
0.9021265 0.6075113 0.2197094
0.9159326 0.6385721 0.2236720
0.9269320 0.6708317 0.2268289
0.9359586 0.6972693 0.2294197
0.9464215 0.7303579 0.2324227
0.9547282 0.7572207 0.2348069
0.9602152 0.7771211 0.2363817
0.9653710 0.7975774 0.2378615
0.9702005 0.8187945 0.2392476
0.0299809 0.1142581 0.0919289
0.0299809 0.1142581 0.0919289
0.0299809 0.1142581 0.0919289
0.0263264 0.1185503 0.0933851
0.0211303 0.1251024 0.0955441
0.0137311 0.1343634 0.0985011
0.0120353 0.1456840 0.1019565
0.0140053 0.1587685 0.1057035
0.0157073 0.1692319 0.1085420
0.0182383 0.1836340 0.1120093
0.0213858 0.2000004 0.1153676
0.0486357 0.2195120 0.1186115
0.1095968 0.2451184 0.1216450
0.1868645 0.2738692 0.1228979
0.2698090 0.3082297 0.1224295
0.3454086 0.3389840 0.1205281
0.4356117 0.3767597 0.1153088
0.5315344 0.4193178 0.1133440
0.6235991 0.4571940 0.1397679
0.7153890 0.4980211 0.1661130
0.7832360 0.5332894 0.1855861
0.8338883 0.5672495 0.2001240
0.8732203 0.6011005 0.2114129
0.9007096 0.6342653 0.2193027
0.9184417 0.6636075 0.2243921
0.9325129 0.6986109 0.2284307
0.9417441 0.7236663 0.2310802
0.9510731 0.7513462 0.2337578
0.9583867 0.7740814 0.2358569
0.9649391 0.7946982 0.2377375
0.9698933 0.8122814 0.2391595
0.9748534 0.8339227 0.2405831
0.9800856 0.8553275 0.2420848
0.0148617 0.1311457 0.0975175
0.0148617 0.1311457 0.0975175
0.0148617 0.1311457 0.0975175
0.0106399 0.1356399 0.0989495
0.0118641 0.1444893 0.1016391
0.0138113 0.1575296 0.1053940
0.0155198 0.1681129 0.1083437
0.0178061 0.1812612 0.1118023
0.0204882 0.1954854 0.1151637
0.0234076 0.2097816 0.1181189
0.0275078 0.2282014 0.1212888
0.0325473 0.2487645 0.1239762
0.1036131 0.2752392 0.1260275
0.1896652 0.3095049 0.1269068
0.2781922 0.3471053 0.1254421
0.3586946 0.3824369 0.1223778
0.4509869 0.4260345 0.1151625
0.5464779 0.4658369 0.1176330
0.6459100 0.5100182 0.1461715
0.7373583 0.5515860 0.1724185
0.8021264 0.5897433 0.1910079
0.8502843 0.6231837 0.2048299
0.8907525 0.6605405 0.2164449
0.9180119 0.6941074 0.2242687
0.9347194 0.7203676 0.2290640
0.9474111 0.7512916 0.2327067
0.9550005 0.7712557 0.2348850
0.9622713 0.7916626 0.2369718
0.9702790 0.8156611 0.2392702
0.9754863 0.8340154 0.2407647
0.9814327 0.8547769 0.2424715
0.9846166 0.8698033 0.2433853
0.9876525 0.8844883 0.2442566
0.0133283 0.1544005 0.1046130
0.0133283 0.1544005 0.1046130
0.0133283 0.1544005 0.1046130
0.0139068 0.1581412 0.1056830
0.0156316 0.1687813 0.1086001
0.0177356 0.1808710 0.1118038
0.0202087 0.1940559 0.1150206
0.0227314 0.2065670 0.1179236
0.0256560 0.2200961 0.1207317
0.0297115 0.2374426 0.1237760
0.0351849 0.2587887 0.1267269
0.0409870 0.2794325 0.1285896
0.1007849 0.3101352 0.1304709
0.1969556 0.3497562 0.1306009
0.2840519 0.3913634 0.1285147
0.3699219 0.4295492 0.1234411
0.4666870 0.4739707 0.1133815
0.5668422 0.5211119 0.1234779
0.6601682 0.5597051 0.1502638
0.7533828 0.6054911 0.1770178
0.8208254 0.6447073 0.1963748
0.8726900 0.6870004 0.2112607
0.9077481 0.7165177 0.2213229
0.9334769 0.7464558 0.2287074
0.9492434 0.7708505 0.2332326
0.9592476 0.7918057 0.2361040
0.9668787 0.8127600 0.2382942
0.9740478 0.8339423 0.2403519
0.9807520 0.8543016 0.2422761
0.9851682 0.8692377 0.2435436
0.9886541 0.8836956 0.2445441
0.9915805 0.8967317 0.2453840
0.9938637 0.9089026 0.2460393
0.0174911 0.1795108 0.1115588
0.0174911 0.1795108 0.1115588
0.0174911 0.1795108 0.1115588
0.0176868 0.1806003 0.1118576
0.0199265 0.1926005 0.1148004
0.0226251 0.2060566 0.1179361
0.0252316 0.2181905 0.1206282
0.0281614 0.2309861 0.1232279
0.0322538 0.2476198 0.1261619
0.0375422 0.2673831 0.1289572
0.0431203 0.2868650 0.1311781
0.0515125 0.3161048 0.1338377
0.0869694 0.3515437 0.1352045
0.1992323 0.3923559 0.1339538
0.2929367 0.4349782 0.1301900
0.3846875 0.4775833 0.1232626
0.4830579 0.5237411 0.1111072
0.5865074 0.5698948 0.1291221
0.6850906 0.6201357 0.1574169
0.7784273 0.6678631 0.1842059
0.8393436 0.7067415 0.2016898
0.8881509 0.7373376 0.2156982
0.9253219 0.7666130 0.2263668
0.9481888 0.7932739 0.2329300
0.9632345 0.8158371 0.2372483
0.9708896 0.8343521 0.2394454
0.9783289 0.8536845 0.2415806
0.9837126 0.8686860 0.2431258
0.9896728 0.8871029 0.2448365
0.9926715 0.8981333 0.2456972
0.9953607 0.9096202 0.2464690
0.9975728 0.9203289 0.2471039
0.9984467 0.9288337 0.2493332
0.0225695 0.2057892 0.1180456
0.0225695 0.2057892 0.1180456
0.0225695 0.2057892 0.1180456
0.0225695 0.2057892 0.1180456
0.0251445 0.2177973 0.1206536
0.0279811 0.2302216 0.1232318
0.0312358 0.2436030 0.1258020
0.0353543 0.2594175 0.1285470
0.0398744 0.2755812 0.1310581
0.0464026 0.2983010 0.1341125
0.0534035 0.3226933 0.1367136
0.0617270 0.3516935 0.1387983
0.0814592 0.3914826 0.1394266
0.1992683 0.4325294 0.1371182
0.2998848 0.4797423 0.1313472
0.3972368 0.5272212 0.1220771
0.5047620 0.5806972 0.1274545
0.6093500 0.6314232 0.1420136
0.7099366 0.6772977 0.1645481
0.8009649 0.7204267 0.1906745
0.8593911 0.7548187 0.2074437
0.9043895 0.7840380 0.2203589
0.9388289 0.8112358 0.2302435
0.9609326 0.8360082 0.2365876
0.9740627 0.8553454 0.2403561
0.9817394 0.8729240 0.2425595
0.9865582 0.8837757 0.2439425
0.9918054 0.8990085 0.2454485
0.9950021 0.9100835 0.2463661
0.9980771 0.9210774 0.2472486
0.9998960 0.9291413 0.2477707
1.0000000 0.9383814 0.2478005
1.0000000 0.9444307 0.2685938
0.0291401 0.2350861 0.1243424
0.0291401 0.2350861 0.1243424
0.0291401 0.2350861 0.1243424
0.0291401 0.2350861 0.1243424
0.0314786 0.2445679 0.1261246
0.0346736 0.2568808 0.1283786
0.0384105 0.2704692 0.1308136
0.0436650 0.2887629 0.1339781
0.0496925 0.3097636 0.1371106
0.0555195 0.3300654 0.1395675
0.0629026 0.3557892 0.1421465
0.0727936 0.3902512 0.1440509
0.0839070 0.4289717 0.1432798
0.2092563 0.4793480 0.1395628
0.3103233 0.5251836 0.1323556
0.4104168 0.5768843 0.1263601
0.5227802 0.6324151 0.1422983
0.6217514 0.6773875 0.1552060
0.7324986 0.7236213 0.1710237
0.8141270 0.7624526 0.1944522
0.8782142 0.8002000 0.2128462
0.9184781 0.8285675 0.2244026
0.9527137 0.8528633 0.2342287
0.9721069 0.8705173 0.2397948
0.9819731 0.8848553 0.2426265
0.9885736 0.8974044 0.2445210
0.9935760 0.9102339 0.2459567
0.9970405 0.9206523 0.2469511
0.9995061 0.9291938 0.2476588
1.0000000 0.9379056 0.2478005
1.0000000 0.9434306 0.2478005
1.0000000 0.9488816 0.2611899
1.0000000 0.9529924 0.2896934
0.0369879 0.2653911 0.1302177
0.0369879 0.2653911 0.1302177
0.0369879 0.2653911 0.1302177
0.0369879 0.2653911 0.1302177
0.0387522 0.2716725 0.1314404
0.0432185 0.2872071 0.1342652
0.0473404 0.3015686 0.1369514
0.0533524 0.3225152 0.1401411
0.0586815 0.3410825 0.1429709
0.0651788 0.3637201 0.1454347
0.0734572 0.3925631 0.1474704
0.0837871 0.4285540 0.1487783
0.0967509 0.4737217 0.1473471
0.2102768 0.5240551 0.1419218
0.3252127 0.5763161 0.1316790
0.4231777 0.6181499 0.1382039
0.5393385 0.6714638 0.1535058
0.6409098 0.7167479 0.1665030
0.7462460 0.7661144 0.1806719
0.8305341 0.8060340 0.1991613
0.8867747 0.8339908 0.2153032
0.9329767 0.8625564 0.2285639
0.9613895 0.8814467 0.2367188
0.9795165 0.8963878 0.2419215
0.9886936 0.9083574 0.2445554
0.9941569 0.9203045 0.2461235
0.9976610 0.9287543 0.2471292
1.0000000 0.9365618 0.2478005
1.0000000 0.9431872 0.2478005
1.0000000 0.9473248 0.2478005
1.0000000 0.9512541 0.2478005
1.0000000 0.9553629 0.2828226
1.0000000 0.9584344 0.3110105
0.0466962 0.2993240 0.1370563
0.0466962 0.2993240 0.1370563
0.0471811 0.3010133 0.1373868
0.0471811 0.3010133 0.1373868
0.0481599 0.3044236 0.1379239
0.0521928 0.3184748 0.1404930
0.0564600 0.3333426 0.1432928
0.0614344 0.3506738 0.1460428
0.0678738 0.3731096 0.1485972
0.0757919 0.4006974 0.1513863
0.0844888 0.4309987 0.1533933
0.0956007 0.4697143 0.1541321
0.1095818 0.5184263 0.1506451
0.2253205 0.5640914 0.1446940
0.3340425 0.6115733 0.1363163
0.4478499 0.6621778 0.1508406
0.5569266 0.7130262 0.1654348
0.6605761 0.7567108 0.1779729
0.7625960 0.8025578 0.1911317
0.8469480 0.8394967 0.2038723
0.9013045 0.8658053 0.2194735
0.9424036 0.8880711 0.2312695
0.9692730 0.9046562 0.2389814
0.9854954 0.9174367 0.2436375
0.9933614 0.9280253 0.2458951
0.9967667 0.9340001 0.2468725
0.9994283 0.9405152 0.2476365
1.0000000 0.9453567 0.2478005
1.0000000 0.9495311 0.2478005
1.0000000 0.9536148 0.2478005
1.0000000 0.9567263 0.2728023
1.0000000 0.9598630 0.3014971
1.0000000 0.9633457 0.3319282
0.0562130 0.3324817 0.1441146
0.0562130 0.3324817 0.1441146
0.0562130 0.3324817 0.1441146
0.0562130 0.3324817 0.1441146
0.0567479 0.3343455 0.1446224
0.0604966 0.3474067 0.1468536
0.0653171 0.3642020 0.1498067
0.0714612 0.3856086 0.1527840
0.0776462 0.4071583 0.1556058
0.0859227 0.4359947 0.1578127
0.0952765 0.4685847 0.1596646
0.1061211 0.5063688 0.1597049
0.1195103 0.5530188 0.1567865
0.2301489 0.5964845 0.1503325
0.3545862 0.6498932 0.1473147
0.4617869 0.6981859 0.1611754
0.5731362 0.7452106 0.1746722
0.6789782 0.7893989 0.1873549
0.7815819 0.8318857 0.1995493
0.8582008 0.8645197 0.2089157
0.9109184 0.8883030 0.2222328
0.9484218 0.9067705 0.2329968
0.9741855 0.9217360 0.2403914
0.9884181 0.9303449 0.2444763
0.9951627 0.9378201 0.2464121
0.9980116 0.9425083 0.2472298
0.9999058 0.9468720 0.2477735
1.0000000 0.9511115 0.2478005
1.0000000 0.9550499 0.2478005
1.0000000 0.9587487 0.2691715
1.0000000 0.9615369 0.3013176
1.0000000 0.9640935 0.3288069
1.0000000 0.9665513 0.3553880
0.0654925 0.3648128 0.1514062
0.0654925 0.3648128 0.1514062
0.0654925 0.3648128 0.1514062
0.0654925 0.3648128 0.1514062
0.0660696 0.3668237 0.1520299
0.0690809 0.3773155 0.1540403
