data/spectral_luts/provia_100f_ilfochrome_m.cube
TITLE "provia_100f_ilfochrome_m"
LUT_3D_SIZE 9
0.0584083 0.0676321 0.0745619
0.0584025 0.0676470 0.0745681
0.0605533 0.0686306 0.0749600
0.1054511 0.0734893 0.0766154
0.3099419 0.0823518 0.0777253
0.6133206 0.1368179 0.1368179
0.7762855 0.1835912 0.1835912
0.8294085 0.2917356 0.1988382
0.8665366 0.4249187 0.2094946
0.0584069 0.0676357 0.0745634
0.0583295 0.0678353 0.0746460
0.0605651 0.0690979 0.0751509
0.1095297 0.0746935 0.0770470
0.3258934 0.0901430 0.0796232
0.6320601 0.1421964 0.1421964
0.7903557 0.2035021 0.1876295
0.8408722 0.3363412 0.2021285
0.8792070 0.4738884 0.2131311
0.0578500 0.0690546 0.0751492
0.0577724 0.0692490 0.0752292
0.0591774 0.0731715 0.0768046
0.1177794 0.0913190 0.0830377
0.3553185 0.1347428 0.0899609
0.6731630 0.2006322 0.1539935
0.8203350 0.3139965 0.1962340
0.8689074 0.4440050 0.2101750
0.9076859 0.5825225 0.2213050
0.0527547 0.0805235 0.0797384
0.0500902 0.0856697 0.0817154
0.0416798 0.1080593 0.0898073
0.1220639 0.1540663 0.1023873
0.3946058 0.2537177 0.1084673
0.7312705 0.3723920 0.1706712
0.8726895 0.5011583 0.2112606
0.9170336 0.6238262 0.2239879
0.9505090 0.7438741 0.2335959
0.0148617 0.1311457 0.0975175
0.0118641 0.1444893 0.1016391
0.0204882 0.1954854 0.1151637
0.1036131 0.2752392 0.1260275
0.4509869 0.4260345 0.1151625
0.8021264 0.5897433 0.1910079
0.9347194 0.7203676 0.2290640
0.9702790 0.8156611 0.2392702
0.9876525 0.8844883 0.2442566
0.0291401 0.2350861 0.1243424
0.0314786 0.2445679 0.1261246
0.0496925 0.3097636 0.1371106
0.0839070 0.4289717 0.1432798
0.5227802 0.6324151 0.1422983
0.8782142 0.8002000 0.2128462
0.9819731 0.8848553 0.2426265
0.9995061 0.9291938 0.2476588
1.0000000 0.9529924 0.2896934
0.0654925 0.3648128 0.1514062
0.0660696 0.3668237 0.1520299
0.0874616 0.4413566 0.1629700
0.1286986 0.5850318 0.1623138
0.5883960 0.7709129 0.1820491
0.9159091 0.9032037 0.2236652
0.9951037 0.9434391 0.2463952
1.0000000 0.9590764 0.2659926
1.0000000 0.9687574 0.3730357
0.0971000 0.4749379 0.1885549
0.0976038 0.4766933 0.1886256
0.1130595 0.5305433 0.1969268
0.1672775 0.6686552 0.1984792
0.6408557 0.8298039 0.1989517
0.9340114 0.9321329 0.2288608
0.9927037 0.9589871 0.2706109
0.9978202 0.9682434 0.3674752
0.9965534 0.9744531 0.4580454
0.1195975 0.5533225 0.2370358
0.1195975 0.5533225 0.2370358
0.1295459 0.5879840 0.2458112
0.2572938 0.7221185 0.2625537
0.6969100 0.8651416 0.2717124
0.9435214 0.9471561 0.3039557
0.9873448 0.9663435 0.3803908
0.9930323 0.9735481 0.4583159
0.9920545 0.9783902 0.5408120
0.0584083 0.0676321 0.0745619
0.0583806 0.0677036 0.0745915
0.0607016 0.0687542 0.0750096
0.1102109 0.0740260 0.0772485
0.3204067 0.0834159 0.0796747
0.6232236 0.1396601 0.1396601
0.7799667 0.1846477 0.1846477
0.8307955 0.3040226 0.1992363
0.8662918 0.4342473 0.2094243
0.0583930 0.0676717 0.0745783
0.0582841 0.0679520 0.0746943
0.0605332 0.0692089 0.0752585
0.1145147 0.0757667 0.0782942
0.3370494 0.0924066 0.0819656
0.6448187 0.1458583 0.1458583
0.7927063 0.2131630 0.1883042
0.8416264 0.3470253 0.2023450
0.8787919 0.4848190 0.2151531
0.0578076 0.0691608 0.0751930
0.0576976 0.0694159 0.0753495
0.0588801 0.0746419 0.0780301
0.1236238 0.0949338 0.0857437
0.3677852 0.1406304 0.0941713
0.6801581 0.2138101 0.1560012
0.8232681 0.3265802 0.1970759
0.8699004 0.4565084 0.2104600
0.9063222 0.5940851 0.2348512
0.0517305 0.0824298 0.0808264
0.0482546 0.0887322 0.0834612
0.0394362 0.1117231 0.0923033
0.1258367 0.1610699 0.1057692
0.4056884 0.2624945 0.1166400
0.7350461 0.3847487 0.1717549
0.8733453 0.5103698 0.2114488
0.9167420 0.6347311 0.2239043
0.9491381 0.7558786 0.2497556
0.0106574 0.1357703 0.0997733
0.0128153 0.1510041 0.1043989
0.0212290 0.1992200 0.1169664
0.1067254 0.2816071 0.1303247
0.4604573 0.4369317 0.1261017
0.8074954 0.5995323 0.1925489
0.9356418 0.7304507 0.2293288
0.9688575 0.8218057 0.2388622
0.9856376 0.8893250 0.2667271
0.0291422 0.2350949 0.1243955
0.0314822 0.2445822 0.1261965
0.0497074 0.3098155 0.1374314
0.0845656 0.4312664 0.1439128
0.5220249 0.6296833 0.1415142
0.8779134 0.8005090 0.2127599
0.9821271 0.8875956 0.2426708
0.9986827 0.9299859 0.2474224
1.0000000 0.9538485 0.3055288
0.0654925 0.3648128 0.1514062
0.0654925 0.3648128 0.1514062
0.0876563 0.4420348 0.1628992
0.1280736 0.5828545 0.1625542
0.5883960 0.7709129 0.1820491
0.9211184 0.9054230 0.2251603
0.9951037 0.9434391 0.2463952
1.0000000 0.9590121 0.2660366
1.0000000 0.9687574 0.3730357
0.0971000 0.4749379 0.1885549
0.0971000 0.4749379 0.1885549
0.1130595 0.5305433 0.1969268
0.1789155 0.6721691 0.1976174
0.6408557 0.8298039 0.1989517
0.9340114 0.9321329 0.2288608
0.9927037 0.9589871 0.2706109
0.9978202 0.9682434 0.3674752
0.9965534 0.9744531 0.4580454
0.1195975 0.5533225 0.2370358
0.1195975 0.5533225 0.2370358
0.1301869 0.5902176 0.2457216
0.2572938 0.7221185 0.2625537
0.6969100 0.8651416 0.2717124
0.9434942 0.9470639 0.3039699
0.9873448 0.9663435 0.3803908
0.9930323 0.9735481 0.4583159
0.9920545 0.9783902 0.5408120
0.0581107 0.0678930 0.0759572
0.0579379 0.0682182 0.0763864
0.0605258 0.0695171 0.0779304
0.1196227 0.0760235 0.0845604
0.3416539 0.0878876 0.0998267
0.6413846 0.1448726 0.1448726
0.7857010 0.1898503 0.1862935
0.8315168 0.3262599 0.2369528
0.8664581 0.4603503 0.3250029
0.0579437 0.0681898 0.0764110
0.0577350 0.0685833 0.0769181
0.0604697 0.0702260 0.0805665
0.1258799 0.0798873 0.0906119
0.3546981 0.1003250 0.1094719
0.6597192 0.1501349 0.1501349
0.7982576 0.2402194 0.1898975
0.8420622 0.3704109 0.2534838
0.8788681 0.5133324 0.3436696
0.0568410 0.0700556 0.0794486
0.0559177 0.0714996 0.0820610
0.0571654 0.0797447 0.0912334
0.1327854 0.1047046 0.1098084
0.3846973 0.1576093 0.1359624
0.6967684 0.2399291 0.1625308
0.8265659 0.3546349 0.2129021
0.8696931 0.4861577 0.2878513
0.9035908 0.6170363 0.3737538
0.0455775 0.0902672 0.0924318
0.0386952 0.1003822 0.0999326
0.0252296 0.1266978 0.1183405
0.1332672 0.1857464 0.1468188
0.4286924 0.2908929 0.1788271
0.7527224 0.4172893 0.2048953
0.8756470 0.5465991 0.2579339
0.9148823 0.6683253 0.3328774
0.9445662 0.7814474 0.4155603
0.0139311 0.1582960 0.1244681
0.0171169 0.1774071 0.1342452
0.0269394 0.2257484 0.1582877
0.1073679 0.3179187 0.1889485
0.4769712 0.4744712 0.2172073
0.8151081 0.6374217 0.2403637
0.9336749 0.7672299 0.2913709
0.9622129 0.8503461 0.3692499
0.9778708 0.9108426 0.4552144
0.0368547 0.2649100 0.1645837
0.0404900 0.2777007 0.1700801
0.0599418 0.3454734 0.1954726
0.0979795 0.4780021 0.2247710
0.5369844 0.6720506 0.2424590
0.8790713 0.8343108 0.2600681
0.9724831 0.9113607 0.3248994
0.9883126 0.9490758 0.4072678
0.9911732 0.9656156 0.4925415
0.0739637 0.3943280 0.2036413
0.0739768 0.3943735 0.2036425
0.0964235 0.4725810 0.2281959
0.1378432 0.6168931 0.2533340
0.5985197 0.7997870 0.2700217
0.9151332 0.9224700 0.2920179
0.9839767 0.9571127 0.3665772
0.9918556 0.9700450 0.4490455
0.9921597 0.9767501 0.5275725
0.1023496 0.4932282 0.2366905
0.1023496 0.4932282 0.2366905
0.1190644 0.5514650 0.2550584
0.1696595 0.6919209 0.2826862
0.6508226 0.8474505 0.2989365
0.9311423 0.9433124 0.3353918
0.9847537 0.9664959 0.4042158
0.9909938 0.9743565 0.4834320
0.9906690 0.9792536 0.5643402
0.1216431 0.5604495 0.2709491
0.1216431 0.5604495 0.2709491
0.1330637 0.6002407 0.2854304
0.2654540 0.7328839 0.3087218
0.7002532 0.8728322 0.3339669
0.9409217 0.9515825 0.3710136
0.9839720 0.9698659 0.4434806
0.9899615 0.9762935 0.5148820
0.9890451 0.9806423 0.5988439
0.0552160 0.0701358 0.0901944
0.0549658 0.0712107 0.0960996
0.0592618 0.0735032 0.1069877
0.1361640 0.0829640 0.1258475
0.3680298 0.0973740 0.1640556
0.6627375 0.1510012 0.2210511
0.7925504 0.2272667 0.3056954
0.8332240 0.3555556 0.3981164
0.8680370 0.4924492 0.4990955
0.0543458 0.0708197 0.0944493
0.0539238 0.0721323 0.1014061
0.0585627 0.0745431 0.1149970
0.1412500 0.0886706 0.1409868
0.3824286 0.1148146 0.1882456
0.6803670 0.1600863 0.2530201
0.8035892 0.2751033 0.3312468
0.8435674 0.4012780 0.4222954
0.8791866 0.5425513 0.5211866
0.0495575 0.0756546 0.1136303
0.0475902 0.0796937 0.1248000
0.0501427 0.0907160 0.1474184
0.1525674 0.1231758 0.1883832
0.4144636 0.1827180 0.2462264
0.7117035 0.2732113 0.3113930
0.8297733 0.3891651 0.3873588
0.8720331 0.5279324 0.4786203
0.9040530 0.6534180 0.5727240
0.0224717 0.1071341 0.1471880
0.0152112 0.1202195 0.1662536
0.0219301 0.1495017 0.2026850
0.1438727 0.2193479 0.2601747
0.4560127 0.3319473 0.3292086
0.7630841 0.4583950 0.3922603
0.8756868 0.5846131 0.4671889
0.9129890 0.7063843 0.5492328
0.9402187 0.8081075 0.6310198
0.0234454 0.1916369 0.2099594
0.0285227 0.2144643 0.2325090
0.0404103 0.2639650 0.2774251
0.1062661 0.3675294 0.3416914
0.5026184 0.5275269 0.4100084
0.8287449 0.6897178 0.4709760
0.9267685 0.7985921 0.5380269
0.9553249 0.8796517 0.6138775
0.9693537 0.9280913 0.6905592
0.0494324 0.3088573 0.2831336
0.0542992 0.3258140 0.2966183
0.0741665 0.3950343 0.3475293
0.1158308 0.5401986 0.4140696
0.5567439 0.7239588 0.4759448
0.8835047 0.8766083 0.5336663
0.9612759 0.9353724 0.5962513
0.9765533 0.9650078 0.6691796
0.9806620 0.9756052 0.7357178
0.0880019 0.4432389 0.3579295
0.0901692 0.4507902 0.3613386
0.1109215 0.5230939 0.4095712
0.1541443 0.6736883 0.4708059
0.6186745 0.8416583 0.5266420
0.9108050 0.9461449 0.5799859
0.9700660 0.9722964 0.6449957
0.9795864 0.9810678 0.7088521
0.9819585 0.9841285 0.7703905
0.1146954 0.5362427 0.4159703
0.1146954 0.5362427 0.4159703
0.1322425 0.5973793 0.4544951
0.1719337 0.7356693 0.5127403
0.6731023 0.8810716 0.5637643
0.9234937 0.9612749 0.6181706
0.9714389 0.9787000 0.6785547
0.9796707 0.9834633 0.7449765
0.9815379 0.9852327 0.8010947
0.1319728 0.5964400 0.4666017
0.1319728 0.5964400 0.4666017
0.1449314 0.6415893 0.4910872
0.2665758 0.7679809 0.5441881
0.7215757 0.9021848 0.5954135
0.9354654 0.9675187 0.6463366
0.9716659 0.9802817 0.7091461
0.9791531 0.9840214 0.7705054
0.9811897 0.9853751 0.8200345
0.0468495 0.0753692 0.1480280
0.0467958 0.0759533 0.1606007
0.0625388 0.0788469 0.1848889
0.1719646 0.0932070 0.2276609
0.4090239 0.1075324 0.2825688
0.6864977 0.1578208 0.3626874
0.7994298 0.2514651 0.4681883
0.8387725 0.3811866 0.5763794
0.8735726 0.5211803 0.6842915
0.0468173 0.0753663 0.1480261
0.0465645 0.0759939 0.1622356
0.0621954 0.0795663 0.1906063
0.1765349 0.0971514 0.2425032
0.4283029 0.1265522 0.3158985
0.7021855 0.1836983 0.4035385
0.8117251 0.3037269 0.5058314
0.8485267 0.4266070 0.6097053
0.8835110 0.5676954 0.7089714
0.0364608 0.0842043 0.1998658
0.0339360 0.0879699 0.2183066
0.0526662 0.1009182 0.2541896
0.1904348 0.1386292 0.3164576
0.4562005 0.2080194 0.4004007
0.7363679 0.3056200 0.4902205
0.8372415 0.4213727 0.5802863
0.8761287 0.5542986 0.6823449
0.9077601 0.6800393 0.7611837
0.0387483 0.1299048 0.2716588
0.0452571 0.1414326 0.2943099
0.0604069 0.1767277 0.3470939
0.1858958 0.2524920 0.4255042
0.5042636 0.3694011 0.5185442
0.7857383 0.4991083 0.6047409
0.8810668 0.6220186 0.6917581
0.9164682 0.7381784 0.7654836
0.9413607 0.8285097 0.8219537
0.0651624 0.2283751 0.3636627
0.0732107 0.2489866 0.3917041
0.0903679 0.3002364 0.4514825
0.1551927 0.4178531 0.5411816
0.5506263 0.5747522 0.6354784
0.8460560 0.7344359 0.7175762
0.9285558 0.8318264 0.7834914
0.9543580 0.8985512 0.8309522
0.9682527 0.9402198 0.8618237
0.0932618 0.3529139 0.4615652
0.1000598 0.3732159 0.4852502
0.1179043 0.4440430 0.5474231
0.1452268 0.6012013 0.6426187
0.6081783 0.7737855 0.7315406
0.8947459 0.9046973 0.7966250
0.9578420 0.9511397 0.8390939
0.9728181 0.9716929 0.8662068
0.9780250 0.9787351 0.8858580
0.1219299 0.4866334 0.5614490
0.1254806 0.5003322 0.5738200
0.1422643 0.5746268 0.6322967
0.1674857 0.7192212 0.7201718
0.6678350 0.8773898 0.7937307
0.9176935 0.9591813 0.8341779
0.9655542 0.9780415 0.8641443
0.9762059 0.9832832 0.8835831
0.9796515 0.9849028 0.9001090
0.1425915 0.5719504 0.6334367
0.1425915 0.5719504 0.6334367
0.1585167 0.6405852 0.6889226
0.2361325 0.7712209 0.7638697
0.7148921 0.9053809 0.8210090
0.9298445 0.9703379 0.8541037
0.9672496 0.9816159 0.8751126
0.9767722 0.9844856 0.8952112
0.9798942 0.9853514 0.9077553
0.1586777 0.6257603 0.6894835
0.1586777 0.6257603 0.6894835
0.1709673 0.6857522 0.7323022
0.3390013 0.8009964 0.7896187
0.7624616 0.9228694 0.8386021
0.9369152 0.9733099 0.8663329
0.9681960 0.9822004 0.8869477
0.9770596 0.9845800 0.9031993
0.9799218 0.9852875 0.9153121
0.0438629 0.0742328 0.2513581
0.0491872 0.0746897 0.2667380
0.0884742 0.0803606 0.3008915
0.2327670 0.0986491 0.3590053
0.4814678 0.1219193 0.4375404
0.7208719 0.1676867 0.5237849
0.8104106 0.2705610 0.6218761
0.8474143 0.4033469 0.7093789
0.8810738 0.5472651 0.7848773
0.0438950 0.0741294 0.2512854
0.0490568 0.0748871 0.2653471
0.0878519 0.0803718 0.2991747
0.2327670 0.0986491 0.3590053
0.4796748 0.1293582 0.4480901
0.7311146 0.2050121 0.5592415
0.8216399 0.3241991 0.6571876
0.8574243 0.4522010 0.7354703
0.8910328 0.5955467 0.8045892
0.0487344 0.0849126 0.3064253
0.0542997 0.0888186 0.3258156
0.0847574 0.1043622 0.3740160
0.2503954 0.1482798 0.4530418
0.5160593 0.2271184 0.5563818
0.7638562 0.3282696 0.6469179
0.8472194 0.4487537 0.7258193
0.8838578 0.5811074 0.7930030
0.9144943 0.7067811 0.8483063
0.0789803 0.1460013 0.4118065
0.0871083 0.1612558 0.4401254
0.1035676 0.1961360 0.4974720
0.2600696 0.2809055 0.5925850
0.5705758 0.4003598 0.6833796
0.8133060 0.5355520 0.7590117
0.8897212 0.6526582 0.8134773
0.9233973 0.7642984 0.8610853
0.9459598 0.8472461 0.8953508
0.1145465 0.2624578 0.5357242
0.1228307 0.2796955 0.5645873
0.1406970 0.3364020 0.6268363
0.2477314 0.4625846 0.7169034
0.6256031 0.6243797 0.7933161
0.8697602 0.7697825 0.8482204
0.9340525 0.8509399 0.8841320
0.9579178 0.9123611 0.9115402
0.9705926 0.9498384 0.9306489
0.1473656 0.3922775 0.6500706
0.1548885 0.4180052 0.6762812
0.1729854 0.5011483 0.7393336
0.2441225 0.6477204 0.8090665
0.6759983 0.8130052 0.8656181
0.9111565 0.9198527 0.9009719
0.9606741 0.9595842 0.9219099
0.9734837 0.9738302 0.9357697
0.9782932 0.9803201 0.9484347
0.1740347 0.5210229 0.7429892
0.1791712 0.5461683 0.7608857
0.1920393 0.6272847 0.8057198
0.2857088 0.7603401 0.8586873
0.7369738 0.9032791 0.9020447
0.9318439 0.9654593 0.9230663
0.9664158 0.9792653 0.9372120
0.9763721 0.9832749 0.9469769
0.9796391 0.9845627 0.9541913
0.1898080 0.6010678 0.7979457
0.1915159 0.6107588 0.8038963
0.2016962 0.6885937 0.8393658
0.3636429 0.8032061 0.8807765
0.7772528 0.9253092 0.9162935
0.9414762 0.9737920 0.9332120
0.9679316 0.9816002 0.9447799
0.9769163 0.9840942 0.9541956
0.9798061 0.9848214 0.9582869
0.1987096 0.6532350 0.8289604
0.1987096 0.6532350 0.8289604
0.2077962 0.7254694 0.8606191
0.4414328 0.8293474 0.8957204
0.8067089 0.9359282 0.9236976
0.9469695 0.9759030 0.9397907
0.9690180 0.9819705 0.9502405
0.9774499 0.9841891 0.9562160
0.9798972 0.9847794 0.9607552
0.0709395 0.0709395 0.3837911
0.0850123 0.0760175 0.4014834
0.1469366 0.0891285 0.4471643
0.3133948 0.1132697 0.5148121
0.5615290 0.1603461 0.5869061
0.7615763 0.2331046 0.6493261
0.8250898 0.3209766 0.7046855
0.8558618 0.4335318 0.7648958
0.8874156 0.5725877 0.8289873
0.0709395 0.0709395 0.3837911
0.0850123 0.0760175 0.4014834
0.1445316 0.0883490 0.4444484
0.3133948 0.1132697 0.5148121
0.5610195 0.1570271 0.5839126
0.7615763 0.2331046 0.6493261
0.8315793 0.3526904 0.7208716
0.8664103 0.4864501 0.7884298
0.8977535 0.6228427 0.8496504
0.0828865 0.0828865 0.4254162
0.0887088 0.0887088 0.4457017
0.1482938 0.1065284 0.4954536
0.3241777 0.1625942 0.5700353
0.5950798 0.2514996 0.6500238
0.7927496 0.3612339 0.7211314
0.8573394 0.4821316 0.7837662
0.8918344 0.6113979 0.8416595
0.9216719 0.7360483 0.8902503
0.1185386 0.1657864 0.5496330
0.1247456 0.1806475 0.5712593
0.1385018 0.2291779 0.6191878
0.3432087 0.3231528 0.6890137
0.6466234 0.4448555 0.7602590
0.8409271 0.5694042 0.8175871
0.8984457 0.6824608 0.8647815
0.9305517 0.7907251 0.9062055
0.9501605 0.8634036 0.9302809
0.1512094 0.2989664 0.6634629
0.1574015 0.3247073 0.6850368
0.1711839 0.3967643 0.7330569
0.3587166 0.5165597 0.7976150
0.7070064 0.6819186 0.8613099
0.8930055 0.7973024 0.9009435
0.9410233 0.8738945 0.9292998
0.9613257 0.9233879 0.9457499
0.9718986 0.9540938 0.9560178
0.1795470 0.4516617 0.7621951
0.1846988 0.4818603 0.7801447
0.1978766 0.5714850 0.8260578
0.3792018 0.7062919 0.8781654
0.7608329 0.8556012 0.9225363
0.9311488 0.9345787 0.9454840
0.9635762 0.9646301 0.9564651
0.9744822 0.9754943 0.9620832
0.9786764 0.9809647 0.9642512
0.1989011 0.5732746 0.8296276
0.2032024 0.6044741 0.8446139
0.2128667 0.6869321 0.8782856
0.4368759 0.8081999 0.9183990
0.8012847 0.9241415 0.9470581
0.9446952 0.9705134 0.9589495
0.9680826 0.9801186 0.9633544
0.9771258 0.9834788 0.9649102
0.9797602 0.9845666 0.9651589
0.2080273 0.6348531 0.8614243
0.2118513 0.6642321 0.8747479
0.2197920 0.7382222 0.9024142
0.4972594 0.8410909 0.9340312
0.8292871 0.9411060 0.9547011
0.9500379 0.9760707 0.9626934
0.9695098 0.9818040 0.9648114
0.9776235 0.9841233 0.9651215
0.9800017 0.9847615 0.9651252
0.2162095 0.6925579 0.8899324
0.2168117 0.7003611 0.8920307
0.2236983 0.7693269 0.9160246
0.5727947 0.8668162 0.9421709
0.8534678 0.9490466 0.9579008
0.9541183 0.9775961 0.9642349
0.9706151 0.9821823 0.9649187
0.9779781 0.9841897 0.9651019
0.9800981 0.9847613 0.9650477
0.1178568 0.1074585 0.5110285
0.1438299 0.1118842 0.5264481
0.2383828 0.1231317 0.5628185
0.4105309 0.1790058 0.6159121
0.6557979 0.2451353 0.6733741
0.8013620 0.3254335 0.7251468
0.8451526 0.4085205 0.7699888
0.8698099 0.4958914 0.8114609
0.8952243 0.6073911 0.8572459
0.1157532 0.1073561 0.5106719
0.1415015 0.1114471 0.5249253
0.2383828 0.1231317 0.5628185
0.4105309 0.1790058 0.6159121
0.6557979 0.2451353 0.6733741
0.8013620 0.3254335 0.7251468
0.8451526 0.4085205 0.7699888
0.8751906 0.5232933 0.8231071
0.9044043 0.6524431 0.8733678
0.1135786 0.1084015 0.5143142
0.1404262 0.1126627 0.5291608
0.2339762 0.1325197 0.5707610
0.4146559 0.2018908 0.6332005
0.6690652 0.2929444 0.7020540
0.8170279 0.3983683 0.7615799
0.8677868 0.5224488 0.8209891
0.8990403 0.6404568 0.8684686
0.9281450 0.7636652 0.9091936
0.1404804 0.2066373 0.6260813
0.1453737 0.2261672 0.6431304
0.2359029 0.2838912 0.6870815
0.4437280 0.3703596 0.7420539
0.7177742 0.4916077 0.8031361
0.8620440 0.6056275 0.8524329
0.9076517 0.7161996 0.8927231
0.9356884 0.8095830 0.9224193
0.9548421 0.8820499 0.9419836
0.1718592 0.3610843 0.7354096
0.1769714 0.3919044 0.7532212
0.2056219 0.4648691 0.7930259
0.4806735 0.5808478 0.8453438
0.7775433 0.7264068 0.8954578
0.9110872 0.8223763 0.9244428
0.9476083 0.8928545 0.9446679
0.9644004 0.9331080 0.9539710
0.9736073 0.9602790 0.9599511
0.1982768 0.5302076 0.8274524
0.2026471 0.5630197 0.8426789
0.2123680 0.6428774 0.8765482
0.5236126 0.7675320 0.9165393
0.8243809 0.8889058 0.9453048
0.9449580 0.9468094 0.9577821
0.9661960 0.9682059 0.9620376
0.9756218 0.9773694 0.9636101
0.9791582 0.9821327 0.9644307
0.2141039 0.6438625 0.8825961
0.2176819 0.6763430 0.8950624
0.2312130 0.7526826 0.9189981
0.5816929 0.8560525 0.9450811
0.8573442 0.9425210 0.9600132
0.9546214 0.9746024 0.9639179
0.9700744 0.9810101 0.9646055
0.9776945 0.9837279 0.9648432
0.9799753 0.9846559 0.9650743
0.2208850 0.6993726 0.9062225
0.2234665 0.7289602 0.9152167
0.3093210 0.7899250 0.9329725
0.6378710 0.8838004 0.9529679
0.8744285 0.9542836 0.9622662
0.9579924 0.9784288 0.9645203
0.9714121 0.9823723 0.9647859
0.9781225 0.9842541 0.9650861
0.9802078 0.9848122 0.9652145
0.2248414 0.7375669 0.9200072
0.2265712 0.7591339 0.9260341
0.3951789 0.8163319 0.9408719
0.6940853 0.9025694 0.9560326
0.8937219 0.9606078 0.9629903
0.9602257 0.9793299 0.9645370
0.9722170 0.9826179 0.9648952
0.9783470 0.9842880 0.9651423
0.9803048 0.9848114 0.9653022
0.2058585 0.1642530 0.6104789
0.2475848 0.1804266 0.6246237
0.3486696 0.2154803 0.6551985
0.5348002 0.2766856 0.6999797
0.7362711 0.3482845 0.7454426
0.8364055 0.4262410 0.7872632
0.8675490 0.5117829 0.8252564
0.8902514 0.5922653 0.8565164
0.9088341 0.6718124 0.8846492
0.2023467 0.1636248 0.6100144
0.2435502 0.1797609 0.6241350
0.3486696 0.2154803 0.6551985
0.5348002 0.2766856 0.6999797
0.7362711 0.3482845 0.7454426
0.8340771 0.4232976 0.7852012
0.8675336 0.5118300 0.8246909
0.8902514 0.5922653 0.8565164
0.9121419 0.6877949 0.8896388
0.1976636 0.1598558 0.6064183
0.2399423 0.1761071 0.6207226
0.3436904 0.2150477 0.6537372
0.5280318 0.2760204 0.6995047
0.7362711 0.3482845 0.7454426
0.8378223 0.4384263 0.7928668
0.8770809 0.5595852 0.8437937
0.9072712 0.6753552 0.8853673
0.9329885 0.7848585 0.9173560
0.1825920 0.2698294 0.6887289
0.2349990 0.2915256 0.7036310
0.3526858 0.3456532 0.7395239
0.5629857 0.4343765 0.7879907
0.7831701 0.5450293 0.8368995
0.8810428 0.6443681 0.8733242
0.9169103 0.7496294 0.9077964
0.9414861 0.8325823 0.9299453
0.9581645 0.8955200 0.9452168
0.1892103 0.4466759 0.7958634
0.2058554 0.4753248 0.8104312
0.3689069 0.5409961 0.8396676
0.6139394 0.6586840 0.8825301
0.8346865 0.7711666 0.9148424
0.9266659 0.8510773 0.9351378
0.9521223 0.9058741 0.9480127
0.9674561 0.9423761 0.9559374
0.9750171 0.9652742 0.9608631
0.2124034 0.6207495 0.8766714
0.2156917 0.6519952 0.8881283
0.4019780 0.7277750 0.9117724
0.6693485 0.8298586 0.9376452
0.8774328 0.9148600 0.9528021
0.9542187 0.9572753 0.9598988
0.9689466 0.9712728 0.9624116
0.9769019 0.9793043 0.9640394
0.9796061 0.9827695 0.9648162
0.2241385 0.7265804 0.9175580
0.2305674 0.7548714 0.9254876
0.4521292 0.8164557 0.9401394
0.7273410 0.9022275 0.9549226
0.9012583 0.9567953 0.9617376
0.9599769 0.9768558 0.9640288
0.9722867 0.9818881 0.9648459
0.9782934 0.9840676 0.9653760
0.9801939 0.9847489 0.9656929
0.2279241 0.7675309 0.9307477
0.3092681 0.7905170 0.9359144
0.5175069 0.8479518 0.9472667
0.7692844 0.9235731 0.9586447
0.9165623 0.9665807 0.9633620
0.9627601 0.9798818 0.9647670
0.9735531 0.9829971 0.9653224
0.9785844 0.9843672 0.9656709
0.9804100 0.9848531 0.9659477
0.3141143 0.7957097 0.9374008
0.4056233 0.8192914 0.9422331
0.5879840 0.8712770 0.9513552
0.8000710 0.9336741 0.9599063
0.9263362 0.9698332 0.9638162
0.9636489 0.9802648 0.9648753
0.9742754 0.9831707 0.9654929
0.9788090 0.9843974 0.9659091
0.9805104 0.9848803 0.9662113
