data/spectral_luts/trix_400_polymax_grade_2.cube
TITLE "trix_400_polymax_grade_2"
LUT_3D_SIZE 5
0.0809042 0.0679934 0.0658237
0.0839849 0.0707815 0.0685626
0.1448385 0.1258540 0.1226635
0.2831360 0.2510134 0.2456150
0.3992469 0.3560939 0.3488417
0.0935876 0.0794719 0.0770997
0.1128893 0.0969400 0.0942596
0.1967626 0.1728454 0.1688260
0.3150648 0.2799090 0.2740009
0.4178674 0.3729455 0.3653961
0.2457562 0.2171846 0.2123830
0.2662470 0.2357289 0.2306001
0.3182636 0.2828040 0.2768447
0.3893538 0.3471406 0.3400463
0.4827845 0.4316955 0.4231097
0.4073722 0.3634473 0.3560654
0.4178674 0.3729455 0.3653961
0.4508082 0.4027569 0.3946816
0.5061443 0.4528361 0.4438773
0.5802153 0.5198705 0.5097291
0.5724786 0.5128688 0.5028509
0.5802153 0.5198705 0.5097291
0.5986405 0.5365453 0.5261098
0.6401349 0.5740978 0.5629998
0.6987826 0.6271740 0.6151397
0.1151831 0.0990159 0.0962989
0.1425527 0.1237854 0.1206314
0.2210999 0.1948706 0.1904626
0.3296788 0.2931347 0.2869931
0.4286033 0.3826615 0.3749406
0.1688380 0.1475736 0.1440000
0.1936325 0.1700127 0.1660432
0.2625219 0.2323576 0.2272883
0.3522716 0.3135812 0.3070790
0.4508082 0.4027569 0.3946816
0.3029567 0.2689511 0.2632363
0.3182636 0.2828040 0.2768447
0.3555594 0.3165567 0.3100020
0.4178674 0.3729455 0.3653961
0.5061443 0.4528361 0.4438773
0.4395934 0.3926075 0.3847112
0.4508082 0.4027569 0.3946816
0.4781934 0.4275405 0.4190280
0.5300822 0.4745000 0.4651590
0.5986405 0.5365453 0.5261098
0.5933223 0.5317323 0.5213817
0.5986405 0.5365453 0.5261098
0.6204612 0.5562931 0.5455092
0.6632397 0.5950076 0.5835407
0.7138728 0.6408306 0.6285554
0.3214901 0.2857239 0.2797132
0.3361039 0.2989494 0.2927053
0.3708955 0.3304358 0.3236363
0.4351678 0.3886023 0.3807767
0.5180518 0.4636125 0.4544635
0.3473785 0.3091529 0.3027289
0.3588739 0.3195563 0.3129487
0.3932849 0.3506982 0.3435413
0.4552990 0.4068211 0.3986741
0.5349456 0.4789014 0.4694827
0.4178674 0.3729455 0.3653961
0.4286033 0.3826615 0.3749406
0.4621102 0.4129852 0.4047295
0.5132588 0.4592747 0.4502023
0.5854260 0.5245861 0.5143616
0.5300822 0.4745000 0.4651590
0.5349456 0.4789014 0.4694827
0.5597470 0.5013466 0.4915321
0.6067367 0.5438723 0.5333075
0.6632397 0.5950076 0.5835407
0.6632397 0.5950076 0.5835407
0.6632397 0.5950076 0.5835407
0.6839024 0.6137074 0.6019106
0.7138728 0.6408306 0.6285554
0.7684218 0.6901975 0.6770514
0.5132588 0.4592747 0.4502023
0.5180518 0.4636125 0.4544635
0.5472741 0.4900586 0.4804432
0.5933223 0.5317323 0.5213817
0.6545285 0.5871240 0.5757962
0.5300822 0.4745000 0.4651590
0.5349456 0.4789014 0.4694827
0.5597470 0.5013466 0.4915321
0.6067367 0.5438723 0.5333075
0.6632397 0.5950076 0.5835407
0.5802153 0.5198705 0.5097291
0.5854260 0.5245861 0.5143616
0.6067367 0.5438723 0.5333075
0.6487357 0.5818815 0.5706462
0.6987826 0.6271740 0.6151397
0.6545285 0.5871240 0.5757962
0.6632397 0.5950076 0.5835407
0.6839024 0.6137074 0.6019106
0.7138728 0.6408306 0.6285554
0.7684218 0.6901975 0.6770514
0.7592942 0.6819370 0.6689367
0.7684218 0.6901975 0.6770514
0.7838322 0.7041439 0.6907518
0.8056099 0.7238529 0.7101130
0.8460455 0.7604470 0.7460616
0.7078009 0.6353355 0.6231572
0.7138728 0.6408306 0.6285554
0.7289305 0.6544579 0.6419422
0.7592942 0.6819370 0.6689367
0.8056099 0.7238529 0.7101130
0.7138728 0.6408306 0.6285554
0.7229387 0.6490353 0.6366153
0.7380050 0.6626703 0.6500098
0.7684218 0.6901975 0.6770514
0.8150682 0.7324126 0.7185217
0.7532655 0.6764810 0.6635769
0.7532655 0.6764810 0.6635769
0.7684218 0.6901975 0.6770514
0.7993307 0.7181701 0.7045305
0.8366382 0.7519334 0.7376982
0.8056099 0.7238529 0.7101130
0.8150682 0.7324126 0.7185217
0.8211772 0.7379412 0.7239528
0.8460455 0.7604470 0.7460616
0.8809875 0.7920696 0.7771264
0.8754839 0.7870889 0.7722334
0.8809875 0.7920696 0.7771264
0.8864233 0.7969890 0.7819589
0.9082353 0.8167288 0.8013506
0.9266276 0.8333740 0.8177021
