data/spectral_luts/trix_400_polymax_grade_3.cube
TITLE "trix_400_polymax_grade_3"
LUT_3D_SIZE 33
0.0778174 0.0651999 0.0630794
0.0778174 0.0651999 0.0630794
0.0778174 0.0651999 0.0630794
0.0778174 0.0651999 0.0630794
0.0778280 0.0652095 0.0630889
0.0778705 0.0652479 0.0631266
0.0780106 0.0653747 0.0632511
0.0782856 0.0656236 0.0634957
0.0788948 0.0661749 0.0640372
0.0799054 0.0670895 0.0649358
0.0811356 0.0682029 0.0660294
0.0832856 0.0701486 0.0679408
0.0862104 0.0727955 0.0705411
0.0896023 0.0758652 0.0735566
0.0939363 0.0797875 0.0774097
0.1003950 0.0856326 0.0831517
0.1081824 0.0926802 0.0900750
0.1177014 0.1012950 0.0985377
0.1305236 0.1128990 0.1099371
0.1436182 0.1247497 0.1215787
0.1588706 0.1385531 0.1351386
0.1760040 0.1540588 0.1503708
0.1912567 0.1678626 0.1639310
0.2122812 0.1868897 0.1826225
0.2313304 0.2041293 0.1995580
0.2514242 0.2223142 0.2174221
0.2721905 0.2411077 0.2358841
0.2940095 0.2608540 0.2552820
0.3117041 0.2768676 0.2710131
0.3351386 0.2980758 0.2918471
0.3535202 0.3147112 0.3081890
0.3799964 0.3386721 0.3317273
0.3987597 0.3556530 0.3484086
0.0778174 0.0651999 0.0630794
0.0778174 0.0651999 0.0630794
0.0778174 0.0651999 0.0630794
0.0778280 0.0652095 0.0630889
0.0778599 0.0652383 0.0631172
0.0779024 0.0652768 0.0631550
0.0781284 0.0654813 0.0633559
0.0785822 0.0658920 0.0637593
0.0791885 0.0664407 0.0642984
0.0802666 0.0674164 0.0652568
0.0818082 0.0688116 0.0666274
0.0839956 0.0707912 0.0685721
0.0871009 0.0736015 0.0713328
0.0907162 0.0768733 0.0745469
0.0954538 0.0811608 0.0787588
0.1014638 0.0865999 0.0841019
0.1095569 0.0939242 0.0912970
0.1203443 0.1036867 0.1008873
0.1305236 0.1128990 0.1099371
0.1462975 0.1271744 0.1239607
0.1618817 0.1412782 0.1378156
0.1760040 0.1540588 0.1503708
0.1949422 0.1711980 0.1672076
0.2122812 0.1868897 0.1826225
0.2313304 0.2041293 0.1995580
0.2514242 0.2223142 0.2174221
0.2721905 0.2411077 0.2358841
0.2940095 0.2608540 0.2552820
0.3168266 0.2815035 0.2755672
0.3351386 0.2980758 0.2918471
0.3615059 0.3219382 0.3152886
0.3799964 0.3386721 0.3317273
0.3987597 0.3556530 0.3484086
0.0778174 0.0651999 0.0630794
0.0778174 0.0651999 0.0630794
0.0778280 0.0652095 0.0630889
0.0778599 0.0652383 0.0631172
0.0778918 0.0652672 0.0631455
0.0780498 0.0654102 0.0632861
0.0782856 0.0656236 0.0634957
0.0788322 0.0661182 0.0639816
0.0795747 0.0667902 0.0646417
0.0806286 0.0677440 0.0655787
0.0825944 0.0695230 0.0673263
0.0845884 0.0713276 0.0690991
0.0877725 0.0742093 0.0719298
0.0919595 0.0779985 0.0756522
0.0967020 0.0822905 0.0798685
0.1025400 0.0875738 0.0850587
0.1109430 0.0951785 0.0925292
0.1223345 0.1054879 0.1026567
0.1328042 0.1149629 0.1119646
0.1462975 0.1271744 0.1239607
0.1618817 0.1412782 0.1378156
0.1793039 0.1570453 0.1533045
0.1949422 0.1711980 0.1672076
0.2164017 0.1906188 0.1862858
0.2356876 0.2080725 0.2034317
0.2560435 0.2264947 0.2215288
0.2769561 0.2454206 0.2401208
0.2940095 0.2608540 0.2552820
0.3168266 0.2815035 0.2755672
0.3403044 0.3027509 0.2964398
0.3615059 0.3219382 0.3152886
0.3799964 0.3386721 0.3317273
0.3987597 0.3556530 0.3484086
0.0778493 0.0652287 0.0631078
0.0778705 0.0652479 0.0631266
0.0778812 0.0652576 0.0631361
0.0779321 0.0653037 0.0631814
0.0780891 0.0654458 0.0633210
0.0782856 0.0656236 0.0634957
0.0787071 0.0660050 0.0638704
0.0794201 0.0666503 0.0645042
0.0802666 0.0674164 0.0652568
0.0815388 0.0685677 0.0663879
0.0832856 0.0701486 0.0679408
0.0862104 0.0727955 0.0705411
0.0890486 0.0753642 0.0730644
0.0932744 0.0791885 0.0768213
0.0983824 0.0838112 0.0813624
0.1054678 0.0902235 0.0876616
0.1142394 0.0981619 0.0954599
0.1243472 0.1073094 0.1044460
0.1363312 0.1181550 0.1151003
0.1490128 0.1296318 0.1263747
0.1649352 0.1440416 0.1405303
0.1826509 0.1600743 0.1562802
0.1986829 0.1745833 0.1705332
0.2164017 0.1906188 0.1862858
0.2400994 0.2120653 0.2073539
0.2560435 0.2264947 0.2215288
0.2769561 0.2454206 0.2401208
0.2990323 0.2653996 0.2597474
0.3220206 0.2862040 0.2801848
0.3403044 0.3027509 0.2964398
0.3615059 0.3219382 0.3152886
0.3854285 0.3435882 0.3365566
0.4041888 0.3605663 0.3532352
0.0779713 0.0653392 0.0632162
0.0780106 0.0653747 0.0632511
0.0781284 0.0654813 0.0633559
0.0782463 0.0655880 0.0634607
0.0785197 0.0658355 0.0637038
0.0788322 0.0661182 0.0639816
0.0794201 0.0666503 0.0645042
0.0800859 0.0672529 0.0650962
0.0811356 0.0682029 0.0660294
0.0827668 0.0696791 0.0674796
0.0849850 0.0716866 0.0694517
0.0873244 0.0738037 0.0715315
0.0913064 0.0774074 0.0750716
0.0954538 0.0811608 0.0787588
0.1014638 0.0865999 0.0841019
0.1081824 0.0926802 0.0900750
0.1177014 0.1012950 0.0985377
0.1284415 0.1110147 0.1080860
0.1411372 0.1225044 0.1193730
0.1559627 0.1359214 0.1325534
0.1680317 0.1468439 0.1432831
0.1860457 0.1631466 0.1592983
0.2024797 0.1780193 0.1739086
0.2205858 0.1944054 0.1900056
0.2400994 0.2120653 0.2073539
0.2605738 0.2305946 0.2255564
0.2817621 0.2497701 0.2443936
0.3066521 0.2722955 0.2665216
0.3220206 0.2862040 0.2801848
0.3481817 0.3098798 0.3034429
0.3667072 0.3266454 0.3199128
0.3854285 0.3435882 0.3365566
0.4041888 0.3605663 0.3532352
0.0784573 0.0657790 0.0636483
0.0785822 0.0658920 0.0637593
0.0787071 0.0660050 0.0638704
0.0789573 0.0662315 0.0640929
0.0793429 0.0665804 0.0644356
0.0797294 0.0669303 0.0647793
0.0803570 0.0674982 0.0653372
0.0814043 0.0684460 0.0662683
0.0827668 0.0696791 0.0674796
0.0845884 0.0713276 0.0690991
0.0871009 0.0736015 0.0713328
0.0901582 0.0763683 0.0740508
0.0939363 0.0797875 0.0774097
0.0983824 0.0838112 0.0813624
0.1054678 0.0902235 0.0876616
0.1125346 0.0966190 0.0939443
0.1223345 0.1054879 0.1026567
0.1328042 0.1149629 0.1119646
0.1462975 0.1271744 0.1239607
0.1618817 0.1412782 0.1378156
0.1760040 0.1540588 0.1503708
0.1912567 0.1678626 0.1639310
0.2122812 0.1868897 0.1826225
0.2313304 0.2041293 0.1995580
0.2445781 0.2161185 0.2113356
0.2651702 0.2347544 0.2296428
0.2890581 0.2563729 0.2508799
0.3066521 0.2722955 0.2665216
0.3299482 0.2933785 0.2872327
0.3481817 0.3098798 0.3034429
0.3719735 0.3314114 0.3245946
0.3907364 0.3483918 0.3412755
0.4124543 0.3680466 0.3605835
0.0794974 0.0667202 0.0645730
0.0795747 0.0667902 0.0646417
0.0797294 0.0669303 0.0647793
0.0800859 0.0672529 0.0650962
0.0804475 0.0675801 0.0654176
0.0811356 0.0682029 0.0660294
0.0822500 0.0692114 0.0670202
0.0832856 0.0701486 0.0679408
0.0849850 0.0716866 0.0694517
0.0873244 0.0738037 0.0715315
0.0901582 0.0763683 0.0740508
0.0932744 0.0791885 0.0768213
0.0975399 0.0830488 0.0806134
0.1025400 0.0875738 0.0850587
0.1095569 0.0939242 0.0912970
0.1177014 0.1012950 0.0985377
0.1284415 0.1110147 0.1080860
0.1411372 0.1225044 0.1193730
0.1517649 0.1321224 0.1288214
0.1680317 0.1468439 0.1432831
0.1826509 0.1600743 0.1562802
0.1986829 0.1745833 0.1705332
0.2164017 0.1906188 0.1862858
0.2356876 0.2080725 0.2034317
0.2560435 0.2264947 0.2215288
0.2721905 0.2411077 0.2358841
0.2940095 0.2608540 0.2552820
0.3117041 0.2768676 0.2710131
0.3351386 0.2980758 0.2918471
0.3535202 0.3147112 0.3081890
0.3719735 0.3314114 0.3245946
0.3907364 0.3483918 0.3412755
0.4124543 0.3680466 0.3605835
0.0811356 0.0682029 0.0660294
0.0814043 0.0684460 0.0662683
0.0815388 0.0685677 0.0663879
0.0819432 0.0689337 0.0667474
0.0827668 0.0696791 0.0674796
0.0836325 0.0704625 0.0682492
0.0849850 0.0716866 0.0694517
0.0866549 0.0731978 0.0709363
0.0884970 0.0748649 0.0725740
0.0907162 0.0768733 0.0745469
0.0939363 0.0797875 0.0774097
0.0975399 0.0830488 0.0806134
0.1025400 0.0875738 0.0850587
0.1095569 0.0939242 0.0912970
0.1159617 0.0997205 0.0969910
0.1263828 0.1091516 0.1062558
0.1363312 0.1181550 0.1151003
0.1490128 0.1296318 0.1263747
0.1618817 0.1412782 0.1378156
0.1760040 0.1540588 0.1503708
0.1912567 0.1678626 0.1639310
0.2063332 0.1815068 0.1773345
0.2248344 0.1982504 0.1937828
0.2445781 0.2161185 0.2113356
0.2605738 0.2305946 0.2255564
0.2817621 0.2497701 0.2443936
0.2990323 0.2653996 0.2597474
0.3220206 0.2862040 0.2801848
0.3403044 0.3027509 0.2964398
0.3615059 0.3219382 0.3152886
0.3799964 0.3386721 0.3317273
0.3987597 0.3556530 0.3484086
0.4178579 0.3729369 0.3653876
0.0839956 0.0707912 0.0685721
0.0843905 0.0711486 0.0689232
0.0845884 0.0713276 0.0690991
0.0853827 0.0720465 0.0698052
0.0862104 0.0727955 0.0705411
0.0871009 0.0736015 0.0713328
0.0884970 0.0748649 0.0725740
0.0907162 0.0768733 0.0745469
0.0926155 0.0785921 0.0762354
0.0954538 0.0811608 0.0787588
0.0993335 0.0846719 0.0822080
0.1036236 0.0885545 0.0860220
0.1095569 0.0939242 0.0912970
0.1159617 0.0997205 0.0969910
0.1243472 0.1073094 0.1044460
0.1328042 0.1149629 0.1119646
0.1462975 0.1271744 0.1239607
0.1588706 0.1385531 0.1351386
0.1727583 0.1511215 0.1474852
0.1860457 0.1631466 0.1592983
0.1986829 0.1745833 0.1705332
0.2164017 0.1906188 0.1862858
0.2356876 0.2080725 0.2034317
0.2514242 0.2223142 0.2174221
0.2721905 0.2411077 0.2358841
0.2890581 0.2563729 0.2508799
0.3117041 0.2768676 0.2710131
0.3299482 0.2933785 0.2872327
0.3481817 0.3098798 0.3034429
0.3667072 0.3266454 0.3199128
0.3854285 0.3435882 0.3365566
0.4041888 0.3605663 0.3532352
0.4259363 0.3802478 0.3725696
0.0884970 0.0748649 0.0725740
0.0884970 0.0748649 0.0725740
0.0890486 0.0753642 0.0730644
0.0901582 0.0763683 0.0740508
0.0907162 0.0768733 0.0745469
0.0919595 0.0779985 0.0756522
0.0939363 0.0797875 0.0774097
0.0954538 0.0811608 0.0787588
0.0983824 0.0838112 0.0813624
0.1025400 0.0875738 0.0850587
0.1068194 0.0914467 0.0888632
0.1125346 0.0966190 0.0939443
0.1177014 0.1012950 0.0985377
0.1263828 0.1091516 0.1062558
0.1363312 0.1181550 0.1151003
0.1436182 0.1247497 0.1215787
0.1559627 0.1359214 0.1325534
0.1680317 0.1468439 0.1432831
0.1826509 0.1600743 0.1562802
0.1949422 0.1711980 0.1672076
0.2122812 0.1868897 0.1826225
0.2313304 0.2041293 0.1995580
0.2445781 0.2161185 0.2113356
0.2605738 0.2305946 0.2255564
0.2817621 0.2497701 0.2443936
0.2990323 0.2653996 0.2597474
0.3168266 0.2815035 0.2755672
0.3351386 0.2980758 0.2918471
0.3615059 0.3219382 0.3152886
0.3799964 0.3386721 0.3317273
0.3987597 0.3556530 0.3484086
0.4124543 0.3680466 0.3605835
0.4313985 0.3851911 0.3774256
0.0939363 0.0797875 0.0774097
0.0946274 0.0804129 0.0780241
0.0946274 0.0804129 0.0780241
0.0967020 0.0822905 0.0798685
0.0975399 0.0830488 0.0806134
0.0993335 0.0846719 0.0822080
0.1014638 0.0865999 0.0841019
0.1036236 0.0885545 0.0860220
0.1068194 0.0914467 0.0888632
0.1109430 0.0951785 0.0925292
0.1159617 0.0997205 0.0969910
0.1223345 0.1054879 0.1026567
0.1284415 0.1110147 0.1080860
0.1387193 0.1203161 0.1172234
0.1462975 0.1271744 0.1239607
0.1588706 0.1385531 0.1351386
0.1680317 0.1468439 0.1432831
0.1793039 0.1570453 0.1533045
0.1949422 0.1711980 0.1672076
0.2063332 0.1815068 0.1773345
0.2248344 0.1982504 0.1937828
0.2400994 0.2120653 0.2073539
0.2560435 0.2264947 0.2215288
0.2769561 0.2454206 0.2401208
0.2940095 0.2608540 0.2552820
0.3117041 0.2768676 0.2710131
0.3299482 0.2933785 0.2872327
0.3481817 0.3098798 0.3034429
0.3667072 0.3266454 0.3199128
0.3854285 0.3435882 0.3365566
0.4041888 0.3605663 0.3532352
0.4259363 0.3802478 0.3725696
0.4369227 0.3901905 0.3823369
0.1025400 0.0875738 0.0850587
0.1025400 0.0875738 0.0850587
0.1036236 0.0885545 0.0860220
0.1054678 0.0902235 0.0876616
0.1068194 0.0914467 0.0888632
0.1081824 0.0926802 0.0900750
0.1109430 0.0951785 0.0925292
0.1142394 0.0981619 0.0954599
0.1177014 0.1012950 0.0985377
0.1243472 0.1073094 0.1044460
0.1284415 0.1110147 0.1080860
0.1363312 0.1181550 0.1151003
0.1436182 0.1247497 0.1215787
0.1517649 0.1321224 0.1288214
0.1618817 0.1412782 0.1378156
0.1727583 0.1511215 0.1474852
0.1826509 0.1600743 0.1562802
0.1949422 0.1711980 0.1672076
0.2063332 0.1815068 0.1773345
0.2205858 0.1944054 0.1900056
0.2400994 0.2120653 0.2073539
0.2560435 0.2264947 0.2215288
0.2721905 0.2411077 0.2358841
0.2890581 0.2563729 0.2508799
0.3066521 0.2722955 0.2665216
0.3220206 0.2862040 0.2801848
0.3403044 0.3027509 0.2964398
0.3615059 0.3219382 0.3152886
0.3799964 0.3386721 0.3317273
0.3987597 0.3556530 0.3484086
0.4124543 0.3680466 0.3605835
0.4313985 0.3851911 0.3774256
0.4504888 0.4024678 0.3943976
0.1142394 0.0981619 0.0954599
0.1142394 0.0981619 0.0954599
0.1159617 0.0997205 0.0969910
0.1177014 0.1012950 0.0985377
0.1203443 0.1036867 0.1008873
0.1223345 0.1054879 0.1026567
0.1243472 0.1073094 0.1044460
0.1284415 0.1110147 0.1080860
0.1328042 0.1149629 0.1119646
0.1387193 0.1203161 0.1172234
0.1436182 0.1247497 0.1215787
0.1490128 0.1296318 0.1263747
0.1588706 0.1385531 0.1351386
0.1680317 0.1468439 0.1432831
0.1760040 0.1540588 0.1503708
0.1860457 0.1631466 0.1592983
0.1986829 0.1745833 0.1705332
0.2122812 0.1868897 0.1826225
0.2248344 0.1982504 0.1937828
0.2400994 0.2120653 0.2073539
0.2560435 0.2264947 0.2215288
0.2721905 0.2411077 0.2358841
0.2890581 0.2563729 0.2508799
0.2990323 0.2653996 0.2597474
0.3168266 0.2815035 0.2755672
0.3351386 0.2980758 0.2918471
0.3535202 0.3147112 0.3081890
0.3719735 0.3314114 0.3245946
0.3907364 0.3483918 0.3412755
0.4041888 0.3605663 0.3532352
0.4259363 0.3802478 0.3725696
0.4451553 0.3976410 0.3896559
0.4585959 0.4098048 0.4016051
0.1284415 0.1110147 0.1080860
0.1305236 0.1128990 0.1099371
0.1305236 0.1128990 0.1099371
0.1328042 0.1149629 0.1119646
0.1363312 0.1181550 0.1151003
0.1387193 0.1203161 0.1172234
0.1411372 0.1225044 0.1193730
0.1436182 0.1247497 0.1215787
0.1490128 0.1296318 0.1263747
0.1559627 0.1359214 0.1325534
0.1618817 0.1412782 0.1378156
0.1680317 0.1468439 0.1432831
0.1760040 0.1540588 0.1503708
0.1826509 0.1600743 0.1562802
0.1949422 0.1711980 0.1672076
0.2024797 0.1780193 0.1739086
0.2164017 0.1906188 0.1862858
0.2313304 0.2041293 0.1995580
0.2400994 0.2120653 0.2073539
0.2560435 0.2264947 0.2215288
0.2721905 0.2411077 0.2358841
0.2890581 0.2563729 0.2508799
0.2990323 0.2653996 0.2597474
0.3168266 0.2815035 0.2755672
0.3351386 0.2980758 0.2918471
0.3535202 0.3147112 0.3081890
0.3667072 0.3266454 0.3199128
0.3854285 0.3435882 0.3365566
0.4041888 0.3605663 0.3532352
0.4178579 0.3729369 0.3653876
0.4369227 0.3901905 0.3823369
0.4504888 0.4024678 0.3943976
0.4696080 0.4197707 0.4113953
0.1462975 0.1271744 0.1239607
0.1490128 0.1296318 0.1263747
0.1490128 0.1296318 0.1263747
0.1517649 0.1321224 0.1288214
0.1517649 0.1321224 0.1288214
0.1559627 0.1359214 0.1325534
0.1588706 0.1385531 0.1351386
0.1618817 0.1412782 0.1378156
0.1680317 0.1468439 0.1432831
0.1727583 0.1511215 0.1474852
0.1793039 0.1570453 0.1533045
0.1860457 0.1631466 0.1592983
0.1949422 0.1711980 0.1672076
0.2024797 0.1780193 0.1739086
0.2122812 0.1868897 0.1826225
0.2248344 0.1982504 0.1937828
0.2356876 0.2080725 0.2034317
0.2514242 0.2223142 0.2174221
0.2605738 0.2305946 0.2255564
0.2769561 0.2454206 0.2401208
0.2890581 0.2563729 0.2508799
0.3066521 0.2722955 0.2665216
0.3168266 0.2815035 0.2755672
0.3351386 0.2980758 0.2918471
0.3481817 0.3098798 0.3034429
0.3667072 0.3266454 0.3199128
0.3799964 0.3386721 0.3317273
0.3987597 0.3556530 0.3484086
0.4178579 0.3729369 0.3653876
0.4313985 0.3851911 0.3774256
0.4451553 0.3976410 0.3896559
0.4640727 0.4147613 0.4064742
0.4775562 0.4269639 0.4184615
0.1680317 0.1468439 0.1432831
0.1680317 0.1468439 0.1432831
0.1727583 0.1511215 0.1474852
0.1727583 0.1511215 0.1474852
0.1760040 0.1540588 0.1503708
0.1760040 0.1540588 0.1503708
0.1793039 0.1570453 0.1533045
0.1826509 0.1600743 0.1562802
0.1912567 0.1678626 0.1639310
0.1949422 0.1711980 0.1672076
0.2024797 0.1780193 0.1739086
0.2063332 0.1815068 0.1773345
0.2164017 0.1906188 0.1862858
0.2248344 0.1982504 0.1937828
0.2356876 0.2080725 0.2034317
0.2445781 0.2161185 0.2113356
0.2560435 0.2264947 0.2215288
0.2651702 0.2347544 0.2296428
0.2817621 0.2497701 0.2443936
0.2940095 0.2608540 0.2552820
0.3066521 0.2722955 0.2665216
0.3220206 0.2862040 0.2801848
0.3351386 0.2980758 0.2918471
0.3535202 0.3147112 0.3081890
0.3667072 0.3266454 0.3199128
0.3799964 0.3386721 0.3317273
0.3987597 0.3556530 0.3484086
0.4124543 0.3680466 0.3605835
0.4313985 0.3851911 0.3774256
0.4451553 0.3976410 0.3896559
0.4585959 0.4098048 0.4016051
0.4775562 0.4269639 0.4184615
0.4909723 0.4391055 0.4303889
0.1912567 0.1678626 0.1639310
0.1912567 0.1678626 0.1639310
0.1949422 0.1711980 0.1672076
0.1949422 0.1711980 0.1672076
0.1986829 0.1745833 0.1705332
0.1986829 0.1745833 0.1705332
0.2024797 0.1780193 0.1739086
0.2063332 0.1815068 0.1773345
0.2122812 0.1868897 0.1826225
0.2164017 0.1906188 0.1862858
0.2248344 0.1982504 0.1937828
0.2313304 0.2041293 0.1995580
0.2400994 0.2120653 0.2073539
0.2514242 0.2223142 0.2174221
0.2560435 0.2264947 0.2215288
0.2651702 0.2347544 0.2296428
0.2769561 0.2454206 0.2401208
0.2890581 0.2563729 0.2508799
0.2990323 0.2653996 0.2597474
0.3117041 0.2768676 0.2710131
0.3299482 0.2933785 0.2872327
0.3403044 0.3027509 0.2964398
0.3535202 0.3147112 0.3081890
0.3667072 0.3266454 0.3199128
0.3854285 0.3435882 0.3365566
0.3987597 0.3556530 0.3484086
0.4124543 0.3680466 0.3605835
0.4313985 0.3851911 0.3774256
0.4451553 0.3976410 0.3896559
0.4585959 0.4098048 0.4016051
0.4696080 0.4197707 0.4113953
0.4909723 0.4391055 0.4303889
0.5043989 0.4512565 0.4423256
0.2164017 0.1906188 0.1862858
0.2164017 0.1906188 0.1862858
0.2164017 0.1906188 0.1862858
0.2205858 0.1944054 0.1900056
0.2205858 0.1944054 0.1900056
0.2248344 0.1982504 0.1937828
0.2313304 0.2041293 0.1995580
0.2313304 0.2041293 0.1995580
0.2356876 0.2080725 0.2034317
0.2445781 0.2161185 0.2113356
0.2514242 0.2223142 0.2174221
0.2560435 0.2264947 0.2215288
0.2605738 0.2305946 0.2255564
0.2721905 0.2411077 0.2358841
0.2817621 0.2497701 0.2443936
0.2890581 0.2563729 0.2508799
0.2990323 0.2653996 0.2597474
0.3117041 0.2768676 0.2710131
0.3220206 0.2862040 0.2801848
0.3351386 0.2980758 0.2918471
0.3481817 0.3098798 0.3034429
0.3615059 0.3219382 0.3152886
0.3719735 0.3314114 0.3245946
0.3854285 0.3435882 0.3365566
0.3987597 0.3556530 0.3484086
0.4178579 0.3729369 0.3653876
0.4313985 0.3851911 0.3774256
0.4451553 0.3976410 0.3896559
0.4585959 0.4098048 0.4016051
0.4696080 0.4197707 0.4113953
0.4828826 0.4317843 0.4231969
0.5043989 0.4512565 0.4423256
0.5177724 0.4633595 0.4542151
0.2445781 0.2161185 0.2113356
0.2445781 0.2161185 0.2113356
0.2445781 0.2161185 0.2113356
0.2445781 0.2161185 0.2113356
0.2514242 0.2223142 0.2174221
0.2514242 0.2223142 0.2174221
0.2560435 0.2264947 0.2215288
0.2605738 0.2305946 0.2255564
0.2605738 0.2305946 0.2255564
0.2651702 0.2347544 0.2296428
0.2769561 0.2454206 0.2401208
0.2817621 0.2497701 0.2443936
0.2890581 0.2563729 0.2508799
0.2940095 0.2608540 0.2552820
0.3066521 0.2722955 0.2665216
0.3117041 0.2768676 0.2710131
0.3220206 0.2862040 0.2801848
0.3351386 0.2980758 0.2918471
0.3481817 0.3098798 0.3034429
0.3535202 0.3147112 0.3081890
0.3667072 0.3266454 0.3199128
0.3799964 0.3386721 0.3317273
0.3907364 0.3483918 0.3412755
0.4041888 0.3605663 0.3532352
0.4178579 0.3729369 0.3653876
0.4313985 0.3851911 0.3774256
0.4451553 0.3976410 0.3896559
0.4585959 0.4098048 0.4016051
0.4696080 0.4197707 0.4113953
0.4828826 0.4317843 0.4231969
0.4964330 0.4440474 0.4352436
0.5097104 0.4560635 0.4470477
0.5285870 0.4731468 0.4638297
0.2721905 0.2411077 0.2358841
0.2721905 0.2411077 0.2358841
0.2721905 0.2411077 0.2358841
0.2721905 0.2411077 0.2358841
0.2769561 0.2454206 0.2401208
0.2769561 0.2454206 0.2401208
0.2817621 0.2497701 0.2443936
0.2890581 0.2563729 0.2508799
0.2890581 0.2563729 0.2508799
0.2940095 0.2608540 0.2552820
0.2990323 0.2653996 0.2597474
0.3066521 0.2722955 0.2665216
0.3117041 0.2768676 0.2710131
0.3220206 0.2862040 0.2801848
0.3299482 0.2933785 0.2872327
0.3351386 0.2980758 0.2918471
0.3481817 0.3098798 0.3034429
0.3615059 0.3219382 0.3152886
0.3667072 0.3266454 0.3199128
0.3799964 0.3386721 0.3317273
0.3907364 0.3483918 0.3412755
0.3987597 0.3556530 0.3484086
0.4124543 0.3680466 0.3605835
0.4259363 0.3802478 0.3725696
0.4369227 0.3901905 0.3823369
0.4504888 0.4024678 0.3943976
0.4640727 0.4147613 0.4064742
0.4775562 0.4269639 0.4184615
0.4909723 0.4391055 0.4303889
0.5043989 0.4512565 0.4423256
0.5177724 0.4633595 0.4542151
0.5285870 0.4731468 0.4638297
0.5365721 0.4803733 0.4709287
0.2990323 0.2653996 0.2597474
0.2990323 0.2653996 0.2597474
0.2990323 0.2653996 0.2597474
0.2990323 0.2653996 0.2597474
0.3066521 0.2722955 0.2665216
0.3066521 0.2722955 0.2665216
0.3117041 0.2768676 0.2710131
0.3117041 0.2768676 0.2710131
0.3168266 0.2815035 0.2755672
0.3220206 0.2862040 0.2801848
0.3299482 0.2933785 0.2872327
0.3351386 0.2980758 0.2918471
0.3403044 0.3027509 0.2964398
0.3481817 0.3098798 0.3034429
0.3535202 0.3147112 0.3081890
0.3615059 0.3219382 0.3152886
0.3719735 0.3314114 0.3245946
0.3799964 0.3386721 0.3317273
0.3907364 0.3483918 0.3412755
0.3987597 0.3556530 0.3484086
0.4124543 0.3680466 0.3605835
0.4259363 0.3802478 0.3725696
0.4313985 0.3851911 0.3774256
0.4451553 0.3976410 0.3896559
0.4585959 0.4098048 0.4016051
0.4696080 0.4197707 0.4113953
0.4775562 0.4269639 0.4184615
0.4909723 0.4391055 0.4303889
0.5043989 0.4512565 0.4423256
0.5177724 0.4633595 0.4542151
0.5285870 0.4731468 0.4638297
0.5419562 0.4852459 0.4757154
0.5501242 0.4926380 0.4829770
0.3299482 0.2933785 0.2872327
0.3299482 0.2933785 0.2872327
0.3299482 0.2933785 0.2872327
0.3299482 0.2933785 0.2872327
0.3299482 0.2933785 0.2872327
0.3351386 0.2980758 0.2918471
0.3351386 0.2980758 0.2918471
0.3403044 0.3027509 0.2964398
0.3403044 0.3027509 0.2964398
0.3481817 0.3098798 0.3034429
0.3535202 0.3147112 0.3081890
0.3615059 0.3219382 0.3152886
0.3667072 0.3266454 0.3199128
0.3719735 0.3314114 0.3245946
0.3799964 0.3386721 0.3317273
0.3854285 0.3435882 0.3365566
0.3987597 0.3556530 0.3484086
0.4041888 0.3605663 0.3532352
0.4124543 0.3680466 0.3605835
0.4259363 0.3802478 0.3725696
0.4313985 0.3851911 0.3774256
0.4451553 0.3976410 0.3896559
0.4504888 0.4024678 0.3943976
0.4640727 0.4147613 0.4064742
0.4775562 0.4269639 0.4184615
0.4828826 0.4317843 0.4231969
0.4964330 0.4440474 0.4352436
0.5097104 0.4560635 0.4470477
0.5177724 0.4633595 0.4542151
0.5285870 0.4731468 0.4638297
0.5419562 0.4852459 0.4757154
0.5555749 0.4975709 0.4878229
0.5691275 0.5098360 0.4998716
0.3535202 0.3147112 0.3081890
0.3535202 0.3147112 0.3081890
0.3615059 0.3219382 0.3152886
0.3615059 0.3219382 0.3152886
0.3615059 0.3219382 0.3152886
0.3615059 0.3219382 0.3152886
0.3667072 0.3266454 0.3199128
0.3667072 0.3266454 0.3199128
0.3719735 0.3314114 0.3245946
0.3719735 0.3314114 0.3245946
0.3799964 0.3386721 0.3317273
0.3854285 0.3435882 0.3365566
0.3907364 0.3483918 0.3412755
0.3987597 0.3556530 0.3484086
0.4041888 0.3605663 0.3532352
0.4124543 0.3680466 0.3605835
0.4178579 0.3729369 0.3653876
0.4259363 0.3802478 0.3725696
0.4369227 0.3901905 0.3823369
0.4451553 0.3976410 0.3896559
0.4504888 0.4024678 0.3943976
0.4640727 0.4147613 0.4064742
0.4696080 0.4197707 0.4113953
0.4828826 0.4317843 0.4231969
0.4909723 0.4391055 0.4303889
0.5043989 0.4512565 0.4423256
0.5177724 0.4633595 0.4542151
0.5232107 0.4682813 0.4590500
0.5365721 0.4803733 0.4709287
0.5501242 0.4926380 0.4829770
0.5555749 0.4975709 0.4878229
0.5691275 0.5098360 0.4998716
0.5829632 0.5223573 0.5121720
0.3854285 0.3435882 0.3365566
0.3854285 0.3435882 0.3365566
0.3854285 0.3435882 0.3365566
0.3854285 0.3435882 0.3365566
0.3854285 0.3435882 0.3365566
0.3907364 0.3483918 0.3412755
0.3907364 0.3483918 0.3412755
0.3907364 0.3483918 0.3412755
0.3987597 0.3556530 0.3484086
0.4041888 0.3605663 0.3532352
0.4041888 0.3605663 0.3532352
0.4124543 0.3680466 0.3605835
0.4178579 0.3729369 0.3653876
0.4259363 0.3802478 0.3725696
0.4313985 0.3851911 0.3774256
0.4369227 0.3901905 0.3823369
0.4451553 0.3976410 0.3896559
0.4504888 0.4024678 0.3943976
0.4585959 0.4098048 0.4016051
0.4640727 0.4147613 0.4064742
0.4775562 0.4269639 0.4184615
0.4828826 0.4317843 0.4231969
0.4909723 0.4391055 0.4303889
0.5043989 0.4512565 0.4423256
0.5097104 0.4560635 0.4470477
0.5232107 0.4682813 0.4590500
0.5285870 0.4731468 0.4638297
0.5419562 0.4852459 0.4757154
0.5501242 0.4926380 0.4829770
0.5636707 0.5048976 0.4950204
0.5691275 0.5098360 0.4998716
0.5829632 0.5223573 0.5121720
0.5968515 0.5349262 0.5245193
0.4124543 0.3680466 0.3605835
0.4124543 0.3680466 0.3605835
0.4124543 0.3680466 0.3605835
0.4124543 0.3680466 0.3605835
0.4178579 0.3729369 0.3653876
0.4178579 0.3729369 0.3653876
