data/spectral_luts/trix_400_polymax_grade_2.cube
TITLE "trix_400_polymax_grade_2"
LUT_3D_SIZE 9
0.0809042 0.0679934 0.0658237
0.0810580 0.0681326 0.0659604
0.0839849 0.0707815 0.0685626
0.0980414 0.0835026 0.0810593
0.1448385 0.1258540 0.1226635
0.2111774 0.1858908 0.1816412
0.2831360 0.2510134 0.2456150
0.3408966 0.3032869 0.2969663
0.3992469 0.3560939 0.3488417
0.0818748 0.0688718 0.0666866
0.0830687 0.0699523 0.0677480
0.0886996 0.0750483 0.0727541
0.1099397 0.0942705 0.0916372
0.1608695 0.1403621 0.1369157
0.2210999 0.1948706 0.1904626
0.2904692 0.2576499 0.2521344
0.3473785 0.3091529 0.3027289
0.4032656 0.3597308 0.3524145
0.0935876 0.0794719 0.0770997
0.0980414 0.0835026 0.0810593
0.1128893 0.0969400 0.0942596
0.1471644 0.1279590 0.1247314
0.1967626 0.1728454 0.1688260
0.2531644 0.2238891 0.2189692
0.3150648 0.2799090 0.2740009
0.3638957 0.3241010 0.3174132
0.4178674 0.3729455 0.3653961
0.1545185 0.1346144 0.1312694
0.1634936 0.1427369 0.1392486
0.1815578 0.1590850 0.1553083
0.2111774 0.1858908 0.1816412
0.2531644 0.2238891 0.2189692
0.3029567 0.2689511 0.2632363
0.3441244 0.3062080 0.2998359
0.3932849 0.3506982 0.3435413
0.4440590 0.3966489 0.3886813
0.2457562 0.2171846 0.2123830
0.2531644 0.2238891 0.2189692
0.2662470 0.2357289 0.2306001
0.2904692 0.2576499 0.2521344
0.3182636 0.2828040 0.2768447
0.3522716 0.3135812 0.3070790
0.3893538 0.3471406 0.3400463
0.4351678 0.3886023 0.3807767
0.4827845 0.4316955 0.4231097
0.3329409 0.2960869 0.2898933
0.3361039 0.2989494 0.2927053
0.3441244 0.3062080 0.2998359
0.3588739 0.3195563 0.3129487
0.3798991 0.3385842 0.3316409
0.4073722 0.3634473 0.3560654
0.4440590 0.3966489 0.3886813
0.4827845 0.4316955 0.4231097
0.5252588 0.4701348 0.4608708
0.4073722 0.3634473 0.3560654
0.4136410 0.3691205 0.3616386
0.4178674 0.3729455 0.3653961
0.4351678 0.3886023 0.3807767
0.4508082 0.4027569 0.3946816
0.4781934 0.4275405 0.4190280
0.5061443 0.4528361 0.4438773
0.5423169 0.4855723 0.4760360
0.5802153 0.5198705 0.5097291
0.4897455 0.4379952 0.4292983
0.4944361 0.4422402 0.4334683
0.5014507 0.4485884 0.4397046
0.5132588 0.4592747 0.4502023
0.5252588 0.4701348 0.4608708
0.5472741 0.4900586 0.4804432
0.5724786 0.5128688 0.5028509
0.5986405 0.5365453 0.5261098
0.6344596 0.5689616 0.5579543
0.5724786 0.5128688 0.5028509
0.5724786 0.5128688 0.5028509
0.5802153 0.5198705 0.5097291
0.5854260 0.5245861 0.5143616
0.5986405 0.5365453 0.5261098
0.6204612 0.5562931 0.5455092
0.6401349 0.5740978 0.5629998
0.6690837 0.6002964 0.5887362
0.6987826 0.6271740 0.6151397
0.0831845 0.0700571 0.0678510
0.0848946 0.0716047 0.0693713
0.0918915 0.0779370 0.0755918
0.1169832 0.1006450 0.0978993
0.1688380 0.1475736 0.1440000
0.2296754 0.2026315 0.1980866
0.2995706 0.2658867 0.2602259
0.3522716 0.3135812 0.3070790
0.4073722 0.3634473 0.3560654
0.0873562 0.0738325 0.0715597
0.0902098 0.0764150 0.0740967
0.1008887 0.0860794 0.0835906
0.1336987 0.1157726 0.1127599
0.1815578 0.1590850 0.1553083
0.2403172 0.2122624 0.2075475
0.3063751 0.2720449 0.2662754
0.3588739 0.3195563 0.3129487
0.4136410 0.3691205 0.3616386
0.1099397 0.0942705 0.0916372
0.1169832 0.1006450 0.0978993
0.1358509 0.1177203 0.1146733
0.1688380 0.1475736 0.1440000
0.2144447 0.1888477 0.1845459
0.2738288 0.2425904 0.2373405
0.3263822 0.2901512 0.2840624
0.3708955 0.3304358 0.3236363
0.4286033 0.3826615 0.3749406
0.1771987 0.1551400 0.1514329
0.1845092 0.1617561 0.1579323
0.1999322 0.1757139 0.1716438
0.2296754 0.2026315 0.1980866
0.2700158 0.2391396 0.2339506
0.3150648 0.2799090 0.2740009
0.3555594 0.3165567 0.3100020
0.4032656 0.3597308 0.3524145
0.4552990 0.4068211 0.3986741
0.2662470 0.2357289 0.2306001
0.2700158 0.2391396 0.2339506
0.2831360 0.2510134 0.2456150
0.3029567 0.2689511 0.2632363
0.3296788 0.2931347 0.2869931
0.3588739 0.3195563 0.3129487
0.3992469 0.3560939 0.3488417
0.4395934 0.3926075 0.3847112
0.4897455 0.4379952 0.4292983
0.3441244 0.3062080 0.2998359
0.3441244 0.3062080 0.2998359
0.3555594 0.3165567 0.3100020
0.3673465 0.3272240 0.3204812
0.3893538 0.3471406 0.3400463
0.4178674 0.3729455 0.3653961
0.4508082 0.4027569 0.3946816
0.4897455 0.4379952 0.4292983
0.5349456 0.4789014 0.4694827
0.4178674 0.3729455 0.3653961
0.4178674 0.3729455 0.3653961
0.4286033 0.3826615 0.3749406
0.4395934 0.3926075 0.3847112
0.4621102 0.4129852 0.4047295
0.4827845 0.4316955 0.4231097
0.5132588 0.4592747 0.4502023
0.5472741 0.4900586 0.4804432
0.5854260 0.5245861 0.5143616
0.5014507 0.4485884 0.4397046
0.5014507 0.4485884 0.4397046
0.5061443 0.4528361 0.4438773
0.5180518 0.4636125 0.4544635
0.5349456 0.4789014 0.4694827
0.5547272 0.4968037 0.4870692
0.5802153 0.5198705 0.5097291
0.6067367 0.5438723 0.5333075
0.6401349 0.5740978 0.5629998
0.5802153 0.5198705 0.5097291
0.5802153 0.5198705 0.5097291
0.5854260 0.5245861 0.5143616
0.5933223 0.5317323 0.5213817
0.6067367 0.5438723 0.5333075
0.6260304 0.5613332 0.5504604
0.6487357 0.5818815 0.5706462
0.6779388 0.6083103 0.5966088
0.7078009 0.6353355 0.6231572
0.1151831 0.0990159 0.0962989
0.1224987 0.1056365 0.1028027
0.1425527 0.1237854 0.1206314
0.1743372 0.1525504 0.1488890
0.2210999 0.1948706 0.1904626
0.2738288 0.2425904 0.2373405
0.3296788 0.2931347 0.2869931
0.3762751 0.3353044 0.3284190
0.4286033 0.3826615 0.3749406
0.1305386 0.1129126 0.1099505
0.1380592 0.1197188 0.1166366
0.1582953 0.1380325 0.1346271
0.1874975 0.1644605 0.1605890
0.2331805 0.2058036 0.2012027
0.2867829 0.2543139 0.2488572
0.3361039 0.2989494 0.2927053
0.3798991 0.3385842 0.3316409
0.4351678 0.3886023 0.3807767
0.1688380 0.1475736 0.1440000
0.1743372 0.1525504 0.1488890
0.1936325 0.1700127 0.1660432
0.2210999 0.1948706 0.1904626
0.2625219 0.2323576 0.2272883
0.3098263 0.2751682 0.2693436
0.3522716 0.3135812 0.3070790
0.3992469 0.3560939 0.3488417
0.4508082 0.4027569 0.3946816
0.2296754 0.2026315 0.1980866
0.2331805 0.2058036 0.2012027
0.2494377 0.2205164 0.2156560
0.2738288 0.2425904 0.2373405
0.3063751 0.2720449 0.2662754
0.3408966 0.3032869 0.2969663
0.3798991 0.3385842 0.3316409
0.4242785 0.3787475 0.3710957
0.4781934 0.4275405 0.4190280
0.3029567 0.2689511 0.2632363
0.3063751 0.2720449 0.2662754
0.3182636 0.2828040 0.2768447
0.3329409 0.2960869 0.2898933
0.3555594 0.3165567 0.3100020
0.3854570 0.3436140 0.3365820
0.4178674 0.3729455 0.3653961
0.4621102 0.4129852 0.4047295
0.5061443 0.4528361 0.4438773
0.3673465 0.3272240 0.3204812
0.3708955 0.3304358 0.3236363
0.3762751 0.3353044 0.3284190
0.3932849 0.3506982 0.3435413
0.4136410 0.3691205 0.3616386
0.4395934 0.3926075 0.3847112
0.4713335 0.4213323 0.4129293
0.5132588 0.4592747 0.4502023
0.5472741 0.4900586 0.4804432
0.4395934 0.3926075 0.3847112
0.4440590 0.3966489 0.3886813
0.4508082 0.4027569 0.3946816
0.4621102 0.4129852 0.4047295
0.4781934 0.4275405 0.4190280
0.5014507 0.4485884 0.4397046
0.5300822 0.4745000 0.4651590
0.5597470 0.5013466 0.4915321
0.5986405 0.5365453 0.5261098
0.5180518 0.4636125 0.4544635
0.5180518 0.4636125 0.4544635
0.5252588 0.4701348 0.4608708
0.5349456 0.4789014 0.4694827
0.5472741 0.4900586 0.4804432
0.5673546 0.5082316 0.4982955
0.5933223 0.5317323 0.5213817
0.6204612 0.5562931 0.5455092
0.6545285 0.5871240 0.5757962
0.5933223 0.5317323 0.5213817
0.5933223 0.5317323 0.5213817
0.5986405 0.5365453 0.5261098
0.6121926 0.5488100 0.5381581
0.6204612 0.5562931 0.5455092
0.6401349 0.5740978 0.5629998
0.6632397 0.5950076 0.5835407
0.6839024 0.6137074 0.6019106
0.7138728 0.6408306 0.6285554
0.2144447 0.1888477 0.1845459
0.2210999 0.1948706 0.1904626
0.2367287 0.2090148 0.2043572
0.2662470 0.2357289 0.2306001
0.2995706 0.2658867 0.2602259
0.3329409 0.2960869 0.2898933
0.3708955 0.3304358 0.3236363
0.4178674 0.3729455 0.3653961
0.4713335 0.4213323 0.4129293
0.2262130 0.1994980 0.1950084
0.2331805 0.2058036 0.2012027
0.2494377 0.2205164 0.2156560
0.2738288 0.2425904 0.2373405
0.3063751 0.2720449 0.2662754
0.3408966 0.3032869 0.2969663
0.3798991 0.3385842 0.3316409
0.4242785 0.3787475 0.3710957
0.4713335 0.4213323 0.4129293
0.2569366 0.2273030 0.2223228
0.2662470 0.2357289 0.2306001
0.2776865 0.2460816 0.2407702
0.2995706 0.2658867 0.2602259
0.3263822 0.2901512 0.2840624
0.3555594 0.3165567 0.3100020
0.3932849 0.3506982 0.3435413
0.4395934 0.3926075 0.3847112
0.4897455 0.4379952 0.4292983
0.3029567 0.2689511 0.2632363
0.3063751 0.2720449 0.2662754
0.3182636 0.2828040 0.2768447
0.3329409 0.2960869 0.2898933
0.3555594 0.3165567 0.3100020
0.3854570 0.3436140 0.3365820
0.4242785 0.3787475 0.3710957
0.4667015 0.4171404 0.4088113
0.5132588 0.4592747 0.4502023
0.3522716 0.3135812 0.3070790
0.3555594 0.3165567 0.3100020
0.3638957 0.3241010 0.3174132
0.3762751 0.3353044 0.3284190
0.3992469 0.3560939 0.3488417
0.4286033 0.3826615 0.3749406
0.4621102 0.4129852 0.4047295
0.5014507 0.4485884 0.4397046
0.5423169 0.4855723 0.4760360
0.4073722 0.3634473 0.3560654
0.4136410 0.3691205 0.3616386
0.4178674 0.3729455 0.3653961
0.4351678 0.3886023 0.3807767
0.4552990 0.4068211 0.3986741
0.4781934 0.4275405 0.4190280
0.5061443 0.4528361 0.4438773
0.5423169 0.4855723 0.4760360
0.5802153 0.5198705 0.5097291
0.4781934 0.4275405 0.4190280
0.4781934 0.4275405 0.4190280
0.4897455 0.4379952 0.4292983
0.5014507 0.4485884 0.4397046
0.5132588 0.4592747 0.4502023
0.5349456 0.4789014 0.4694827
0.5597470 0.5013466 0.4915321
0.5933223 0.5317323 0.5213817
0.6260304 0.5613332 0.5504604
0.5472741 0.4900586 0.4804432
0.5472741 0.4900586 0.4804432
0.5547272 0.4968037 0.4870692
0.5673546 0.5082316 0.4982955
0.5802153 0.5198705 0.5097291
0.5986405 0.5365453 0.5261098
0.6204612 0.5562931 0.5455092
0.6487357 0.5818815 0.5706462
0.6779388 0.6083103 0.5966088
0.6204612 0.5562931 0.5455092
0.6204612 0.5562931 0.5455092
0.6260304 0.5613332 0.5504604
0.6344596 0.5689616 0.5579543
0.6487357 0.5818815 0.5706462
0.6632397 0.5950076 0.5835407
0.6839024 0.6137074 0.6019106
0.7078009 0.6353355 0.6231572
0.7380050 0.6626703 0.6500098
0.3214901 0.2857239 0.2797132
0.3263822 0.2901512 0.2840624
0.3361039 0.2989494 0.2927053
0.3522716 0.3135812 0.3070790
0.3708955 0.3304358 0.3236363
0.3992469 0.3560939 0.3488417
0.4351678 0.3886023 0.3807767
0.4781934 0.4275405 0.4190280
0.5180518 0.4636125 0.4544635
0.3296788 0.2931347 0.2869931
0.3329409 0.2960869 0.2898933
0.3408966 0.3032869 0.2969663
0.3555594 0.3165567 0.3100020
0.3762751 0.3353044 0.3284190
0.4032656 0.3597308 0.3524145
0.4395934 0.3926075 0.3847112
0.4827845 0.4316955 0.4231097
0.5252588 0.4701348 0.4608708
0.3473785 0.3091529 0.3027289
0.3522716 0.3135812 0.3070790
0.3588739 0.3195563 0.3129487
0.3708955 0.3304358 0.3236363
0.3932849 0.3506982 0.3435413
0.4242785 0.3787475 0.3710957
0.4552990 0.4068211 0.3986741
0.4944361 0.4422402 0.4334683
0.5349456 0.4789014 0.4694827
0.3762751 0.3353044 0.3284190
0.3762751 0.3353044 0.3284190
0.3854570 0.3436140 0.3365820
0.3992469 0.3560939 0.3488417
0.4178674 0.3729455 0.3653961
0.4440590 0.3966489 0.3886813
0.4781934 0.4275405 0.4190280
0.5180518 0.4636125 0.4544635
0.5547272 0.4968037 0.4870692
0.4178674 0.3729455 0.3653961
0.4178674 0.3729455 0.3653961
0.4286033 0.3826615 0.3749406
0.4395934 0.3926075 0.3847112
0.4621102 0.4129852 0.4047295
0.4827845 0.4316955 0.4231097
0.5132588 0.4592747 0.4502023
0.5472741 0.4900586 0.4804432
0.5854260 0.5245861 0.5143616
0.4667015 0.4171404 0.4088113
0.4713335 0.4213323 0.4129293
0.4781934 0.4275405 0.4190280
0.4897455 0.4379952 0.4292983
0.5061443 0.4528361 0.4438773
0.5300822 0.4745000 0.4651590
0.5547272 0.4968037 0.4870692
0.5854260 0.5245861 0.5143616
0.6204612 0.5562931 0.5455092
0.5300822 0.4745000 0.4651590
0.5300822 0.4745000 0.4651590
0.5349456 0.4789014 0.4694827
0.5472741 0.4900586 0.4804432
0.5597470 0.5013466 0.4915321
0.5802153 0.5198705 0.5097291
0.6067367 0.5438723 0.5333075
0.6344596 0.5689616 0.5579543
0.6632397 0.5950076 0.5835407
0.5933223 0.5317323 0.5213817
0.5933223 0.5317323 0.5213817
0.5986405 0.5365453 0.5261098
0.6067367 0.5438723 0.5333075
0.6204612 0.5562931 0.5455092
0.6344596 0.5689616 0.5579543
0.6632397 0.5950076 0.5835407
0.6839024 0.6137074 0.6019106
0.7138728 0.6408306 0.6285554
0.6632397 0.5950076 0.5835407
0.6632397 0.5950076 0.5835407
0.6632397 0.5950076 0.5835407
0.6690837 0.6002964 0.5887362
0.6839024 0.6137074 0.6019106
0.6987826 0.6271740 0.6151397
0.7138728 0.6408306 0.6285554
0.7380050 0.6626703 0.6500098
0.7684218 0.6901975 0.6770514
0.4136410 0.3691205 0.3616386
0.4178674 0.3729455 0.3653961
0.4242785 0.3787475 0.3710957
0.4395934 0.3926075 0.3847112
0.4552990 0.4068211 0.3986741
0.4827845 0.4316955 0.4231097
0.5132588 0.4592747 0.4502023
0.5423169 0.4855723 0.4760360
0.5802153 0.5198705 0.5097291
0.4178674 0.3729455 0.3653961
0.4242785 0.3787475 0.3710957
0.4286033 0.3826615 0.3749406
0.4440590 0.3966489 0.3886813
0.4621102 0.4129852 0.4047295
0.4827845 0.4316955 0.4231097
0.5180518 0.4636125 0.4544635
0.5472741 0.4900586 0.4804432
0.5854260 0.5245861 0.5143616
0.4351678 0.3886023 0.3807767
0.4395934 0.3926075 0.3847112
0.4440590 0.3966489 0.3886813
0.4552990 0.4068211 0.3986741
0.4781934 0.4275405 0.4190280
0.5014507 0.4485884 0.4397046
0.5252588 0.4701348 0.4608708
0.5597470 0.5013466 0.4915321
0.5986405 0.5365453 0.5261098
0.4621102 0.4129852 0.4047295
0.4621102 0.4129852 0.4047295
0.4667015 0.4171404 0.4088113
0.4827845 0.4316955 0.4231097
0.5014507 0.4485884 0.4397046
0.5180518 0.4636125 0.4544635
0.5472741 0.4900586 0.4804432
0.5802153 0.5198705 0.5097291
0.6121926 0.5488100 0.5381581
0.4944361 0.4422402 0.4334683
0.4944361 0.4422402 0.4334683
0.5014507 0.4485884 0.4397046
0.5132588 0.4592747 0.4502023
0.5300822 0.4745000 0.4651590
0.5472741 0.4900586 0.4804432
0.5724786 0.5128688 0.5028509
0.6067367 0.5438723 0.5333075
0.6401349 0.5740978 0.5629998
0.5349456 0.4789014 0.4694827
0.5423169 0.4855723 0.4760360
0.5472741 0.4900586 0.4804432
0.5547272 0.4968037 0.4870692
0.5673546 0.5082316 0.4982955
0.5854260 0.5245861 0.5143616
0.6121926 0.5488100 0.5381581
0.6401349 0.5740978 0.5629998
0.6690837 0.6002964 0.5887362
0.5854260 0.5245861 0.5143616
0.5933223 0.5317323 0.5213817
0.5933223 0.5317323 0.5213817
0.6067367 0.5438723 0.5333075
0.6204612 0.5562931 0.5455092
0.6344596 0.5689616 0.5579543
0.6545285 0.5871240 0.5757962
0.6839024 0.6137074 0.6019106
0.7138728 0.6408306 0.6285554
0.6487357 0.5818815 0.5706462
0.6487357 0.5818815 0.5706462
0.6545285 0.5871240 0.5757962
0.6632397 0.5950076 0.5835407
0.6690837 0.6002964 0.5887362
0.6839024 0.6137074 0.6019106
0.7078009 0.6353355 0.6231572
0.7289305 0.6544579 0.6419422
0.7532655 0.6764810 0.6635769
0.7078009 0.6353355 0.6231572
0.7078009 0.6353355 0.6231572
0.7138728 0.6408306 0.6285554
0.7229387 0.6490353 0.6366153
0.7289305 0.6544579 0.6419422
0.7441128 0.6681979 0.6554399
0.7592942 0.6819370 0.6689367
0.7838322 0.7041439 0.6907518
0.7993307 0.7181701 0.7045305
0.5132588 0.4592747 0.4502023
0.5132588 0.4592747 0.4502023
0.5180518 0.4636125 0.4544635
0.5300822 0.4745000 0.4651590
0.5472741 0.4900586 0.4804432
0.5673546 0.5082316 0.4982955
0.5933223 0.5317323 0.5213817
0.6204612 0.5562931 0.5455092
0.6545285 0.5871240 0.5757962
0.5180518 0.4636125 0.4544635
0.5180518 0.4636125 0.4544635
0.5252588 0.4701348 0.4608708
0.5349456 0.4789014 0.4694827
0.5472741 0.4900586 0.4804432
0.5673546 0.5082316 0.4982955
0.5933223 0.5317323 0.5213817
0.6204612 0.5562931 0.5455092
0.6545285 0.5871240 0.5757962
0.5300822 0.4745000 0.4651590
0.5300822 0.4745000 0.4651590
0.5349456 0.4789014 0.4694827
0.5472741 0.4900586 0.4804432
0.5597470 0.5013466 0.4915321
0.5802153 0.5198705 0.5097291
0.6067367 0.5438723 0.5333075
0.6344596 0.5689616 0.5579543
0.6632397 0.5950076 0.5835407
0.5472741 0.4900586 0.4804432
0.5472741 0.4900586 0.4804432
0.5547272 0.4968037 0.4870692
0.5673546 0.5082316 0.4982955
0.5802153 0.5198705 0.5097291
0.5986405 0.5365453 0.5261098
0.6204612 0.5562931 0.5455092
0.6487357 0.5818815 0.5706462
0.6779388 0.6083103 0.5966088
0.5802153 0.5198705 0.5097291
0.5802153 0.5198705 0.5097291
0.5854260 0.5245861 0.5143616
0.5933223 0.5317323 0.5213817
0.6067367 0.5438723 0.5333075
0.6260304 0.5613332 0.5504604
0.6487357 0.5818815 0.5706462
0.6690837 0.6002964 0.5887362
0.6987826 0.6271740 0.6151397
0.6121926 0.5488100 0.5381581
0.6121926 0.5488100 0.5381581
0.6204612 0.5562931 0.5455092
0.6260304 0.5613332 0.5504604
0.6401349 0.5740978 0.5629998
0.6545285 0.5871240 0.5757962
0.6779388 0.6083103 0.5966088
0.7078009 0.6353355 0.6231572
0.7289305 0.6544579 0.6419422
0.6545285 0.5871240 0.5757962
0.6632397 0.5950076 0.5835407
0.6632397 0.5950076 0.5835407
0.6690837 0.6002964 0.5887362
0.6839024 0.6137074 0.6019106
0.6987826 0.6271740 0.6151397
0.7138728 0.6408306 0.6285554
0.7380050 0.6626703 0.6500098
0.7684218 0.6901975 0.6770514
0.7078009 0.6353355 0.6231572
0.7078009 0.6353355 0.6231572
0.7138728 0.6408306 0.6285554
0.7229387 0.6490353 0.6366153
0.7289305 0.6544579 0.6419422
0.7441128 0.6681979 0.6554399
0.7592942 0.6819370 0.6689367
0.7838322 0.7041439 0.6907518
0.8056099 0.7238529 0.7101130
0.7592942 0.6819370 0.6689367
0.7592942 0.6819370 0.6689367
0.7684218 0.6901975 0.6770514
0.7745636 0.6957558 0.6825116
0.7838322 0.7041439 0.6907518
0.7899975 0.7097235 0.6962330
0.8056099 0.7238529 0.7101130
0.8211772 0.7379412 0.7239528
0.8460455 0.7604470 0.7460616
0.6121926 0.5488100 0.5381581
0.6121926 0.5488100 0.5381581
0.6121926 0.5488100 0.5381581
0.6260304 0.5613332 0.5504604
0.6401349 0.5740978 0.5629998
0.6545285 0.5871240 0.5757962
0.6779388 0.6083103 0.5966088
0.6987826 0.6271740 0.6151397
0.7289305 0.6544579 0.6419422
0.6121926 0.5488100 0.5381581
0.6121926 0.5488100 0.5381581
0.6204612 0.5562931 0.5455092
0.6260304 0.5613332 0.5504604
0.6401349 0.5740978 0.5629998
0.6545285 0.5871240 0.5757962
0.6779388 0.6083103 0.5966088
0.6987826 0.6271740 0.6151397
0.7289305 0.6544579 0.6419422
0.6204612 0.5562931 0.5455092
0.6260304 0.5613332 0.5504604
0.6260304 0.5613332 0.5504604
0.6401349 0.5740978 0.5629998
0.6487357 0.5818815 0.5706462
0.6690837 0.6002964 0.5887362
0.6839024 0.6137074 0.6019106
0.7138728 0.6408306 0.6285554
0.7380050 0.6626703 0.6500098
0.6401349 0.5740978 0.5629998
0.6401349 0.5740978 0.5629998
0.6487357 0.5818815 0.5706462
0.6545285 0.5871240 0.5757962
0.6632397 0.5950076 0.5835407
0.6839024 0.6137074 0.6019106
0.6987826 0.6271740 0.6151397
0.7229387 0.6490353 0.6366153
0.7532655 0.6764810 0.6635769
0.6632397 0.5950076 0.5835407
0.6632397 0.5950076 0.5835407
0.6690837 0.6002964 0.5887362
0.6779388 0.6083103 0.5966088
0.6928299 0.6217868 0.6098475
0.7078009 0.6353355 0.6231572
0.7229387 0.6490353 0.6366153
0.7441128 0.6681979 0.6554399
0.7684218 0.6901975 0.6770514
0.6928299 0.6217868 0.6098475
0.6987826 0.6271740 0.6151397
0.6987826 0.6271740 0.6151397
0.7078009 0.6353355 0.6231572
0.7229387 0.6490353 0.6366153
0.7289305 0.6544579 0.6419422
0.7532655 0.6764810 0.6635769
0.7684218 0.6901975 0.6770514
0.7899975 0.7097235 0.6962330
0.7289305 0.6544579 0.6419422
0.7380050 0.6626703 0.6500098
0.7380050 0.6626703 0.6500098
0.7441128 0.6681979 0.6554399
0.7532655 0.6764810 0.6635769
0.7684218 0.6901975 0.6770514
0.7838322 0.7041439 0.6907518
0.7993307 0.7181701 0.7045305
0.8211772 0.7379412 0.7239528
0.7745636 0.6957558 0.6825116
0.7745636 0.6957558 0.6825116
0.7745636 0.6957558 0.6825116
0.7838322 0.7041439 0.6907518
0.7899975 0.7097235 0.6962330
0.8056099 0.7238529 0.7101130
0.8211772 0.7379412 0.7239528
0.8366382 0.7519334 0.7376982
0.8518577 0.7657071 0.7512289
0.8211772 0.7379412 0.7239528
0.8211772 0.7379412 0.7239528
0.8211772 0.7379412 0.7239528
0.8304214 0.7463072 0.7321712
0.8366382 0.7519334 0.7376982
0.8460455 0.7604470 0.7460616
0.8606464 0.7736609 0.7590424
0.8754839 0.7870889 0.7722334
0.8864233 0.7969890 0.7819589
0.7078009 0.6353355 0.6231572
0.7078009 0.6353355 0.6231572
0.7138728 0.6408306 0.6285554
0.7229387 0.6490353 0.6366153
0.7289305 0.6544579 0.6419422
0.7441128 0.6681979 0.6554399
0.7592942 0.6819370 0.6689367
0.7838322 0.7041439 0.6907518
0.8056099 0.7238529 0.7101130
0.7078009 0.6353355 0.6231572
0.7138728 0.6408306 0.6285554
0.7138728 0.6408306 0.6285554
0.7229387 0.6490353 0.6366153
0.7289305 0.6544579 0.6419422
0.7441128 0.6681979 0.6554399
0.7592942 0.6819370 0.6689367
0.7838322 0.7041439 0.6907518
0.8056099 0.7238529 0.7101130
0.7138728 0.6408306 0.6285554
0.7229387 0.6490353 0.6366153
0.7229387 0.6490353 0.6366153
0.7289305 0.6544579 0.6419422
0.7380050 0.6626703 0.6500098
0.7532655 0.6764810 0.6635769
0.7684218 0.6901975 0.6770514
0.7899975 0.7097235 0.6962330
0.8150682 0.7324126 0.7185217
0.7289305 0.6544579 0.6419422
0.7289305 0.6544579 0.6419422
0.7380050 0.6626703 0.6500098
0.7441128 0.6681979 0.6554399
0.7532655 0.6764810 0.6635769
0.7684218 0.6901975 0.6770514
0.7838322 0.7041439 0.6907518
0.7993307 0.7181701 0.7045305
0.8211772 0.7379412 0.7239528
0.7532655 0.6764810 0.6635769
0.7532655 0.6764810 0.6635769
0.7532655 0.6764810 0.6635769
0.7592942 0.6819370 0.6689367
0.7684218 0.6901975 0.6770514
0.7838322 0.7041439 0.6907518
0.7993307 0.7181701 0.7045305
0.8150682 0.7324126 0.7185217
0.8366382 0.7519334 0.7376982
0.7745636 0.6957558 0.6825116
0.7745636 0.6957558 0.6825116
0.7838322 0.7041439 0.6907518
0.7838322 0.7041439 0.6907518
0.7993307 0.7181701 0.7045305
0.8056099 0.7238529 0.7101130
0.8211772 0.7379412 0.7239528
0.8366382 0.7519334 0.7376982
0.8606464 0.7736609 0.7590424
0.8056099 0.7238529 0.7101130
0.8056099 0.7238529 0.7101130
0.8150682 0.7324126 0.7185217
0.8150682 0.7324126 0.7185217
0.8211772 0.7379412 0.7239528
0.8366382 0.7519334 0.7376982
0.8460455 0.7604470 0.7460616
0.8606464 0.7736609 0.7590424
0.8809875 0.7920696 0.7771264
0.8366382 0.7519334 0.7376982
0.8460455 0.7604470 0.7460616
0.8460455 0.7604470 0.7460616
0.8518577 0.7657071 0.7512289
0.8606464 0.7736609 0.7590424
0.8665528 0.7790062 0.7642934
0.8754839 0.7870889 0.7722334
0.8864233 0.7969890 0.7819589
0.9001510 0.8094126 0.7941634
0.8754839 0.7870889 0.7722334
0.8754839 0.7870889 0.7722334
0.8809875 0.7920696 0.7771264
0.8809875 0.7920696 0.7771264
0.8864233 0.7969890 0.7819589
0.8946360 0.8044215 0.7892604
0.9082353 0.8167288 0.8013506
0.9134548 0.8214525 0.8059909
0.9266276 0.8333740 0.8177021
