data/spectral_luts/trix_400_polymax_grade_3.cube
TITLE "trix_400_polymax_grade_3"
LUT_3D_SIZE 9
0.0778174 0.0651999 0.0630794
0.0778280 0.0652095 0.0630889
0.0788948 0.0661749 0.0640372
0.0862104 0.0727955 0.0705411
0.1081824 0.0926802 0.0900750
0.1588706 0.1385531 0.1351386
0.2313304 0.2041293 0.1995580
0.3117041 0.2768676 0.2710131
0.3987597 0.3556530 0.3484086
0.0779713 0.0653392 0.0632162
0.0785197 0.0658355 0.0637038
0.0811356 0.0682029 0.0660294
0.0913064 0.0774074 0.0750716
0.1177014 0.1012950 0.0985377
0.1680317 0.1468439 0.1432831
0.2400994 0.2120653 0.2073539
0.3220206 0.2862040 0.2801848
0.4041888 0.3605663 0.3532352
0.0839956 0.0707912 0.0685721
0.0862104 0.0727955 0.0705411
0.0926155 0.0785921 0.0762354
0.1095569 0.0939242 0.0912970
0.1462975 0.1271744 0.1239607
0.1986829 0.1745833 0.1705332
0.2721905 0.2411077 0.2358841
0.3481817 0.3098798 0.3034429
0.4259363 0.3802478 0.3725696
0.1142394 0.0981619 0.0954599
0.1203443 0.1036867 0.1008873
0.1328042 0.1149629 0.1119646
0.1588706 0.1385531 0.1351386
0.1986829 0.1745833 0.1705332
0.2560435 0.2264947 0.2215288
0.3168266 0.2815035 0.2755672
0.3907364 0.3483918 0.3412755
0.4585959 0.4098048 0.4016051
0.1912567 0.1678626 0.1639310
0.1986829 0.1745833 0.1705332
0.2122812 0.1868897 0.1826225
0.2400994 0.2120653 0.2073539
0.2769561 0.2454206 0.2401208
0.3299482 0.2933785 0.2872327
0.3854285 0.3435882 0.3365566
0.4451553 0.3976410 0.3896559
0.5043989 0.4512565 0.4423256
0.2990323 0.2653996 0.2597474
0.3066521 0.2722955 0.2665216
0.3168266 0.2815035 0.2755672
0.3403044 0.3027509 0.2964398
0.3719735 0.3314114 0.3245946
0.4124543 0.3680466 0.3605835
0.4585959 0.4098048 0.4016051
0.5043989 0.4512565 0.4423256
0.5501242 0.4926380 0.4829770
0.4124543 0.3680466 0.3605835
0.4178579 0.3729369 0.3653876
0.4259363 0.3802478 0.3725696
0.4451553 0.3976410 0.3896559
0.4640727 0.4147613 0.4064742
0.4964330 0.4440474 0.4352436
0.5285870 0.4731468 0.4638297
0.5691275 0.5098360 0.4998716
0.6110421 0.5477688 0.5371352
0.5097104 0.4560635 0.4470477
0.5177724 0.4633595 0.4542151
0.5232107 0.4682813 0.4590500
0.5365721 0.4803733 0.4709287
0.5501242 0.4926380 0.4829770
0.5774030 0.5173253 0.5072289
0.6053291 0.5425985 0.5320562
0.6341832 0.5687115 0.5577085
0.6699466 0.6010774 0.5895034
0.6053291 0.5425985 0.5320562
0.6053291 0.5425985 0.5320562
0.6110421 0.5477688 0.5371352
0.6196275 0.5555385 0.5447680
0.6341832 0.5687115 0.5577085
0.6548707 0.5874337 0.5761004
0.6789978 0.6092687 0.5975503
0.7096939 0.6370487 0.6248402
0.7408880 0.6652794 0.6525728
0.0785822 0.0658920 0.0637593
0.0794201 0.0666503 0.0645042
0.0831125 0.0699919 0.0677869
0.0939363 0.0797875 0.0774097
0.1243472 0.1073094 0.1044460
0.1760040 0.1540588 0.1503708
0.2514242 0.2223142 0.2174221
0.3299482 0.2933785 0.2872327
0.4124543 0.3680466 0.3605835
0.0804475 0.0675801 0.0654176
0.0819432 0.0689337 0.0667474
0.0873244 0.0738037 0.0715315
0.1014638 0.0865999 0.0841019
0.1328042 0.1149629 0.1119646
0.1860457 0.1631466 0.1592983
0.2605738 0.2305946 0.2255564
0.3403044 0.3027509 0.2964398
0.4178579 0.3729369 0.3653876
0.0913064 0.0774074 0.0750716
0.0939363 0.0797875 0.0774097
0.1025400 0.0875738 0.0850587
0.1243472 0.1073094 0.1044460
0.1618817 0.1412782 0.1378156
0.2205858 0.1944054 0.1900056
0.2890581 0.2563729 0.2508799
0.3615059 0.3219382 0.3152886
0.4369227 0.3901905 0.3823369
0.1305236 0.1128990 0.1099371
0.1363312 0.1181550 0.1151003
0.1490128 0.1296318 0.1263747
0.1760040 0.1540588 0.1503708
0.2164017 0.1906188 0.1862858
0.2721905 0.2411077 0.2358841
0.3351386 0.2980758 0.2918471
0.4041888 0.3605663 0.3532352
0.4696080 0.4197707 0.4113953
0.2122812 0.1868897 0.1826225
0.2164017 0.1906188 0.1862858
0.2313304 0.2041293 0.1995580
0.2560435 0.2264947 0.2215288
0.2940095 0.2608540 0.2552820
0.3403044 0.3027509 0.2964398
0.3987597 0.3556530 0.3484086
0.4504888 0.4024678 0.3943976
0.5097104 0.4560635 0.4470477
0.3168266 0.2815035 0.2755672
0.3168266 0.2815035 0.2755672
0.3351386 0.2980758 0.2918471
0.3535202 0.3147112 0.3081890
0.3854285 0.3435882 0.3365566
0.4259363 0.3802478 0.3725696
0.4640727 0.4147613 0.4064742
0.5097104 0.4560635 0.4470477
0.5636707 0.5048976 0.4950204
0.4259363 0.3802478 0.3725696
0.4259363 0.3802478 0.3725696
0.4369227 0.3901905 0.3823369
0.4504888 0.4024678 0.3943976
0.4775562 0.4269639 0.4184615
0.5043989 0.4512565 0.4423256
0.5365721 0.4803733 0.4709287
0.5774030 0.5173253 0.5072289
0.6196275 0.5555385 0.5447680
0.5232107 0.4682813 0.4590500
0.5232107 0.4682813 0.4590500
0.5285870 0.4731468 0.4638297
0.5419562 0.4852459 0.4757154
0.5636707 0.5048976 0.4950204
0.5829632 0.5223573 0.5121720
0.6110421 0.5477688 0.5371352
0.6400930 0.5740598 0.5629625
0.6789978 0.6092687 0.5975503
0.6110421 0.5477688 0.5371352
0.6110421 0.5477688 0.5371352
0.6196275 0.5555385 0.5447680
0.6254124 0.5607739 0.5499110
0.6400930 0.5740598 0.5629625
0.6638781 0.5955854 0.5841084
0.6881194 0.6175238 0.6056597
0.7189654 0.6454394 0.6330829
0.7502638 0.6737645 0.6609083
0.0932744 0.0791885 0.0768213
0.0967020 0.0822905 0.0798685
0.1068194 0.0914467 0.0888632
0.1284415 0.1110147 0.1080860
0.1680317 0.1468439 0.1432831
0.2205858 0.1944054 0.1900056
0.2940095 0.2608540 0.2552820
0.3667072 0.3266454 0.3199128
0.4369227 0.3901905 0.3823369
0.1003950 0.0856326 0.0831517
0.1036236 0.0885545 0.0860220
0.1159617 0.0997205 0.0969910
0.1387193 0.1203161 0.1172234
0.1793039 0.1570453 0.1533045
0.2356876 0.2080725 0.2034317
0.3066521 0.2722955 0.2665216
0.3719735 0.3314114 0.3245946
0.4451553 0.3976410 0.3896559
0.1243472 0.1073094 0.1044460
0.1284415 0.1110147 0.1080860
0.1436182 0.1247497 0.1215787
0.1680317 0.1468439 0.1432831
0.2063332 0.1815068 0.1773345
0.2651702 0.2347544 0.2296428
0.3299482 0.2933785 0.2872327
0.3987597 0.3556530 0.3484086
0.4640727 0.4147613 0.4064742
0.1760040 0.1540588 0.1503708
0.1793039 0.1570453 0.1533045
0.1949422 0.1711980 0.1672076
0.2205858 0.1944054 0.1900056
0.2605738 0.2305946 0.2255564
0.3117041 0.2768676 0.2710131
0.3719735 0.3314114 0.3245946
0.4313985 0.3851911 0.3774256
0.4964330 0.4440474 0.4352436
0.2560435 0.2264947 0.2215288
0.2605738 0.2305946 0.2255564
0.2769561 0.2454206 0.2401208
0.2990323 0.2653996 0.2597474
0.3351386 0.2980758 0.2918471
0.3799964 0.3386721 0.3317273
0.4259363 0.3802478 0.3725696
0.4775562 0.4269639 0.4184615
0.5285870 0.4731468 0.4638297
0.3535202 0.3147112 0.3081890
0.3615059 0.3219382 0.3152886
0.3667072 0.3266454 0.3199128
0.3907364 0.3483918 0.3412755
0.4178579 0.3729369 0.3653876
0.4504888 0.4024678 0.3943976
0.4909723 0.4391055 0.4303889
0.5365721 0.4803733 0.4709287
0.5774030 0.5173253 0.5072289
0.4504888 0.4024678 0.3943976
0.4585959 0.4098048 0.4016051
0.4640727 0.4147613 0.4064742
0.4775562 0.4269639 0.4184615
0.4964330 0.4440474 0.4352436
0.5232107 0.4682813 0.4590500
0.5555749 0.4975709 0.4878229
0.5912601 0.5298660 0.5195484
0.6341832 0.5687115 0.5577085
0.5419562 0.4852459 0.4757154
0.5419562 0.4852459 0.4757154
0.5501242 0.4926380 0.4829770
0.5636707 0.5048976 0.4950204
0.5774030 0.5173253 0.5072289
0.5968515 0.5349262 0.5245193
0.6254124 0.5607739 0.5499110
0.6548707 0.5874337 0.5761004
0.6942634 0.6230841 0.6111219
0.6254124 0.5607739 0.5499110
0.6254124 0.5607739 0.5499110
0.6341832 0.5687115 0.5577085
0.6489285 0.5820559 0.5708175
0.6548707 0.5874337 0.5761004
0.6789978 0.6092687 0.5975503
0.7035747 0.6315108 0.6194000
0.7252088 0.6510897 0.6386335
0.7565757 0.6794768 0.6665198
0.1618817 0.1412782 0.1378156
0.1680317 0.1468439 0.1432831
0.1826509 0.1600743 0.1562802
0.2122812 0.1868897 0.1826225
0.2514242 0.2223142 0.2174221
0.2990323 0.2653996 0.2597474
0.3615059 0.3219382 0.3152886
0.4259363 0.3802478 0.3725696
0.4909723 0.4391055 0.4303889
0.1727583 0.1511215 0.1474852
0.1793039 0.1570453 0.1533045
0.1949422 0.1711980 0.1672076
0.2205858 0.1944054 0.1900056
0.2605738 0.2305946 0.2255564
0.3117041 0.2768676 0.2710131
0.3719735 0.3314114 0.3245946
0.4313985 0.3851911 0.3774256
0.4909723 0.4391055 0.4303889
0.2024797 0.1780193 0.1739086
0.2122812 0.1868897 0.1826225
0.2248344 0.1982504 0.1937828
0.2514242 0.2223142 0.2174221
0.2890581 0.2563729 0.2508799
0.3351386 0.2980758 0.2918471
0.3907364 0.3483918 0.3412755
0.4504888 0.4024678 0.3943976
0.5097104 0.4560635 0.4470477
0.2560435 0.2264947 0.2215288
0.2605738 0.2305946 0.2255564
0.2769561 0.2454206 0.2401208
0.2990323 0.2653996 0.2597474
0.3351386 0.2980758 0.2918471
0.3799964 0.3386721 0.3317273
0.4313985 0.3851911 0.3774256
0.4828826 0.4317843 0.4231969
0.5365721 0.4803733 0.4709287
0.3299482 0.2933785 0.2872327
0.3351386 0.2980758 0.2918471
0.3481817 0.3098798 0.3034429
0.3667072 0.3266454 0.3199128
0.3987597 0.3556530 0.3484086
0.4369227 0.3901905 0.3823369
0.4775562 0.4269639 0.4184615
0.5232107 0.4682813 0.4590500
0.5691275 0.5098360 0.4998716
0.4124543 0.3680466 0.3605835
0.4178579 0.3729369 0.3653876
0.4259363 0.3802478 0.3725696
0.4451553 0.3976410 0.3896559
0.4696080 0.4197707 0.4113953
0.4964330 0.4440474 0.4352436
0.5285870 0.4731468 0.4638297
0.5691275 0.5098360 0.4998716
0.6110421 0.5477688 0.5371352
0.4964330 0.4440474 0.4352436
0.4964330 0.4440474 0.4352436
0.5097104 0.4560635 0.4470477
0.5232107 0.4682813 0.4590500
0.5365721 0.4803733 0.4709287
0.5636707 0.5048976 0.4950204
0.5912601 0.5298660 0.5195484
0.6254124 0.5607739 0.5499110
0.6638781 0.5955854 0.5841084
0.5774030 0.5173253 0.5072289
0.5774030 0.5173253 0.5072289
0.5829632 0.5223573 0.5121720
0.5968515 0.5349262 0.5245193
0.6110421 0.5477688 0.5371352
0.6341832 0.5687115 0.5577085
0.6548707 0.5874337 0.5761004
0.6881194 0.6175238 0.6056597
0.7189654 0.6454394 0.6330829
0.6548707 0.5874337 0.5761004
0.6548707 0.5874337 0.5761004
0.6638781 0.5955854 0.5841084
0.6699466 0.6010774 0.5895034
0.6881194 0.6175238 0.6056597
0.7035747 0.6315108 0.6194000
0.7252088 0.6510897 0.6386335
0.7502638 0.6737645 0.6609083
0.7818612 0.7023602 0.6889995
0.2817621 0.2497701 0.2443936
0.2890581 0.2563729 0.2508799
0.3066521 0.2722955 0.2665216
0.3299482 0.2933785 0.2872327
0.3615059 0.3219382 0.3152886
0.3987597 0.3556530 0.3484086
0.4451553 0.3976410 0.3896559
0.4964330 0.4440474 0.4352436
0.5419562 0.4852459 0.4757154
0.2940095 0.2608540 0.2552820
0.2990323 0.2653996 0.2597474
0.3117041 0.2768676 0.2710131
0.3351386 0.2980758 0.2918471
0.3667072 0.3266454 0.3199128
0.4041888 0.3605663 0.3532352
0.4504888 0.4024678 0.3943976
0.5043989 0.4512565 0.4423256
0.5501242 0.4926380 0.4829770
0.3220206 0.2862040 0.2801848
0.3299482 0.2933785 0.2872327
0.3403044 0.3027509 0.2964398
0.3615059 0.3219382 0.3152886
0.3907364 0.3483918 0.3412755
0.4313985 0.3851911 0.3774256
0.4696080 0.4197707 0.4113953
0.5177724 0.4633595 0.4542151
0.5636707 0.5048976 0.4950204
0.3667072 0.3266454 0.3199128
0.3667072 0.3266454 0.3199128
0.3799964 0.3386721 0.3317273
0.3987597 0.3556530 0.3484086
0.4259363 0.3802478 0.3725696
0.4585959 0.4098048 0.4016051
0.4964330 0.4440474 0.4352436
0.5419562 0.4852459 0.4757154
0.5829632 0.5223573 0.5121720
0.4259363 0.3802478 0.3725696
0.4259363 0.3802478 0.3725696
0.4369227 0.3901905 0.3823369
0.4504888 0.4024678 0.3943976
0.4775562 0.4269639 0.4184615
0.5043989 0.4512565 0.4423256
0.5365721 0.4803733 0.4709287
0.5774030 0.5173253 0.5072289
0.6196275 0.5555385 0.5447680
0.4828826 0.4317843 0.4231969
0.4909723 0.4391055 0.4303889
0.4964330 0.4440474 0.4352436
0.5097104 0.4560635 0.4470477
0.5285870 0.4731468 0.4638297
0.5555749 0.4975709 0.4878229
0.5829632 0.5223573 0.5121720
0.6196275 0.5555385 0.5447680
0.6548707 0.5874337 0.5761004
0.5555749 0.4975709 0.4878229
0.5555749 0.4975709 0.4878229
0.5636707 0.5048976 0.4950204
0.5774030 0.5173253 0.5072289
0.5912601 0.5298660 0.5195484
0.6110421 0.5477688 0.5371352
0.6400930 0.5740598 0.5629625
0.6699466 0.6010774 0.5895034
0.7035747 0.6315108 0.6194000
0.6254124 0.5607739 0.5499110
0.6254124 0.5607739 0.5499110
0.6341832 0.5687115 0.5577085
0.6400930 0.5740598 0.5629625
0.6548707 0.5874337 0.5761004
0.6699466 0.6010774 0.5895034
0.7035747 0.6315108 0.6194000
0.7252088 0.6510897 0.6386335
0.7565757 0.6794768 0.6665198
0.7035747 0.6315108 0.6194000
0.7035747 0.6315108 0.6194000
0.7035747 0.6315108 0.6194000
0.7096939 0.6370487 0.6248402
0.7252088 0.6510897 0.6386335
0.7408880 0.6652794 0.6525728
0.7565757 0.6794768 0.6665198
0.7818612 0.7023602 0.6889995
0.8136783 0.7311547 0.7172861
0.4178579 0.3729369 0.3653876
0.4259363 0.3802478 0.3725696
0.4313985 0.3851911 0.3774256
0.4504888 0.4024678 0.3943976
0.4696080 0.4197707 0.4113953
0.5043989 0.4512565 0.4423256
0.5365721 0.4803733 0.4709287
0.5691275 0.5098360 0.4998716
0.6110421 0.5477688 0.5371352
0.4259363 0.3802478 0.3725696
0.4313985 0.3851911 0.3774256
0.4369227 0.3901905 0.3823369
0.4585959 0.4098048 0.4016051
0.4775562 0.4269639 0.4184615
0.5043989 0.4512565 0.4423256
0.5419562 0.4852459 0.4757154
0.5774030 0.5173253 0.5072289
0.6196275 0.5555385 0.5447680
0.4451553 0.3976410 0.3896559
0.4504888 0.4024678 0.3943976
0.4585959 0.4098048 0.4016051
0.4696080 0.4197707 0.4113953
0.4964330 0.4440474 0.4352436
0.5232107 0.4682813 0.4590500
0.5501242 0.4926380 0.4829770
0.5912601 0.5298660 0.5195484
0.6341832 0.5687115 0.5577085
0.4775562 0.4269639 0.4184615
0.4775562 0.4269639 0.4184615
0.4828826 0.4317843 0.4231969
0.5043989 0.4512565 0.4423256
0.5232107 0.4682813 0.4590500
0.5419562 0.4852459 0.4757154
0.5774030 0.5173253 0.5072289
0.6110421 0.5477688 0.5371352
0.6489285 0.5820559 0.5708175
0.5177724 0.4633595 0.4542151
0.5177724 0.4633595 0.4542151
0.5232107 0.4682813 0.4590500
0.5365721 0.4803733 0.4709287
0.5555749 0.4975709 0.4878229
0.5774030 0.5173253 0.5072289
0.6053291 0.5425985 0.5320562
0.6400930 0.5740598 0.5629625
0.6789978 0.6092687 0.5975503
0.5636707 0.5048976 0.4950204
0.5691275 0.5098360 0.4998716
0.5774030 0.5173253 0.5072289
0.5829632 0.5223573 0.5121720
0.5968515 0.5349262 0.5245193
0.6196275 0.5555385 0.5447680
0.6489285 0.5820559 0.5708175
0.6789978 0.6092687 0.5975503
0.7096939 0.6370487 0.6248402
0.6196275 0.5555385 0.5447680
0.6254124 0.5607739 0.5499110
0.6254124 0.5607739 0.5499110
0.6400930 0.5740598 0.5629625
0.6548707 0.5874337 0.5761004
0.6699466 0.6010774 0.5895034
0.6942634 0.6230841 0.6111219
0.7252088 0.6510897 0.6386335
0.7565757 0.6794768 0.6665198
0.6881194 0.6175238 0.6056597
0.6881194 0.6175238 0.6056597
0.6942634 0.6230841 0.6111219
0.7035747 0.6315108 0.6194000
0.7096939 0.6370487 0.6248402
0.7252088 0.6510897 0.6386335
0.7502638 0.6737645 0.6609083
0.7724326 0.6938273 0.6806171
0.7978151 0.7167984 0.7031831
0.7502638 0.6737645 0.6609083
0.7502638 0.6737645 0.6609083
0.7565757 0.6794768 0.6665198
0.7661363 0.6881292 0.6750195
0.7724326 0.6938273 0.6806171
0.7882065 0.7081027 0.6946407
0.8041838 0.7225621 0.7088451
0.8265013 0.7427595 0.7286861
0.8425140 0.7572510 0.7429220
0.5365721 0.4803733 0.4709287
0.5365721 0.4803733 0.4709287
0.5419562 0.4852459 0.4757154
0.5555749 0.4975709 0.4878229
0.5774030 0.5173253 0.5072289
0.5968515 0.5349262 0.5245193
0.6254124 0.5607739 0.5499110
0.6548707 0.5874337 0.5761004
0.6942634 0.6230841 0.6111219
0.5419562 0.4852459 0.4757154
0.5419562 0.4852459 0.4757154
0.5501242 0.4926380 0.4829770
0.5636707 0.5048976 0.4950204
0.5774030 0.5173253 0.5072289
0.5968515 0.5349262 0.5245193
0.6254124 0.5607739 0.5499110
0.6548707 0.5874337 0.5761004
0.6942634 0.6230841 0.6111219
0.5555749 0.4975709 0.4878229
0.5555749 0.4975709 0.4878229
0.5636707 0.5048976 0.4950204
0.5774030 0.5173253 0.5072289
0.5912601 0.5298660 0.5195484
0.6110421 0.5477688 0.5371352
0.6400930 0.5740598 0.5629625
0.6699466 0.6010774 0.5895034
0.7035747 0.6315108 0.6194000
0.5774030 0.5173253 0.5072289
0.5774030 0.5173253 0.5072289
0.5829632 0.5223573 0.5121720
0.5968515 0.5349262 0.5245193
0.6110421 0.5477688 0.5371352
0.6341832 0.5687115 0.5577085
0.6548707 0.5874337 0.5761004
0.6881194 0.6175238 0.6056597
0.7189654 0.6454394 0.6330829
0.6110421 0.5477688 0.5371352
0.6110421 0.5477688 0.5371352
0.6196275 0.5555385 0.5447680
0.6254124 0.5607739 0.5499110
0.6400930 0.5740598 0.5629625
0.6638781 0.5955854 0.5841084
0.6881194 0.6175238 0.6056597
0.7096939 0.6370487 0.6248402
0.7408880 0.6652794 0.6525728
0.6489285 0.5820559 0.5708175
0.6489285 0.5820559 0.5708175
0.6548707 0.5874337 0.5761004
0.6638781 0.5955854 0.5841084
0.6789978 0.6092687 0.5975503
0.6942634 0.6230841 0.6111219
0.7189654 0.6454394 0.6330829
0.7502638 0.6737645 0.6609083
0.7724326 0.6938273 0.6806171
0.6942634 0.6230841 0.6111219
0.7035747 0.6315108 0.6194000
0.7035747 0.6315108 0.6194000
0.7096939 0.6370487 0.6248402
0.7252088 0.6510897 0.6386335
0.7408880 0.6652794 0.6525728
0.7565757 0.6794768 0.6665198
0.7818612 0.7023602 0.6889995
0.8136783 0.7311547 0.7172861
0.7502638 0.6737645 0.6609083
0.7502638 0.6737645 0.6609083
0.7565757 0.6794768 0.6665198
0.7661363 0.6881292 0.6750195
0.7724326 0.6938273 0.6806171
0.7882065 0.7081027 0.6946407
0.8041838 0.7225621 0.7088451
0.8265013 0.7427595 0.7286861
0.8521111 0.7659364 0.7514542
0.8041838 0.7225621 0.7088451
0.8041838 0.7225621 0.7088451
0.8136783 0.7311547 0.7172861
0.8200663 0.7369359 0.7229652
0.8265013 0.7427595 0.7286861
0.8361723 0.7515119 0.7372841
0.8521111 0.7659364 0.7514542
0.8682839 0.7805729 0.7658324
0.8903896 0.8005785 0.7854851
0.6489285 0.5820559 0.5708175
0.6489285 0.5820559 0.5708175
0.6489285 0.5820559 0.5708175
0.6638781 0.5955854 0.5841084
0.6789978 0.6092687 0.5975503
0.6942634 0.6230841 0.6111219
0.7189654 0.6454394 0.6330829
0.7408880 0.6652794 0.6525728
0.7724326 0.6938273 0.6806171
0.6489285 0.5820559 0.5708175
0.6489285 0.5820559 0.5708175
0.6548707 0.5874337 0.5761004
0.6638781 0.5955854 0.5841084
0.6789978 0.6092687 0.5975503
0.6942634 0.6230841 0.6111219
0.7189654 0.6454394 0.6330829
0.7408880 0.6652794 0.6525728
0.7724326 0.6938273 0.6806171
0.6548707 0.5874337 0.5761004
0.6638781 0.5955854 0.5841084
0.6638781 0.5955854 0.5841084
0.6789978 0.6092687 0.5975503
0.6881194 0.6175238 0.6056597
0.7096939 0.6370487 0.6248402
0.7252088 0.6510897 0.6386335
0.7565757 0.6794768 0.6665198
0.7818612 0.7023602 0.6889995
0.6789978 0.6092687 0.5975503
0.6789978 0.6092687 0.5975503
0.6881194 0.6175238 0.6056597
0.6942634 0.6230841 0.6111219
0.7035747 0.6315108 0.6194000
0.7252088 0.6510897 0.6386335
0.7408880 0.6652794 0.6525728
0.7661363 0.6881292 0.6750195
0.7978151 0.7167984 0.7031831
0.7035747 0.6315108 0.6194000
0.7035747 0.6315108 0.6194000
0.7096939 0.6370487 0.6248402
0.7189654 0.6454394 0.6330829
0.7346683 0.6596506 0.6470433
0.7502638 0.6737645 0.6609083
0.7661363 0.6881292 0.6750195
0.7882065 0.7081027 0.6946407
0.8136783 0.7311547 0.7172861
0.7346683 0.6596506 0.6470433
0.7408880 0.6652794 0.6525728
0.7408880 0.6652794 0.6525728
0.7502638 0.6737645 0.6609083
0.7661363 0.6881292 0.6750195
0.7724326 0.6938273 0.6806171
0.7978151 0.7167984 0.7031831
0.8136783 0.7311547 0.7172861
0.8361723 0.7515119 0.7372841
0.7724326 0.6938273 0.6806171
0.7818612 0.7023602 0.6889995
0.7818612 0.7023602 0.6889995
0.7882065 0.7081027 0.6946407
0.7978151 0.7167984 0.7031831
0.8136783 0.7311547 0.7172861
0.8265013 0.7427595 0.7286861
0.8425140 0.7572510 0.7429220
0.8682839 0.7805729 0.7658324
0.8200663 0.7369359 0.7229652
0.8200663 0.7369359 0.7229652
0.8200663 0.7369359 0.7229652
0.8265013 0.7427595 0.7286861
0.8361723 0.7515119 0.7372841
0.8521111 0.7659364 0.7514542
0.8682839 0.7805729 0.7658324
0.8840203 0.7948143 0.7798226
0.9000250 0.8092985 0.7940513
0.8682839 0.7805729 0.7658324
0.8682839 0.7805729 0.7658324
0.8682839 0.7805729 0.7658324
0.8745466 0.7862406 0.7714002
0.8840203 0.7948143 0.7798226
0.8903896 0.8005785 0.7854851
0.9061038 0.8147999 0.7994556
0.9214712 0.8287073 0.8131177
0.9367790 0.8425609 0.8267269
0.7502638 0.6737645 0.6609083
0.7502638 0.6737645 0.6609083
0.7565757 0.6794768 0.6665198
0.7661363 0.6881292 0.6750195
0.7724326 0.6938273 0.6806171
0.7882065 0.7081027 0.6946407
0.8041838 0.7225621 0.7088451
0.8265013 0.7427595 0.7286861
0.8521111 0.7659364 0.7514542
0.7502638 0.6737645 0.6609083
0.7565757 0.6794768 0.6665198
0.7565757 0.6794768 0.6665198
0.7661363 0.6881292 0.6750195
0.7724326 0.6938273 0.6806171
0.7882065 0.7081027 0.6946407
0.8041838 0.7225621 0.7088451
0.8265013 0.7427595 0.7286861
0.8521111 0.7659364 0.7514542
0.7565757 0.6794768 0.6665198
0.7661363 0.6881292 0.6750195
0.7661363 0.6881292 0.6750195
0.7724326 0.6938273 0.6806171
0.7818612 0.7023602 0.6889995
0.7978151 0.7167984 0.7031831
0.8136783 0.7311547 0.7172861
0.8361723 0.7515119 0.7372841
0.8585662 0.7717782 0.7571929
0.7724326 0.6938273 0.6806171
0.7724326 0.6938273 0.6806171
0.7818612 0.7023602 0.6889995
0.7882065 0.7081027 0.6946407
0.7978151 0.7167984 0.7031831
0.8136783 0.7311547 0.7172861
0.8265013 0.7427595 0.7286861
0.8425140 0.7572510 0.7429220
0.8682839 0.7805729 0.7658324
0.7978151 0.7167984 0.7031831
0.7978151 0.7167984 0.7031831
0.7978151 0.7167984 0.7031831
0.8041838 0.7225621 0.7088451
0.8136783 0.7311547 0.7172861
0.8265013 0.7427595 0.7286861
0.8425140 0.7572510 0.7429220
0.8585662 0.7717782 0.7571929
0.8840203 0.7948143 0.7798226
0.8200663 0.7369359 0.7229652
0.8200663 0.7369359 0.7229652
0.8265013 0.7427595 0.7286861
0.8265013 0.7427595 0.7286861
0.8425140 0.7572510 0.7429220
0.8521111 0.7659364 0.7514542
0.8682839 0.7805729 0.7658324
0.8840203 0.7948143 0.7798226
0.9061038 0.8147999 0.7994556
0.8521111 0.7659364 0.7514542
0.8521111 0.7659364 0.7514542
0.8585662 0.7717782 0.7571929
0.8585662 0.7717782 0.7571929
0.8682839 0.7805729 0.7658324
0.8840203 0.7948143 0.7798226
0.8903896 0.8005785 0.7854851
0.9061038 0.8147999 0.7994556
0.9308092 0.8371583 0.8214196
0.8840203 0.7948143 0.7798226
0.8903896 0.8005785 0.7854851
0.8903896 0.8005785 0.7854851
0.9000250 0.8092985 0.7940513
0.9061038 0.8147999 0.7994556
0.9152949 0.8231179 0.8076269
0.9214712 0.8287073 0.8131177
0.9367790 0.8425609 0.8267269
0.9517069 0.8560708 0.8399985
0.9214712 0.8287073 0.8131177
0.9214712 0.8287073 0.8131177
0.9308092 0.8371583 0.8214196
0.9308092 0.8371583 0.8214196
0.9367790 0.8425609 0.8267269
0.9457089 0.8506426 0.8346660
0.9607714 0.8642741 0.8480571
0.9664307 0.8693958 0.8530884
0.9801738 0.8818333 0.8653065
