data/spectral_luts/trix_400_polymax_grade_2.cube
TITLE "trix_400_polymax_grade_2"
LUT_3D_SIZE 33
0.0809042 0.0679934 0.0658237
0.0809042 0.0679934 0.0658237
0.0809042 0.0679934 0.0658237
0.0809042 0.0679934 0.0658237
0.0810580 0.0681326 0.0659604
0.0813804 0.0684244 0.0662471
0.0818748 0.0688718 0.0666866
0.0827221 0.0696386 0.0674398
0.0839849 0.0707815 0.0685626
0.0859801 0.0725871 0.0703363
0.0886996 0.0750483 0.0727541
0.0925070 0.0784939 0.0761389
0.0980414 0.0835026 0.0810593
0.1058153 0.0905380 0.0879706
0.1169832 0.1006450 0.0978993
0.1305386 0.1129126 0.1099505
0.1448385 0.1258540 0.1226635
0.1608695 0.1403621 0.1369157
0.1771987 0.1551400 0.1514329
0.1936325 0.1700127 0.1660432
0.2111774 0.1858908 0.1816412
0.2296754 0.2026315 0.1980866
0.2457562 0.2171846 0.2123830
0.2662470 0.2357289 0.2306001
0.2831360 0.2510134 0.2456150
0.2995706 0.2658867 0.2602259
0.3150648 0.2799090 0.2740009
0.3296788 0.2931347 0.2869931
0.3408966 0.3032869 0.2969663
0.3555594 0.3165567 0.3100020
0.3673465 0.3272240 0.3204812
0.3854570 0.3436140 0.3365820
0.3992469 0.3560939 0.3488417
0.0809042 0.0679934 0.0658237
0.0809042 0.0679934 0.0658237
0.0809042 0.0679934 0.0658237
0.0809810 0.0680630 0.0658920
0.0812890 0.0683417 0.0661658
0.0816768 0.0686927 0.0665106
0.0822716 0.0692309 0.0670394
0.0831845 0.0700571 0.0678510
0.0845907 0.0713297 0.0691011
0.0867410 0.0732758 0.0710129
0.0896535 0.0759115 0.0736021
0.0935876 0.0794719 0.0770997
0.0999337 0.0852152 0.0827416
0.1084843 0.0929535 0.0903434
0.1206408 0.1039551 0.1011509
0.1336987 0.1157726 0.1127599
0.1471644 0.1279590 0.1247314
0.1634936 0.1427369 0.1392486
0.1771987 0.1551400 0.1514329
0.1967626 0.1728454 0.1688260
0.2144447 0.1888477 0.1845459
0.2296754 0.2026315 0.1980866
0.2494377 0.2205164 0.2156560
0.2662470 0.2357289 0.2306001
0.2831360 0.2510134 0.2456150
0.2995706 0.2658867 0.2602259
0.3150648 0.2799090 0.2740009
0.3296788 0.2931347 0.2869931
0.3441244 0.3062080 0.2998359
0.3555594 0.3165567 0.3100020
0.3708955 0.3304358 0.3236363
0.3854570 0.3436140 0.3365820
0.3992469 0.3560939 0.3488417
0.0809042 0.0679934 0.0658237
0.0809810 0.0680630 0.0658920
0.0810580 0.0681326 0.0659604
0.0812890 0.0683417 0.0661658
0.0815780 0.0686032 0.0664227
0.0820731 0.0690513 0.0668628
0.0827221 0.0696386 0.0674398
0.0836830 0.0705083 0.0682942
0.0854121 0.0720731 0.0698314
0.0875792 0.0740343 0.0717580
0.0910482 0.0771738 0.0748421
0.0950408 0.0807871 0.0783916
0.1021060 0.0871811 0.0846728
0.1114079 0.0955993 0.0929426
0.1224987 0.1056365 0.1028027
0.1358509 0.1177203 0.1146733
0.1495866 0.1301511 0.1268848
0.1661497 0.1451407 0.1416100
0.1815578 0.1590850 0.1553083
0.1967626 0.1728454 0.1688260
0.2144447 0.1888477 0.1845459
0.2331805 0.2058036 0.2012027
0.2494377 0.2205164 0.2156560
0.2700158 0.2391396 0.2339506
0.2867829 0.2543139 0.2488572
0.3029567 0.2689511 0.2632363
0.3182636 0.2828040 0.2768447
0.3296788 0.2931347 0.2869931
0.3441244 0.3062080 0.2998359
0.3588739 0.3195563 0.3129487
0.3708955 0.3304358 0.3236363
0.3854570 0.3436140 0.3365820
0.3992469 0.3560939 0.3488417
0.0812119 0.0682719 0.0660973
0.0812890 0.0683417 0.0661658
0.0814792 0.0685138 0.0663349
0.0817758 0.0687822 0.0665986
0.0820731 0.0690513 0.0668628
0.0827221 0.0696386 0.0674398
0.0835323 0.0703719 0.0681602
0.0848946 0.0716047 0.0693713
0.0867410 0.0732758 0.0710129
0.0893761 0.0756605 0.0733555
0.0925070 0.0784939 0.0761389
0.0980414 0.0835026 0.0810593
0.1045693 0.0894103 0.0868628
0.1151831 0.0990159 0.0962989
0.1264072 0.1091737 0.1062775
0.1402930 0.1217404 0.1186225
0.1545185 0.1346144 0.1312694
0.1688380 0.1475736 0.1440000
0.1845092 0.1617561 0.1579323
0.1999322 0.1757139 0.1716438
0.2177520 0.1918408 0.1874862
0.2367287 0.2090148 0.2043572
0.2531644 0.2238891 0.2189692
0.2700158 0.2391396 0.2339506
0.2904692 0.2576499 0.2521344
0.3029567 0.2689511 0.2632363
0.3182636 0.2828040 0.2768447
0.3329409 0.2960869 0.2898933
0.3473785 0.3091529 0.3027289
0.3588739 0.3195563 0.3129487
0.3708955 0.3304358 0.3236363
0.3893538 0.3471406 0.3400463
0.4032656 0.3597308 0.3524145
0.0818748 0.0688718 0.0666866
0.0819739 0.0689615 0.0667747
0.0822716 0.0692309 0.0670394
0.0826067 0.0695342 0.0673373
0.0830687 0.0699523 0.0677480
0.0836830 0.0705083 0.0682942
0.0848946 0.0716047 0.0693713
0.0865504 0.0731033 0.0708434
0.0886996 0.0750483 0.0727541
0.0916099 0.0776821 0.0753414
0.0957727 0.0814495 0.0790423
0.1008887 0.0860794 0.0835906
0.1099397 0.0942705 0.0916372
0.1206408 0.1039551 0.1011509
0.1336987 0.1157726 0.1127599
0.1448385 0.1258540 0.1226635
0.1608695 0.1403621 0.1369157
0.1743372 0.1525504 0.1488890
0.1905413 0.1672152 0.1632950
0.2079499 0.1829699 0.1787718
0.2210999 0.1948706 0.1904626
0.2403172 0.2122624 0.2075475
0.2569366 0.2273030 0.2223228
0.2738288 0.2425904 0.2373405
0.2904692 0.2576499 0.2521344
0.3063751 0.2720449 0.2662754
0.3214901 0.2857239 0.2797132
0.3361039 0.2989494 0.2927053
0.3473785 0.3091529 0.3027289
0.3638957 0.3241010 0.3174132
0.3762751 0.3353044 0.3284190
0.3893538 0.3471406 0.3400463
0.4032656 0.3597308 0.3524145
0.0830687 0.0699523 0.0677480
0.0831845 0.0700571 0.0678510
0.0835323 0.0703719 0.0681602
0.0841361 0.0709183 0.0686970
0.0847426 0.0714672 0.0692361
0.0857905 0.0724156 0.0701678
0.0871335 0.0736309 0.0713617
0.0889248 0.0752521 0.0729543
0.0916099 0.0776821 0.0753414
0.0950408 0.0807871 0.0783916
0.0999337 0.0852152 0.0827416
0.1070711 0.0916745 0.0890870
0.1169832 0.1006450 0.0978993
0.1264072 0.1091737 0.1062775
0.1402930 0.1217404 0.1186225
0.1520379 0.1323695 0.1290641
0.1661497 0.1451407 0.1416100
0.1815578 0.1590850 0.1553083
0.1967626 0.1728454 0.1688260
0.2144447 0.1888477 0.1845459
0.2296754 0.2026315 0.1980866
0.2457562 0.2171846 0.2123830
0.2662470 0.2357289 0.2306001
0.2831360 0.2510134 0.2456150
0.2941952 0.2610220 0.2554470
0.3098263 0.2751682 0.2693436
0.3263822 0.2901512 0.2840624
0.3361039 0.2989494 0.2927053
0.3522716 0.3135812 0.3070790
0.3638957 0.3241010 0.3174132
0.3798991 0.3385842 0.3316409
0.3932849 0.3506982 0.3435413
0.4073722 0.3634473 0.3560654
0.0850468 0.0717425 0.0695066
0.0854121 0.0720731 0.0698314
0.0857905 0.0724156 0.0701678
0.0865504 0.0731033 0.0708434
0.0873562 0.0738325 0.0715597
0.0886996 0.0750483 0.0727541
0.0904887 0.0766674 0.0743446
0.0925070 0.0784939 0.0761389
0.0957727 0.0814495 0.0790423
0.1008887 0.0860794 0.0835906
0.1070711 0.0916745 0.0890870
0.1151831 0.0990159 0.0962989
0.1243762 0.1073356 0.1044718
0.1358509 0.1177203 0.1146733
0.1471644 0.1279590 0.1247314
0.1608695 0.1403621 0.1369157
0.1743372 0.1525504 0.1488890
0.1905413 0.1672152 0.1632950
0.2047614 0.1800843 0.1759372
0.2210999 0.1948706 0.1904626
0.2367287 0.2090148 0.2043572
0.2531644 0.2238891 0.2189692
0.2700158 0.2391396 0.2339506
0.2867829 0.2543139 0.2488572
0.3029567 0.2689511 0.2632363
0.3150648 0.2799090 0.2740009
0.3296788 0.2931347 0.2869931
0.3408966 0.3032869 0.2969663
0.3555594 0.3165567 0.3100020
0.3673465 0.3272240 0.3204812
0.3798991 0.3385842 0.3316409
0.3932849 0.3506982 0.3435413
0.4073722 0.3634473 0.3560654
0.0886996 0.0750483 0.0727541
0.0889248 0.0752521 0.0729543
0.0893761 0.0756605 0.0733555
0.0902098 0.0764150 0.0740967
0.0916099 0.0776821 0.0753414
0.0928663 0.0788191 0.0764584
0.0957727 0.0814495 0.0790423
0.0989847 0.0843563 0.0818979
0.1033328 0.0882914 0.0857635
0.1084843 0.0929535 0.0903434
0.1169832 0.1006450 0.0978993
0.1243762 0.1073356 0.1044718
0.1358509 0.1177203 0.1146733
0.1471644 0.1279590 0.1247314
0.1582953 0.1380325 0.1346271
0.1715590 0.1500361 0.1464190
0.1845092 0.1617561 0.1579323
0.1999322 0.1757139 0.1716438
0.2144447 0.1888477 0.1845459
0.2296754 0.2026315 0.1980866
0.2457562 0.2171846 0.2123830
0.2625219 0.2323576 0.2272883
0.2776865 0.2460816 0.2407702
0.2941952 0.2610220 0.2554470
0.3063751 0.2720449 0.2662754
0.3214901 0.2857239 0.2797132
0.3329409 0.2960869 0.2898933
0.3473785 0.3091529 0.3027289
0.3588739 0.3195563 0.3129487
0.3708955 0.3304358 0.3236363
0.3854570 0.3436140 0.3365820
0.3992469 0.3560939 0.3488417
0.4136410 0.3691205 0.3616386
0.0935876 0.0794719 0.0770997
0.0943125 0.0801279 0.0777441
0.0950408 0.0807871 0.0783916
0.0966374 0.0822320 0.0798110
0.0980414 0.0835026 0.0810593
0.0999337 0.0852152 0.0827416
0.1033328 0.0882914 0.0857635
0.1084843 0.0929535 0.0903434
0.1128893 0.0969400 0.0942596
0.1206408 0.1039551 0.1011509
0.1284613 0.1110326 0.1081036
0.1380592 0.1197188 0.1166366
0.1471644 0.1279590 0.1247314
0.1582953 0.1380325 0.1346271
0.1688380 0.1475736 0.1440000
0.1815578 0.1590850 0.1553083
0.1967626 0.1728454 0.1688260
0.2111774 0.1858908 0.1816412
0.2262130 0.1994980 0.1950084
0.2403172 0.2122624 0.2075475
0.2531644 0.2238891 0.2189692
0.2700158 0.2391396 0.2339506
0.2867829 0.2543139 0.2488572
0.2995706 0.2658867 0.2602259
0.3150648 0.2799090 0.2740009
0.3263822 0.2901512 0.2840624
0.3408966 0.3032869 0.2969663
0.3522716 0.3135812 0.3070790
0.3638957 0.3241010 0.3174132
0.3762751 0.3353044 0.3284190
0.3893538 0.3471406 0.3400463
0.4032656 0.3597308 0.3524145
0.4178674 0.3729455 0.3653961
0.1033328 0.0882914 0.0857635
0.1033328 0.0882914 0.0857635
0.1045693 0.0894103 0.0868628
0.1070711 0.0916745 0.0890870
0.1084843 0.0929535 0.0903434
0.1114079 0.0955993 0.0929426
0.1169832 0.1006450 0.0978993
0.1206408 0.1039551 0.1011509
0.1264072 0.1091737 0.1062775
0.1358509 0.1177203 0.1146733
0.1425527 0.1237854 0.1206314
0.1520379 0.1323695 0.1290641
0.1608695 0.1403621 0.1369157
0.1715590 0.1500361 0.1464190
0.1845092 0.1617561 0.1579323
0.1936325 0.1700127 0.1660432
0.2079499 0.1829699 0.1787718
0.2210999 0.1948706 0.1904626
0.2367287 0.2090148 0.2043572
0.2494377 0.2205164 0.2156560
0.2662470 0.2357289 0.2306001
0.2831360 0.2510134 0.2456150
0.2941952 0.2610220 0.2554470
0.3063751 0.2720449 0.2662754
0.3214901 0.2857239 0.2797132
0.3329409 0.2960869 0.2898933
0.3441244 0.3062080 0.2998359
0.3555594 0.3165567 0.3100020
0.3708955 0.3304358 0.3236363
0.3854570 0.3436140 0.3365820
0.3992469 0.3560939 0.3488417
0.4073722 0.3634473 0.3560654
0.4242785 0.3787475 0.3710957
0.1169832 0.1006450 0.0978993
0.1188024 0.1022913 0.0995165
0.1188024 0.1022913 0.0995165
0.1224987 0.1056365 0.1028027
0.1243762 0.1073356 0.1044718
0.1284613 0.1110326 0.1081036
0.1336987 0.1157726 0.1127599
0.1380592 0.1197188 0.1166366
0.1425527 0.1237854 0.1206314
0.1495866 0.1301511 0.1268848
0.1582953 0.1380325 0.1346271
0.1661497 0.1451407 0.1416100
0.1743372 0.1525504 0.1488890
0.1874975 0.1644605 0.1605890
0.1967626 0.1728454 0.1688260
0.2111774 0.1858908 0.1816412
0.2210999 0.1948706 0.1904626
0.2331805 0.2058036 0.2012027
0.2494377 0.2205164 0.2156560
0.2625219 0.2323576 0.2272883
0.2776865 0.2460816 0.2407702
0.2904692 0.2576499 0.2521344
0.3029567 0.2689511 0.2632363
0.3182636 0.2828040 0.2768447
0.3296788 0.2931347 0.2869931
0.3408966 0.3032869 0.2969663
0.3522716 0.3135812 0.3070790
0.3638957 0.3241010 0.3174132
0.3762751 0.3353044 0.3284190
0.3893538 0.3471406 0.3400463
0.4032656 0.3597308 0.3524145
0.4178674 0.3729455 0.3653961
0.4286033 0.3826615 0.3749406
0.1358509 0.1177203 0.1146733
0.1358509 0.1177203 0.1146733
0.1380592 0.1197188 0.1166366
0.1402930 0.1217404 0.1186225
0.1425527 0.1237854 0.1206314
0.1448385 0.1258540 0.1226635
0.1495866 0.1301511 0.1268848
0.1545185 0.1346144 0.1312694
0.1608695 0.1403621 0.1369157
0.1688380 0.1475736 0.1440000
0.1743372 0.1525504 0.1488890
0.1845092 0.1617561 0.1579323
0.1936325 0.1700127 0.1660432
0.2047614 0.1800843 0.1759372
0.2144447 0.1888477 0.1845459
0.2262130 0.1994980 0.1950084
0.2367287 0.2090148 0.2043572
0.2494377 0.2205164 0.2156560
0.2625219 0.2323576 0.2272883
0.2738288 0.2425904 0.2373405
0.2904692 0.2576499 0.2521344
0.3029567 0.2689511 0.2632363
0.3150648 0.2799090 0.2740009
0.3263822 0.2901512 0.2840624
0.3361039 0.2989494 0.2927053
0.3473785 0.3091529 0.3027289
0.3588739 0.3195563 0.3129487
0.3708955 0.3304358 0.3236363
0.3854570 0.3436140 0.3365820
0.3992469 0.3560939 0.3488417
0.4073722 0.3634473 0.3560654
0.4242785 0.3787475 0.3710957
0.4395934 0.3926075 0.3847112
0.1545185 0.1346144 0.1312694
0.1545185 0.1346144 0.1312694
0.1582953 0.1380325 0.1346271
0.1608695 0.1403621 0.1369157
0.1634936 0.1427369 0.1392486
0.1661497 0.1451407 0.1416100
0.1688380 0.1475736 0.1440000
0.1743372 0.1525504 0.1488890
0.1815578 0.1590850 0.1553083
0.1874975 0.1644605 0.1605890
0.1936325 0.1700127 0.1660432
0.1999322 0.1757139 0.1716438
0.2111774 0.1858908 0.1816412
0.2210999 0.1948706 0.1904626
0.2296754 0.2026315 0.1980866
0.2403172 0.2122624 0.2075475
0.2531644 0.2238891 0.2189692
0.2662470 0.2357289 0.2306001
0.2776865 0.2460816 0.2407702
0.2904692 0.2576499 0.2521344
0.3029567 0.2689511 0.2632363
0.3150648 0.2799090 0.2740009
0.3263822 0.2901512 0.2840624
0.3329409 0.2960869 0.2898933
0.3441244 0.3062080 0.2998359
0.3555594 0.3165567 0.3100020
0.3673465 0.3272240 0.3204812
0.3798991 0.3385842 0.3316409
0.3932849 0.3506982 0.3435413
0.4032656 0.3597308 0.3524145
0.4178674 0.3729455 0.3653961
0.4351678 0.3886023 0.3807767
0.4440590 0.3966489 0.3886813
0.1743372 0.1525504 0.1488890
0.1771987 0.1551400 0.1514329
0.1771987 0.1551400 0.1514329
0.1815578 0.1590850 0.1553083
0.1845092 0.1617561 0.1579323
0.1874975 0.1644605 0.1605890
0.1905413 0.1672152 0.1632950
0.1936325 0.1700127 0.1660432
0.1999322 0.1757139 0.1716438
0.2079499 0.1829699 0.1787718
0.2144447 0.1888477 0.1845459
0.2210999 0.1948706 0.1904626
0.2296754 0.2026315 0.1980866
0.2367287 0.2090148 0.2043572
0.2494377 0.2205164 0.2156560
0.2569366 0.2273030 0.2223228
0.2700158 0.2391396 0.2339506
0.2831360 0.2510134 0.2456150
0.2904692 0.2576499 0.2521344
0.3029567 0.2689511 0.2632363
0.3150648 0.2799090 0.2740009
0.3263822 0.2901512 0.2840624
0.3329409 0.2960869 0.2898933
0.3441244 0.3062080 0.2998359
0.3555594 0.3165567 0.3100020
0.3673465 0.3272240 0.3204812
0.3762751 0.3353044 0.3284190
0.3893538 0.3471406 0.3400463
0.4032656 0.3597308 0.3524145
0.4136410 0.3691205 0.3616386
0.4286033 0.3826615 0.3749406
0.4395934 0.3926075 0.3847112
0.4552990 0.4068211 0.3986741
0.1967626 0.1728454 0.1688260
0.1999322 0.1757139 0.1716438
0.1999322 0.1757139 0.1716438
0.2047614 0.1800843 0.1759372
0.2047614 0.1800843 0.1759372
0.2079499 0.1829699 0.1787718
0.2111774 0.1858908 0.1816412
0.2144447 0.1888477 0.1845459
0.2210999 0.1948706 0.1904626
0.2262130 0.1994980 0.1950084
0.2331805 0.2058036 0.2012027
0.2403172 0.2122624 0.2075475
0.2494377 0.2205164 0.2156560
0.2569366 0.2273030 0.2223228
0.2662470 0.2357289 0.2306001
0.2776865 0.2460816 0.2407702
0.2867829 0.2543139 0.2488572
0.2995706 0.2658867 0.2602259
0.3063751 0.2720449 0.2662754
0.3182636 0.2828040 0.2768447
0.3263822 0.2901512 0.2840624
0.3361039 0.2989494 0.2927053
0.3441244 0.3062080 0.2998359
0.3555594 0.3165567 0.3100020
0.3638957 0.3241010 0.3174132
0.3762751 0.3353044 0.3284190
0.3854570 0.3436140 0.3365820
0.3992469 0.3560939 0.3488417
0.4136410 0.3691205 0.3616386
0.4242785 0.3787475 0.3710957
0.4351678 0.3886023 0.3807767
0.4508082 0.4027569 0.3946816
0.4621102 0.4129852 0.4047295
0.2210999 0.1948706 0.1904626
0.2210999 0.1948706 0.1904626
0.2262130 0.1994980 0.1950084
0.2262130 0.1994980 0.1950084
0.2296754 0.2026315 0.1980866
0.2296754 0.2026315 0.1980866
0.2331805 0.2058036 0.2012027
0.2367287 0.2090148 0.2043572
0.2457562 0.2171846 0.2123830
0.2494377 0.2205164 0.2156560
0.2569366 0.2273030 0.2223228
0.2625219 0.2323576 0.2272883
0.2700158 0.2391396 0.2339506
0.2776865 0.2460816 0.2407702
0.2867829 0.2543139 0.2488572
0.2941952 0.2610220 0.2554470
0.3029567 0.2689511 0.2632363
0.3098263 0.2751682 0.2693436
0.3214901 0.2857239 0.2797132
0.3296788 0.2931347 0.2869931
0.3361039 0.2989494 0.2927053
0.3473785 0.3091529 0.3027289
0.3555594 0.3165567 0.3100020
0.3673465 0.3272240 0.3204812
0.3762751 0.3353044 0.3284190
0.3854570 0.3436140 0.3365820
0.3992469 0.3560939 0.3488417
0.4073722 0.3634473 0.3560654
0.4242785 0.3787475 0.3710957
0.4351678 0.3886023 0.3807767
0.4440590 0.3966489 0.3886813
0.4621102 0.4129852 0.4047295
0.4713335 0.4213323 0.4129293
0.2457562 0.2171846 0.2123830
0.2457562 0.2171846 0.2123830
0.2494377 0.2205164 0.2156560
0.2494377 0.2205164 0.2156560
0.2531644 0.2238891 0.2189692
0.2531644 0.2238891 0.2189692
0.2569366 0.2273030 0.2223228
0.2625219 0.2323576 0.2272883
0.2662470 0.2357289 0.2306001
0.2700158 0.2391396 0.2339506
0.2776865 0.2460816 0.2407702
0.2831360 0.2510134 0.2456150
0.2904692 0.2576499 0.2521344
0.2995706 0.2658867 0.2602259
0.3029567 0.2689511 0.2632363
0.3098263 0.2751682 0.2693436
0.3182636 0.2828040 0.2768447
0.3263822 0.2901512 0.2840624
0.3329409 0.2960869 0.2898933
0.3408966 0.3032869 0.2969663
0.3522716 0.3135812 0.3070790
0.3588739 0.3195563 0.3129487
0.3673465 0.3272240 0.3204812
0.3762751 0.3353044 0.3284190
0.3893538 0.3471406 0.3400463
0.3992469 0.3560939 0.3488417
0.4073722 0.3634473 0.3560654
0.4242785 0.3787475 0.3710957
0.4351678 0.3886023 0.3807767
0.4440590 0.3966489 0.3886813
0.4552990 0.4068211 0.3986741
0.4713335 0.4213323 0.4129293
0.4827845 0.4316955 0.4231097
0.2700158 0.2391396 0.2339506
0.2700158 0.2391396 0.2339506
0.2700158 0.2391396 0.2339506
0.2738288 0.2425904 0.2373405
0.2738288 0.2425904 0.2373405
0.2776865 0.2460816 0.2407702
0.2831360 0.2510134 0.2456150
0.2831360 0.2510134 0.2456150
0.2867829 0.2543139 0.2488572
0.2941952 0.2610220 0.2554470
0.2995706 0.2658867 0.2602259
0.3029567 0.2689511 0.2632363
0.3063751 0.2720449 0.2662754
0.3150648 0.2799090 0.2740009
0.3214901 0.2857239 0.2797132
0.3263822 0.2901512 0.2840624
0.3329409 0.2960869 0.2898933
0.3408966 0.3032869 0.2969663
0.3473785 0.3091529 0.3027289
0.3555594 0.3165567 0.3100020
0.3638957 0.3241010 0.3174132
0.3708955 0.3304358 0.3236363
0.3798991 0.3385842 0.3316409
0.3893538 0.3471406 0.3400463
0.3992469 0.3560939 0.3488417
0.4136410 0.3691205 0.3616386
0.4242785 0.3787475 0.3710957
0.4351678 0.3886023 0.3807767
0.4440590 0.3966489 0.3886813
0.4552990 0.4068211 0.3986741
0.4667015 0.4171404 0.4088113
0.4827845 0.4316955 0.4231097
0.4944361 0.4422402 0.4334683
0.2941952 0.2610220 0.2554470
0.2941952 0.2610220 0.2554470
0.2941952 0.2610220 0.2554470
0.2941952 0.2610220 0.2554470
0.2995706 0.2658867 0.2602259
0.2995706 0.2658867 0.2602259
0.3029567 0.2689511 0.2632363
0.3063751 0.2720449 0.2662754
0.3063751 0.2720449 0.2662754
0.3098263 0.2751682 0.2693436
0.3182636 0.2828040 0.2768447
0.3214901 0.2857239 0.2797132
0.3263822 0.2901512 0.2840624
0.3296788 0.2931347 0.2869931
0.3361039 0.2989494 0.2927053
0.3408966 0.3032869 0.2969663
0.3473785 0.3091529 0.3027289
0.3555594 0.3165567 0.3100020
0.3638957 0.3241010 0.3174132
0.3673465 0.3272240 0.3204812
0.3762751 0.3353044 0.3284190
0.3854570 0.3436140 0.3365820
0.3932849 0.3506982 0.3435413
0.4032656 0.3597308 0.3524145
0.4136410 0.3691205 0.3616386
0.4242785 0.3787475 0.3710957
0.4351678 0.3886023 0.3807767
0.4440590 0.3966489 0.3886813
0.4552990 0.4068211 0.3986741
0.4667015 0.4171404 0.4088113
0.4781934 0.4275405 0.4190280
0.4897455 0.4379952 0.4292983
0.5061443 0.4528361 0.4438773
0.3150648 0.2799090 0.2740009
0.3150648 0.2799090 0.2740009
0.3150648 0.2799090 0.2740009
0.3150648 0.2799090 0.2740009
0.3182636 0.2828040 0.2768447
0.3182636 0.2828040 0.2768447
0.3214901 0.2857239 0.2797132
0.3263822 0.2901512 0.2840624
0.3263822 0.2901512 0.2840624
0.3296788 0.2931347 0.2869931
0.3329409 0.2960869 0.2898933
0.3361039 0.2989494 0.2927053
0.3408966 0.3032869 0.2969663
0.3473785 0.3091529 0.3027289
0.3522716 0.3135812 0.3070790
0.3555594 0.3165567 0.3100020
0.3638957 0.3241010 0.3174132
0.3708955 0.3304358 0.3236363
0.3762751 0.3353044 0.3284190
0.3854570 0.3436140 0.3365820
0.3932849 0.3506982 0.3435413
0.3992469 0.3560939 0.3488417
0.4073722 0.3634473 0.3560654
0.4178674 0.3729455 0.3653961
0.4286033 0.3826615 0.3749406
0.4395934 0.3926075 0.3847112
0.4508082 0.4027569 0.3946816
0.4621102 0.4129852 0.4047295
0.4713335 0.4213323 0.4129293
0.4827845 0.4316955 0.4231097
0.4944361 0.4422402 0.4334683
0.5061443 0.4528361 0.4438773
0.5132588 0.4592747 0.4502023
0.3329409 0.2960869 0.2898933
0.3329409 0.2960869 0.2898933
0.3329409 0.2960869 0.2898933
0.3329409 0.2960869 0.2898933
0.3361039 0.2989494 0.2927053
0.3361039 0.2989494 0.2927053
0.3408966 0.3032869 0.2969663
0.3408966 0.3032869 0.2969663
0.3441244 0.3062080 0.2998359
0.3473785 0.3091529 0.3027289
0.3522716 0.3135812 0.3070790
0.3555594 0.3165567 0.3100020
0.3588739 0.3195563 0.3129487
0.3638957 0.3241010 0.3174132
0.3673465 0.3272240 0.3204812
0.3708955 0.3304358 0.3236363
0.3798991 0.3385842 0.3316409
0.3854570 0.3436140 0.3365820
0.3932849 0.3506982 0.3435413
0.3992469 0.3560939 0.3488417
0.4073722 0.3634473 0.3560654
0.4178674 0.3729455 0.3653961
0.4242785 0.3787475 0.3710957
0.4351678 0.3886023 0.3807767
0.4440590 0.3966489 0.3886813
0.4552990 0.4068211 0.3986741
0.4621102 0.4129852 0.4047295
0.4713335 0.4213323 0.4129293
0.4827845 0.4316955 0.4231097
0.4944361 0.4422402 0.4334683
0.5061443 0.4528361 0.4438773
0.5180518 0.4636125 0.4544635
0.5252588 0.4701348 0.4608708
0.3522716 0.3135812 0.3070790
0.3522716 0.3135812 0.3070790
0.3522716 0.3135812 0.3070790
0.3522716 0.3135812 0.3070790
0.3522716 0.3135812 0.3070790
0.3555594 0.3165567 0.3100020
0.3555594 0.3165567 0.3100020
0.3588739 0.3195563 0.3129487
0.3588739 0.3195563 0.3129487
0.3638957 0.3241010 0.3174132
0.3673465 0.3272240 0.3204812
0.3708955 0.3304358 0.3236363
0.3762751 0.3353044 0.3284190
0.3798991 0.3385842 0.3316409
0.3854570 0.3436140 0.3365820
0.3893538 0.3471406 0.3400463
0.3992469 0.3560939 0.3488417
0.4032656 0.3597308 0.3524145
0.4073722 0.3634473 0.3560654
0.4178674 0.3729455 0.3653961
0.4242785 0.3787475 0.3710957
0.4351678 0.3886023 0.3807767
0.4395934 0.3926075 0.3847112
0.4508082 0.4027569 0.3946816
0.4621102 0.4129852 0.4047295
0.4667015 0.4171404 0.4088113
0.4781934 0.4275405 0.4190280
0.4897455 0.4379952 0.4292983
0.4944361 0.4422402 0.4334683
0.5061443 0.4528361 0.4438773
0.5180518 0.4636125 0.4544635
0.5300822 0.4745000 0.4651590
0.5423169 0.4855723 0.4760360
0.3673465 0.3272240 0.3204812
0.3673465 0.3272240 0.3204812
0.3708955 0.3304358 0.3236363
0.3708955 0.3304358 0.3236363
0.3708955 0.3304358 0.3236363
0.3708955 0.3304358 0.3236363
0.3762751 0.3353044 0.3284190
0.3762751 0.3353044 0.3284190
0.3798991 0.3385842 0.3316409
0.3798991 0.3385842 0.3316409
0.3854570 0.3436140 0.3365820
0.3893538 0.3471406 0.3400463
0.3932849 0.3506982 0.3435413
0.3992469 0.3560939 0.3488417
0.4032656 0.3597308 0.3524145
0.4073722 0.3634473 0.3560654
0.4136410 0.3691205 0.3616386
0.4178674 0.3729455 0.3653961
0.4286033 0.3826615 0.3749406
0.4351678 0.3886023 0.3807767
0.4395934 0.3926075 0.3847112
0.4508082 0.4027569 0.3946816
0.4552990 0.4068211 0.3986741
0.4667015 0.4171404 0.4088113
0.4713335 0.4213323 0.4129293
0.4827845 0.4316955 0.4231097
0.4944361 0.4422402 0.4334683
0.5014507 0.4485884 0.4397046
0.5132588 0.4592747 0.4502023
0.5252588 0.4701348 0.4608708
0.5300822 0.4745000 0.4651590
0.5423169 0.4855723 0.4760360
0.5547272 0.4968037 0.4870692
0.3893538 0.3471406 0.3400463
0.3893538 0.3471406 0.3400463
0.3893538 0.3471406 0.3400463
0.3893538 0.3471406 0.3400463
0.3893538 0.3471406 0.3400463
0.3932849 0.3506982 0.3435413
0.3932849 0.3506982 0.3435413
0.3932849 0.3506982 0.3435413
0.3992469 0.3560939 0.3488417
0.4032656 0.3597308 0.3524145
0.4032656 0.3597308 0.3524145
0.4073722 0.3634473 0.3560654
0.4136410 0.3691205 0.3616386
0.4178674 0.3729455 0.3653961
0.4242785 0.3787475 0.3710957
0.4286033 0.3826615 0.3749406
0.4351678 0.3886023 0.3807767
0.4395934 0.3926075 0.3847112
0.4440590 0.3966489 0.3886813
0.4508082 0.4027569 0.3946816
0.4621102 0.4129852 0.4047295
0.4667015 0.4171404 0.4088113
0.4713335 0.4213323 0.4129293
0.4827845 0.4316955 0.4231097
0.4897455 0.4379952 0.4292983
0.5014507 0.4485884 0.4397046
0.5061443 0.4528361 0.4438773
0.5180518 0.4636125 0.4544635
0.5252588 0.4701348 0.4608708
0.5349456 0.4789014 0.4694827
0.5423169 0.4855723 0.4760360
0.5547272 0.4968037 0.4870692
0.5673546 0.5082316 0.4982955
0.4073722 0.3634473 0.3560654
0.4073722 0.3634473 0.3560654
0.4073722 0.3634473 0.3560654
0.4073722 0.3634473 0.3560654
0.4136410 0.3691205 0.3616386
0.4136410 0.3691205 0.3616386
