data/spectral_luts/trix_400_polymax_grade_3.cube
TITLE "trix_400_polymax_grade_3"
LUT_3D_SIZE 5
0.0778174 0.0651999 0.0630794
0.0788948 0.0661749 0.0640372
0.1081824 0.0926802 0.0900750
0.2313304 0.2041293 0.1995580
0.3987597 0.3556530 0.3484086
0.0839956 0.0707912 0.0685721
0.0926155 0.0785921 0.0762354
0.1462975 0.1271744 0.1239607
0.2721905 0.2411077 0.2358841
0.4259363 0.3802478 0.3725696
0.1912567 0.1678626 0.1639310
0.2122812 0.1868897 0.1826225
0.2769561 0.2454206 0.2401208
0.3854285 0.3435882 0.3365566
0.5043989 0.4512565 0.4423256
0.4124543 0.3680466 0.3605835
0.4259363 0.3802478 0.3725696
0.4640727 0.4147613 0.4064742
0.5285870 0.4731468 0.4638297
0.6110421 0.5477688 0.5371352
0.6053291 0.5425985 0.5320562
0.6110421 0.5477688 0.5371352
0.6341832 0.5687115 0.5577085
0.6789978 0.6092687 0.5975503
0.7408880 0.6652794 0.6525728
0.0932744 0.0791885 0.0768213
0.1068194 0.0914467 0.0888632
0.1680317 0.1468439 0.1432831
0.2940095 0.2608540 0.2552820
0.4369227 0.3901905 0.3823369
0.1243472 0.1073094 0.1044460
0.1436182 0.1247497 0.1215787
0.2063332 0.1815068 0.1773345
0.3299482 0.2933785 0.2872327
0.4640727 0.4147613 0.4064742
0.2560435 0.2264947 0.2215288
0.2769561 0.2454206 0.2401208
0.3351386 0.2980758 0.2918471
0.4259363 0.3802478 0.3725696
0.5285870 0.4731468 0.4638297
0.4504888 0.4024678 0.3943976
0.4640727 0.4147613 0.4064742
0.4964330 0.4440474 0.4352436
0.5555749 0.4975709 0.4878229
0.6341832 0.5687115 0.5577085
0.6254124 0.5607739 0.5499110
0.6341832 0.5687115 0.5577085
0.6548707 0.5874337 0.5761004
0.7035747 0.6315108 0.6194000
0.7565757 0.6794768 0.6665198
0.2817621 0.2497701 0.2443936
0.3066521 0.2722955 0.2665216
0.3615059 0.3219382 0.3152886
0.4451553 0.3976410 0.3896559
0.5419562 0.4852459 0.4757154
0.3220206 0.2862040 0.2801848
0.3403044 0.3027509 0.2964398
0.3907364 0.3483918 0.3412755
0.4696080 0.4197707 0.4113953
0.5636707 0.5048976 0.4950204
0.4259363 0.3802478 0.3725696
0.4369227 0.3901905 0.3823369
0.4775562 0.4269639 0.4184615
0.5365721 0.4803733 0.4709287
0.6196275 0.5555385 0.5447680
0.5555749 0.4975709 0.4878229
0.5636707 0.5048976 0.4950204
0.5912601 0.5298660 0.5195484
0.6400930 0.5740598 0.5629625
0.7035747 0.6315108 0.6194000
0.7035747 0.6315108 0.6194000
0.7035747 0.6315108 0.6194000
0.7252088 0.6510897 0.6386335
0.7565757 0.6794768 0.6665198
0.8136783 0.7311547 0.7172861
0.5365721 0.4803733 0.4709287
0.5419562 0.4852459 0.4757154
0.5774030 0.5173253 0.5072289
0.6254124 0.5607739 0.5499110
0.6942634 0.6230841 0.6111219
0.5555749 0.4975709 0.4878229
0.5636707 0.5048976 0.4950204
0.5912601 0.5298660 0.5195484
0.6400930 0.5740598 0.5629625
0.7035747 0.6315108 0.6194000
0.6110421 0.5477688 0.5371352
0.6196275 0.5555385 0.5447680
0.6400930 0.5740598 0.5629625
0.6881194 0.6175238 0.6056597
0.7408880 0.6652794 0.6525728
0.6942634 0.6230841 0.6111219
0.7035747 0.6315108 0.6194000
0.7252088 0.6510897 0.6386335
0.7565757 0.6794768 0.6665198
0.8136783 0.7311547 0.7172861
0.8041838 0.7225621 0.7088451
0.8136783 0.7311547 0.7172861
0.8265013 0.7427595 0.7286861
0.8521111 0.7659364 0.7514542
0.8903896 0.8005785 0.7854851
0.7502638 0.6737645 0.6609083
0.7565757 0.6794768 0.6665198
0.7724326 0.6938273 0.6806171
0.8041838 0.7225621 0.7088451
0.8521111 0.7659364 0.7514542
0.7565757 0.6794768 0.6665198
0.7661363 0.6881292 0.6750195
0.7818612 0.7023602 0.6889995
0.8136783 0.7311547 0.7172861
0.8585662 0.7717782 0.7571929
0.7978151 0.7167984 0.7031831
0.7978151 0.7167984 0.7031831
0.8136783 0.7311547 0.7172861
0.8425140 0.7572510 0.7429220
0.8840203 0.7948143 0.7798226
0.8521111 0.7659364 0.7514542
0.8585662 0.7717782 0.7571929
0.8682839 0.7805729 0.7658324
0.8903896 0.8005785 0.7854851
0.9308092 0.8371583 0.8214196
0.9214712 0.8287073 0.8131177
0.9308092 0.8371583 0.8214196
0.9367790 0.8425609 0.8267269
0.9607714 0.8642741 0.8480571
0.9801738 0.8818333 0.8653065
