data/spectral_luts/ultramax_500_endura_premier.cube
TITLE "ultramax_500_endura_premier"
LUT_3D_SIZE 5
0.0382248 0.0605032 0.0722566
0.0766852 0.0658577 0.0732168
0.3370862 0.0887521 0.0670401
0.6187596 0.1383789 0.1383789
0.7698791 0.1817524 0.1817524
0.0300939 0.0870910 0.0766406
0.0796800 0.0983501 0.0781061
0.3707646 0.1444471 0.0699084
0.6650009 0.2020320 0.1516508
0.8202711 0.2833038 0.1962157
0.0431017 0.2868003 0.0843633
0.0494353 0.3088675 0.0815576
0.4579014 0.4075178 0.0922103
0.7676039 0.4930888 0.1810994
0.9074836 0.5608510 0.2212470
0.0968154 0.4739463 0.0968154
0.1067515 0.5085651 0.1067515
0.5102453 0.6231036 0.1396257
0.8174744 0.7130439 0.1954130
0.9506330 0.7662216 0.2336315
0.1419635 0.6312488 0.2172492
0.1481549 0.6528205 0.2194806
0.5489464 0.7576595 0.2180012
0.8382645 0.8304302 0.2697505
0.9610021 0.8724620 0.3692538
0.0353128 0.0636137 0.0963456
0.0915751 0.0718679 0.1018397
0.3673213 0.0963209 0.1172028
0.6387868 0.1441270 0.1592661
0.7830247 0.1855254 0.2381633
0.0177894 0.1009587 0.1213185
0.0936353 0.1167099 0.1295239
0.4043315 0.1649527 0.1507367
0.6869835 0.2336677 0.1941708
0.8324970 0.3157163 0.2691040
0.0543495 0.3259893 0.1829746
0.0640693 0.3598545 0.1856151
0.4703174 0.4565367 0.2029483
0.7762873 0.5345954 0.2414683
0.9093204 0.6016384 0.3302657
0.1105193 0.5216929 0.2432345
0.1225848 0.5637306 0.2462636
0.5047015 0.6702428 0.2570960
0.8171877 0.7469913 0.2979447
0.9442414 0.7943546 0.3950700
0.1497945 0.6585332 0.3316169
0.1561468 0.6806656 0.3298032
0.5455192 0.7845779 0.3516372
0.8348674 0.8525092 0.4015245
0.9556510 0.8887802 0.4806544
0.0628495 0.0628495 0.3556044
0.1537187 0.0738190 0.3703406
0.4265858 0.1003247 0.4171227
0.6764863 0.1549473 0.4713671
0.8143765 0.2253284 0.5376914
0.0822983 0.1270419 0.4233667
0.1496971 0.1505726 0.4440577
0.4599022 0.2101477 0.4790774
0.7174420 0.2776698 0.5258502
0.8520172 0.3666370 0.5880569
0.1157298 0.4135404 0.5398467
0.1215808 0.4510222 0.5602325
0.4968066 0.5347412 0.5852299
0.7860510 0.6001807 0.6188139
0.9097289 0.6568069 0.6645709
0.1389706 0.6131448 0.6208211
0.1513640 0.6640013 0.6390319
0.5136622 0.7517056 0.6606066
0.8126079 0.8114753 0.6769480
0.9351549 0.8421347 0.7085385
0.1722855 0.7368947 0.6866530
0.1809208 0.7669817 0.6884903
0.5525526 0.8518535 0.7093444
0.8302113 0.9004323 0.7232580
0.9437594 0.9269800 0.7562372
0.1965991 0.1410323 0.6280044
0.2837858 0.1450125 0.6418720
0.5291749 0.1549285 0.6764206
0.7344421 0.1931834 0.7148431
0.8498889 0.3023517 0.7565832
0.1731205 0.1815383 0.6809344
0.2841239 0.2104509 0.6980029
0.5541660 0.2660938 0.7271523
0.7647224 0.3385404 0.7574868
0.8754695 0.4295286 0.7902693
0.1865372 0.4973555 0.7865498
0.1971489 0.5249279 0.7970648
0.5828571 0.5960428 0.8206159
0.8153893 0.6509043 0.8370697
0.9184727 0.6966943 0.8544722
0.2035493 0.6953331 0.8458223
0.2062937 0.7314912 0.8553843
0.5918375 0.7989944 0.8704836
0.8338343 0.8419963 0.8800345
0.9370629 0.8715251 0.8925603
0.2126965 0.7936652 0.8776926
0.2147552 0.8272323 0.8848655
0.6249629 0.8894452 0.8984581
0.8430632 0.9252591 0.9037589
0.9438338 0.9456950 0.9139609
0.3599435 0.1960400 0.7938468
0.4487027 0.2136904 0.8050356
0.6411691 0.2654357 0.8254380
0.7961353 0.3400025 0.8502181
0.8872539 0.4354828 0.8746799
0.3651789 0.2986032 0.8249394
0.4538224 0.3185133 0.8345464
0.6541046 0.3800573 0.8541883
0.8140870 0.4398063 0.8724312
0.9015934 0.5170244 0.8917471
0.3126150 0.5926704 0.8979319
0.4422379 0.6114345 0.9038730
0.6774489 0.6540581 0.9143717
0.8497605 0.6969835 0.9240766
0.9321497 0.7361675 0.9322187
0.2736349 0.7694545 0.9334998
0.4381873 0.7915323 0.9384963
0.6898317 0.8356604 0.9480757
0.8655054 0.8671141 0.9520756
0.9441185 0.8874865 0.9575572
0.3337964 0.8538769 0.9519551
0.4774970 0.8741400 0.9557360
0.7058088 0.9109399 0.9628464
0.8715924 0.9395714 0.9658563
0.9502628 0.9535670 0.9685518
