data/spectral_luts/ultramax_500_endura_premier.cube
TITLE "ultramax_500_endura_premier"
LUT_3D_SIZE 9
0.0382248 0.0605032 0.0722566
0.0407062 0.0608479 0.0723210
0.0766852 0.0658577 0.0732168
0.1884697 0.0790645 0.0731147
0.3370862 0.0887521 0.0670401
0.4981917 0.1037742 0.1037742
0.6187596 0.1383789 0.1383789
0.7066426 0.1636026 0.1636026
0.7698791 0.1817524 0.1817524
0.0376153 0.0628070 0.0727109
0.0405903 0.0633990 0.0728509
0.0790662 0.0697954 0.0739312
0.1921529 0.0850648 0.0739493
0.3516468 0.0997100 0.0673528
0.5084600 0.1082757 0.1067213
0.6264588 0.1405887 0.1405887
0.7177110 0.1667794 0.1667794
0.7855632 0.1902139 0.1862540
0.0300939 0.0870910 0.0766406
0.0341806 0.0889993 0.0769321
0.0796800 0.0983501 0.0781061
0.2071919 0.1213140 0.0775242
0.3707646 0.1444471 0.0699084
0.5450909 0.1685399 0.1172349
0.6650009 0.2020320 0.1516508
0.7563971 0.2395781 0.1778829
0.8202711 0.2833038 0.1962157
0.0157641 0.1695696 0.0842459
0.0160401 0.1711998 0.0843911
0.0678618 0.1885562 0.0845991
0.2294239 0.2207731 0.0798513
0.4158907 0.2614517 0.0801526
0.5938429 0.3020776 0.1312275
0.7149199 0.3373566 0.1659783
0.8087330 0.3800654 0.1929041
0.8705603 0.4258268 0.2106494
0.0431017 0.2868003 0.0843633
0.0438645 0.2894579 0.0845668
0.0494353 0.3088675 0.0815576
0.2473260 0.3572811 0.0656243
0.4579014 0.4075178 0.0922103
0.6459385 0.4558833 0.1461797
0.7676039 0.4930888 0.1810994
0.8566931 0.5291904 0.2066693
0.9074836 0.5608510 0.2212470
0.0732302 0.3917722 0.0793750
0.0738815 0.3940414 0.0796113
0.0819754 0.4222416 0.0819754
0.2552994 0.4705271 0.0958340
0.4860871 0.5285056 0.1124747
0.6800407 0.5770853 0.1559675
0.7948759 0.6122043 0.1889269
0.8834602 0.6486155 0.2143519
0.9322007 0.6745064 0.2283411
0.0968154 0.4739463 0.0968154
0.0968154 0.4739463 0.0968154
0.1067515 0.5085651 0.1067515
0.2658839 0.5662162 0.1232982
0.5102453 0.6231036 0.1396257
0.7003981 0.6751280 0.1618104
0.8174744 0.7130439 0.1954130
0.9044437 0.7438012 0.2203745
0.9506330 0.7662216 0.2336315
0.1198279 0.5541253 0.1363037
0.1198279 0.5541253 0.1363037
0.1287053 0.5850553 0.1299973
0.2835442 0.6438228 0.1455724
0.5255833 0.7018793 0.1622355
0.7105905 0.7462422 0.1749683
0.8313878 0.7806954 0.1994064
0.9089595 0.8084278 0.2233521
0.9571531 0.8313932 0.2907769
0.1419635 0.6312488 0.2172492
0.1419635 0.6312488 0.2172492
0.1481549 0.6528205 0.2194806
0.3054585 0.7042841 0.2144574
0.5489464 0.7576595 0.2180012
0.7243918 0.8002575 0.2380634
0.8382645 0.8304302 0.2697505
0.9153084 0.8531300 0.3161338
0.9610021 0.8724620 0.3692538
0.0379636 0.0607181 0.0738410
0.0418609 0.0612967 0.0741904
0.0815018 0.0669761 0.0759213
0.1928529 0.0802735 0.0775404
0.3516305 0.0906043 0.0750917
0.5124956 0.1078796 0.1078796
0.6233313 0.1396911 0.1396911
0.7110472 0.1648668 0.1648668
0.7738380 0.1828887 0.1828887
0.0371958 0.0635497 0.0749509
0.0415355 0.0644974 0.0754402
0.0833370 0.0714800 0.0774810
0.2011226 0.0878513 0.0796763
0.3593555 0.1021166 0.0769916
0.5229689 0.1108856 0.1108856
0.6337377 0.1426778 0.1426778
0.7222362 0.1680782 0.1680782
0.7878011 0.1945178 0.1868963
0.0282336 0.0902174 0.0809508
0.0345548 0.0925788 0.0817315
0.0850674 0.1016135 0.0842104
0.2116580 0.1247920 0.0864899
0.3872290 0.1510040 0.0823534
0.5509723 0.1765521 0.1189230
0.6695783 0.2081250 0.1529646
0.7602134 0.2474134 0.1789782
0.8272102 0.2959378 0.1982073
0.0173507 0.1787245 0.0918415
0.0177383 0.1808861 0.0926215
0.0709461 0.1980113 0.0941253
0.2400059 0.2364104 0.0913085
0.4220104 0.2752586 0.0819090
0.5991708 0.3121473 0.1327567
0.7247660 0.3462582 0.1688043
0.8095031 0.3917492 0.1931251
0.8726642 0.4376884 0.2112533
0.0452956 0.2944442 0.0948334
0.0462206 0.2976670 0.0951075
0.0531050 0.3216530 0.0931757
0.2552475 0.3680260 0.0802435
0.4614085 0.4153920 0.0932168
0.6496056 0.4646857 0.1472322
0.7701485 0.5046574 0.1818298
0.8551918 0.5381103 0.2062384
0.9086865 0.5723204 0.2215922
0.0747218 0.3969690 0.0902905
0.0755370 0.3998095 0.0912578
0.0841826 0.4299319 0.0850258
0.2634059 0.4862433 0.1003448
0.4973060 0.5383934 0.1153127
0.6784883 0.5853465 0.1555219
0.8033084 0.6232029 0.1913471
0.8821491 0.6582581 0.2139756
0.9336042 0.6855667 0.2287440
0.0979228 0.4778047 0.0979969
0.0979228 0.4778047 0.0979969
0.1078145 0.5122688 0.1078145
0.2731691 0.5713322 0.1247665
0.5079216 0.6289117 0.1412927
0.6983136 0.6796477 0.1612121
0.8165208 0.7155503 0.1951393
0.9034851 0.7466097 0.2200993
0.9511814 0.7726359 0.2464981
0.1198279 0.5541253 0.1363037
0.1198279 0.5541253 0.1363037
0.1287053 0.5850553 0.1299973
0.2835442 0.6438228 0.1455724
0.5255833 0.7018793 0.1622355
0.7105905 0.7462422 0.1749683
0.8313878 0.7806954 0.1994064
0.9089595 0.8084278 0.2233521
0.9571531 0.8313932 0.2907769
0.1419635 0.6312488 0.2172492
0.1419635 0.6312488 0.2172492
0.1481549 0.6528205 0.2194806
0.3054585 0.7042841 0.2144574
0.5489464 0.7576595 0.2180012
0.7243918 0.8002575 0.2380634
0.8382645 0.8304302 0.2697505
0.9153084 0.8531300 0.3161338
0.9610021 0.8724620 0.3692538
0.0353128 0.0636137 0.0963456
0.0434502 0.0649281 0.0980406
0.0915751 0.0718679 0.1018397
0.2100536 0.0860814 0.1095860
0.3673213 0.0963209 0.1172028
0.5223269 0.1107013 0.1321477
0.6387868 0.1441270 0.1592661
0.7188597 0.1671091 0.1951085
0.7830247 0.1855254 0.2381633
0.0333264 0.0684584 0.1033337
0.0421644 0.0700398 0.1038007
0.0910401 0.0781088 0.1099889
0.2142093 0.0948590 0.1164106
0.3758729 0.1108223 0.1271297
0.5398384 0.1198586 0.1441619
0.6504859 0.1474848 0.1707749
0.7343999 0.1715694 0.2024551
0.7991500 0.2177975 0.2486753
0.0177894 0.1009587 0.1213185
0.0283426 0.1040294 0.1220122
0.0936353 0.1167099 0.1295239
0.2298762 0.1385012 0.1368989
0.4043315 0.1649527 0.1507367
0.5694678 0.1959072 0.1711670
0.6869835 0.2336677 0.1941708
0.7727858 0.2671281 0.2305885
0.8324970 0.3157163 0.2691040
0.0215601 0.2008643 0.1499586
0.0222271 0.2041335 0.1503867
0.0618928 0.2246720 0.1594877
0.2472366 0.2647769 0.1680146
0.4366167 0.3013725 0.1841179
0.6121987 0.3423881 0.1951288
0.7304888 0.3775865 0.2174155
0.8204244 0.4192934 0.2580893
0.8740121 0.4548803 0.2963364
0.0543495 0.3259893 0.1829746
0.0572120 0.3359625 0.1832119
0.0640693 0.3598545 0.1856151
0.2553577 0.4094212 0.1975347
0.4703174 0.4565367 0.2029483
0.6545484 0.4957054 0.2148464
0.7762873 0.5345954 0.2414683
0.8553288 0.5647119 0.2773601
0.9093204 0.6016384 0.3302657
0.0857665 0.4354506 0.2088518
0.0880883 0.4435401 0.2137648
0.0969000 0.4742413 0.2142432
0.2467080 0.5269917 0.2181263
0.4939362 0.5844419 0.2233187
0.6831687 0.6283898 0.2386488
0.8005540 0.6578122 0.2635370
0.8836806 0.6825658 0.3060060
0.9331147 0.7121527 0.3640950
0.1105193 0.5216929 0.2432345
0.1108288 0.5227709 0.2431747
0.1225848 0.5637306 0.2462636
0.2532987 0.6192451 0.2513296
0.5047015 0.6702428 0.2570960
0.6967542 0.7152512 0.2682236
0.8171877 0.7469913 0.2979447
0.8979036 0.7751700 0.3454771
0.9442414 0.7943546 0.3950700
0.1320622 0.5967513 0.2851225
0.1320622 0.5967513 0.2851225
0.1428484 0.6343320 0.2898811
0.2602404 0.6858709 0.2899509
0.5168967 0.7376443 0.3000723
0.7081677 0.7824006 0.3169009
0.8292892 0.8109576 0.3511939
0.9074031 0.8352803 0.3882802
0.9502710 0.8534039 0.4405971
0.1497945 0.6585332 0.3316169
0.1497945 0.6585332 0.3316169
0.1561468 0.6806656 0.3298032
0.2826615 0.7329290 0.3419587
0.5455192 0.7845779 0.3516372
0.7230616 0.8264654 0.3712223
0.8348674 0.8525092 0.4015245
0.9143076 0.8759276 0.4407703
0.9556510 0.8887802 0.4806544
0.0326598 0.0700885 0.1973952
0.0476832 0.0722424 0.1986271
0.1108882 0.0809861 0.2101640
0.2306062 0.0941971 0.2259243
0.3898948 0.1046953 0.2459252
0.5484228 0.1181912 0.2691357
0.6481699 0.1468201 0.3020383
0.7347555 0.1716715 0.3389158
0.7942739 0.1928937 0.3839862
0.0292332 0.0772248 0.2133464
0.0455309 0.0794288 0.2146561
0.1137241 0.0898722 0.2274723
0.2385363 0.1069931 0.2422381
0.3980674 0.1206963 0.2641447
0.5546711 0.1306810 0.2856816
0.6656597 0.1518399 0.3175224
0.7456638 0.1820081 0.3514238
0.8090050 0.2370521 0.3982096
0.0328845 0.1185222 0.2500717
0.0349257 0.1232223 0.2578236
0.1123697 0.1359483 0.2635850
0.2483223 0.1616503 0.2871759
0.4259633 0.1878791 0.2993507
0.5854412 0.2247238 0.3296392
0.7007931 0.2563241 0.3586715
0.7827374 0.2985274 0.3946056
0.8394068 0.3362706 0.4279581
0.0486223 0.2384816 0.3060348
0.0509981 0.2416425 0.3143125
0.0528907 0.2649049 0.3209066
0.2553987 0.2976313 0.3348485
0.4524457 0.3384625 0.3544752
0.6308380 0.3730972 0.3702204
0.7431097 0.4072683 0.3952188
0.8237377 0.4474927 0.4266157
0.8785816 0.4914890 0.4681754
0.0671410 0.3705567 0.3579184
0.0711163 0.3844071 0.3605861
0.0789667 0.4117590 0.3731704
0.2479834 0.4562530 0.3860504
0.4768206 0.5006542 0.3953900
0.6569343 0.5376318 0.4195102
0.7743397 0.5699825 0.4358421
0.8613279 0.5996710 0.4664584
0.9113370 0.6356676 0.5035086
0.1004684 0.4866741 0.3966245
0.1034508 0.4970650 0.4062519
0.1125749 0.5288548 0.4065741
0.2254071 0.5747134 0.4179590
0.4983358 0.6272036 0.4349553
0.6794306 0.6652308 0.4507526
0.7998236 0.6927693 0.4756320
0.8786120 0.7196143 0.5070900
0.9277231 0.7357346 0.5345189
0.1252345 0.5729625 0.4407710
0.1274408 0.5806496 0.4418218
0.1375406 0.6158388 0.4455026
0.2266294 0.6660450 0.4567183
0.4988746 0.7175243 0.4734195
0.6929739 0.7541960 0.4885291
0.8126961 0.7826506 0.5143380
0.8950589 0.8028905 0.5313386
0.9369971 0.8204262 0.5692824
0.1463835 0.6466487 0.4761758
0.1463835 0.6466487 0.4761758
0.1566355 0.6823680 0.4878816
0.2124392 0.7294675 0.4986252
0.5115157 0.7777122 0.5065771
0.6990464 0.8170057 0.5219404
0.8244389 0.8441586 0.5484009
0.8986291 0.8620573 0.5656461
0.9453133 0.8777240 0.6036966
0.1622137 0.7018035 0.5189986
0.1622137 0.7018035 0.5189986
0.1697736 0.7281432 0.5298090
0.2668553 0.7764389 0.5406795
0.5314227 0.8204231 0.5490940
0.7148081 0.8579934 0.5653986
0.8304464 0.8805693 0.5821479
0.9050394 0.8997773 0.6094278
0.9460140 0.9098692 0.6364375
0.0628495 0.0628495 0.3556044
0.0845942 0.0647553 0.3622444
0.1537187 0.0738190 0.3703406
0.2700537 0.0878143 0.3937299
0.4265858 0.1003247 0.4171227
0.5718182 0.1249060 0.4378836
0.6764863 0.1549473 0.4713671
0.7525026 0.1767651 0.5014927
0.8143765 0.2253284 0.5376914
0.0686668 0.0696032 0.3758728
0.0833496 0.0754173 0.3795299
0.1577936 0.0876868 0.3880570
0.2819173 0.1036790 0.4088897
0.4304978 0.1168747 0.4320331
0.5813710 0.1312943 0.4540282
0.6832464 0.1568876 0.4839455
0.7637396 0.2019290 0.5168719
0.8238218 0.2607723 0.5512387
0.0822983 0.1270419 0.4233667
0.0832171 0.1311894 0.4265680
0.1496971 0.1505726 0.4440577
0.2883820 0.1789706 0.4566900
0.4599022 0.2101477 0.4790774
0.6079108 0.2418123 0.5029951
0.7174420 0.2776698 0.5258502
0.7948284 0.3141727 0.5526750
0.8520172 0.3666370 0.5880569
0.1018868 0.2662466 0.4916159
0.1032828 0.2788700 0.4964797
0.1058661 0.2983145 0.5054804
0.2942492 0.3309309 0.5239238
0.4838256 0.3703893 0.5411223
0.6434295 0.4109429 0.5559221
0.7551630 0.4381619 0.5796632
0.8337362 0.4788292 0.6044235
0.8840960 0.5132794 0.6243556
0.1157298 0.4135404 0.5398467
0.1167548 0.4232801 0.5434179
0.1215808 0.4510222 0.5602325
0.2786129 0.4938306 0.5702740
0.4968066 0.5347412 0.5852299
0.6727945 0.5764793 0.6051331
0.7860510 0.6001807 0.6188139
0.8659469 0.6277069 0.6369494
0.9097289 0.6568069 0.6645709
0.1286353 0.5247289 0.5848116
0.1300095 0.5437400 0.5895993
0.1343946 0.5746177 0.6048778
0.2356455 0.6145032 0.6125475
0.5032902 0.6611508 0.6261945
0.6854910 0.6973724 0.6449332
0.8009833 0.7211534 0.6527241
0.8795545 0.7397538 0.6678425
0.9274133 0.7601488 0.6836219
0.1389706 0.6131448 0.6208211
0.1421416 0.6280282 0.6318694
0.1513640 0.6640013 0.6390319
0.2364592 0.7095038 0.6495540
0.5136622 0.7517056 0.6606066
0.6971389 0.7879038 0.6693496
0.8126079 0.8114753 0.6769480
0.8935052 0.8301428 0.6949493
0.9351549 0.8421347 0.7085385
0.1572772 0.6846038 0.6556668
0.1591631 0.6911746 0.6570241
0.1680869 0.7222665 0.6626933
0.2342582 0.7661961 0.6758562
0.5338160 0.8146594 0.6870628
0.7030004 0.8437293 0.6913258
0.8233235 0.8688585 0.7080719
0.8964242 0.8846356 0.7146197
0.9425805 0.8940979 0.7359490
0.1722855 0.7368947 0.6866530
0.1722855 0.7368947 0.6866530
0.1809208 0.7669817 0.6884903
0.2818573 0.8075460 0.6997424
0.5525526 0.8518535 0.7093444
0.7082310 0.8792288 0.7166750
0.8302113 0.9004323 0.7232580
0.9035900 0.9157875 0.7374886
0.9437594 0.9269800 0.7562372
0.1220342 0.1082339 0.5137299
0.1522904 0.1097478 0.5190048
0.2166058 0.1131947 0.5310141
0.3273902 0.1172956 0.5453025
0.4739273 0.1231740 0.5657836
0.6032891 0.1339387 0.5881702
0.7022229 0.1623341 0.6079392
0.7756149 0.1944627 0.6326861
0.8321776 0.2585890 0.6645060
0.1224963 0.1109651 0.5232460
0.1513260 0.1132183 0.5310965
0.2166163 0.1159126 0.5404837
0.3361759 0.1205423 0.5566143
0.4782400 0.1266185 0.5777847
0.6082214 0.1353543 0.5987242
0.7100596 0.1725934 0.6179971
0.7832388 0.2285900 0.6421149
0.8383591 0.2851445 0.6727449
0.1250682 0.1484652 0.5723830
0.1303238 0.1515173 0.5763613
0.2147962 0.1737388 0.5877839
0.3462403 0.2018408 0.6010243
0.5074121 0.2319451 0.6216636
0.6334257 0.2671935 0.6407945
0.7400024 0.2999555 0.6581603
0.8117865 0.3461129 0.6771778
0.8632346 0.3908620 0.7019577
0.1410347 0.2997844 0.6280125
0.1437730 0.3157656 0.6375535
0.1699749 0.3292720 0.6424714
0.3486324 0.3612881 0.6604769
0.5238503 0.3994073 0.6745163
0.6684679 0.4317364 0.6882201
0.7744253 0.4716572 0.7051545
0.8484990 0.5051003 0.7239135
0.8908494 0.5335740 0.7374170
0.1559582 0.4559448 0.6800084
0.1589739 0.4665379 0.6905153
0.1614568 0.4898761 0.6991661
0.3254685 0.5293900 0.7102494
0.5397522 0.5694754 0.7255906
0.6870466 0.5987851 0.7371699
0.7944648 0.6294410 0.7473639
0.8721246 0.6544802 0.7595872
0.9133578 0.6755439 0.7747972
0.1683330 0.5707285 0.7231238
0.1687212 0.5841742 0.7244765
0.1709268 0.6106876 0.7321612
0.3169076 0.6478146 0.7471697
0.5424958 0.6878537 0.7539749
0.6980603 0.7185454 0.7639992
0.8127390 0.7421297 0.7725170
0.8825471 0.7594671 0.7902752
0.9290276 0.7791706 0.7975876
0.1766215 0.6556705 0.7520022
0.1777567 0.6700118 0.7559572
0.1796940 0.6974130 0.7627073
0.3137230 0.7421309 0.7775725
0.5425462 0.7768570 0.7826182
0.7042226 0.8080224 0.7922673
0.8228621 0.8316292 0.7999202
0.8950197 0.8430480 0.8062328
0.9351884 0.8592985 0.8222571
0.1847157 0.7202355 0.7802036
0.1855269 0.7317784 0.7830298
0.1873374 0.7605395 0.7893379
0.3206757 0.7995832 0.7990476
0.5636311 0.8348909 0.8035668
0.7143614 0.8637596 0.8118151
0.8262295 0.8824418 0.8187340
0.8971727 0.8972059 0.8253551
0.9392633 0.9090127 0.8399051
0.1907306 0.7638435 0.8011603
0.1912009 0.7712021 0.8027987
0.1920700 0.8005071 0.8058270
0.3630410 0.8378354 0.8175551
0.5860906 0.8726077 0.8215222
0.7297971 0.8971735 0.8293740
0.8317088 0.9163078 0.8359528
0.9022109 0.9280607 0.8415141
0.9428870 0.9373170 0.8524902
0.1965991 0.1410323 0.6280044
0.2238303 0.1423916 0.6327404
0.2837858 0.1450125 0.6418720
0.3964449 0.1508309 0.6621440
0.5291749 0.1549285 0.6764206
0.6392738 0.1615783 0.6995895
0.7344421 0.1931834 0.7148431
0.8029476 0.2486345 0.7382149
0.8498889 0.3023517 0.7565832
0.1945250 0.1430947 0.6351899
0.2227423 0.1453672 0.6431077
0.2841713 0.1476748 0.6511479
0.3978713 0.1526521 0.6684895
0.5324448 0.1570942 0.6839663
0.6435006 0.1706805 0.7073399
0.7387363 0.2156609 0.7219469
0.8061385 0.2646989 0.7413954
0.8535610 0.3196414 0.7623234
0.1731205 0.1815383 0.6809344
0.2025137 0.1924638 0.6859025
0.2841239 0.2104509 0.6980029
0.4137697 0.2389523 0.7161644
0.5541660 0.2660938 0.7271523
0.6640082 0.2958816 0.7444811
0.7647224 0.3385404 0.7574868
0.8303809 0.3767702 0.7728967
0.8754695 0.4295286 0.7902693
0.1722993 0.3432172 0.7369429
0.1734613 0.3507830 0.7409914
0.2625009 0.3740011 0.7549329
0.4144016 0.4037078 0.7660164
0.5682874 0.4403872 0.7790205
0.6971789 0.4722905 0.7914863
0.7935106 0.5001873 0.8020198
0.8587237 0.5313509 0.8099261
0.8998403 0.5648485 0.8270249
0.1865372 0.4973555 0.7865498
0.1874941 0.5056417 0.7898839
0.1971489 0.5249279 0.7970648
0.4027841 0.5608485 0.8074236
0.5828571 0.5960428 0.8206159
0.7081217 0.6215440 0.8254747
0.8153893 0.6509043 0.8370697
0.8814169 0.6788614 0.8453358
0.9184727 0.6966943 0.8544722
0.1957324 0.6100120 0.8185874
0.1966810 0.6200694 0.8218923
0.1986030 0.6422411 0.8285887
0.4023876 0.6820458 0.8425391
0.5850630 0.7164480 0.8491011
0.7222700 0.7377614 0.8570851
0.8253864 0.7592209 0.8596885
0.8924884 0.7817276 0.8667278
0.9305695 0.7930093 0.8725405
0.2035493 0.6953331 0.8458223
0.2043736 0.7055002 0.8486943
0.2062937 0.7314912 0.8553843
0.3867013 0.7669213 0.8626851
0.5918375 0.7989944 0.8704836
0.7291559 0.8255844 0.8761798
0.8338343 0.8419963 0.8800345
0.8965707 0.8564177 0.8872785
0.9370629 0.8715251 0.8925603
0.2081015 0.7530821 0.8616831
0.2089078 0.7643661 0.8644922
0.2104028 0.7886731 0.8697010
0.4177626 0.8250314 0.8805379
0.6063838 0.8547643 0.8849540
0.7400073 0.8795849 0.8917094
0.8342177 0.8946400 0.8929527
0.9048322 0.9086924 0.8980007
0.9417744 0.9174145 0.9026783
0.2126965 0.7936652 0.8776926
0.2134535 0.8052890 0.8803301
0.2147552 0.8272323 0.8848655
0.4354112 0.8574257 0.8941261
0.6249629 0.8894452 0.8984581
0.7463920 0.9094297 0.9004980
0.8430632 0.9252591 0.9037589
0.9088528 0.9380637 0.9103165
0.9438338 0.9456950 0.9139609
0.2724610 0.1679650 0.7218418
0.2968814 0.1687643 0.7246266
0.3643068 0.1711184 0.7328285
0.4687889 0.1766647 0.7521528
0.5904992 0.1852956 0.7673049
0.6848980 0.2218917 0.7801211
0.7628065 0.2552103 0.7948068
0.8282020 0.3134855 0.8099558
0.8711394 0.3653213 0.8265549
0.2722168 0.1689661 0.7253298
0.3000371 0.1698689 0.7284752
0.3646728 0.1727207 0.7384112
0.4694385 0.1763866 0.7511836
0.5837820 0.1924896 0.7685014
0.6861266 0.2299713 0.7818092
0.7649839 0.2678173 0.7974054
0.8282020 0.3134855 0.8099558
0.8676586 0.3651716 0.8264694
0.2545950 0.2332231 0.7637808
0.2948914 0.2465064 0.7712420
0.3618465 0.2634880 0.7788169
0.4769801 0.2847528 0.7921859
0.6093722 0.3139761 0.8029429
0.7039505 0.3470229 0.8141335
0.7865099 0.3795315 0.8260559
0.8504199 0.4256000 0.8377817
0.8894115 0.4658040 0.8504420
0.2167075 0.3903489 0.8129454
0.2627332 0.4050204 0.8179710
0.3557580 0.4181456 0.8276209
0.4891925 0.4454920 0.8371575
0.6219411 0.4713782 0.8450607
0.7257644 0.5005649 0.8520380
0.8142378 0.5395399 0.8641778
0.8713474 0.5621243 0.8713037
0.9099070 0.5912992 0.8776221
0.2065429 0.5463812 0.8562527
0.2073567 0.5540215 0.8590878
0.3232140 0.5708594 0.8649306
0.4843304 0.6019346 0.8734661
0.6354469 0.6317860 0.8804101
0.7434192 0.6546842 0.8878634
0.8300590 0.6740215 0.8910863
0.8884875 0.6945846 0.8971325
0.9243879 0.7122740 0.9037466
0.2135206 0.6496379 0.8805639
0.2143796 0.6593668 0.8835568
0.3134089 0.6788241 0.8890932
0.4763708 0.7088097 0.8959259
0.6392502 0.7342376 0.9041098
0.7490407 0.7573332 0.9077866
0.8360413 0.7763021 0.9103353
0.8995008 0.7911529 0.9147165
0.9339749 0.8078147 0.9192007
0.2188804 0.7313314 0.8992382
0.2194202 0.7384447 0.9011189
0.3031376 0.7640324 0.9069078
0.4893430 0.7908017 0.9151168
0.6460482 0.8155841 0.9181143
0.7555121 0.8375338 0.9223849
0.8470923 0.8564187 0.9271674
0.9053538 0.8693907 0.9283920
0.9408763 0.8790013 0.9319490
0.2231537 0.7882587 0.9141268
0.2237425 0.7969819 0.9161784
0.3209406 0.8170749 0.9205396
0.4891464 0.8437674 0.9253765
0.6493732 0.8694487 0.9293399
0.7654564 0.8884403 0.9343707
0.8531026 0.9050574 0.9359840
0.9103913 0.9168668 0.9393523
0.9439903 0.9221327 0.9419575
0.2257965 0.8242072 0.9233348
0.2263595 0.8333331 0.9252963
0.3577119 0.8519065 0.9289768
0.5169459 0.8755418 0.9352183
0.6674004 0.8998964 0.9386737
0.7721408 0.9189146 0.9407799
0.8612948 0.9333915 0.9443114
0.9108976 0.9431177 0.9450321
0.9474190 0.9489357 0.9476562
0.3599435 0.1960400 0.7938468
0.3872789 0.1989214 0.7984657
0.4487027 0.2136904 0.8050356
0.5412313 0.2416126 0.8165890
0.6411691 0.2654357 0.8254380
0.7275263 0.3049855 0.8376654
0.7961353 0.3400025 0.8502181
0.8502635 0.3805911 0.8604411
0.8872539 0.4354828 0.8746799
0.3599435 0.1960400 0.7938468
0.3870697 0.1995233 0.7962024
0.4487027 0.2136904 0.8050356
0.5412313 0.2416126 0.8165890
0.6411691 0.2654357 0.8254380
0.7262003 0.2960761 0.8357607
0.7961353 0.3400025 0.8502181
0.8502635 0.3805911 0.8604411
0.8872539 0.4354828 0.8746799
0.3651789 0.2986032 0.8249394
0.3909525 0.3103414 0.8301086
0.4538224 0.3185133 0.8345464
0.5483904 0.3511948 0.8451521
0.6541046 0.3800573 0.8541883
0.7449970 0.4064566 0.8626860
0.8140870 0.4398063 0.8724312
0.8653570 0.4720578 0.8801949
0.9015934 0.5170244 0.8917471
0.3371018 0.4521301 0.8650761
0.3697827 0.4568733 0.8670918
0.4531189 0.4769579 0.8736225
0.5650735 0.4924837 0.8793325
0.6676977 0.5223663 0.8878648
0.7598988 0.5417486 0.8925887
0.8304187 0.5659826 0.8995445
0.8842947 0.5973259 0.9061115
0.9157728 0.6183211 0.9116946
0.3126150 0.5926704 0.8979319
0.3614687 0.5995227 0.9001763
0.4422379 0.6114345 0.9038730
0.5689145 0.6381924 0.9104874
0.6774489 0.6540581 0.9143717
0.7686788 0.6797357 0.9211649
0.8497605 0.6969835 0.9240766
0.9017049 0.7168729 0.9278434
0.9321497 0.7361675 0.9322187
0.2842508 0.6927940 0.9185274
0.3376372 0.6964647 0.9199103
0.4363870 0.7106765 0.9235954
0.5679918 0.7399608 0.9295586
0.6864730 0.7554781 0.9328015
0.7818930 0.7785180 0.9381189
0.8552901 0.7950325 0.9403558
0.9084624 0.8085614 0.9438044
0.9392619 0.8243856 0.9464951
0.2736349 0.7694545 0.9334998
0.3408864 0.7777570 0.9354563
0.4381873 0.7915323 0.9384963
0.5736929 0.8126600 0.9435397
0.6898317 0.8356604 0.9480757
0.7883474 0.8510851 0.9493290
0.8655054 0.8671141 0.9520756
0.9118561 0.8783763 0.9550594
0.9441185 0.8874865 0.9575572
0.3148144 0.8212408 0.9453433
0.3503832 0.8257691 0.9463015
0.4580782 0.8410929 0.9493497
0.5945728 0.8652719 0.9534044
0.6947928 0.8815032 0.9558051
0.7977588 0.8980288 0.9578525
0.8659524 0.9116267 0.9608309
0.9186936 0.9225401 0.9617940
0.9483368 0.9271421 0.9637566
0.3337964 0.8538769 0.9519551
0.3941706 0.8619100 0.9535146
0.4774970 0.8741400 0.9557360
0.5998053 0.8935126 0.9588660
0.7058088 0.9109399 0.9628464
0.8039441 0.9267961 0.9638571
0.8715924 0.9395714 0.9658563
0.9191553 0.9470657 0.9672586
0.9502628 0.9535670 0.9685518
