data/spectral_luts/ultramax_500_endura_premier.cube
TITLE "ultramax_500_endura_premier"
LUT_3D_SIZE 33
0.0382248 0.0605032 0.0722566
0.0382248 0.0605032 0.0722566
0.0382248 0.0605032 0.0722566
0.0389143 0.0606006 0.0722788
0.0407062 0.0608479 0.0723210
0.0448492 0.0614300 0.0724479
0.0516966 0.0623657 0.0726405
0.0610908 0.0636893 0.0728849
0.0766852 0.0658577 0.0732168
0.0948150 0.0683286 0.0735008
0.1238528 0.0720421 0.0736919
0.1521056 0.0753707 0.0736274
0.1884697 0.0790645 0.0731147
0.2172064 0.0816819 0.0724944
0.2590672 0.0847277 0.0710181
0.2999459 0.0870397 0.0690884
0.3370862 0.0887521 0.0670401
0.3852569 0.0896778 0.0713602
0.4242242 0.0903949 0.0825444
0.4633994 0.0937882 0.0937882
0.4981917 0.1037742 0.1037742
0.5366042 0.1147991 0.1147991
0.5644031 0.1227778 0.1227778
0.5910002 0.1304116 0.1304116
0.6187596 0.1383789 0.1383789
0.6434323 0.1454603 0.1454603
0.6643493 0.1514638 0.1514638
0.6881990 0.1583091 0.1583091
0.7066426 0.1636026 0.1636026
0.7228761 0.1682619 0.1682619
0.7407483 0.1733915 0.1733915
0.7545571 0.1773548 0.1773548
0.7698791 0.1817524 0.1817524
0.0382248 0.0605032 0.0722566
0.0382248 0.0605032 0.0722566
0.0382248 0.0605032 0.0722566
0.0389143 0.0606006 0.0722788
0.0408107 0.0608626 0.0723243
0.0448492 0.0614300 0.0724479
0.0516889 0.0624245 0.0726503
0.0628283 0.0640234 0.0729412
0.0766836 0.0660113 0.0732549
0.0982451 0.0689950 0.0735828
0.1238960 0.0723436 0.0737499
0.1542522 0.0759906 0.0736960
0.1908041 0.0797857 0.0731626
0.2173818 0.0822883 0.0725831
0.2593387 0.0855692 0.0711627
0.3003300 0.0881470 0.0692609
0.3445864 0.0900530 0.0666003
0.3858668 0.0913181 0.0715353
0.4247508 0.0918060 0.0826955
0.4640468 0.0939741 0.0939741
0.4991403 0.1040464 0.1040464
0.5378139 0.1151463 0.1151463
0.5652474 0.1230201 0.1230201
0.5919206 0.1306757 0.1306757
0.6200449 0.1387478 0.1387478
0.6470071 0.1464864 0.1464864
0.6653029 0.1517375 0.1517375
0.6899568 0.1588136 0.1588136
0.7076177 0.1638825 0.1638825
0.7238461 0.1685403 0.1685403
0.7418334 0.1737029 0.1737029
0.7556245 0.1776612 0.1776612
0.7709671 0.1820647 0.1820647
0.0382051 0.0605899 0.0722716
0.0381985 0.0606189 0.0722766
0.0381985 0.0606189 0.0722766
0.0389544 0.0607555 0.0723060
0.0407719 0.0610387 0.0723680
0.0450563 0.0616708 0.0725038
0.0516553 0.0626656 0.0727042
0.0628040 0.0643379 0.0730200
0.0766814 0.0664017 0.0733301
0.0982789 0.0694704 0.0736834
0.1239740 0.0728978 0.0738667
0.1543963 0.0766991 0.0738263
0.1910312 0.0806673 0.0733142
0.2202056 0.0835891 0.0726902
0.2597317 0.0867865 0.0713375
0.3008799 0.0897333 0.0694740
0.3452378 0.0918542 0.0669338
0.3865712 0.0932124 0.0717374
0.4255451 0.0939172 0.0829235
0.4651529 0.0946697 0.0942916
0.5002843 0.1043748 0.1043748
0.5418742 0.1163117 0.1163117
0.5700715 0.1244047 0.1244047
0.5932320 0.1310521 0.1310521
0.6215272 0.1391733 0.1391733
0.6486322 0.1469528 0.1469528
0.6666026 0.1521106 0.1521106
0.6913932 0.1592258 0.1592258
0.7100558 0.1645823 0.1645823
0.7259021 0.1691304 0.1691304
0.7439489 0.1743101 0.1743101
0.7583485 0.1784430 0.1784430
0.7747231 0.1831427 0.1831427
0.0380131 0.0611388 0.0723926
0.0380026 0.0611842 0.0724004
0.0381236 0.0612015 0.0724043
0.0388900 0.0613567 0.0724368
0.0407342 0.0617078 0.0725102
0.0449148 0.0624371 0.0726605
0.0515419 0.0634819 0.0728673
0.0627401 0.0652039 0.0731894
0.0766743 0.0673572 0.0735087
0.0983575 0.0705715 0.0738850
0.1258403 0.0744790 0.0741135
0.1546916 0.0781497 0.0740473
0.1914553 0.0823217 0.0735759
0.2260363 0.0858528 0.0727386
0.2635491 0.0893280 0.0714873
0.3049206 0.0920684 0.0695670
0.3497482 0.0944709 0.0668514
0.3912599 0.0966998 0.0730832
0.4304921 0.0979275 0.0843434
0.4706334 0.0992911 0.0958645
0.5055566 0.1058880 0.1058880
0.5446141 0.1170981 0.1170981
0.5723187 0.1250497 0.1250497
0.5982707 0.1324983 0.1324983
0.6235543 0.1397551 0.1397551
0.6514037 0.1477483 0.1477483
0.6723875 0.1537709 0.1537709
0.6946769 0.1601683 0.1601683
0.7130443 0.1654400 0.1654400
0.7315615 0.1707547 0.1707547
0.7476985 0.1753863 0.1753863
0.7622230 0.1795550 0.1795550
0.7783558 0.1841854 0.1841854
0.0376153 0.0628070 0.0727109
0.0376153 0.0628070 0.0727109
0.0377141 0.0629095 0.0727483
0.0385704 0.0630314 0.0727751
0.0405903 0.0633990 0.0728509
0.0450895 0.0642150 0.0730139
0.0520145 0.0654869 0.0732529
0.0625865 0.0671829 0.0735439
0.0790662 0.0697954 0.0739312
0.0985085 0.0727925 0.0742660
0.1295821 0.0772774 0.0744830
0.1594222 0.0811141 0.0743676
0.1921529 0.0850648 0.0739493
0.2269956 0.0891513 0.0731866
0.2647645 0.0931109 0.0719083
0.3062773 0.0959887 0.0699103
0.3516468 0.0997100 0.0673528
0.3931700 0.1018433 0.0736314
0.4328920 0.1043203 0.0850322
0.4734788 0.1068372 0.0966812
0.5084600 0.1082757 0.1067213
0.5466974 0.1176960 0.1176960
0.5743861 0.1256431 0.1256431
0.6010195 0.1332873 0.1332873
0.6264588 0.1405887 0.1405887
0.6546081 0.1486680 0.1486680
0.6765887 0.1549767 0.1549767
0.7013366 0.1620797 0.1620797
0.7177110 0.1667794 0.1667794
0.7352725 0.1718198 0.1718198
0.7524954 0.1767631 0.1767631
0.7684771 0.1813501 0.1813501
0.7855632 0.1902139 0.1862540
0.0369479 0.0654703 0.0732130
0.0368705 0.0657730 0.0732629
0.0370559 0.0657998 0.0732686
0.0380333 0.0659403 0.0732983
0.0400085 0.0665336 0.0734081
0.0444705 0.0673247 0.0735796
0.0515373 0.0686484 0.0738176
0.0635014 0.0706833 0.0741662
0.0790305 0.0732933 0.0745308
0.0987302 0.0764322 0.0748583
0.1301388 0.0811583 0.0750982
0.1624999 0.0859034 0.0749916
0.1955801 0.0900008 0.0745267
0.2285688 0.0946457 0.0738102
0.2666119 0.0989432 0.0724818
0.3086596 0.1029603 0.0704888
0.3544906 0.1076352 0.0680150
0.3962319 0.1101325 0.0745102
0.4359320 0.1124220 0.0859047
0.4761079 0.1138023 0.0974358
0.5219246 0.1162955 0.1105859
0.5532066 0.1195642 0.1195642
0.5784127 0.1267988 0.1267988
0.6058647 0.1346779 0.1346779
0.6350662 0.1430592 0.1430592
0.6625340 0.1509428 0.1509428
0.6811216 0.1562777 0.1562777
0.7070127 0.1637089 0.1637089
0.7246532 0.1687720 0.1687720
0.7417641 0.1736830 0.1736830
0.7617280 0.1798857 0.1794130
0.7778934 0.1957324 0.1840527
0.7938250 0.2090664 0.1886253
0.0354594 0.0709490 0.0741532
0.0354594 0.0709490 0.0741532
0.0357165 0.0709870 0.0741607
0.0365801 0.0716980 0.0742779
0.0389074 0.0720322 0.0743418
0.0434175 0.0732799 0.0745530
0.0513593 0.0744228 0.0747658
0.0629024 0.0767265 0.0751239
0.0788714 0.0796837 0.0755234
0.1029173 0.0837490 0.0758822
0.1310827 0.0882156 0.0760549
0.1639926 0.0935419 0.0759560
0.1975016 0.0978944 0.0754076
0.2333829 0.1023526 0.0745246
0.2721506 0.1069154 0.0730704
0.3114976 0.1114592 0.0713454
0.3605597 0.1146321 0.0682655
0.4025709 0.1180652 0.0763296
0.4429758 0.1219710 0.0879264
0.4841179 0.1250627 0.0997348
0.5268852 0.1294087 0.1120096
0.5587806 0.1328638 0.1211641
0.5875487 0.1378911 0.1294209
0.6122196 0.1432846 0.1365018
0.6413191 0.1473217 0.1448538
0.6694718 0.1529341 0.1529341
0.6908339 0.1593907 0.1590653
0.7150514 0.1701566 0.1660161
0.7343863 0.1799950 0.1715655
0.7527977 0.1950830 0.1768498
0.7719616 0.2079625 0.1823502
0.7873487 0.2218590 0.1867665
0.8025232 0.2333965 0.1911218
0.0331716 0.0783885 0.0753414
0.0331716 0.0783885 0.0753414
0.0335150 0.0784404 0.0753507
0.0347690 0.0783179 0.0753379
0.0372856 0.0793076 0.0754926
0.0422508 0.0800163 0.0756339
0.0503149 0.0818057 0.0759226
0.0634266 0.0837323 0.0761944
0.0804570 0.0868918 0.0765944
0.1032191 0.0908604 0.0769136
0.1320312 0.0962302 0.0770907
0.1654570 0.1015826 0.0769137
0.1995198 0.1066436 0.0763911
0.2358639 0.1115287 0.0754215
0.2751784 0.1169349 0.0739233
0.3181729 0.1217397 0.0719573
0.3651437 0.1277873 0.0691461
0.4077059 0.1322658 0.0778034
0.4486701 0.1374057 0.0895607
0.4901820 0.1412363 0.1014753
0.5330685 0.1457993 0.1137843
0.5649126 0.1491340 0.1229240
0.5934732 0.1536091 0.1311214
0.6218026 0.1610442 0.1392523
0.6494923 0.1690431 0.1471997
0.6778997 0.1753130 0.1553530
0.7006532 0.1856595 0.1618836
0.7284950 0.2003629 0.1698746
0.7462564 0.2120010 0.1749724
0.7631642 0.2175223 0.1798252
0.7804411 0.2311530 0.1847839
0.7967861 0.2430055 0.1894751
0.8116045 0.2587382 0.1937283
0.0300939 0.0870910 0.0766406
0.0300939 0.0870910 0.0766406
0.0306931 0.0871839 0.0766551
0.0314858 0.0885884 0.0768462
0.0341806 0.0889993 0.0769321
0.0401627 0.0898632 0.0770783
0.0487172 0.0923858 0.0774223
0.0617891 0.0943256 0.0776750
0.0796800 0.0983501 0.0781061
0.1034452 0.1019537 0.0783077
0.1387650 0.1085008 0.0783686
0.1675017 0.1139501 0.0782100
0.2071919 0.1213140 0.0775242
0.2397380 0.1266924 0.0766269
0.2862209 0.1331357 0.0747529
0.3236451 0.1391013 0.0730902
0.3707646 0.1444471 0.0699084
0.4135791 0.1489492 0.0794891
0.4546494 0.1539200 0.0912769
0.4977522 0.1617969 0.1036480
0.5450909 0.1685399 0.1172349
0.5768597 0.1730405 0.1263530
0.6052303 0.1849881 0.1344958
0.6329058 0.1905792 0.1424391
0.6650009 0.2020320 0.1516508
0.6938649 0.2104629 0.1599353
0.7135482 0.2204028 0.1655847
0.7379910 0.2260008 0.1726001
0.7563971 0.2395781 0.1778829
0.7736067 0.2460421 0.1828223
0.7904096 0.2586918 0.1876450
0.8118725 0.2751429 0.1938052
0.8202711 0.2833038 0.1962157
0.0244066 0.1008750 0.0784480
0.0244699 0.1008914 0.0784759
0.0251313 0.1009976 0.0784891
0.0265924 0.1012295 0.0785174
0.0298978 0.1017469 0.0786045
0.0355418 0.1040844 0.0788908
0.0458971 0.1055539 0.0790874
0.0607309 0.1077501 0.0793191
0.0804259 0.1123014 0.0797005
0.1067677 0.1164280 0.0798315
0.1400824 0.1239048 0.0799144
0.1767011 0.1292533 0.0793024
0.2125637 0.1368142 0.0785715
0.2525227 0.1446458 0.0774025
0.2918167 0.1535706 0.0758247
0.3371278 0.1613376 0.0731438
0.3785364 0.1686212 0.0702060
0.4235654 0.1786077 0.0823553
0.4694999 0.1863614 0.0955392
0.5129879 0.1937625 0.1080209
0.5577236 0.2033910 0.1208607
0.5900443 0.2090455 0.1301372
0.6196926 0.2168152 0.1386467
0.6445529 0.2223430 0.1457820
0.6763542 0.2330769 0.1549094
0.7044613 0.2392971 0.1629766
0.7237214 0.2484597 0.1685045
0.7505525 0.2608039 0.1762054
0.7688479 0.2680536 0.1814565
0.7851366 0.2785988 0.1861316
0.8077546 0.2930803 0.1926233
0.8209358 0.3015489 0.1964065
0.8331743 0.3171317 0.1999191
0.0142493 0.1209636 0.0806683
0.0142493 0.1209636 0.0806683
0.0151593 0.1211254 0.0807161
0.0168897 0.1214208 0.0807744
0.0207261 0.1220471 0.0808569
0.0270178 0.1230209 0.0809592
0.0394198 0.1247917 0.0811299
0.0561848 0.1306196 0.0815803
0.0794350 0.1342148 0.0817253
0.1057647 0.1384763 0.0817099
0.1450579 0.1502400 0.0815501
0.1799970 0.1558439 0.0809465
0.2175399 0.1653423 0.0798884
0.2594753 0.1767985 0.0782719
0.3024263 0.1825241 0.0758068
0.3490361 0.1916015 0.0727388
0.3916731 0.1998872 0.0732017
0.4445698 0.2107454 0.0883839
0.4874027 0.2186000 0.1006776
0.5224321 0.2215085 0.1107315
0.5674898 0.2314580 0.1236637
0.6003758 0.2384982 0.1331025
0.6297461 0.2451769 0.1415322
0.6600277 0.2574354 0.1502235
0.6886113 0.2676776 0.1584274
0.7172548 0.2753845 0.1666485
0.7385479 0.2830481 0.1727599
0.7612255 0.2909663 0.1792687
0.7808970 0.3022957 0.1849147
0.7986163 0.3173624 0.1900004
0.8192975 0.3265987 0.1959362
0.8326460 0.3359526 0.1997675
0.8467423 0.3492421 0.2038133
0.0117916 0.1439808 0.0826542
0.0117916 0.1439808 0.0826542
0.0122241 0.1469901 0.0828718
0.0122755 0.1473434 0.0829196
0.0123922 0.1481422 0.0830200
0.0129802 0.1494065 0.0831491
0.0262099 0.1513592 0.0832179
0.0487305 0.1543964 0.0833415
0.0742726 0.1613898 0.0834557
0.1068464 0.1667512 0.0833195
0.1452210 0.1750429 0.0827559
0.1877516 0.1858292 0.0816296
0.2262299 0.1921795 0.0802468
0.2640812 0.2018163 0.0781570
0.3082002 0.2083767 0.0757570
0.3564899 0.2209856 0.0718257
0.4083115 0.2316992 0.0779772
0.4523322 0.2368859 0.0906118
0.4960191 0.2461978 0.1031506
0.5422376 0.2583428 0.1164160
0.5792178 0.2669664 0.1270298
0.6159295 0.2757641 0.1375667
0.6496503 0.2871185 0.1472450
0.6708196 0.2891338 0.1533209
0.7021245 0.2978588 0.1623059
0.7278353 0.3064105 0.1696853
0.7558541 0.3185964 0.1777271
0.7758708 0.3274489 0.1834722
0.7946771 0.3433248 0.1888698
0.8168864 0.3533151 0.1952442
0.8312427 0.3631544 0.1993647
0.8477736 0.3772732 0.2041093
0.8588200 0.3866772 0.2072798
0.0157641 0.1695696 0.0842459
0.0157641 0.1695696 0.0842459
0.0157929 0.1697406 0.0842983
0.0158688 0.1701898 0.0843487
0.0160401 0.1711998 0.0843911
0.0162837 0.1726248 0.0844716
0.0169720 0.1765856 0.0845934
0.0334672 0.1839302 0.0847293
0.0678618 0.1885562 0.0845991
0.1090658 0.1952213 0.0839984
0.1503391 0.2067390 0.0831008
0.1890826 0.2136914 0.0817478
0.2294239 0.2207731 0.0798513
0.2689990 0.2342335 0.0773577
0.3220336 0.2427940 0.0733315
0.3639915 0.2540364 0.0694939
0.4158907 0.2614517 0.0801526
0.4629835 0.2754135 0.0936689
0.5116383 0.2869938 0.1076335
0.5566103 0.2922523 0.1205412
0.5938429 0.3020776 0.1312275
0.6283339 0.3148228 0.1411269
0.6626309 0.3185730 0.1509706
0.6896117 0.3279359 0.1587145
0.7149199 0.3373566 0.1659783
0.7451839 0.3509127 0.1746646
0.7694980 0.3609357 0.1816431
0.7897246 0.3701806 0.1874484
0.8087330 0.3800654 0.1929041
0.8298122 0.3941905 0.1989541
0.8460484 0.4049319 0.2036141
0.8595782 0.4149774 0.2074974
0.8705603 0.4258268 0.2106494
0.0211696 0.1989235 0.0853141
0.0211696 0.1989235 0.0853141
0.0211935 0.1990428 0.0853079
0.0213122 0.1996345 0.0853688
0.0215489 0.2008091 0.0854865
0.0219197 0.2026343 0.0854574
0.0224862 0.2053877 0.0854241
0.0232846 0.2092010 0.0853830
0.0564981 0.2186452 0.0849947
0.1017136 0.2255659 0.0843048
0.1479089 0.2337589 0.0829941
0.1949648 0.2424346 0.0807672
0.2320146 0.2567821 0.0781509
0.2795013 0.2654095 0.0747546
0.3282459 0.2791522 0.0697359
0.3822783 0.2881920 0.0705053
0.4298933 0.3040183 0.0841715
0.4757500 0.3108320 0.0973331
0.5213627 0.3232434 0.1104246
0.5671836 0.3292753 0.1235758
0.6059955 0.3436968 0.1347154
0.6446805 0.3485663 0.1458186
0.6748859 0.3586682 0.1544880
0.7055073 0.3691613 0.1632768
0.7267082 0.3756285 0.1693618
0.7561355 0.3864231 0.1778078
0.7833713 0.3973660 0.1856249
0.8009651 0.4074828 0.1906746
0.8212050 0.4212025 0.1964837
0.8389497 0.4248519 0.2015767
0.8551694 0.4360726 0.2062320
0.8686959 0.4465013 0.2101143
0.8822230 0.4619054 0.2139968
0.0269469 0.2257807 0.0857719
0.0269469 0.2257807 0.0857719
0.0269469 0.2257807 0.0857719
0.0271169 0.2265174 0.0857003
0.0274520 0.2279619 0.0858191
0.0279219 0.2299699 0.0858653
0.0297985 0.2377991 0.0853943
0.0308862 0.2422059 0.0851344
0.0403902 0.2480156 0.0845711
0.0974348 0.2559105 0.0834907
0.1481764 0.2674015 0.0811469
0.1967753 0.2818705 0.0776303
0.2419269 0.2907252 0.0748070
0.2862218 0.2992698 0.0713722
0.3367999 0.3142225 0.0651081
0.3892189 0.3264119 0.0724974
0.4361143 0.3344634 0.0859570
0.4842933 0.3482409 0.0997851
0.5292292 0.3550659 0.1126824
0.5783774 0.3717316 0.1267886
0.6150448 0.3771590 0.1373127
0.6561239 0.3893819 0.1491030
0.6847733 0.3935282 0.1573258
0.7166881 0.4082868 0.1664858
0.7483853 0.4199593 0.1755834
0.7667350 0.4233623 0.1808500
0.7942253 0.4344242 0.1887402
0.8152286 0.4486958 0.1947684
0.8363559 0.4596460 0.2008322
0.8520108 0.4629665 0.2053255
0.8657909 0.4738721 0.2092805
0.8816489 0.4881889 0.2138320
0.8923560 0.4996797 0.2169051
0.0340747 0.2546248 0.0855596
0.0340747 0.2546248 0.0855596
0.0340747 0.2546248 0.0855596
0.0342777 0.2553921 0.0854488
0.0346666 0.2568545 0.0855871
0.0353194 0.2592878 0.0853809
0.0363324 0.2630129 0.0852804
0.0391146 0.2729417 0.0840089
0.0416827 0.2818564 0.0827570
0.0926582 0.2910605 0.0811687
0.1499537 0.3008864 0.0784433
0.2008394 0.3107530 0.0752414
0.2419344 0.3246473 0.0710288
0.2963253 0.3384262 0.0648107
0.3485579 0.3484811 0.0608271
0.3948406 0.3633433 0.0741109
0.4523013 0.3735017 0.0906029
0.4994872 0.3817221 0.1041460
0.5474163 0.3993072 0.1179024
0.5864765 0.4058170 0.1291132
0.6374823 0.4198245 0.1437526
0.6693986 0.4278440 0.1529131
0.6967750 0.4386216 0.1607705
0.7261060 0.4436379 0.1691889
0.7579804 0.4549815 0.1783373
0.7774552 0.4622132 0.1839269
0.8049132 0.4741237 0.1918077
0.8249392 0.4843934 0.1975555
0.8441778 0.4890453 0.2030773
0.8618349 0.4994617 0.2081451
0.8764528 0.5143460 0.2123407
0.8892705 0.5180904 0.2160195
0.8999020 0.5295316 0.2190709
0.0431017 0.2868003 0.0843633
0.0431017 0.2868003 0.0843633
0.0431017 0.2868003 0.0843633
0.0433199 0.2875606 0.0844061
0.0438645 0.2894579 0.0845668
0.0446397 0.2921589 0.0842650
0.0457502 0.2960281 0.0839367
0.0473621 0.3016441 0.0827855
0.0494353 0.3088675 0.0815576
0.0819528 0.3240599 0.0785022
0.1411132 0.3334089 0.0747845
0.1964739 0.3468764 0.0705119
0.2473260 0.3572811 0.0656243
0.2974178 0.3675104 0.0662667
0.3518372 0.3841007 0.0710284
0.4074500 0.3950956 0.0777300
0.4579014 0.4075178 0.0922103
0.5072502 0.4227678 0.1063741
0.5582330 0.4318163 0.1210069
0.5981719 0.4386911 0.1324700
0.6459385 0.4558833 0.1461797
0.6774994 0.4610229 0.1552381
0.7082059 0.4728785 0.1640513
0.7346417 0.4779813 0.1716388
0.7676039 0.4930888 0.1810994
0.7894813 0.4978384 0.1873786
0.8139246 0.5091267 0.1943941
0.8320900 0.5138876 0.1996079
0.8566931 0.5291904 0.2066693
0.8701043 0.5339410 0.2105185
0.8858725 0.5453961 0.2150442
0.8987541 0.5567032 0.2187414
0.9074836 0.5608510 0.2212470
0.0502028 0.3115413 0.0839161
0.0502028 0.3115413 0.0839161
0.0502028 0.3115413 0.0839161
0.0502957 0.3118650 0.0838387
0.0508899 0.3139354 0.0839628
0.0518102 0.3171418 0.0831396
0.0530777 0.3215582 0.0830245
0.0560366 0.3318674 0.0808862
0.0583163 0.3398102 0.0788665
0.0696831 0.3536834 0.0752055
0.1384514 0.3640320 0.0713970
0.1990563 0.3753716 0.0685230
0.2452606 0.3850836 0.0713105
0.3103482 0.4042166 0.0768019
0.3537487 0.4160844 0.0802082
0.4155993 0.4286384 0.0838113
0.4670774 0.4386986 0.0948439
0.5168467 0.4544253 0.1091284
0.5642099 0.4633192 0.1227223
0.6146950 0.4758565 0.1372123
0.6530929 0.4892046 0.1482331
0.6849412 0.4953049 0.1573740
0.7144700 0.5007225 0.1658492
0.7471834 0.5172437 0.1752385
0.7743580 0.5223864 0.1830380
0.8042437 0.5350455 0.1916156
0.8238602 0.5402161 0.1972458
0.8472497 0.5561525 0.2039590
0.8639329 0.5615047 0.2087473
0.8791634 0.5723352 0.2131186
0.8930625 0.5766784 0.2171079
0.9063761 0.5915180 0.2209291
0.9185490 0.6018630 0.2244229
0.0580563 0.3389043 0.0826897
0.0580563 0.3389043 0.0826897
0.0580563 0.3389043 0.0826897
0.0580563 0.3389043 0.0826897
0.0587144 0.3411972 0.0820177
0.0597993 0.3449770 0.0816388
0.0612794 0.3501338 0.0808011
0.0646193 0.3617707 0.0777447
0.0673897 0.3714229 0.0755896
0.0705473 0.3824244 0.0710864
0.1359146 0.3929245 0.0735609
0.2049186 0.4056865 0.0772238
0.2542592 0.4159276 0.0801631
0.3100691 0.4308367 0.0844423
0.3682536 0.4494049 0.0897716
0.4184043 0.4599323 0.0927932
0.4810406 0.4726727 0.0988515
0.5300746 0.4861781 0.1129250
0.5704602 0.5007601 0.1245163
0.6213043 0.5103306 0.1391093
0.6587494 0.5175712 0.1498566
0.6928346 0.5335292 0.1596395
0.7293866 0.5404906 0.1701305
0.7532266 0.5462312 0.1769729
0.7853049 0.5588043 0.1861799
0.8112323 0.5673921 0.1936214
0.8324594 0.5799754 0.1997139
0.8557660 0.5853778 0.2064032
0.8717253 0.5967373 0.2109838
0.8877614 0.6015888 0.2155864
0.9011610 0.6152871 0.2194323
0.9138198 0.6191931 0.2230655
0.9241023 0.6283181 0.2260168
0.0657572 0.3657351 0.0815593
0.0657572 0.3657351 0.0815593
0.0657572 0.3657351 0.0815593
0.0657572 0.3657351 0.0815593
0.0663616 0.3678410 0.0808395
0.0675056 0.3718269 0.0803698
0.0691481 0.3775498 0.0786656
0.0709994 0.3839996 0.0770762
0.0739871 0.3944094 0.0739871
0.0786971 0.4108197 0.0786971
0.1364713 0.4256030 0.0829401
0.1972286 0.4366063 0.0860982
0.2588185 0.4495472 0.0898125
0.3179364 0.4623174 0.0934777
0.3686869 0.4732054 0.0966027
0.4298921 0.4921311 0.1020347
0.4845616 0.5067319 0.1062253
0.5342494 0.5172173 0.1141233
0.5830804 0.5276201 0.1281385
0.6269363 0.5451044 0.1407257
0.6765873 0.5549511 0.1549763
0.7083420 0.5615264 0.1640904
0.7344469 0.5671945 0.1715829
0.7673466 0.5825998 0.1810256
0.7909620 0.5881321 0.1878036
0.8203633 0.5999725 0.1962422
0.8374763 0.6047370 0.2011538
0.8608534 0.6106763 0.2078634
0.8768328 0.6252316 0.2124497
0.8930115 0.6300004 0.2170932
0.9060097 0.6395590 0.2208239
0.9187108 0.6436213 0.2244693
0.9294313 0.6552496 0.2275463
0.0732302 0.3917722 0.0793750
0.0732302 0.3917722 0.0793750
0.0732302 0.3917722 0.0793750
0.0732302 0.3917722 0.0793750
0.0738815 0.3940414 0.0796113
0.0750560 0.3981337 0.0779329
0.0768944 0.4045389 0.0768944
0.0791309 0.4123309 0.0791309
0.0819754 0.4222416 0.0819754
0.0854692 0.4344147 0.0854692
0.1360222 0.4475644 0.0892434
0.1990225 0.4590510 0.0925402
0.2552994 0.4705271 0.0958340
0.3158198 0.4908932 0.1016794
0.3776214 0.5048811 0.1056941
0.4307089 0.5163910 0.1089976
0.4860871 0.5285056 0.1124747
0.5364079 0.5395396 0.1156416
0.5918378 0.5585168 0.1306520
0.6341283 0.5676285 0.1427900
0.6800407 0.5770853 0.1559675
0.7119896 0.5841604 0.1651373
0.7429203 0.5994924 0.1740149
0.7711797 0.6061579 0.1821257
0.7948759 0.6122043 0.1889269
0.8243363 0.6239268 0.1973825
0.8505698 0.6331530 0.2049119
0.8654592 0.6382274 0.2091853
0.8834602 0.6486155 0.2143519
0.8973680 0.6529763 0.2183436
0.9123049 0.6626440 0.2226307
0.9232590 0.6706395 0.2257747
0.9322007 0.6745064 0.2283411
0.0787024 0.4108382 0.0803362
0.0787024 0.4108382 0.0803362
0.0787024 0.4108382 0.0803362
0.0787024 0.4108382 0.0803362
0.0790466 0.4120372 0.0798296
0.0804942 0.4170811 0.0804942
0.0823739 0.4236301 0.0823739
0.0846752 0.4316484 0.0846752
0.0881522 0.4437627 0.0881522
0.0917629 0.4563426 0.0917629
0.1321546 0.4736863 0.0967408
0.1990235 0.4854624 0.1001207
0.2590081 0.4982592 0.1037935
0.3235906 0.5119420 0.1077207
0.3766326 0.5244690 0.1113161
0.4456624 0.5423678 0.1164534
0.5009260 0.5542693 0.1198693
0.5522270 0.5703621 0.1244881
0.5936700 0.5797847 0.1311778
0.6449764 0.5909139 0.1459035
0.6830091 0.6020065 0.1568195
0.7161314 0.6145096 0.1663261
0.7461731 0.6213068 0.1749485
0.7782937 0.6290140 0.1841675
0.8055859 0.6383022 0.1920008
0.8282875 0.6507827 0.1985165
0.8543197 0.6570553 0.2059881
0.8693085 0.6621293 0.2102901
0.8873565 0.6733158 0.2154702
0.9020789 0.6801054 0.2196957
0.9158635 0.6847356 0.2236521
0.9277700 0.6947668 0.2270694
0.9383342 0.6990130 0.2301015
0.0844317 0.4308000 0.0844317
0.0844317 0.4308000 0.0844317
0.0844317 0.4308000 0.0844317
0.0844317 0.4308000 0.0844317
0.0846186 0.4314510 0.0846186
0.0860096 0.4362973 0.0860096
0.0878213 0.4426098 0.0878213
0.0905085 0.4519723 0.0905085
0.0951348 0.4680910 0.0951348
0.0984016 0.4794731 0.0984016
0.1359747 0.4943740 0.1026784
0.2047139 0.5065671 0.1061780
0.2693213 0.5198836 0.1100001
0.3248639 0.5351519 0.1143823
0.3899265 0.5496609 0.1185466
0.4451128 0.5628612 0.1223353
0.5012799 0.5752193 0.1258822
0.5532633 0.5920855 0.1307231
0.6053133 0.6062375 0.1347849
0.6478067 0.6152763 0.1467159
0.6857973 0.6242489 0.1576197
0.7181588 0.6323528 0.1669080
0.7491489 0.6454266 0.1758026
0.7820190 0.6562475 0.1852368
0.8122151 0.6642780 0.1939035
0.8318368 0.6759872 0.1995352
0.8579275 0.6828913 0.2070236
0.8762932 0.6908131 0.2122948
0.8907323 0.6955681 0.2164391
0.9121113 0.7064803 0.2225752
0.9240373 0.7096491 0.2259981
0.9306226 0.7133965 0.2278882
0.9427491 0.7256485 0.2313687
0.0901994 0.4508954 0.0901994
0.0901994 0.4508954 0.0901994
0.0901994 0.4508954 0.0901994
0.0901994 0.4508954 0.0901994
0.0901994 0.4508954 0.0901994
0.0915007 0.4554294 0.0915007
0.0934931 0.4623710 0.0934931
0.0971939 0.4752652 0.0971939
0.1011013 0.4888791 0.1011013
0.1056772 0.5048223 0.1056772
0.1309241 0.5179599 0.1094479
0.2044097 0.5305355 0.1130573
0.2735748 0.5447282 0.1171308
0.3312403 0.5584166 0.1210596
0.3982400 0.5730527 0.1252604
0.4550718 0.5890225 0.1298439
0.5112385 0.6017883 0.1335079
0.5540022 0.6170112 0.1378771
0.6067355 0.6285239 0.1411814
0.6491890 0.6390206 0.1471126
0.6985324 0.6507500 0.1612749
0.7312203 0.6602380 0.1706568
0.7591993 0.6726848 0.1786872
0.7844291 0.6801996 0.1859285
0.8148355 0.6885048 0.1946556
0.8431899 0.6982812 0.2027937
0.8617685 0.7075272 0.2081261
0.8796963 0.7130003 0.2132716
0.8990670 0.7188036 0.2188313
0.9145831 0.7240240 0.2232846
0.9275796 0.7361131 0.2270148
0.9390116 0.7408130 0.2302960
0.9446813 0.7446489 0.2319232
0.0968154 0.4739463 0.0968154
0.0968154 0.4739463 0.0968154
0.0968154 0.4739463 0.0968154
0.0968154 0.4739463 0.0968154
0.0968154 0.4739463 0.0968154
0.0977433 0.4771792 0.0977433
