data/spectral_luts/velvia_50_ilfochrome_m.cube
TITLE "velvia_50_ilfochrome_m"
LUT_3D_SIZE 33
0.0584083 0.0676321 0.0745619
0.0584083 0.0676321 0.0745619
0.0584083 0.0676321 0.0745619
0.0584083 0.0676321 0.0745619
0.0584083 0.0676321 0.0745619
0.0584083 0.0676321 0.0745619
0.0583806 0.0677036 0.0745915
0.0592743 0.0680599 0.0747332
0.0606166 0.0685445 0.0749243
0.0656873 0.0694870 0.0752789
0.0839742 0.0714660 0.0759612
0.1141543 0.0740783 0.0767852
0.1632944 0.0770771 0.0775672
0.2290515 0.0788930 0.0776910
0.2933975 0.0786636 0.0769516
0.3690353 0.0747892 0.0746961
0.4536790 0.0909983 0.0909983
0.5466743 0.1176894 0.1176894
0.6378093 0.1438465 0.1438465
0.6946114 0.1601495 0.1601495
0.7374442 0.1724431 0.1724431
0.7636583 0.1799670 0.1799670
0.7799893 0.1846542 0.1846542
0.7899665 0.1875178 0.1875178
0.8002419 0.1904670 0.1904670
0.8115120 0.2040555 0.1937017
0.8217836 0.2399003 0.1966498
0.8315418 0.2746367 0.1994506
0.8406450 0.3082923 0.2020633
0.8487385 0.3405084 0.2043862
0.8564125 0.3712718 0.2065888
0.8651406 0.4068526 0.2090939
0.8733897 0.4410798 0.2114615
0.0584083 0.0676321 0.0745619
0.0584083 0.0676321 0.0745619
0.0584083 0.0676321 0.0745619
0.0584083 0.0676321 0.0745619
0.0584083 0.0676321 0.0745619
0.0584083 0.0676321 0.0745619
0.0583834 0.0676964 0.0745885
0.0592515 0.0680693 0.0747372
0.0605532 0.0685477 0.0749260
0.0654385 0.0694631 0.0752707
0.0832670 0.0714133 0.0759447
0.1122169 0.0739466 0.0767474
0.1596155 0.0769619 0.0775508
0.2240808 0.0790117 0.0777696
0.2896334 0.0790292 0.0770997
0.3643768 0.0758875 0.0750480
0.4482099 0.0894287 0.0894287
0.5437239 0.1168426 0.1168426
0.6325670 0.1423418 0.1423418
0.6934935 0.1598287 0.1598287
0.7367362 0.1722400 0.1722400
0.7639815 0.1800597 0.1800597
0.7807842 0.1848824 0.1848824
0.7913337 0.1879102 0.1879102
0.8022256 0.1910364 0.1910364
0.8133767 0.2130088 0.1942369
0.8233433 0.2464348 0.1970975
0.8330665 0.2816339 0.1998882
0.8423917 0.3151830 0.2025646
0.8499613 0.3454652 0.2047372
0.8584108 0.3790279 0.2071624
0.8664016 0.4120388 0.2094558
0.8748661 0.4470712 0.2118853
0.0584083 0.0676321 0.0745619
0.0584083 0.0676321 0.0745619
0.0584083 0.0676321 0.0745619
0.0584083 0.0676321 0.0745619
0.0584083 0.0676321 0.0745619
0.0584083 0.0676321 0.0745619
0.0583771 0.0677127 0.0745953
0.0592286 0.0680788 0.0747412
0.0604899 0.0685508 0.0749276
0.0650590 0.0694458 0.0752659
0.0822094 0.0713293 0.0759179
0.1102905 0.0738132 0.0767088
0.1547963 0.0768121 0.0775294
0.2194179 0.0792590 0.0778857
0.2841014 0.0798765 0.0774028
0.3598970 0.0774236 0.0754989
0.4428938 0.0879028 0.0879028
0.5376529 0.1151001 0.1151001
0.6304760 0.1417417 0.1417417
0.6902642 0.1589018 0.1589018
0.7348925 0.1717108 0.1717108
0.7643279 0.1801592 0.1801592
0.7815894 0.1851135 0.1851135
0.7932314 0.1884549 0.1884549
0.8040282 0.1915537 0.1915537
0.8154712 0.2219833 0.1948380
0.8253073 0.2554356 0.1976611
0.8348162 0.2886154 0.2003903
0.8446314 0.3246937 0.2032074
0.8518205 0.3527103 0.2052708
0.8610829 0.3895805 0.2079293
0.8690831 0.4226263 0.2102255
0.8763268 0.4530031 0.2123045
0.0584083 0.0676321 0.0745619
0.0584083 0.0676321 0.0745619
0.0584083 0.0676321 0.0745619
0.0584083 0.0676321 0.0745619
0.0584083 0.0676321 0.0745619
0.0584078 0.0676334 0.0745624
0.0583665 0.0677400 0.0746066
0.0591627 0.0680957 0.0747485
0.0603723 0.0685670 0.0749350
0.0645718 0.0694391 0.0752661
0.0807990 0.0712323 0.0758881
0.1077723 0.0736520 0.0766631
0.1500847 0.0767604 0.0775417
0.2133086 0.0797094 0.0780787
0.2786814 0.0809415 0.0777672
0.3510260 0.0801140 0.0763223
0.4377256 0.0864195 0.0864195
0.5319833 0.1134728 0.1134728
0.6259515 0.1404431 0.1404431
0.6893088 0.1586276 0.1586276
0.7352526 0.1718141 0.1718141
0.7644694 0.1801998 0.1801998
0.7835858 0.1856865 0.1856865
0.7962428 0.1893192 0.1893192
0.8068812 0.1969269 0.1923726
0.8177875 0.2326684 0.1955029
0.8280720 0.2667401 0.1984546
0.8374996 0.3001324 0.2011605
0.8471005 0.3343455 0.2039161
0.8548486 0.3650094 0.2061400
0.8630605 0.3975307 0.2084969
0.8712335 0.4308956 0.2108426
0.8795460 0.4656668 0.2132285
0.0584083 0.0676321 0.0745619
0.0584083 0.0676321 0.0745619
0.0584083 0.0676321 0.0745619
0.0584083 0.0676321 0.0745619
0.0584083 0.0676321 0.0745619
0.0584025 0.0676470 0.0745681
0.0583334 0.0678251 0.0746418
0.0590193 0.0681948 0.0747900
0.0601437 0.0686185 0.0749573
0.0640014 0.0694943 0.0752919
0.0791389 0.0711745 0.0758753
0.1048581 0.0735510 0.0766427
0.1458363 0.0769230 0.0776277
0.2073362 0.0807730 0.0784685
0.2719044 0.0829610 0.0784215
0.3447157 0.0834038 0.0772466
0.4302680 0.0842791 0.0842791
0.5237052 0.1110969 0.1110969
0.6218637 0.1392698 0.1392698
0.6871636 0.1580119 0.1580119
0.7349742 0.1717342 0.1717342
0.7654958 0.1804944 0.1804944
0.7861491 0.1864222 0.1864222
0.8004606 0.1905298 0.1905298
0.8113367 0.2170241 0.1936514
0.8217713 0.2500420 0.1966463
0.8324538 0.2852244 0.1997123
0.8415528 0.3162039 0.2023239
0.8505331 0.3489655 0.2049013
0.8587807 0.3803815 0.2072685
0.8663881 0.4105476 0.2094520
0.8749183 0.4455935 0.2119002
0.8838340 0.4823590 0.2144592
0.0584067 0.0676361 0.0745636
0.0584066 0.0676366 0.0745637
0.0584025 0.0676470 0.0745681
0.0583930 0.0676717 0.0745783
0.0583735 0.0677218 0.0745990
0.0583255 0.0678454 0.0746502
0.0582367 0.0680735 0.0747446
0.0588439 0.0684091 0.0748790
0.0599963 0.0689840 0.0751077
0.0633333 0.0695993 0.0753385
0.0772004 0.0711087 0.0758611
0.1019321 0.0737831 0.0767500
0.1405639 0.0778293 0.0779888
0.2014336 0.0826536 0.0791254
0.2653809 0.0860631 0.0793891
0.3386855 0.0877069 0.0784268
0.4232555 0.0873738 0.0822664
0.5159428 0.1088690 0.1088690
0.6153772 0.1374081 0.1374081
0.6840333 0.1571134 0.1571134
0.7354138 0.1718604 0.1718604
0.7685933 0.1813834 0.1813834
0.7906778 0.1877220 0.1877220
0.8049594 0.2033698 0.1918210
0.8157414 0.2363880 0.1949156
0.8265486 0.2703819 0.1980174
0.8362849 0.3013083 0.2008119
0.8456458 0.3330277 0.2034986
0.8547926 0.3661267 0.2061239
0.8634491 0.3988531 0.2086084
0.8711664 0.4293755 0.2108234
0.8797185 0.4641682 0.2132780
0.8889649 0.5021755 0.2159318
0.0582709 0.0679856 0.0747082
0.0582622 0.0680081 0.0747175
0.0582536 0.0680301 0.0747266
0.0582367 0.0680735 0.0747446
0.0582114 0.0681382 0.0747713
0.0581604 0.0682684 0.0748251
0.0580766 0.0684819 0.0749133
0.0585734 0.0689032 0.0750830
0.0598545 0.0692967 0.0752362
0.0627950 0.0697758 0.0754134
0.0758817 0.0716056 0.0760670
0.0991315 0.0750159 0.0772404
0.1367014 0.0799510 0.0787781
0.1956799 0.0860021 0.0802602
0.2607193 0.0908714 0.0808244
0.3332629 0.0951790 0.0803868
0.4169756 0.0979677 0.0804639
0.5094370 0.1070017 0.1070017
0.6086953 0.1354903 0.1354903
0.6844551 0.1572345 0.1572345
0.7369140 0.1722910 0.1722910
0.7718199 0.1823095 0.1823095
0.7966593 0.1970219 0.1894387
0.8113536 0.2317262 0.1936563
0.8212441 0.2606449 0.1964950
0.8319058 0.2935280 0.1995550
0.8419867 0.3246442 0.2024484
0.8510612 0.3549565 0.2050529
0.8599847 0.3869087 0.2076141
0.8687770 0.4197265 0.2101376
0.8772281 0.4529657 0.2125632
0.8866835 0.4911425 0.2152770
0.8947564 0.5246778 0.2175941
0.0580255 0.0686115 0.0749667
0.0580183 0.0686297 0.0749742
0.0580111 0.0686479 0.0749818
0.0579751 0.0687391 0.0750193
0.0579438 0.0688181 0.0750519
0.0579017 0.0689245 0.0750957
0.0578395 0.0690809 0.0751601
0.0583742 0.0692730 0.0752354
0.0596752 0.0697084 0.0754051
0.0620181 0.0708682 0.0758605
0.0740967 0.0737360 0.0769218
0.0969808 0.0781916 0.0784613
0.1309971 0.0840694 0.0802937
0.1912601 0.0918509 0.0821788
0.2540922 0.0988003 0.0831830
0.3263227 0.1064884 0.0833487
0.4117804 0.1137109 0.0815769
0.4976556 0.1221969 0.1036203
0.6069227 0.1349816 0.1349816
0.6832273 0.1568821 0.1568821
0.7391151 0.1729227 0.1729227
0.7785565 0.1987122 0.1842430
0.8022611 0.2297442 0.1910465
0.8177003 0.2601238 0.1954778
0.8284910 0.2904991 0.1985749
0.8393531 0.3235133 0.2016925
0.8484309 0.3512642 0.2042980
0.8586206 0.3854398 0.2072226
0.8666627 0.4130202 0.2095308
0.8754621 0.4455884 0.2120563
0.8849477 0.4826432 0.2147788
0.8933078 0.5166299 0.2171783
0.9014354 0.5503434 0.2195110
0.0577969 0.0691877 0.0752040
0.0577926 0.0691985 0.0752084
0.0577926 0.0691985 0.0752084
0.0577837 0.0692208 0.0752176
0.0577679 0.0692604 0.0752339
0.0577255 0.0693664 0.0752774
0.0575752 0.0697406 0.0754310
0.0578608 0.0705752 0.0757686
0.0586290 0.0723034 0.0764609
0.0602811 0.0746739 0.0773938
0.0713310 0.0787861 0.0789067
0.0936610 0.0843113 0.0807657
0.1293230 0.0920597 0.0830863
0.1848584 0.1023421 0.0855484
0.2497898 0.1119395 0.0869077
0.3223229 0.1229157 0.0874186
0.4077589 0.1354712 0.0861885
0.4963095 0.1465073 0.1032339
0.6029342 0.1611479 0.1338368
0.6860474 0.1800597 0.1576915
0.7445949 0.2078553 0.1744955
0.7849048 0.2347540 0.1860650
0.8090723 0.2644278 0.1930015
0.8260057 0.2943335 0.1978616
0.8368807 0.3250516 0.2009829
0.8472778 0.3549586 0.2039670
0.8574843 0.3868070 0.2068964
0.8666495 0.4168068 0.2095270
0.8747202 0.4440879 0.2118434
0.8848066 0.4811736 0.2147383
0.8934325 0.5149077 0.2172141
0.9008074 0.5454810 0.2193308
0.9093199 0.5802541 0.2217740
0.0570693 0.0709806 0.0759380
0.0570693 0.0709806 0.0759380
0.0570693 0.0709806 0.0759380
0.0569824 0.0711906 0.0760236
0.0568119 0.0716005 0.0761903
0.0564566 0.0724442 0.0765325
0.0559488 0.0736273 0.0770098
0.0554767 0.0761322 0.0780065
0.0558303 0.0787649 0.0790324
0.0565442 0.0826461 0.0805146
0.0675590 0.0875812 0.0822439
0.0893216 0.0954132 0.0847749
0.1250641 0.1047517 0.0873576
0.1814278 0.1172655 0.0900556
0.2474818 0.1298545 0.0916790
0.3208752 0.1435387 0.0921692
0.4040575 0.1593051 0.0909741
0.4960057 0.1756541 0.1031467
0.6038843 0.1974441 0.1341095
0.6908671 0.2224562 0.1590748
0.7522410 0.2481987 0.1766901
0.7914353 0.2734908 0.1879394
0.8165064 0.3005562 0.1951352
0.8355920 0.3339148 0.2006130
0.8461283 0.3612728 0.2036371
0.8562703 0.3908136 0.2065480
0.8662472 0.4208302 0.2094115
0.8756958 0.4514877 0.2121234
0.8849444 0.4830643 0.2147779
0.8950380 0.5199232 0.2176749
0.9027811 0.5502920 0.2198973
0.9105518 0.5819684 0.2221276
0.9187016 0.6150321 0.2244667
0.0544877 0.0768922 0.0783131
0.0544877 0.0768922 0.0783131
0.0544877 0.0768922 0.0783131
0.0542858 0.0773281 0.0784855
0.0540130 0.0779115 0.0787157
0.0534659 0.0790628 0.0791681
0.0524530 0.0811314 0.0799745
0.0514089 0.0844915 0.0812606
0.0507278 0.0888926 0.0829035
0.0505516 0.0938174 0.0846889
0.0605067 0.1012900 0.0871785
0.0837465 0.1095252 0.0895791
0.1203585 0.1211915 0.0925344
0.1773123 0.1354358 0.0951915
0.2450377 0.1521402 0.0971669
0.3197159 0.1692349 0.0975775
0.4040119 0.1903225 0.0963271
0.4972696 0.2130819 0.1035095
0.6055801 0.2370943 0.1345962
0.6954758 0.2625697 0.1603976
0.7587525 0.2907861 0.1785589
0.7991211 0.3157231 0.1901453
0.8271281 0.3449481 0.1981837
0.8459657 0.3757103 0.2035904
0.8561353 0.3999387 0.2065092
0.8667642 0.4309913 0.2095599
0.8771629 0.4632325 0.2125445
0.8878785 0.4974557 0.2156200
0.8968822 0.5278457 0.2182042
0.9053862 0.5585307 0.2206450
0.9136552 0.5905038 0.2230183
0.9209718 0.6204200 0.2251183
0.9296504 0.6553207 0.2276092
0.0500902 0.0856697 0.0817154
0.0500902 0.0856697 0.0817154
0.0500902 0.0856697 0.0817154
0.0496754 0.0864285 0.0820027
0.0493943 0.0869366 0.0821945
0.0482661 0.0889291 0.0829421
0.0460551 0.0926305 0.0843117
0.0440848 0.0968985 0.0858522
0.0417048 0.1031630 0.0880447
0.0400536 0.1094027 0.0901470
0.0509399 0.1172067 0.0925106
0.0746077 0.1287389 0.0956303
0.1144876 0.1420396 0.0985418
0.1720137 0.1606707 0.1016528
0.2421319 0.1814453 0.1035821
0.3190092 0.2046757 0.1039868
0.4072486 0.2278628 0.1015081
0.4982742 0.2503951 0.1037978
0.6118096 0.2808975 0.1363842
0.7043442 0.3094850 0.1629430
0.7658165 0.3347535 0.1805864
0.8097703 0.3627358 0.1932018
0.8372688 0.3898909 0.2010943
0.8572744 0.4200477 0.2068362
0.8684299 0.4473492 0.2100380
0.8794045 0.4784882 0.2131878
0.8902003 0.5118313 0.2162864
0.8998657 0.5421028 0.2190605
0.9083356 0.5701783 0.2214915
0.9164209 0.5993523 0.2238121
0.9253737 0.6331246 0.2263817
0.9320908 0.6611481 0.2283096
0.9406782 0.6952556 0.2307743
0.0423059 0.0983651 0.0863856
0.0417561 0.0991547 0.0866667
0.0417561 0.0991547 0.0866667
0.0417561 0.0991547 0.0866667
0.0406210 0.1007466 0.0872301
0.0390398 0.1028702 0.0879749
0.0355892 0.1073561 0.0895234
0.0320718 0.1128063 0.0913494
0.0272015 0.1210915 0.0940212
0.0239345 0.1282163 0.0962140
0.0321990 0.1392547 0.0992625
0.0597930 0.1534491 0.1026299
0.1029168 0.1710044 0.1059784
0.1648843 0.1904453 0.1083257
0.2381442 0.2143962 0.1097351
0.3195806 0.2379390 0.1088188
0.4073431 0.2658298 0.1057871
0.5031749 0.2932929 0.1052044
0.6145148 0.3254791 0.1371606
0.7097363 0.3528362 0.1644906
0.7765394 0.3846202 0.1836641
0.8192773 0.4104442 0.1959305
0.8502000 0.4413744 0.2048057
0.8718948 0.4758698 0.2110324
0.8824015 0.4992754 0.2140480
0.8931744 0.5292958 0.2171400
0.9033182 0.5600963 0.2200514
0.9126253 0.5888436 0.2227227
0.9206857 0.6152613 0.2250362
0.9294440 0.6462756 0.2275499
0.9381714 0.6791505 0.2300548
0.9459291 0.7103288 0.2322814
0.9528896 0.7391446 0.2342792
0.0295903 0.1147573 0.0920059
0.0287240 0.1157890 0.0923450
0.0287240 0.1157890 0.0923450
0.0287240 0.1157890 0.0923450
0.0282643 0.1163330 0.0925231
0.0249445 0.1201922 0.0937733
0.0195334 0.1262441 0.0956877
0.0129850 0.1341781 0.0981011
0.0118924 0.1446874 0.1011396
0.0135930 0.1561240 0.1042493
0.0156640 0.1689746 0.1072912
0.0328255 0.1828998 0.1099398
0.0881113 0.2008239 0.1125638
0.1566038 0.2248694 0.1147664
0.2349642 0.2491629 0.1149370
0.3174940 0.2764697 0.1133665
0.4101555 0.3076795 0.1088779
0.5115538 0.3391531 0.1076093
0.6212506 0.3724655 0.1390939
0.7200099 0.4075352 0.1674392
0.7867317 0.4397387 0.1865894
0.8337302 0.4703311 0.2000786
0.8637238 0.4985116 0.2086873
0.8847679 0.5262586 0.2147272
0.8982239 0.5568369 0.2185893
0.9075165 0.5819532 0.2212564
0.9176137 0.6116625 0.2241545
0.9266090 0.6388230 0.2267362
0.9351389 0.6672901 0.2291844
0.9453254 0.7024336 0.2321081
0.9531256 0.7313418 0.2343469
0.9580780 0.7524345 0.2357683
0.9632521 0.7754666 0.2372533
0.0107455 0.1364255 0.0987851
0.0107455 0.1364255 0.0987851
0.0107455 0.1364255 0.0987851
0.0109782 0.1381418 0.0992925
0.0109782 0.1381418 0.0992925
0.0115828 0.1425049 0.1005635
0.0128898 0.1515025 0.1031016
0.0145107 0.1619498 0.1058958
0.0164583 0.1736386 0.1088328
0.0185847 0.1855119 0.1116144
0.0210602 0.1983755 0.1141249
0.0247216 0.2158762 0.1168597
0.0650245 0.2336153 0.1186721
0.1457041 0.2596310 0.1200406
0.2303189 0.2879994 0.1195017
0.3171469 0.3184936 0.1167034
0.4129080 0.3526433 0.1101716
0.5170341 0.3879797 0.1091822
0.6301110 0.4293218 0.1416369
0.7310310 0.4648584 0.1706025
0.8007932 0.5011221 0.1906252
0.8472082 0.5258971 0.2039470
0.8782957 0.5555884 0.2128696
0.8999488 0.5819909 0.2190844
0.9132648 0.6116407 0.2229062
0.9236134 0.6389136 0.2258765
0.9323179 0.6636130 0.2283748
0.9434382 0.6984203 0.2315665
0.9513444 0.7237028 0.2338357
0.9588646 0.7484640 0.2359941
0.9647118 0.7715012 0.2376723
0.9685332 0.7888880 0.2387691
0.9741424 0.8129733 0.2403790
0.0149498 0.1646617 0.1066194
0.0149498 0.1646617 0.1066194
0.0149498 0.1646617 0.1066194
0.0149498 0.1646617 0.1066194
0.0149498 0.1646617 0.1066194
0.0158849 0.1702849 0.1080550
0.0172579 0.1782029 0.1100100
0.0194281 0.1900011 0.1127630
0.0218902 0.2024896 0.1154703
0.0247100 0.2158234 0.1181446
0.0279722 0.2301841 0.1204461
0.0319128 0.2462827 0.1222500
0.0381278 0.2694688 0.1241141
0.1311228 0.2958845 0.1244767
0.2290021 0.3299319 0.1227556
0.3161967 0.3652194 0.1183949
0.4155918 0.4005415 0.1092207
0.5227575 0.4391133 0.1108249
0.6379794 0.4817698 0.1438953
0.7424177 0.5229524 0.1738706
0.8134948 0.5566065 0.1942708
0.8617072 0.5844253 0.2081085
0.8944056 0.6173468 0.2174934
0.9166476 0.6428779 0.2238772
0.9291264 0.6681259 0.2274588
0.9409872 0.6988502 0.2308630
0.9509250 0.7274610 0.2337153
0.9586362 0.7504170 0.2359285
0.9651077 0.7704546 0.2377859
0.9713352 0.7909998 0.2395733
0.9757843 0.8088984 0.2408503
0.9807990 0.8303049 0.2422895
0.9847083 0.8487828 0.2434116
0.0202468 0.1942512 0.1137421
0.0202468 0.1942512 0.1137421
0.0202468 0.1942512 0.1137421
0.0202468 0.1942512 0.1137421
0.0202468 0.1942512 0.1137421
0.0206770 0.1964446 0.1142290
0.0229297 0.2075155 0.1166034
0.0252799 0.2184086 0.1187846
0.0284781 0.2323218 0.1213568
0.0319251 0.2463312 0.1237130
0.0361480 0.2623394 0.1257534
0.0414030 0.2808817 0.1273713
0.0481956 0.3045481 0.1284877
0.1087389 0.3385654 0.1282926
0.2210182 0.3757942 0.1246984
0.3145058 0.4127097 0.1179237
0.4182234 0.4508539 0.1052605
0.5289916 0.4937291 0.1126142
0.6469879 0.5388331 0.1464808
0.7543842 0.5824969 0.1773052
0.8274117 0.6171631 0.1982652
0.8778982 0.6486012 0.2127555
0.9107412 0.6786649 0.2221819
0.9356683 0.7104691 0.2293364
0.9473360 0.7316653 0.2326852
0.9556879 0.7497214 0.2350823
0.9642249 0.7726086 0.2375325
0.9713806 0.7930598 0.2395863
0.9765685 0.8078469 0.2410753
0.9828448 0.8293025 0.2428767
0.9875842 0.8476825 0.2442370
0.9904980 0.8626754 0.2450733
0.9933301 0.8780076 0.2458862
0.0263185 0.2230340 0.1197054
0.0263185 0.2230340 0.1197054
0.0268746 0.2254669 0.1201683
0.0268746 0.2254669 0.1201683
0.0268746 0.2254669 0.1201683
0.0268746 0.2254669 0.1201683
0.0292560 0.2355663 0.1220240
0.0326359 0.2491088 0.1243215
0.0368756 0.2649854 0.1267544
0.0406594 0.2782908 0.1286380
0.0464843 0.2985858 0.1307922
0.0525823 0.3198319 0.1320067
0.0600808 0.3459579 0.1323036
0.0835032 0.3781329 0.1303920
0.2147504 0.4191950 0.1245273
0.3150414 0.4577865 0.1148965
0.4204923 0.4997130 0.1042108
0.5351551 0.5477988 0.1180121
0.6559966 0.5952520 0.1490665
0.7655424 0.6382692 0.1805077
0.8426200 0.6814262 0.2026302
0.8936967 0.7106904 0.2172899
0.9281397 0.7384699 0.2271756
0.9490098 0.7578480 0.2331656
0.9619395 0.7818699 0.2368766
0.9698476 0.7995211 0.2391463
0.9760082 0.8140609 0.2409145
0.9838862 0.8352920 0.2431756
0.9887819 0.8485353 0.2445808
0.9940886 0.8660895 0.2461039
0.9967200 0.8780597 0.2468591
0.9984280 0.8889364 0.2473494
1.0000000 0.9020498 0.2478005
0.0343302 0.2555900 0.1253999
0.0346918 0.2569487 0.1256141
0.0346918 0.2569487 0.1256141
0.0346918 0.2569487 0.1256141
0.0346918 0.2569487 0.1256141
0.0350579 0.2583165 0.1258420
0.0370844 0.2657392 0.1269993
0.0417690 0.2821569 0.1293557
0.0464295 0.2983949 0.1314505
0.0515519 0.3162420 0.1335346
0.0569354 0.3349988 0.1349020
0.0635314 0.3579801 0.1354015
0.0712161 0.3847548 0.1346723
0.0821038 0.4226890 0.1310210
0.2038121 0.4637998 0.1225190
0.3123830 0.5068641 0.1090381
0.4264041 0.5523971 0.1193319
0.5459375 0.6066637 0.1349072
0.6655866 0.6538672 0.1518189
0.7786988 0.7010450 0.1842838
0.8564880 0.7313909 0.2066105
0.9062032 0.7604547 0.2208795
0.9414566 0.7841184 0.2309977
0.9627998 0.8048912 0.2371235
0.9739049 0.8236428 0.2403108
0.9821419 0.8411406 0.2426750
0.9872879 0.8531851 0.2441520
0.9930390 0.8681192 0.2458026
0.9972450 0.8785541 0.2470098
1.0000000 0.8915929 0.2478005
1.0000000 0.8993812 0.2478005
1.0000000 0.9082149 0.2478005
1.0000000 0.9195246 0.2478005
0.0447521 0.2925505 0.1309333
0.0447521 0.2925505 0.1309333
0.0452394 0.2942483 0.1311682
0.0452394 0.2942483 0.1311682
0.0452394 0.2942483 0.1311682
0.0452394 0.2942483 0.1311682
0.0461894 0.2975583 0.1316301
0.0511240 0.3147510 0.1336770
0.0557639 0.3309171 0.1353727
0.0612427 0.3500062 0.1370195
0.0666393 0.3688085 0.1377875
0.0733092 0.3920475 0.1374969
0.0817452 0.4214397 0.1356379
0.0932049 0.4613668 0.1300411
0.1945999 0.5098675 0.1177896
0.3125803 0.5533442 0.1196038
0.4284883 0.6000550 0.1330104
0.5499637 0.6486896 0.1469693
0.6753524 0.6964600 0.1606801
0.7891339 0.7407874 0.1872789
0.8672768 0.7786011 0.2097070
0.9197639 0.8073745 0.2247716
0.9545957 0.8290316 0.2347688
0.9738014 0.8443682 0.2402811
0.9842169 0.8601665 0.2432705
0.9912239 0.8737713 0.2452817
0.9955579 0.8821905 0.2465256
0.9996179 0.8926766 0.2476909
1.0000000 0.9031733 0.2478005
1.0000000 0.9102917 0.2478005
1.0000000 0.9186339 0.2478005
1.0000000 0.9262604 0.2478005
1.0000000 0.9330671 0.2478005
0.0554943 0.3299778 0.1355680
0.0554943 0.3299778 0.1355680
0.0554943 0.3299778 0.1355680
0.0554943 0.3299778 0.1355680
0.0554943 0.3299778 0.1355680
0.0554970 0.3299873 0.1356264
0.0554970 0.3299873 0.1356264
0.0597247 0.3447172 0.1370352
0.0653468 0.3643055 0.1385069
0.0702533 0.3814003 0.1395036
0.0768384 0.4043437 0.1397998
0.0843050 0.4303584 0.1386101
0.0932505 0.4615258 0.1353178
0.1044217 0.5004477 0.1275571
0.1824480 0.5450078 0.1172111
0.3091353 0.5881242 0.1295861
0.4286543 0.6344799 0.1428909
0.5564706 0.6848803 0.1573565
0.6808220 0.7372645 0.1723915
0.7965676 0.7818702 0.1894124
0.8750933 0.8158590 0.2119505
0.9278294 0.8425885 0.2270865
0.9619862 0.8590603 0.2368900
0.9820543 0.8757587 0.2426498
0.9912309 0.8854504 0.2452837
0.9973429 0.8963466 0.2470379
1.0000000 0.9054085 0.2478005
1.0000000 0.9137809 0.2478005
1.0000000 0.9186966 0.2478005
1.0000000 0.9264588 0.2478005
1.0000000 0.9328549 0.2478005
1.0000000 0.9370955 0.2478005
1.0000000 0.9423897 0.2478005
0.0650491 0.3632680 0.1388208
0.0650491 0.3632680 0.1388208
0.0650491 0.3632680 0.1388208
0.0650491 0.3632680 0.1388208
0.0656071 0.3652122 0.1389970
0.0656071 0.3652122 0.1389970
0.0656071 0.3652122 0.1389970
0.0691323 0.3774947 0.1397716
0.0748083 0.3972706 0.1407191
0.0802947 0.4163861 0.1412357
0.0864034 0.4376694 0.1406988
0.0931347 0.4611224 0.1386453
0.1014091 0.4899515 0.1340782
0.1127359 0.5294158 0.1252297
0.1736386 0.5769110 0.1263677
0.3155965 0.6249033 0.1401422
0.4322296 0.6696302 0.1529795
0.5586861 0.7197925 0.1673768
0.6837725 0.7686793 0.1814081
0.8045810 0.8130998 0.1941574
0.8825778 0.8439065 0.2140986
0.9344716 0.8672854 0.2289929
0.9693487 0.8860024 0.2390032
0.9878737 0.8970339 0.2443201
0.9966975 0.9067137 0.2468527
1.0000000 0.9134692 0.2478005
1.0000000 0.9229875 0.2478005
1.0000000 0.9272626 0.2478005
1.0000000 0.9325785 0.2478005
1.0000000 0.9369777 0.2478005
1.0000000 0.9415637 0.2478005
1.0000000 0.9448646 0.2478005
1.0000000 0.9484169 0.2478005
0.0751988 0.3986310 0.1412645
0.0751988 0.3986310 0.1412645
0.0751988 0.3986310 0.1412645
0.0764897 0.4031289 0.1413936
0.0764897 0.4031289 0.1413936
0.0764897 0.4031289 0.1413936
0.0764897 0.4031289 0.1413936
0.0778497 0.4078672 0.1415578
0.0829009 0.4254662 0.1419488
0.0880052 0.4432505 0.1419756
0.0928822 0.4602425 0.1409468
0.1002459 0.4858986 0.1385297
0.1090273 0.5164943 0.1335853
0.1204249 0.5562054 0.1243930
0.1591594 0.6040123 0.1341462
0.3110896 0.6516452 0.1478176
0.4345165 0.6968212 0.1607837
0.5626359 0.7443826 0.1744346
0.6883504 0.7912635 0.1878901
0.8064290 0.8356451 0.2006283
0.8855318 0.8657207 0.2149465
0.9376996 0.8877139 0.2299194
0.9721577 0.9026597 0.2398094
0.9915473 0.9145400 0.2453745
1.0000000 0.9225991 0.2478005
1.0000000 0.9273727 0.2478005
1.0000000 0.9328895 0.2478005
1.0000000 0.9361277 0.2478005
1.0000000 0.9401616 0.2478005
1.0000000 0.9431289 0.2478005
1.0000000 0.9469971 0.2478005
1.0000000 0.9500291 0.2478005
1.0000000 0.9532797 0.2478005
0.0860163 0.4363210 0.1425257
0.0860163 0.4363210 0.1425257
0.0860163 0.4363210 0.1425257
0.0860163 0.4363210 0.1425257
0.0860163 0.4363210 0.1425257
0.0860163 0.4363210 0.1425257
0.0860325 0.4363773 0.1426487
0.0860325 0.4363773 0.1426487
0.0899961 0.4501871 0.1427718
0.0943493 0.4653540 0.1429601
0.0995148 0.4833516 0.1421786
0.1073970 0.5108142 0.1394870
0.1153644 0.5385737 0.1349995
0.1275433 0.5810069 0.1275433
0.1498841 0.6246767 0.1400772
0.3095776 0.6708050 0.1533167
0.4317176 0.7144293 0.1658375
0.5611405 0.7631239 0.1798136
0.6919941 0.8108758 0.1935191
0.8102026 0.8531324 0.2056473
0.8892890 0.8830211 0.2160248
0.9410016 0.9024987 0.2308671
0.9754286 0.9163008 0.2407482
0.9935475 0.9250352 0.2459486
1.0000000 0.9308195 0.2478005
1.0000000 0.9350893 0.2478005
1.0000000 0.9385629 0.2478005
1.0000000 0.9416581 0.2478005
1.0000000 0.9448264 0.2478005
1.0000000 0.9481647 0.2478005
1.0000000 0.9513007 0.2478005
1.0000000 0.9544635 0.2478005
1.0000000 0.9566621 0.2478005
0.0933617 0.4619133 0.1444414
0.0933617 0.4619133 0.1444414
0.0933617 0.4619133 0.1444414
0.0933617 0.4619133 0.1444414
0.0933617 0.4619133 0.1444414
0.0938554 0.4636334 0.1444010
