data/spectral_luts/velvia_50_ilfochrome_m.cube
TITLE "velvia_50_ilfochrome_m"
LUT_3D_SIZE 5
0.0584083 0.0676321 0.0745619
0.0606166 0.0685445 0.0749243
0.4536790 0.0909983 0.0909983
0.8002419 0.1904670 0.1904670
0.8733897 0.4410798 0.2114615
0.0577969 0.0691877 0.0752040
0.0586290 0.0723034 0.0764609
0.4077589 0.1354712 0.0861885
0.8368807 0.3250516 0.2009829
0.9093199 0.5802541 0.2217740
0.0202468 0.1942512 0.1137421
0.0284781 0.2323218 0.1213568
0.4182234 0.4508539 0.1052605
0.9473360 0.7316653 0.2326852
0.9933301 0.8780076 0.2458862
0.0933617 0.4619133 0.1444414
0.0960053 0.4711237 0.1449772
0.4315990 0.7297724 0.1702413
1.0000000 0.9361349 0.2478005
1.0000000 0.9597396 0.2478005
0.1232914 0.5661927 0.2181655
0.1232914 0.5661927 0.2181655
0.4152022 0.7674459 0.2035339
0.9926255 0.9561468 0.2456839
1.0000000 0.9706562 0.3817797
0.0574930 0.0682700 0.0792219
0.0620174 0.0705150 0.0837332
0.5010892 0.1046058 0.1046058
0.8029538 0.1983336 0.1912454
0.8693183 0.4616588 0.3421928
0.0557824 0.0708799 0.0844386
0.0551455 0.0781298 0.0930474
0.4521551 0.1537205 0.1340059
0.8367255 0.3526755 0.2118370
0.9031535 0.6034159 0.3700995
0.0236250 0.2108035 0.1373565
0.0340985 0.2547146 0.1549778
0.4478834 0.4821986 0.1904911
0.9387715 0.7582171 0.2304913
0.9794615 0.8974785 0.4028306
0.0964524 0.4726816 0.1821332
0.1009490 0.4883485 0.1875898
0.4548532 0.7537512 0.1772621
0.9917917 0.9484452 0.2454446
0.9989115 0.9712422 0.4207386
0.1232914 0.5661927 0.2181655
0.1232914 0.5661927 0.2181655
0.4322657 0.7726626 0.2011292
0.9923112 0.9568723 0.2455937
0.9985019 0.9731802 0.4298922
0.0459656 0.0686504 0.2653998
0.0953513 0.0728820 0.2908204
0.5918000 0.1306411 0.3778907
0.8105760 0.2392238 0.5277089
0.8720848 0.4963150 0.7051988
0.0472484 0.0726164 0.3012480
0.0762424 0.0882871 0.3338816
0.5541131 0.1873766 0.4555489
0.8407572 0.3985702 0.6100855
0.9014105 0.6382658 0.7595508
0.0961832 0.2700380 0.4717436
0.1096256 0.3281828 0.5185789
0.5505654 0.5747396 0.6386364
0.9260214 0.8069341 0.7571100
0.9658496 0.9234697 0.8434037
0.1390781 0.5391693 0.6211956
0.1449011 0.5676480 0.6414837
0.5313975 0.8385370 0.7342914
0.9647753 0.9751067 0.8130343
0.9805189 0.9844421 0.8666484
0.1535851 0.6171021 0.6717401
0.1535851 0.6171021 0.6717401
0.5218360 0.8524131 0.7546737
0.9652907 0.9810367 0.8226632
0.9805374 0.9855637 0.8719274
0.1376602 0.1108810 0.5229530
0.2688747 0.1219542 0.5615335
0.7171831 0.1666279 0.6507633
0.8362989 0.3218901 0.7390179
0.8827452 0.5306472 0.8306890
0.1295765 0.1124684 0.5284838
0.2508776 0.1247647 0.5713256
0.7152283 0.2160051 0.6836464
0.8558440 0.4311830 0.7874296
0.9110155 0.6725068 0.8794686
0.1730911 0.3359322 0.7397016
0.1857325 0.4213088 0.7837462
0.7534047 0.6678804 0.8739479
0.9357641 0.8345858 0.9234134
0.9686223 0.9342682 0.9515806
0.2084895 0.5795140 0.8630347
0.2178654 0.6729178 0.8957018
0.7714542 0.9146600 0.9491035
0.9677531 0.9777638 0.9605839
0.9804125 0.9841256 0.9648377
0.2176847 0.6619671 0.8950722
0.2200538 0.6885165 0.9033265
0.7574002 0.9215862 0.9539095
0.9676687 0.9814132 0.9627506
0.9803111 0.9848404 0.9650651
0.3797069 0.2106378 0.6913776
0.5487079 0.2571343 0.7205343
0.8219272 0.3617921 0.7738910
0.8733552 0.5020527 0.8282406
0.9069678 0.6488649 0.8776980
0.3646597 0.2049507 0.6878212
0.5347940 0.2515552 0.7173698
0.8193333 0.3616287 0.7737762
0.8725319 0.4985482 0.8269882
0.9186390 0.7055867 0.8948880
0.2889838 0.4851144 0.8278708
0.5012590 0.5647663 0.8564692
0.8814878 0.7457594 0.9077069
0.9470795 0.8656676 0.9380512
0.9714735 0.9434384 0.9560748
0.2260611 0.7432970 0.9242567
0.4621369 0.8220417 0.9414313
0.9147284 0.9586107 0.9616703
0.9729181 0.9804170 0.9644675
0.9811661 0.9845405 0.9651465
0.2272365 0.7546232 0.9283521
0.4518985 0.8329551 0.9448241
0.9109331 0.9655326 0.9635059
0.9730175 0.9828425 0.9650861
0.9810062 0.9850183 0.9654008
