data/spectral_luts/velvia_50_ilfochrome_m.cube
TITLE "velvia_50_ilfochrome_m"
LUT_3D_SIZE 9
0.0584083 0.0676321 0.0745619
0.0584083 0.0676321 0.0745619
0.0606166 0.0685445 0.0749243
0.1632944 0.0770771 0.0775672
0.4536790 0.0909983 0.0909983
0.7374442 0.1724431 0.1724431
0.8002419 0.1904670 0.1904670
0.8406450 0.3082923 0.2020633
0.8733897 0.4410798 0.2114615
0.0584083 0.0676321 0.0745619
0.0584083 0.0676321 0.0745619
0.0601437 0.0686185 0.0749573
0.1458363 0.0769230 0.0776277
0.4302680 0.0842791 0.0842791
0.7349742 0.1717342 0.1717342
0.8113367 0.2170241 0.1936514
0.8505331 0.3489655 0.2049013
0.8838340 0.4823590 0.2144592
0.0577969 0.0691877 0.0752040
0.0577679 0.0692604 0.0752339
0.0586290 0.0723034 0.0764609
0.1293230 0.0920597 0.0830863
0.4077589 0.1354712 0.0861885
0.7445949 0.2078553 0.1744955
0.8368807 0.3250516 0.2009829
0.8747202 0.4440879 0.2118434
0.9093199 0.5802541 0.2217740
0.0423059 0.0983651 0.0863856
0.0406210 0.1007466 0.0872301
0.0272015 0.1210915 0.0940212
0.1029168 0.1710044 0.1059784
0.4073431 0.2658298 0.1057871
0.7765394 0.3846202 0.1836641
0.8824015 0.4992754 0.2140480
0.9206857 0.6152613 0.2250362
0.9528896 0.7391446 0.2342792
0.0202468 0.1942512 0.1137421
0.0202468 0.1942512 0.1137421
0.0284781 0.2323218 0.1213568
0.0481956 0.3045481 0.1284877
0.4182234 0.4508539 0.1052605
0.8274117 0.6171631 0.1982652
0.9473360 0.7316653 0.2326852
0.9765685 0.8078469 0.2410753
0.9933301 0.8780076 0.2458862
0.0554943 0.3299778 0.1355680
0.0554943 0.3299778 0.1355680
0.0653468 0.3643055 0.1385069
0.0932505 0.4615258 0.1353178
0.4286543 0.6344799 0.1428909
0.8750933 0.8158590 0.2119505
0.9912309 0.8854504 0.2452837
1.0000000 0.9186966 0.2478005
1.0000000 0.9423897 0.2478005
0.0933617 0.4619133 0.1444414
0.0933617 0.4619133 0.1444414
0.0960053 0.4711237 0.1449772
0.1204888 0.5564278 0.1382659
0.4315990 0.7297724 0.1702413
0.8910249 0.8930478 0.2171037
1.0000000 0.9361349 0.2478005
1.0000000 0.9497646 0.2478005
1.0000000 0.9597396 0.2478005
0.1132711 0.5312802 0.1703346
0.1132711 0.5312802 0.1703346
0.1132711 0.5312802 0.1703346
0.1309353 0.5928250 0.1720963
0.4281720 0.7569703 0.1780474
0.8863642 0.9095784 0.2218482
0.9988451 0.9491954 0.2474691
1.0000000 0.9588449 0.2478005
1.0000000 0.9658022 0.2938095
0.1232914 0.5661927 0.2181655
0.1232914 0.5661927 0.2181655
0.1232914 0.5661927 0.2181655
0.1343355 0.6046718 0.2226792
0.4152022 0.7674459 0.2035339
0.8769565 0.9169267 0.2239573
0.9926255 0.9561468 0.2456839
1.0000000 0.9644583 0.2979941
1.0000000 0.9706562 0.3817797
0.0584083 0.0676321 0.0745619
0.0584083 0.0676321 0.0745619
0.0607519 0.0686499 0.0749667
0.1736598 0.0775940 0.0777882
0.4683503 0.0952092 0.0952092
0.7424721 0.1738862 0.1738862
0.8015943 0.1908552 0.1908552
0.8406265 0.3165891 0.2020580
0.8720659 0.4480368 0.2267002
0.0584083 0.0676321 0.0745619
0.0584067 0.0676361 0.0745636
0.0606515 0.0688679 0.0750564
0.1547660 0.0778250 0.0781006
0.4443967 0.0883342 0.0883342
0.7402753 0.1732557 0.1732557
0.8119054 0.2249250 0.1938146
0.8499111 0.3552523 0.2047228
0.8824565 0.4899181 0.2321520
0.0577837 0.0692208 0.0752176
0.0577311 0.0693524 0.0752717
0.0586091 0.0729329 0.0767133
0.1365183 0.0941325 0.0841656
0.4189196 0.1388647 0.0885907
0.7525219 0.2149470 0.1767707
0.8375108 0.3333801 0.2011637
0.8753189 0.4571474 0.2120152
0.9073206 0.5881298 0.2402361
0.0414768 0.0995511 0.0868074
0.0400091 0.1015761 0.0875220
0.0263867 0.1222746 0.0943948
0.1098812 0.1743871 0.1073857
0.4187410 0.2707627 0.1082195
0.7790923 0.3912517 0.1843968
0.8832945 0.5128304 0.2143043
0.9198298 0.6269507 0.2247905
0.9500328 0.7477407 0.2368200
0.0200308 0.1931398 0.1134934
0.0200308 0.1931398 0.1134934
0.0291109 0.2349647 0.1218749
0.0493205 0.3084673 0.1295810
0.4278048 0.4557773 0.1057384
0.8297713 0.6228480 0.1989424
0.9465091 0.7395134 0.2324479
0.9743771 0.8192092 0.2404464
0.9890481 0.8852260 0.2446572
0.0544903 0.3264797 0.1352473
0.0544903 0.3264797 0.1352473
0.0659118 0.3662739 0.1386408
0.0939112 0.4638279 0.1347805
0.4395577 0.6377100 0.1438180
0.8777612 0.8167050 0.2127162
0.9909617 0.8887035 0.2452064
1.0000000 0.9229552 0.2478005
1.0000000 0.9480581 0.2478005
0.0933617 0.4619133 0.1444414
0.0933617 0.4619133 0.1444414
0.0965134 0.4728942 0.1449194
0.1204314 0.5562277 0.1380898
0.4394765 0.7322668 0.1709572
0.8907849 0.8922685 0.2168800
1.0000000 0.9361349 0.2478005
1.0000000 0.9497646 0.2478005
1.0000000 0.9605153 0.2478005
0.1132711 0.5312802 0.1703346
0.1132711 0.5312802 0.1703346
0.1132711 0.5312802 0.1703346
0.1312953 0.5940794 0.1717858
0.4281720 0.7569703 0.1780474
0.8920721 0.9112789 0.2223363
0.9988451 0.9491954 0.2474691
1.0000000 0.9588449 0.2478005
1.0000000 0.9658022 0.2938095
0.1232914 0.5661927 0.2181655
0.1232914 0.5661927 0.2181655
0.1232914 0.5661927 0.2181655
0.1346991 0.6059387 0.2224937
0.4236997 0.7701081 0.2023388
0.8826974 0.9186265 0.2244451
0.9926255 0.9561468 0.2456839
1.0000000 0.9644583 0.2979941
1.0000000 0.9706562 0.3817797
0.0574930 0.0682700 0.0792219
0.0572600 0.0685503 0.0801404
0.0620174 0.0705150 0.0837332
0.2030703 0.0811140 0.0935361
0.5010892 0.1046058 0.1046058
0.7494866 0.1758995 0.1758995
0.8029538 0.1983336 0.1912454
0.8396952 0.3346455 0.2540960
0.8693183 0.4616588 0.3421928
0.0573232 0.0684605 0.0799240
0.0570337 0.0688256 0.0810187
0.0604624 0.0707721 0.0854103
0.1811789 0.0831125 0.0978159
0.4760488 0.0974188 0.1121668
0.7498587 0.1760063 0.1760063
0.8128241 0.2468788 0.1940783
0.8487668 0.3738710 0.2632947
0.8793523 0.5047051 0.3523676
0.0557824 0.0708799 0.0844386
0.0552517 0.0716749 0.0859733
0.0551455 0.0781298 0.0930474
0.1537851 0.1041042 0.1107897
0.4521551 0.1537205 0.1340059
0.7618383 0.2378486 0.1794446
0.8367255 0.3526755 0.2118370
0.8728772 0.4765969 0.2846400
0.9031535 0.6034159 0.3700995
0.0309084 0.1088444 0.1029407
0.0262217 0.1139049 0.1062283
0.0107297 0.1363084 0.1195485
0.1222689 0.1923659 0.1432555
0.4419675 0.2946052 0.1682502
0.7933341 0.4146958 0.1884844
0.8800997 0.5332148 0.2345817
0.9153075 0.6486109 0.3048635
0.9438589 0.7650691 0.3918935
0.0236250 0.2108035 0.1373565
0.0244176 0.2144831 0.1391307
0.0340985 0.2547146 0.1549778
0.0570193 0.3352912 0.1763219
0.4478834 0.4821986 0.1904911
0.8396142 0.6480494 0.2017674
0.9387715 0.7582171 0.2304913
0.9652791 0.8379253 0.3137549
0.9794615 0.8974785 0.4028306
0.0604816 0.3473541 0.1674663
0.0604816 0.3473541 0.1674663
0.0723151 0.3885837 0.1786802
0.1014531 0.4901049 0.1934025
0.4532245 0.6672142 0.1860420
0.8795916 0.8377711 0.2132415
0.9795951 0.9037425 0.2419440
0.9929396 0.9374049 0.3144391
0.9961748 0.9590137 0.4122713
0.0964524 0.4726816 0.1821332
0.0964931 0.4728236 0.1831299
0.1009490 0.4883485 0.1875898
0.1262165 0.5763840 0.1971513
0.4548532 0.7537512 0.1772621
0.8918287 0.9069397 0.2210909
0.9917917 0.9484452 0.2454446
0.9990686 0.9622133 0.3232660
0.9989115 0.9712422 0.4207386
0.1140431 0.5339702 0.1885518
0.1143218 0.5349411 0.1897072
0.1144123 0.5352566 0.1920336
0.1337483 0.6026259 0.1996006
0.4394026 0.7680334 0.1814689
0.8919373 0.9184597 0.2243972
0.9927713 0.9558682 0.2457258
0.9999053 0.9656681 0.3228064
0.9987651 0.9729533 0.4267831
0.1232914 0.5661927 0.2181655
0.1232914 0.5661927 0.2181655
0.1232914 0.5661927 0.2181655
0.1362482 0.6113358 0.2226877
0.4322657 0.7726626 0.2011292
0.8884614 0.9203300 0.2249341
0.9923112 0.9568723 0.2455937
0.9991491 0.9662060 0.3289721
0.9985019 0.9731802 0.4298922
0.0479622 0.0737611 0.1344930
0.0480451 0.0742955 0.1386946
0.0663246 0.0773221 0.1500498
0.2347893 0.0898901 0.1759962
0.5447657 0.1171416 0.2086490
0.7596662 0.1788212 0.2634309
0.8048492 0.2246913 0.3365777
0.8394967 0.3561809 0.4240474
0.8688470 0.4827704 0.5126097
0.0476347 0.0739534 0.1365364
0.0474017 0.0745783 0.1415155
0.0623551 0.0773124 0.1565568
0.2159655 0.0928035 0.1840433
0.5183299 0.1095541 0.2250663
0.7602357 0.1789846 0.2799213
0.8141861 0.2731637 0.3567901
0.8481994 0.3966576 0.4388894
0.8783584 0.5266482 0.5285187
0.0425409 0.0783191 0.1603549
0.0407709 0.0803985 0.1664218
0.0481967 0.0892479 0.1829408
0.1905253 0.1217372 0.2166933
0.4924754 0.1754826 0.2677814
0.7759035 0.2690795 0.3282784
0.8365179 0.3799178 0.3955696
0.8712134 0.5023399 0.4755939
0.9001358 0.6245366 0.5580699
0.0217516 0.1276733 0.2018090
0.0235914 0.1352580 0.2106459
0.0299129 0.1638116 0.2382669
0.1472608 0.2261542 0.2776121
0.4878458 0.3285722 0.3307810
0.8005837 0.4483901 0.3845980
0.8764230 0.5616543 0.4459416
0.9102488 0.6744775 0.5208734
0.9379894 0.7864239 0.6013561
0.0369757 0.2435317 0.2653470
0.0389299 0.2517064 0.2722955
0.0472400 0.2906266 0.3012185
0.0705997 0.3826071 0.3420751
0.4783257 0.5262433 0.3886104
0.8445996 0.6872343 0.4366811
0.9293545 0.7853213 0.4901418
0.9555052 0.8602855 0.5591072
0.9702564 0.9161135 0.6313751
0.0717504 0.3866165 0.3259528
0.0717504 0.3866165 0.3259528
0.0857506 0.4353950 0.3542143
0.1156745 0.5396541 0.3884483
0.4804461 0.7145896 0.4274785
0.8834377 0.8721794 0.4632167
0.9647071 0.9254052 0.5139528
0.9801456 0.9567106 0.5801761
0.9840192 0.9699601 0.6475601
0.1073641 0.5106994 0.3696403
0.1079085 0.5125965 0.3700190
0.1125830 0.5288829 0.3818454
0.1409572 0.6277427 0.4131873
0.4732960 0.7978792 0.4445136
0.8920873 0.9345059 0.4770486
0.9746805 0.9661089 0.5281974
0.9841977 0.9758826 0.5918145
0.9863871 0.9813519 0.6595811
0.1229694 0.5650707 0.3886913
0.1230613 0.5653908 0.3924126
0.1232403 0.5660145 0.3961955
0.1471428 0.6492941 0.4228844
0.4689599 0.8133140 0.4532253
0.8894526 0.9441543 0.4835938
0.9755777 0.9728222 0.5350170
0.9844067 0.9789348 0.5955100
0.9862217 0.9827893 0.6670941
0.1308862 0.5926538 0.4013853
0.1309786 0.5929759 0.4052579
0.1310708 0.5932972 0.4091693
0.1478942 0.6519122 0.4276910
0.4542205 0.8130667 0.4589528
0.8872638 0.9447937 0.4837667
0.9748291 0.9734015 0.5383744
0.9840813 0.9792899 0.5990242
0.9859840 0.9829379 0.6708371
0.0459656 0.0686504 0.2653998
0.0483505 0.0680948 0.2713428
0.0953513 0.0728820 0.2908204
0.2827417 0.0873644 0.3282169
0.5918000 0.1306411 0.3778907
0.7704588 0.1819188 0.4375131
0.8105760 0.2392238 0.5277089
0.8431708 0.3684806 0.6198086
0.8720848 0.4963150 0.7051988
0.0454986 0.0690237 0.2625799
0.0481187 0.0680326 0.2712919
0.0933613 0.0730664 0.2875524
0.2753808 0.0879427 0.3317724
0.5806587 0.1274434 0.3928719
0.7731692 0.1826968 0.4632071
0.8193997 0.2881661 0.5535578
0.8512325 0.4088694 0.6395553
0.8810474 0.5404904 0.7237574
0.0472484 0.0726164 0.3012480
0.0498753 0.0751497 0.3104005
0.0762424 0.0882871 0.3338816
0.2490909 0.1277557 0.3853145
0.5541131 0.1873766 0.4555489
0.7906040 0.2874489 0.5325422
0.8407572 0.3985702 0.6100855
0.8732876 0.5177254 0.6885665
0.9014105 0.6382658 0.7595508
0.0687829 0.1407671 0.3762771
0.0731385 0.1515558 0.3914526
0.0824321 0.1830433 0.4238330
0.2125171 0.2536698 0.4807567
0.5490774 0.3587778 0.5489414
0.8199204 0.4764893 0.6193625
0.8778585 0.5841005 0.6846167
0.9105719 0.6961573 0.7522147
0.9361308 0.7971420 0.8091931
0.0961832 0.2700380 0.4717436
0.1004631 0.2857704 0.4866553
0.1096256 0.3281828 0.5185789
0.1265963 0.4276035 0.5777072
0.5505654 0.5747396 0.6386364
0.8622597 0.7232859 0.7047253
0.9260214 0.8069341 0.7571100
0.9510934 0.8748368 0.8029864
0.9658496 0.9234697 0.8434037
0.1214680 0.4235023 0.5598395
0.1238205 0.4308586 0.5680360
0.1329931 0.4813246 0.5999945
0.1483124 0.5976720 0.6533693
0.5493692 0.7688554 0.7080148
0.8941324 0.8978154 0.7561250
0.9577701 0.9421122 0.7946699
0.9722356 0.9636159 0.8299952
0.9781212 0.9740367 0.8608277
0.1390781 0.5391693 0.6211956
0.1390781 0.5391693 0.6211956
0.1449011 0.5676480 0.6414837
0.1589506 0.6817282 0.6904343
0.5313975 0.8385370 0.7342914
0.9030263 0.9529248 0.7725393
0.9647753 0.9751067 0.8130343
0.9762267 0.9816074 0.8412876
0.9805189 0.9844421 0.8666484
0.1477571 0.5876382 0.6514344
0.1478019 0.5882565 0.6515905
0.1501070 0.5952755 0.6596220
0.1633412 0.7000591 0.7057317
0.5269988 0.8511565 0.7475334
0.8982868 0.9606389 0.7847928
0.9654928 0.9805444 0.8198838
0.9765857 0.9842431 0.8467451
0.9806550 0.9855508 0.8702283
0.1535851 0.6171021 0.6717401
0.1535851 0.6171021 0.6717401
0.1535851 0.6171021 0.6717401
0.1645167 0.7014844 0.7098274
0.5218360 0.8524131 0.7546737
0.8962497 0.9612468 0.7881171
0.9652907 0.9810367 0.8226632
0.9763142 0.9843321 0.8507711
0.9805374 0.9855637 0.8719274
0.0868756 0.0841213 0.4297182
0.1009158 0.0865514 0.4381852
0.1679704 0.0939282 0.4638870
0.3581826 0.1057767 0.5051687
0.6620812 0.1508129 0.5610244
0.7878231 0.1869026 0.6095822
0.8199096 0.2503650 0.6628726
0.8496425 0.3810972 0.7283510
0.8784241 0.5159456 0.7913806
0.0850949 0.0830274 0.4259070
0.0987662 0.0858618 0.4357826
0.1642775 0.0931999 0.4613493
0.3581826 0.1057767 0.5051687
0.6568984 0.1493253 0.5570652
0.7898539 0.1874855 0.6165544
0.8276250 0.2968534 0.6849112
0.8571897 0.4208275 0.7458503
0.8857408 0.5533738 0.8051170
0.0915710 0.0915710 0.4556740
0.0942304 0.0942304 0.4649400
0.1496001 0.1028339 0.4949157
0.3354298 0.1185905 0.5498140
0.6464094 0.1936345 0.6202444
0.8096193 0.2995518 0.6828001
0.8491272 0.4150884 0.7384239
0.8796393 0.5365524 0.7919859
0.9061830 0.6544886 0.8402736
0.1202490 0.1391953 0.5555925
0.1235606 0.1542669 0.5671304
0.1325550 0.1927781 0.5984682
0.3098210 0.2729331 0.6526710
0.6457027 0.3851862 0.7151189
0.8417975 0.5027865 0.7687718
0.8855138 0.6048573 0.8116074
0.9161587 0.7153257 0.8533763
0.9392105 0.8083982 0.8869864
0.1510186 0.2950754 0.6627980
0.1541644 0.3103546 0.6737583
0.1629129 0.3622198 0.7042394
0.2504476 0.4715506 0.7574841
0.6514095 0.6223786 0.8125157
0.8839934 0.7445659 0.8513543
0.9313042 0.8252519 0.8808162
0.9536687 0.8851852 0.9006076
0.9671410 0.9293779 0.9199584
0.1758523 0.4502568 0.7493220
0.1789043 0.4683448 0.7599559
0.1865080 0.5252328 0.7864481
0.1993782 0.6486090 0.8312898
0.6471146 0.8072888 0.8740439
0.9155326 0.9121426 0.8990778
0.9590397 0.9469756 0.9131316
0.9726239 0.9659600 0.9228123
0.9780619 0.9751053 0.9333280
0.1908180 0.5536360 0.8014646
0.1910743 0.5559992 0.8023578
0.1971370 0.6056173 0.8234811
0.2085259 0.7293335 0.8631616
0.6465343 0.8764849 0.8958309
0.9244192 0.9615027 0.9125426
0.9653399 0.9766563 0.9229026
0.9762655 0.9820491 0.9298125
0.9801396 0.9842241 0.9390023
0.1970867 0.6012248 0.8233060
0.1979824 0.6021349 0.8264265
0.2007123 0.6278370 0.8359380
0.2110416 0.7441243 0.8719265
0.6379858 0.8854184 0.9026228
0.9224346 0.9684539 0.9179482
0.9659285 0.9809821 0.9250219
0.9764318 0.9841036 0.9327689
0.9801655 0.9851193 0.9417452
0.2017087 0.6339113 0.8394094
0.2017087 0.6339113 0.8394094
0.2018113 0.6351051 0.8397670
0.2115243 0.7442732 0.8736084
0.6331732 0.8858622 0.9043425
0.9187810 0.9682686 0.9192737
0.9657753 0.9813434 0.9263401
0.9762711 0.9841527 0.9340532
0.9800590 0.9850850 0.9428887
0.1376602 0.1108810 0.5229530
0.1649811 0.1141223 0.5342461
0.2688747 0.1219542 0.5615335
0.4622386 0.1333743 0.6013228
0.7171831 0.1666279 0.6507633
0.8095064 0.2321827 0.6975220
0.8362989 0.3218901 0.7390179
0.8572009 0.4084283 0.7796401
0.8827452 0.5306472 0.8306890
0.1361072 0.1106706 0.5222200
0.1620961 0.1134813 0.5320128
0.2634586 0.1217596 0.5608556
0.4564365 0.1330642 0.6002423
0.7167796 0.1665121 0.6488890
0.8095064 0.2321827 0.6975220
0.8362989 0.3218901 0.7390179
0.8632816 0.4409432 0.7939124
0.8908360 0.5719685 0.8454837
0.1295765 0.1124684 0.5284838
0.1533122 0.1154943 0.5390261
0.2508776 0.1247647 0.5713256
0.4454210 0.1384868 0.6191354
0.7152283 0.2160051 0.6836464
0.8240947 0.3216729 0.7375430
0.8558440 0.4311830 0.7874296
0.8851020 0.5543813 0.8377646
0.9110155 0.6725068 0.8794686
0.1418428 0.1653703 0.6308282
0.1453259 0.1824723 0.6429636
0.2086289 0.2326964 0.6764185
0.4254324 0.3119044 0.7248806
0.7281009 0.4180347 0.7781503
0.8585173 0.5245207 0.8218058
0.8925755 0.6249946 0.8600176
0.9217585 0.7357876 0.8968170
0.9426132 0.8205170 0.9225267
0.1730911 0.3359322 0.7397016
0.1767506 0.3586068 0.7524521
0.1857325 0.4213088 0.7837462
0.3969322 0.5261389 0.8278804
0.7534047 0.6678804 0.8739479
0.9046032 0.7701044 0.9038732
0.9357641 0.8345858 0.9234134
0.9575789 0.8980199 0.9416057
0.9686223 0.9342682 0.9515806
0.1973365 0.4967214 0.8241761
0.1999826 0.5194876 0.8333955
0.2081530 0.5905576 0.8618623
0.3501343 0.7094473 0.8988476
0.7723714 0.8564947 0.9318573
0.9340510 0.9252479 0.9458513
0.9625143 0.9530581 0.9538918
0.9738653 0.9681842 0.9586706
0.9785294 0.9757613 0.9619877
0.2084895 0.5795140 0.8630347
0.2107681 0.6019650 0.8709737
0.2178654 0.6729178 0.8957018
0.3276035 0.7838436 0.9247651
0.7714542 0.9146600 0.9491035
0.9407919 0.9667070 0.9571223
0.9677531 0.9777638 0.9605839
0.9770489 0.9825020 0.9630826
0.9804125 0.9841256 0.9648377
0.2137173 0.6223608 0.8812491
0.2137173 0.6223608 0.8812491
0.2196092 0.6860263 0.9017773
0.3141342 0.7948048 0.9301006
0.7693155 0.9239244 0.9527407
0.9414134 0.9735096 0.9597437
0.9678513 0.9811930 0.9622424
0.9772382 0.9839437 0.9643000
0.9804168 0.9848925 0.9650506
0.2176847 0.6619671 0.8950722
0.2176847 0.6619671 0.8950722
0.2200538 0.6885165 0.9033265
0.2964596 0.7935493 0.9306996
0.7574002 0.9215862 0.9539095
0.9403887 0.9738361 0.9607567
0.9676687 0.9814132 0.9627506
0.9770757 0.9839642 0.9647648
0.9803111 0.9848404 0.9650651
0.2374534 0.1361524 0.6110020
0.2782957 0.1389576 0.6207759
0.3828177 0.1458254 0.6447041
0.5956885 0.1884864 0.6853107
0.7789522 0.2551454 0.7253833
0.8312132 0.3301093 0.7588575
0.8540985 0.4068081 0.7908140
0.8724218 0.4841703 0.8215352
0.8906398 0.5680205 0.8513045
0.2345104 0.1355927 0.6090521
0.2726438 0.1385293 0.6192836
0.3828177 0.1458254 0.6447041
0.5886784 0.1884432 0.6848617
0.7755547 0.2525534 0.7241636
0.8302637 0.3273361 0.7577170
0.8533707 0.4039347 0.7896870
0.8724218 0.4841703 0.8215352
0.8947875 0.5893001 0.8584903
0.2222693 0.1348517 0.6064702
0.2652295 0.1378118 0.6167837
0.3707137 0.1449376 0.6416110
0.5811968 0.1840085 0.6818524
0.7717404 0.2474467 0.7215312
0.8335041 0.3465164 0.7658727
0.8627284 0.4555742 0.8103363
0.8891027 0.5711911 0.8524104
0.9146926 0.6882791 0.8898681
0.1775589 0.2175836 0.6882699
0.2259959 0.2348943 0.6988778
0.3459006 0.2809061 0.7262374
0.5646467 0.3569969 0.7663844
0.7944817 0.4541668 0.8093662
0.8703846 0.5515534 0.8458058
0.8992477 0.6474738 0.8774405
0.9257713 0.7515116 0.9082350
0.9451323 0.8303093 0.9292378
0.1884297 0.4048384 0.7931435
0.1915815 0.4292999 0.8041251
0.2953219 0.4895222 0.8293712
0.5584869 0.5878096 0.8638374
0.8281186 0.7116647 0.8990415
0.9167266 0.7901251 0.9192860
0.9418612 0.8515980 0.9348778
0.9599637 0.9057550 0.9476826
0.9703180 0.9397366 0.9552936
0.2100588 0.5725058 0.8685023
0.2130930 0.6032584 0.8790739
0.2192663 0.6733875 0.9005825
0.5570014 0.7809226 0.9272137
0.8527582 0.8861100 0.9466220
0.9473218 0.9336491 0.9547904
0.9657691 0.9581687 0.9597182
0.9752107 0.9706603 0.9621300
0.9791530 0.9771469 0.9633517
0.2187690 0.6508796 0.8988500
0.2213284 0.6809522 0.9077674
0.2262200 0.7450027 0.9248105
0.5469592 0.8467030 0.9460949
0.8596120 0.9418318 0.9598790
0.9546051 0.9719955 0.9632368
0.9703210 0.9789298 0.9641351
0.9780092 0.9829218 0.9646738
0.9807556 0.9843869 0.9648415
0.2203742 0.6656008 0.9044427
0.2227133 0.6938235 0.9125925
0.2274104 0.7578249 0.9289578
0.5276449 0.8527185 0.9482074
0.8502944 0.9473420 0.9614626
0.9553093 0.9774598 0.9643824
0.9705685 0.9819940 0.9647553
0.9781089 0.9842023 0.9649030
0.9807165 0.9849787 0.9650306
0.2235382 0.7036344 0.9154665
0.2235382 0.7036344 0.9154665
0.2274100 0.7569853 0.9289563
0.5226960 0.8529481 0.9483864
0.8475108 0.9475415 0.9615620
0.9547808 0.9778050 0.9644305
0.9703450 0.9821150 0.9647661
0.9781195 0.9842440 0.9649405
0.9807083 0.9849446 0.9650522
0.3797069 0.2106378 0.6913776
0.4256392 0.2240294 0.6999471
0.5487079 0.2571343 0.7205343
0.7237415 0.3038587 0.7473094
0.8219272 0.3617921 0.7738910
0.8514848 0.4262936 0.7997813
0.8733552 0.5020527 0.8282406
0.8904265 0.5748083 0.8536854
0.9069678 0.6488649 0.8776980
0.3746276 0.2099764 0.6908686
0.4200036 0.2233730 0.6994323
0.5417346 0.2543393 0.7189531
0.7237407 0.3038617 0.7472928
0.8210618 0.3617378 0.7738528
0.8512739 0.4262739 0.7997724
0.8726853 0.4985690 0.8269740
0.8896426 0.5712692 0.8524875
0.9069678 0.6488649 0.8776980
0.3646597 0.2049507 0.6878212
0.4088501 0.2181277 0.6962868
0.5347940 0.2515552 0.7173698
0.7141381 0.3033294 0.7467854
0.8193333 0.3616287 0.7737762
0.8512739 0.4262739 0.7997724
0.8725319 0.4985482 0.8269882
0.8938835 0.5926381 0.8596627
0.9186390 0.7055867 0.8948880
0.3413132 0.2754394 0.7260084
0.3863753 0.2914987 0.7349175
0.5144898 0.3351940 0.7578627
0.7143133 0.4063157 0.7909674
0.8379133 0.4870579 0.8228930
0.8779085 0.5728745 0.8531941
0.9051189 0.6673052 0.8835557
0.9297366 0.7677974 0.9125937
0.9476490 0.8403392 0.9315584
0.2889838 0.4851144 0.8278708
0.3481009 0.5043975 0.8351449
0.5012590 0.5647663 0.8564692
0.7368011 0.6596476 0.8849071
0.8814878 0.7457594 0.9077069
0.9247943 0.8070213 0.9235224
0.9470795 0.8656676 0.9380512
0.9622073 0.9127367 0.9491426
0.9714735 0.9434384 0.9560748
0.2188258 0.6686606 0.8990479
0.2920482 0.6952383 0.9065821
0.4862576 0.7570712 0.9218553
0.7523880 0.8487819 0.9401178
0.9113783 0.9122720 0.9508115
0.9545096 0.9422386 0.9563670
0.9689201 0.9612547 0.9602429
0.9761426 0.9718398 0.9624072
0.9796480 0.9776757 0.9636014
0.2260611 0.7432970 0.9242567
0.2594228 0.7683420 0.9301112
0.4621369 0.8220417 0.9414313
0.7514313 0.9091876 0.9556922
0.9147284 0.9586107 0.9616703
0.9618840 0.9751822 0.9636973
0.9729181 0.9804170 0.9644675
0.9787527 0.9833041 0.9649098
0.9811661 0.9845405 0.9651465
0.2272160 0.7554595 0.9282807
0.2289676 0.7768359 0.9331795
0.4519219 0.8311380 0.9442916
0.7440861 0.9164820 0.9577997
0.9126803 0.9653274 0.9633653
0.9623742 0.9795023 0.9646976
0.9732527 0.9827902 0.9650369
0.9788082 0.9844043 0.9652074
0.9811136 0.9850783 0.9653298
0.2272365 0.7546232 0.9283521
0.2287697 0.7780057 0.9336939
0.4518985 0.8329551 0.9448241
0.7291712 0.9133157 0.9575832
0.9109331 0.9655326 0.9635059
0.9621066 0.9798462 0.9648128
0.9730175 0.9828425 0.9650861
0.9786981 0.9843956 0.9652727
0.9810062 0.9850183 0.9654008
