data/spectral_luts/vericolor_iii_endura_premier.cube
TITLE "vericolor_iii_endura_premier"
LUT_3D_SIZE 5
0.0398709 0.0615655 0.0726295
0.0698604 0.0657386 0.0734089
0.3676431 0.0935894 0.0663048
0.6694264 0.1529210 0.1529210
0.8455389 0.2726054 0.2034679
0.0344544 0.0795369 0.0756158
0.0704275 0.0892150 0.0769281
0.3786629 0.1455615 0.0694676
0.7199283 0.2427927 0.1674158
0.8871163 0.3939792 0.2154012
0.0418602 0.2824747 0.0809014
0.0481314 0.3043244 0.0772489
0.4665353 0.4239135 0.0946883
0.8141944 0.5387205 0.1944716
0.9564702 0.6413041 0.2353068
0.0971989 0.4752826 0.0971989
0.1080889 0.5132247 0.1080889
0.5285773 0.6456029 0.1460833
0.8636436 0.7436140 0.2086642
0.9857074 0.8111970 0.2436983
0.1354378 0.6085122 0.1445735
0.1460153 0.6453657 0.1460153
0.5761437 0.7671707 0.1809751
0.8803312 0.8486477 0.2134538
0.9877482 0.8953129 0.3337720
0.0369436 0.0639557 0.0916720
0.0807486 0.0701104 0.0952494
0.3904802 0.0971451 0.1024174
0.6865960 0.1578490 0.1578490
0.8479556 0.2840770 0.2056693
0.0284535 0.0848514 0.1036487
0.0797413 0.0984807 0.1100387
0.4111550 0.1588602 0.1195731
0.7314636 0.2640312 0.1707266
0.8911403 0.4205512 0.2166827
0.0538692 0.3243156 0.1511029
0.0624207 0.3541105 0.1601924
0.4903053 0.4735291 0.1528833
0.8205186 0.5846502 0.1962867
0.9540785 0.6731635 0.2580040
0.1138760 0.5333878 0.2237332
0.1266914 0.5780386 0.2351328
0.5189665 0.7034723 0.2227901
0.8565434 0.7893748 0.2586234
0.9794233 0.8418741 0.3485157
0.1508083 0.6620652 0.3541463
0.1623185 0.7021685 0.3617303
0.5586317 0.8124427 0.3686985
0.8681567 0.8818660 0.4024970
0.9817781 0.9172629 0.4832357
0.0744509 0.0744509 0.3960254
0.1421723 0.0787317 0.4109401
0.4535884 0.0909723 0.4471125
0.7104914 0.1647073 0.5001742
0.8583552 0.2990748 0.5849420
0.0827679 0.0827679 0.4250029
0.1382452 0.0928965 0.4424191
0.4671389 0.1594299 0.4949956
0.7585115 0.2841370 0.5587335
0.8992947 0.4592450 0.6275389
0.1212158 0.4025776 0.5589607
0.1273177 0.4431636 0.5802208
0.5045722 0.5531519 0.6151066
0.8294979 0.6569614 0.6509423
0.9459462 0.7324613 0.6879701
0.1469857 0.6311827 0.6487468
0.1565559 0.6820908 0.6606967
0.5109285 0.7919782 0.6893336
0.8506703 0.8611658 0.7039095
0.9631190 0.8972169 0.7357394
0.1732656 0.7403098 0.7102748
0.1854681 0.7828251 0.7248945
0.5687116 0.8804806 0.7459334
0.8586566 0.9338428 0.7615370
0.9678975 0.9556798 0.7822705
0.1820488 0.1501397 0.6597357
0.2718245 0.1563876 0.6815045
0.5453965 0.1651966 0.7121964
0.7571635 0.1781029 0.7441491
0.8729901 0.2886304 0.7949779
0.1786603 0.1502205 0.6600173
0.2714833 0.1572276 0.6844311
0.5521039 0.1693939 0.7268202
0.7879182 0.2627519 0.7792315
0.9061003 0.4582570 0.8329468
0.1902264 0.4431053 0.7994035
0.1960935 0.4833739 0.8198453
0.5920622 0.5813776 0.8490971
0.8513094 0.6760640 0.8708460
0.9474977 0.7487006 0.8914978
0.2105075 0.7050455 0.8700657
0.2139167 0.7459941 0.8819438
0.6077539 0.8336484 0.9035630
0.8622293 0.8874185 0.9126059
0.9610623 0.9163386 0.9228742
0.2191565 0.8001056 0.9002001
0.2227633 0.8424832 0.9127669
0.6346923 0.9128636 0.9241384
0.8763250 0.9549183 0.9320085
0.9658297 0.9714999 0.9384444
0.3362540 0.1918118 0.8049275
0.4383636 0.1958156 0.8188772
0.6527280 0.2227839 0.8422616
0.8214450 0.2957234 0.8649071
0.9052546 0.4060450 0.8915528
0.3362540 0.1918118 0.8049275
0.4383636 0.1958156 0.8188772
0.6527280 0.2227839 0.8422616
0.8214450 0.2957234 0.8649071
0.9129814 0.4504370 0.9001186
0.2614946 0.4892547 0.8928154
0.4260269 0.5207421 0.9038607
0.6948280 0.5919338 0.9241580
0.8762682 0.6810452 0.9404189
0.9526888 0.7517612 0.9520956
0.2327879 0.7685959 0.9476937
0.3967133 0.7992940 0.9550965
0.6918995 0.8536909 0.9659501
0.8900771 0.8958130 0.9716981
0.9664952 0.9222146 0.9749718
0.2575961 0.8634955 0.9652559
0.4476457 0.8878474 0.9707291
0.7172864 0.9320250 0.9773579
0.9021170 0.9639443 0.9809629
0.9710199 0.9768085 0.9827010
