data/spectral_luts/vericolor_iii_endura_premier.cube
TITLE "vericolor_iii_endura_premier"
LUT_3D_SIZE 33
0.0398709 0.0615655 0.0726295
0.0398709 0.0615655 0.0726295
0.0398709 0.0615655 0.0726295
0.0398709 0.0615655 0.0726295
0.0408239 0.0616980 0.0726589
0.0434198 0.0620627 0.0727382
0.0480491 0.0626684 0.0728666
0.0564150 0.0638504 0.0730951
0.0698604 0.0657386 0.0734089
0.0883077 0.0682657 0.0737255
0.1142636 0.0718718 0.0739779
0.1454479 0.0758784 0.0739587
0.1845612 0.0803883 0.0734299
0.2230163 0.0843738 0.0724564
0.2661315 0.0879045 0.0707808
0.3143881 0.0909565 0.0680732
0.3676431 0.0935894 0.0663048
0.4153137 0.0952564 0.0799870
0.4623612 0.0968879 0.0934903
0.5050600 0.1057455 0.1057455
0.5414020 0.1161761 0.1161761
0.5750167 0.1258240 0.1258240
0.6080518 0.1353056 0.1353056
0.6408718 0.1447255 0.1447255
0.6694264 0.1529210 0.1529210
0.6991874 0.1614629 0.1614629
0.7236374 0.1684804 0.1684804
0.7483843 0.1755831 0.1755831
0.7717988 0.1823034 0.1823034
0.7914490 0.2034789 0.1879433
0.8113575 0.2272840 0.1936574
0.8259771 0.2447526 0.1978534
0.8455389 0.2726054 0.2034679
0.0398709 0.0615655 0.0726295
0.0398709 0.0615655 0.0726295
0.0398709 0.0615655 0.0726295
0.0398709 0.0615655 0.0726295
0.0408239 0.0616980 0.0726589
0.0434198 0.0620627 0.0727382
0.0483409 0.0627096 0.0728750
0.0564150 0.0638504 0.0730951
0.0698555 0.0658804 0.0734314
0.0883206 0.0686215 0.0737992
0.1143198 0.0723517 0.0740656
0.1455490 0.0764117 0.0740268
0.1847329 0.0810717 0.0735060
0.2232124 0.0850460 0.0725486
0.2664322 0.0888204 0.0708515
0.3148040 0.0921342 0.0681799
0.3681484 0.0949540 0.0664498
0.4158888 0.0967811 0.0801520
0.4632530 0.0992386 0.0937462
0.5062686 0.1060924 0.1060924
0.5423632 0.1164520 0.1164520
0.5762568 0.1261800 0.1261800
0.6091761 0.1356283 0.1356283
0.6451589 0.1459559 0.1459559
0.6713001 0.1534588 0.1534588
0.7002108 0.1617566 0.1617566
0.7252430 0.1689412 0.1689412
0.7510483 0.1763477 0.1763477
0.7740730 0.1877704 0.1829562
0.7953648 0.2139436 0.1890672
0.8145908 0.2327478 0.1945854
0.8291460 0.2533383 0.1987629
0.8478487 0.2789582 0.2041309
0.0398709 0.0615655 0.0726295
0.0398709 0.0615655 0.0726295
0.0398709 0.0615655 0.0726295
0.0398709 0.0615655 0.0726295
0.0409425 0.0617147 0.0726625
0.0436246 0.0620916 0.0727444
0.0483191 0.0628477 0.0728981
0.0563827 0.0641323 0.0731607
0.0691631 0.0661982 0.0735023
0.0873864 0.0689849 0.0738605
0.1143854 0.0729004 0.0741423
0.1456888 0.0771610 0.0741425
0.1849433 0.0819259 0.0736489
0.2234569 0.0858856 0.0726560
0.2667930 0.0899262 0.0709651
0.3120089 0.0934811 0.0685714
0.3650161 0.0965219 0.0655508
0.4168287 0.0992713 0.0804218
0.4643461 0.1021291 0.0940600
0.5072860 0.1063843 0.1063843
0.5434961 0.1167772 0.1167772
0.5825419 0.1279839 0.1279839
0.6111344 0.1361904 0.1361904
0.6442478 0.1456944 0.1456944
0.6732772 0.1540263 0.1540263
0.7049604 0.1631198 0.1631198
0.7280238 0.1697393 0.1697393
0.7548061 0.1774263 0.1774263
0.7775530 0.1971471 0.1839550
0.7972775 0.2191124 0.1896162
0.8166623 0.2383224 0.1951799
0.8358567 0.2650799 0.2006890
0.8502173 0.2857708 0.2048107
0.0398302 0.0617478 0.0726606
0.0398302 0.0617478 0.0726606
0.0397177 0.0617823 0.0726849
0.0398947 0.0619364 0.0727126
0.0409952 0.0621580 0.0727580
0.0433088 0.0626200 0.0728515
0.0482098 0.0635173 0.0730290
0.0567496 0.0649382 0.0732933
0.0704874 0.0672161 0.0736606
0.0893346 0.0701615 0.0740430
0.1177070 0.0743321 0.0743123
0.1492253 0.0786761 0.0742533
0.1852552 0.0831882 0.0738139
0.2239507 0.0875850 0.0728422
0.2674168 0.0918487 0.0711675
0.3128565 0.0959036 0.0687444
0.3662261 0.0998109 0.0658981
0.4147460 0.1033031 0.0798240
0.4660688 0.1066735 0.0945544
0.5087208 0.1086567 0.1067962
0.5537860 0.1197306 0.1197306
0.5847943 0.1286304 0.1286304
0.6135297 0.1368779 0.1368779
0.6474859 0.1466238 0.1466238
0.6767978 0.1550367 0.1550367
0.7070393 0.1637165 0.1637165
0.7315102 0.1707400 0.1707400
0.7592928 0.1881648 0.1787140
0.7819050 0.2088006 0.1852041
0.8020673 0.2319304 0.1909909
0.8208478 0.2496125 0.1963812
0.8381634 0.2714989 0.2013510
0.8537347 0.2955435 0.2058202
0.0395154 0.0626740 0.0728361
0.0394965 0.0627562 0.0728500
0.0394775 0.0628384 0.0728639
0.0396614 0.0629521 0.0729037
0.0407505 0.0632738 0.0729654
0.0432674 0.0638837 0.0730836
0.0483169 0.0646942 0.0732442
0.0566126 0.0661623 0.0735107
0.0697473 0.0685096 0.0738830
0.0893918 0.0717064 0.0742910
0.1163070 0.0758977 0.0745704
0.1479233 0.0804511 0.0745321
0.1836565 0.0852931 0.0741401
0.2220635 0.0900199 0.0732372
0.2653503 0.0948784 0.0716362
0.3142706 0.0999744 0.0690345
0.3679204 0.1044323 0.0663844
0.4166385 0.1083407 0.0803672
0.4677557 0.1111219 0.0950386
0.5106422 0.1137289 0.1073476
0.5559668 0.1203565 0.1203565
0.5880658 0.1295694 0.1295694
0.6175326 0.1380267 0.1380267
0.6531447 0.1482480 0.1482480
0.6847382 0.1573157 0.1573157
0.7137129 0.1656319 0.1656319
0.7382430 0.1826176 0.1726724
0.7649856 0.2032983 0.1803479
0.7875371 0.2238196 0.1868206
0.8062196 0.2432129 0.1921827
0.8261999 0.2641231 0.1979173
0.8428206 0.2845514 0.2026877
0.8585274 0.3089629 0.2071958
0.0390232 0.0643728 0.0731589
0.0389945 0.0644928 0.0731788
0.0389945 0.0644928 0.0731788
0.0392597 0.0646543 0.0732076
0.0403157 0.0651752 0.0733012
0.0428969 0.0656636 0.0733969
0.0482633 0.0668002 0.0736079
0.0567853 0.0686242 0.0739224
0.0710188 0.0709742 0.0743019
0.0884991 0.0742280 0.0746894
0.1166364 0.0788134 0.0749845
0.1485284 0.0838015 0.0750123
0.1845818 0.0892012 0.0746291
0.2234166 0.0948446 0.0737435
0.2735079 0.1012424 0.0717714
0.3163330 0.1059736 0.0693927
0.3702958 0.1109716 0.0670661
0.4188887 0.1143531 0.0810130
0.4669396 0.1187078 0.0948043
0.5138545 0.1221781 0.1082696
0.5599383 0.1276145 0.1214963
0.5928736 0.1366553 0.1309493
0.6213093 0.1429327 0.1391107
0.6585643 0.1530292 0.1498034
0.6912954 0.1663651 0.1591978
0.7203551 0.1830512 0.1675383
0.7449407 0.2004313 0.1745948
0.7725622 0.2235394 0.1825225
0.7945080 0.2426185 0.1888213
0.8125037 0.2601897 0.1939863
0.8331094 0.2833495 0.1999005
0.8510987 0.3075872 0.2050636
0.8634167 0.3230031 0.2085991
0.0381588 0.0674828 0.0736935
0.0381588 0.0674828 0.0736935
0.0380604 0.0678646 0.0737552
0.0384462 0.0679196 0.0737664
0.0397097 0.0682963 0.0738346
0.0421454 0.0690371 0.0739662
0.0475990 0.0704130 0.0742061
0.0567482 0.0725660 0.0745811
0.0700861 0.0750706 0.0749372
0.0895813 0.0793283 0.0754193
0.1155469 0.0838498 0.0756815
0.1478273 0.0893185 0.0757373
0.1905038 0.0961853 0.0752039
0.2251611 0.1012172 0.0743287
0.2753363 0.1070630 0.0722309
0.3251315 0.1124646 0.0692728
0.3726873 0.1176249 0.0677525
0.4220040 0.1227479 0.0819072
0.4706191 0.1284448 0.0958604
0.5153911 0.1352418 0.1087106
0.5625761 0.1423538 0.1222534
0.5974600 0.1487337 0.1322656
0.6329162 0.1573213 0.1424421
0.6655814 0.1715696 0.1518175
0.6999167 0.1891779 0.1616722
0.7290980 0.2062811 0.1700477
0.7535260 0.2233649 0.1770589
0.7794267 0.2419559 0.1844928
0.8007492 0.2595417 0.1906126
0.8232572 0.2822595 0.1970727
0.8401421 0.3028594 0.2019190
0.8559927 0.3218671 0.2064683
0.8708764 0.3448973 0.2107402
0.0365747 0.0729521 0.0745820
0.0363951 0.0735585 0.0746999
0.0363951 0.0735585 0.0746999
0.0368805 0.0736291 0.0747132
0.0380535 0.0744294 0.0748416
0.0409881 0.0754781 0.0750122
0.0466285 0.0766015 0.0751958
0.0552890 0.0789758 0.0755489
0.0703183 0.0817417 0.0759004
0.0896170 0.0857040 0.0762854
0.1194070 0.0902240 0.0764702
0.1522449 0.0958534 0.0764232
0.1897227 0.1024152 0.0759278
0.2297893 0.1087083 0.0748523
0.2747945 0.1154813 0.0729786
0.3284010 0.1222072 0.0697213
0.3769914 0.1297982 0.0689879
0.4269927 0.1363673 0.0833390
0.4762912 0.1436221 0.0974884
0.5285279 0.1517548 0.1124811
0.5686253 0.1582889 0.1239897
0.6063426 0.1721226 0.1348151
0.6440027 0.1865824 0.1456241
0.6765094 0.2005113 0.1549540
0.7098268 0.2155466 0.1645166
0.7390785 0.2329640 0.1729122
0.7622673 0.2468099 0.1795677
0.7877719 0.2646372 0.1868879
0.8108729 0.2874276 0.1935183
0.8302435 0.3016172 0.1990779
0.8486325 0.3272600 0.2043558
0.8658925 0.3503410 0.2093097
0.8797421 0.3712062 0.2132848
0.0344544 0.0795369 0.0756158
0.0341669 0.0801219 0.0757000
0.0341669 0.0801219 0.0757000
0.0348502 0.0802236 0.0757173
0.0362038 0.0810536 0.0758418
0.0392374 0.0823150 0.0760296
0.0448004 0.0840331 0.0762778
0.0544429 0.0863694 0.0765907
0.0704275 0.0892150 0.0769281
0.0907225 0.0931954 0.0772683
0.1183970 0.0988538 0.0775348
0.1520815 0.1061849 0.0775452
0.1921715 0.1140992 0.0769836
0.2331409 0.1218455 0.0757858
0.2789618 0.1297410 0.0737413
0.3303229 0.1384676 0.0704600
0.3786629 0.1455615 0.0694676
0.4331224 0.1534704 0.0850983
0.4838252 0.1641551 0.0996508
0.5365105 0.1731536 0.1147722
0.5807591 0.1907059 0.1274722
0.6175580 0.2020855 0.1380340
0.6543670 0.2143687 0.1485988
0.6852108 0.2314426 0.1574514
0.7199283 0.2427927 0.1674158
0.7500776 0.2629299 0.1760691
0.7728364 0.2758246 0.1826012
0.7978716 0.2927020 0.1897867
0.8202499 0.3139492 0.1962096
0.8411101 0.3327551 0.2021968
0.8585442 0.3559043 0.2072006
0.8746871 0.3769002 0.2118339
0.8871163 0.3939792 0.2154012
0.0306248 0.0897626 0.0770506
0.0301458 0.0909971 0.0772113
0.0303378 0.0910268 0.0772156
0.0310772 0.0911403 0.0772319
0.0320784 0.0926441 0.0774527
0.0360556 0.0932315 0.0775315
0.0424564 0.0955445 0.0778171
0.0516856 0.0982989 0.0781273
0.0678024 0.1021571 0.0785346
0.0914514 0.1072490 0.0788799
0.1209318 0.1139890 0.0790629
0.1575311 0.1208994 0.0787534
0.1973963 0.1295403 0.0779802
0.2337209 0.1357763 0.0767291
0.2839856 0.1480059 0.0743171
0.3357557 0.1561749 0.0706657
0.3941033 0.1694584 0.0738993
0.4503904 0.1821023 0.0900545
0.4952693 0.1965502 0.1029354
0.5490501 0.2078439 0.1183713
0.5915614 0.2205193 0.1305726
0.6282262 0.2314229 0.1410960
0.6657236 0.2455576 0.1518583
0.6946230 0.2574427 0.1601528
0.7310483 0.2735515 0.1706074
0.7609414 0.2933318 0.1791872
0.7852399 0.3107300 0.1861612
0.8095784 0.3260208 0.1931467
0.8311110 0.3451184 0.1993269
0.8510386 0.3619500 0.2050464
0.8684283 0.3858922 0.2100375
0.8845422 0.4067973 0.2146624
0.8980824 0.4289975 0.2185487
0.0244816 0.1039138 0.0788231
0.0238085 0.1053405 0.0789822
0.0242149 0.1054057 0.0789895
0.0250230 0.1055343 0.0790039
0.0268403 0.1058195 0.0790352
0.0301281 0.1083489 0.0793045
0.0371373 0.1093706 0.0794253
0.0499616 0.1137179 0.0798374
0.0662814 0.1200469 0.0803535
0.0884625 0.1261735 0.0806525
0.1251196 0.1347546 0.0806228
0.1579338 0.1432535 0.0802250
0.2013645 0.1533734 0.0790421
0.2451844 0.1632681 0.0771150
0.2951830 0.1795768 0.0739323
0.3522801 0.1897410 0.0691315
0.4048516 0.2042496 0.0769842
0.4567372 0.2130465 0.0918761
0.5128087 0.2261615 0.1079695
0.5605326 0.2412025 0.1216669
0.6015162 0.2490168 0.1334298
0.6399705 0.2650058 0.1444668
0.6773806 0.2787878 0.1552040
0.7138451 0.2960543 0.1656699
0.7440774 0.3107523 0.1743470
0.7734456 0.3294296 0.1827761
0.7969941 0.3453034 0.1895348
0.8228838 0.3653926 0.1969656
0.8432807 0.3817364 0.2028198
0.8644576 0.4029597 0.2088979
0.8793547 0.4199318 0.2131735
0.8953511 0.4417424 0.2177648
0.9075035 0.4592560 0.2212527
0.0100046 0.1308113 0.0814163
0.0100070 0.1308302 0.0814175
0.0102809 0.1309244 0.0814233
0.0113356 0.1311014 0.0814341
0.0134196 0.1314611 0.0815100
0.0162095 0.1356184 0.0818347
0.0249126 0.1369490 0.0819222
0.0386162 0.1420872 0.0822006
0.0602509 0.1451384 0.0822997
0.0874209 0.1523931 0.0823429
0.1222980 0.1628060 0.0820491
0.1639388 0.1729936 0.0810368
0.2077998 0.1834652 0.0792843
0.2507790 0.1937750 0.0768356
0.3008286 0.2048558 0.0731563
0.3561463 0.2182304 0.0676754
0.4132080 0.2337188 0.0793826
0.4670143 0.2468750 0.0948258
0.5228453 0.2575768 0.1108501
0.5707833 0.2726280 0.1246090
0.6134682 0.2848873 0.1368602
0.6517150 0.3000000 0.1478376
0.6876118 0.3185962 0.1581405
0.7247195 0.3284324 0.1687910
0.7565483 0.3481332 0.1779263
0.7827730 0.3644071 0.1854532
0.8099334 0.3848074 0.1932486
0.8323638 0.3944967 0.1996865
0.8540096 0.4156040 0.2058991
0.8739416 0.4334159 0.2116199
0.8898776 0.4542874 0.2161938
0.9055005 0.4714943 0.2206778
0.9171726 0.4928900 0.2240279
0.0135967 0.1561479 0.0831486
0.0135967 0.1561479 0.0831486
0.0136166 0.1562763 0.0831507
0.0141557 0.1597220 0.0833389
0.0142298 0.1601901 0.0833795
0.0143759 0.1611074 0.0834192
0.0146429 0.1627710 0.0834455
0.0233145 0.1684038 0.0835809
0.0530935 0.1722993 0.0834630
0.0824301 0.1804213 0.0832731
0.1242269 0.1913898 0.0824120
0.1618747 0.2020852 0.0810481
0.2104120 0.2105758 0.0787304
0.2585755 0.2251347 0.0751928
0.3145823 0.2385646 0.0698763
0.3637280 0.2506238 0.0651811
0.4174663 0.2656223 0.0806048
0.4774108 0.2840469 0.0978097
0.5303892 0.2961290 0.1130153
0.5825218 0.3109200 0.1279781
0.6334312 0.3288630 0.1425899
0.6710641 0.3425631 0.1533911
0.6982945 0.3522918 0.1612066
0.7390381 0.3732076 0.1729006
0.7677959 0.3831920 0.1811545
0.7952749 0.4039395 0.1890414
0.8214250 0.4213746 0.1965469
0.8451720 0.4355708 0.2033626
0.8653979 0.4528275 0.2091677
0.8839152 0.4663379 0.2144825
0.8984579 0.4838209 0.2186565
0.9149013 0.5044796 0.2233759
0.9231682 0.5152797 0.2257487
0.0184066 0.1845490 0.0842312
0.0184066 0.1845490 0.0842312
0.0184363 0.1847102 0.0842261
0.0184911 0.1850065 0.0842553
0.0193350 0.1895113 0.0843164
0.0195542 0.1906628 0.0843010
0.0199234 0.1925846 0.0842358
0.0212828 0.1994884 0.0841833
0.0366964 0.2038518 0.0838489
0.0747976 0.2135563 0.0830976
0.1223198 0.2213842 0.0817316
0.1660408 0.2364187 0.0794809
0.2183285 0.2509652 0.0757455
0.2625808 0.2589972 0.0721826
0.3168718 0.2735930 0.0658709
0.3798539 0.2920479 0.0698095
0.4353283 0.3062784 0.0857314
0.4948644 0.3208380 0.1028192
0.5413716 0.3363498 0.1161674
0.6012443 0.3502204 0.1333518
0.6441787 0.3652634 0.1456746
0.6832470 0.3833899 0.1568878
0.7117557 0.3969982 0.1650702
0.7497832 0.4084391 0.1759846
0.7820810 0.4304113 0.1852546
0.8110262 0.4407624 0.1935623
0.8358779 0.4544029 0.2006951
0.8602429 0.4720709 0.2076882
0.8747907 0.4851120 0.2118636
0.8942324 0.5021082 0.2174437
0.9101135 0.5161672 0.2220018
0.9230114 0.5344418 0.2257037
0.9344353 0.5568606 0.2289825
0.0242626 0.2137693 0.0843697
0.0242626 0.2137693 0.0843697
0.0252888 0.2184486 0.0843063
0.0253735 0.2188298 0.0843310
0.0255421 0.2195864 0.0842605
0.0258373 0.2209042 0.0842493
0.0263531 0.2231863 0.0840604
0.0281965 0.2311343 0.0835635
0.0292857 0.2356892 0.0829681
0.0597334 0.2467471 0.0817389
0.1197056 0.2587529 0.0794689
0.1691990 0.2730068 0.0759757
0.2158045 0.2819623 0.0725580
0.2727618 0.2981699 0.0657548
0.3305825 0.3173164 0.0561602
0.3821888 0.3264934 0.0704796
0.4437130 0.3457886 0.0881380
0.5045369 0.3616426 0.1055953
0.5595999 0.3761314 0.1213992
0.6089144 0.3930240 0.1355532
0.6521929 0.4058625 0.1479748
0.6908030 0.4212580 0.1590564
0.7283912 0.4326781 0.1698448
0.7627063 0.4536299 0.1796937
0.7918697 0.4647268 0.1880641
0.8219425 0.4788714 0.1966954
0.8458779 0.4893346 0.2035652
0.8711926 0.5103449 0.2108309
0.8847600 0.5204340 0.2147249
0.9033195 0.5352992 0.2200518
0.9203395 0.5541728 0.2249368
0.9321291 0.5689235 0.2283206
0.9418256 0.5867015 0.2311036
0.0318658 0.2460979 0.0834101
0.0318658 0.2460979 0.0834101
0.0319236 0.2463252 0.0833790
0.0332646 0.2515362 0.0830701
0.0335291 0.2525494 0.0829818
0.0345972 0.2565943 0.0827169
0.0353116 0.2592590 0.0824725
0.0363096 0.2629297 0.0818822
0.0393446 0.2737439 0.0804088
0.0411864 0.2801269 0.0789257
0.1147957 0.2960581 0.0751307
0.1682286 0.3057345 0.0714319
0.2210405 0.3245343 0.0644037
0.2709776 0.3345297 0.0580845
0.3345218 0.3528787 0.0620672
0.3890800 0.3721078 0.0724575
0.4599914 0.3850423 0.0928101
0.5089782 0.4022383 0.1068700
0.5694103 0.4181711 0.1242150
0.6185898 0.4322437 0.1383302
0.6631382 0.4486865 0.1511162
0.7019637 0.4638205 0.1622597
0.7400087 0.4758225 0.1731792
0.7717656 0.4872044 0.1822939
0.8076013 0.5030724 0.1925793
0.8313986 0.5140678 0.1994095
0.8565495 0.5290584 0.2066281
0.8790926 0.5406058 0.2130983
0.8994096 0.5620723 0.2189296
0.9128538 0.5725358 0.2227883
0.9283637 0.5873812 0.2272398
0.9377486 0.5973069 0.2299335
0.9503825 0.6146644 0.2335596
0.0418602 0.2824747 0.0809014
0.0418803 0.2825446 0.0810019
0.0419277 0.2827099 0.0809682
0.0421181 0.2833733 0.0809470
0.0424584 0.2845590 0.0808138
0.0430238 0.2865289 0.0805009
0.0451429 0.2939121 0.0793796
0.0464052 0.2983100 0.0786680
0.0481314 0.3043244 0.0772489
0.0513403 0.3155047 0.0743395
0.1040181 0.3307757 0.0694396
0.1690320 0.3421800 0.0639321
0.2252102 0.3589082 0.0637978
0.2792207 0.3727372 0.0677669
0.3457528 0.3919741 0.0732882
0.4013170 0.4030901 0.0764786
0.4665353 0.4239135 0.0946883
0.5246322 0.4404504 0.1113630
0.5780494 0.4588898 0.1266945
0.6347451 0.4685946 0.1429670
0.6785415 0.4852782 0.1555372
0.7101637 0.4971752 0.1646132
0.7486328 0.5102447 0.1756545
0.7880080 0.5270872 0.1869557
0.8141944 0.5387205 0.1944716
0.8416115 0.5530382 0.2023407
0.8657227 0.5640844 0.2092610
0.8889661 0.5789202 0.2159322
0.9062935 0.5898963 0.2209054
0.9194652 0.5997126 0.2246859
0.9344959 0.6127518 0.2289999
0.9459845 0.6291644 0.2322973
0.9564702 0.6413041 0.2353068
0.0499278 0.3105835 0.0781522
0.0499278 0.3105835 0.0781522
0.0499644 0.3107108 0.0781190
0.0508692 0.3138633 0.0778655
0.0506415 0.3130699 0.0778282
0.0518704 0.3173518 0.0772380
0.0541988 0.3254642 0.0757210
0.0556393 0.3304831 0.0742259
0.0576483 0.3374825 0.0722403
0.0602580 0.3465751 0.0687954
0.0951672 0.3626963 0.0648850
0.1689603 0.3778911 0.0692461
0.2285087 0.3955258 0.0743075
0.2868631 0.4078215 0.0778366
0.3434768 0.4285920 0.0837980
0.4052899 0.4415534 0.0875181
0.4669648 0.4599865 0.0948116
0.5307031 0.4754727 0.1131054
0.5935355 0.4935136 0.1311392
0.6440782 0.5121966 0.1456457
0.6861933 0.5198510 0.1577334
0.7245129 0.5324790 0.1687317
0.7573475 0.5476123 0.1781557
0.7959581 0.5608095 0.1892375
0.8228310 0.5747941 0.1969504
0.8493052 0.5853447 0.2045489
0.8732139 0.5958070 0.2114111
0.8961139 0.6089669 0.2179837
0.9130904 0.6194047 0.2228562
0.9266384 0.6323581 0.2267447
0.9410181 0.6416301 0.2308719
0.9501266 0.6550390 0.2334861
0.9609010 0.6660308 0.2365786
0.0589335 0.3419603 0.0740099
0.0589335 0.3419603 0.0740099
0.0589613 0.3420573 0.0739777
0.0592220 0.3429658 0.0736732
0.0597416 0.3447760 0.0732877
0.0604231 0.3471506 0.0729233
0.0616278 0.3513478 0.0715989
0.0646652 0.3619306 0.0688284
0.0666616 0.3688863 0.0666616
0.0702071 0.3812392 0.0702071
0.0827845 0.3938323 0.0738215
0.1674968 0.4133837 0.0794330
0.2280292 0.4253894 0.0828788
0.2852001 0.4454933 0.0886490
0.3530105 0.4602829 0.0928938
0.4170786 0.4739644 0.0968206
0.4810266 0.4955769 0.1030237
0.5451382 0.5140724 0.1172485
0.5996503 0.5277764 0.1328943
0.6500238 0.5429513 0.1473522
0.6926437 0.5511515 0.1595847
0.7316830 0.5657002 0.1707896
0.7709950 0.5783101 0.1820727
0.8029852 0.5925477 0.1912544
0.8276860 0.5977206 0.1983439
0.8543828 0.6081700 0.2060062
0.8788149 0.6213704 0.2130186
0.9008862 0.6321734 0.2193534
0.9185818 0.6441026 0.2244323
0.9345503 0.6554315 0.2290155
0.9462483 0.6689736 0.2323730
0.9588193 0.6791889 0.2359810
0.9657844 0.6906483 0.2379802
0.0659466 0.3663952 0.0701786
0.0659466 0.3663952 0.0701786
0.0659466 0.3663952 0.0701786
0.0675901 0.3721211 0.0687539
0.0680846 0.3738443 0.0680846
0.0689574 0.3768851 0.0689574
0.0709459 0.3838135 0.0709459
0.0727360 0.3900504 0.0727360
0.0750345 0.3980586 0.0750345
0.0796013 0.4139699 0.0796013
0.0830221 0.4258886 0.0830221
0.1661748 0.4432328 0.0880001
0.2224492 0.4542869 0.0911728
0.2920706 0.4736182 0.0967212
0.3624454 0.4889747 0.1011287
0.4289736 0.5105578 0.1073234
0.4838364 0.5222142 0.1106690
0.5490326 0.5430257 0.1183662
0.5991496 0.5532272 0.1327506
0.6632116 0.5707608 0.1511373
0.6982384 0.5798110 0.1611905
0.7368462 0.5923539 0.1722715
0.7770131 0.6071198 0.1838000
0.8073525 0.6137530 0.1925079
0.8338412 0.6271765 0.2001105
0.8658117 0.6386038 0.2092865
0.8894023 0.6499680 0.2160573
0.9062297 0.6580315 0.2208871
0.9232311 0.6688250 0.2257667
0.9400287 0.6832014 0.2305879
0.9510281 0.6938618 0.2337449
0.9630865 0.7050726 0.2372058
0.9708083 0.7168248 0.2394221
0.0739053 0.3941244 0.0739053
0.0739053 0.3941244 0.0739053
0.0739053 0.3941244 0.0739053
0.0742780 0.3954228 0.0742780
0.0749310 0.3976981 0.0749310
0.0758564 0.4009224 0.0758564
0.0771693 0.4054966 0.0771693
0.0791026 0.4122324 0.0791026
0.0823845 0.4236670 0.0823845
0.0866486 0.4385237 0.0866486
0.0906605 0.4525020 0.0906605
0.1667349 0.4668011 0.0947646
0.2245459 0.4824132 0.0992455
0.2992074 0.5004181 0.1044132
0.3620393 0.5144928 0.1084528
0.4250893 0.5328476 0.1137209
0.4959188 0.5504240 0.1187656
0.5602784 0.5642356 0.1227297
0.6122146 0.5795022 0.1365004
0.6669294 0.5929074 0.1522043
0.7098423 0.6068360 0.1645210
0.7489821 0.6223562 0.1757547
0.7809734 0.6293124 0.1849367
0.8094183 0.6408828 0.1931008
0.8441712 0.6513277 0.2030754
0.8703742 0.6625905 0.2105960
0.8944950 0.6768926 0.2175190
0.9143341 0.6869907 0.2232132
0.9280367 0.6958516 0.2271460
0.9442241 0.7061069 0.2317920
0.9548810 0.7173616 0.2348507
0.9676773 0.7298911 0.2385234
0.9744734 0.7392564 0.2404740
0.0795735 0.4138732 0.0795735
0.0795735 0.4138732 0.0795735
0.0795735 0.4138732 0.0795735
0.0804667 0.4169851 0.0804667
0.0811945 0.4195209 0.0811945
0.0823593 0.4235794 0.0823593
0.0838007 0.4286014 0.0838007
0.0857434 0.4353701 0.0857434
0.0887038 0.4456846 0.0887038
0.0932482 0.4615177 0.0932482
0.0969292 0.4743430 0.0969292
0.1664227 0.4915754 0.1018752
0.2279089 0.5036573 0.1053429
0.3064172 0.5250216 0.1114747
0.3709218 0.5419429 0.1163314
0.4406124 0.5577580 0.1208706
0.5068977 0.5772632 0.1264689
0.5632681 0.5921310 0.1307361
0.6158807 0.6085192 0.1375526
0.6709803 0.6198154 0.1533670
0.7146308 0.6368237 0.1658954
0.7525741 0.6449006 0.1767856
0.7858254 0.6567149 0.1863293
0.8237715 0.6677510 0.1972203
0.8492563 0.6785305 0.2045349
0.8748738 0.6871516 0.2118874
0.8982142 0.6996940 0.2185865
0.9184597 0.7121162 0.2243973
0.9357716 0.7190464 0.2293660
0.9474767 0.7292075 0.2327256
0.9616312 0.7410970 0.2367881
0.9707693 0.7516288 0.2394109
0.9773513 0.7576880 0.2413000
0.0862219 0.4370371 0.0862219
0.0862219 0.4370371 0.0862219
0.0862219 0.4370371 0.0862219
0.0865619 0.4382218 0.0865619
0.0872581 0.4406475 0.0872581
0.0885909 0.4452911 0.0885909
0.0900609 0.4504129 0.0900609
0.0921925 0.4578397 0.0921925
0.0954583 0.4692181 0.0954583
0.0993736 0.4828596 0.0993736
0.1044182 0.5004357 0.1044182
0.1600964 0.5151785 0.1086496
0.2301683 0.5307413 0.1131164
0.3136589 0.5487026 0.1182715
0.3799636 0.5677373 0.1237348
0.4514558 0.5841472 0.1284447
0.5080922 0.5994636 0.1328407
0.5748580 0.6187651 0.1383805
0.6278501 0.6305771 0.1417707
0.6827704 0.6447753 0.1567510
0.7249997 0.6585969 0.1688714
0.7558247 0.6687418 0.1777186
0.7967648 0.6817089 0.1894690
0.8236101 0.6883576 0.1971740
0.8528806 0.7017782 0.2055751
0.8786543 0.7139089 0.2129725
0.9016805 0.7231404 0.2195814
0.9214043 0.7336315 0.2252424
0.9390217 0.7432050 0.2302989
0.9506489 0.7526420 0.2336360
0.9642963 0.7613785 0.2375530
0.9722436 0.7672989 0.2398340
0.9796345 0.7775756 0.2419553
0.0916889 0.4560848 0.0916889
0.0916889 0.4560848 0.0916889
0.0916889 0.4560848 0.0916889
0.0918406 0.4566136 0.0918406
0.0929296 0.4604079 0.0929296
0.0942049 0.4648510 0.0942049
0.0969418 0.4743869 0.0969418
0.0993779 0.4828744 0.0993779
0.1023452 0.4932130 0.1023452
0.1066770 0.5083055 0.1066770
0.1108770 0.5229390 0.1108770
0.1603698 0.5360789 0.1146483
0.2338563 0.5541096 0.1198234
0.3155232 0.5715439 0.1248273
0.3883197 0.5904698 0.1302593
0.4459182 0.6033964 0.1339695
0.5186761 0.6240854 0.1399075
0.5761846 0.6395197 0.1443374
0.6297293 0.6517930 0.1478600
0.6808652 0.6673904 0.1562041
0.7275082 0.6799676 0.1695914
0.7662426 0.6929549 0.1807087
0.7956271 0.7003312 0.1891425
0.8275220 0.7136488 0.1982968
0.8611460 0.7237365 0.2079474
0.8867910 0.7364325 0.2153079
0.9041984 0.7422675 0.2203041
0.9235036 0.7534295 0.2258449
0.9416101 0.7616162 0.2310418
0.9531235 0.7713577 0.2343463
0.9668491 0.7824392 0.2382858
0.9743129 0.7866072 0.2404279
0.9845284 0.7948934 0.2433599
0.0971989 0.4752826 0.0971989
0.0971989 0.4752826 0.0971989
0.0971989 0.4752826 0.0971989
0.0973568 0.4758327 0.0973568
0.0989188 0.4812749 0.0989188
0.1001936 0.4857166 0.1001936
