data/spectral_luts/vericolor_iii_endura_premier.cube
TITLE "vericolor_iii_endura_premier"
LUT_3D_SIZE 9
0.0398709 0.0615655 0.0726295
0.0408239 0.0616980 0.0726589
0.0698604 0.0657386 0.0734089
0.1845612 0.0803883 0.0734299
0.3676431 0.0935894 0.0663048
0.5414020 0.1161761 0.1161761
0.6694264 0.1529210 0.1529210
0.7717988 0.1823034 0.1823034
0.8455389 0.2726054 0.2034679
0.0395154 0.0626740 0.0728361
0.0407505 0.0632738 0.0729654
0.0697473 0.0685096 0.0738830
0.1836565 0.0852931 0.0741401
0.3679204 0.1044323 0.0663844
0.5559668 0.1203565 0.1203565
0.6847382 0.1573157 0.1573157
0.7875371 0.2238196 0.1868206
0.8585274 0.3089629 0.2071958
0.0344544 0.0795369 0.0756158
0.0362038 0.0810536 0.0758418
0.0704275 0.0892150 0.0769281
0.1921715 0.1140992 0.0769836
0.3786629 0.1455615 0.0694676
0.5807591 0.1907059 0.1274722
0.7199283 0.2427927 0.1674158
0.8202499 0.3139492 0.1962096
0.8871163 0.3939792 0.2154012
0.0135967 0.1561479 0.0831486
0.0142298 0.1601901 0.0833795
0.0530935 0.1722993 0.0834630
0.2104120 0.2105758 0.0787304
0.4174663 0.2656223 0.0806048
0.6334312 0.3288630 0.1425899
0.7677959 0.3831920 0.1811545
0.8653979 0.4528275 0.2091677
0.9231682 0.5152797 0.2257487
0.0418602 0.2824747 0.0809014
0.0424584 0.2845590 0.0808138
0.0481314 0.3043244 0.0772489
0.2252102 0.3589082 0.0637978
0.4665353 0.4239135 0.0946883
0.6785415 0.4852782 0.1555372
0.8141944 0.5387205 0.1944716
0.9062935 0.5898963 0.2209054
0.9564702 0.6413041 0.2353068
0.0739053 0.3941244 0.0739053
0.0749310 0.3976981 0.0749310
0.0823845 0.4236670 0.0823845
0.2245459 0.4824132 0.0992455
0.4959188 0.5504240 0.1187656
0.7098423 0.6068360 0.1645210
0.8441712 0.6513277 0.2030754
0.9280367 0.6958516 0.2271460
0.9744734 0.7392564 0.2404740
0.0971989 0.4752826 0.0971989
0.0989188 0.4812749 0.0989188
0.1080889 0.5132247 0.1080889
0.2501303 0.5763540 0.1262079
0.5285773 0.6456029 0.1460833
0.7288724 0.6983136 0.1699829
0.8636436 0.7436140 0.2086642
0.9435491 0.7798824 0.2315983
0.9857074 0.8111970 0.2436983
0.1171020 0.5446280 0.1171020
0.1173313 0.5454268 0.1173313
0.1285752 0.5846020 0.1285752
0.2690455 0.6448008 0.1458531
0.5429940 0.7134366 0.1655526
0.7395446 0.7681412 0.1812536
0.8719537 0.8072808 0.2110493
0.9500186 0.8359495 0.2334551
0.9880340 0.8612064 0.2443661
0.1354378 0.6085122 0.1445735
0.1354378 0.6085122 0.1445735
0.1460153 0.6453657 0.1460153
0.2940321 0.7039096 0.1628182
0.5761437 0.7671707 0.1809751
0.7554521 0.8146055 0.1945896
0.8803312 0.8486477 0.2134538
0.9510253 0.8746809 0.2546505
0.9877482 0.8953129 0.3337720
0.0397602 0.0616561 0.0732911
0.0415478 0.0619194 0.0734371
0.0726308 0.0662700 0.0744635
0.1932925 0.0813972 0.0750684
0.3713376 0.0937713 0.0678790
0.5530701 0.1195251 0.1195251
0.6769391 0.1550773 0.1550773
0.7714447 0.1822018 0.1822018
0.8432680 0.2664958 0.2028161
0.0393823 0.0627817 0.0736141
0.0413370 0.0635012 0.0738826
0.0733011 0.0693075 0.0752967
0.1924074 0.0866107 0.0763050
0.3756285 0.1054789 0.0689554
0.5593404 0.1213247 0.1213247
0.6879118 0.1582266 0.1582266
0.7884980 0.2222357 0.1870964
0.8585712 0.3094850 0.2072084
0.0338900 0.0803892 0.0772923
0.0363356 0.0822586 0.0778172
0.0725723 0.0909211 0.0794753
0.1992113 0.1169806 0.0806658
0.3941562 0.1472910 0.0739144
0.5829220 0.1894375 0.1280930
0.7235707 0.2466763 0.1684612
0.8233256 0.3187214 0.1970924
0.8871163 0.3939792 0.2154012
0.0145066 0.1619240 0.0872446
0.0152413 0.1664359 0.0877054
0.0525801 0.1792999 0.0885218
0.2182553 0.2198764 0.0853901
0.4354618 0.2749777 0.0857698
0.6365069 0.3309521 0.1434727
0.7715299 0.3889568 0.1822262
0.8682489 0.4579902 0.2099860
0.9231682 0.5152797 0.2257487
0.0459200 0.2966197 0.0895119
0.0467001 0.2993375 0.0897166
0.0523391 0.3189847 0.0868212
0.2313483 0.3747296 0.0683387
0.4710827 0.4334745 0.0959935
0.6820934 0.4921390 0.1565567
0.8172550 0.5456909 0.1953500
0.9078589 0.5926929 0.2213547
0.9560823 0.6433540 0.2351955
0.0774010 0.4063039 0.0816561
0.0786276 0.4105777 0.0814481
0.0857879 0.4355250 0.0857879
0.2301714 0.4935313 0.1024366
0.4981602 0.5607718 0.1217356
0.7128006 0.6176947 0.1653701
0.8465949 0.6590293 0.2037710
0.9273576 0.6985997 0.2269511
0.9734920 0.7346271 0.2401924
0.1015353 0.4903913 0.1015353
0.1028392 0.4949341 0.1028392
0.1121977 0.5275403 0.1121977
0.2430591 0.5879281 0.1295298
0.5284781 0.6582781 0.1497213
0.7333008 0.7113174 0.1712539
0.8616375 0.7521637 0.2080885
0.9430559 0.7843906 0.2314567
0.9857074 0.8111970 0.2436983
0.1215526 0.5601344 0.1299541
0.1222431 0.5625399 0.1290140
0.1331883 0.6006746 0.1331883
0.2681240 0.6632037 0.1511350
0.5495320 0.7303057 0.1703943
0.7466937 0.7776248 0.1839756
0.8696433 0.8142149 0.2103862
0.9489881 0.8401568 0.2331594
0.9880340 0.8612064 0.2443661
0.1397558 0.6235567 0.2053296
0.1397558 0.6235567 0.2053296
0.1509716 0.6626343 0.2022138
0.2950611 0.7200533 0.2018557
0.5680307 0.7783831 0.1882939
0.7556787 0.8224097 0.1968295
0.8776689 0.8551478 0.2267541
0.9503590 0.8770653 0.2681151
0.9877482 0.8953129 0.3337720
0.0369436 0.0639557 0.0916720
0.0414298 0.0646913 0.0928671
0.0807486 0.0701104 0.0952494
0.2058517 0.0851788 0.0993689
0.3904802 0.0971451 0.1024174
0.5631247 0.1224109 0.1224109
0.6865960 0.1578490 0.1578490
0.7792481 0.1926064 0.1844415
0.8479556 0.2840770 0.2056693
0.0361727 0.0654088 0.0939301
0.0411117 0.0664282 0.0942000
0.0813742 0.0735065 0.0987289
0.2049027 0.0908257 0.1038167
0.3915202 0.1099524 0.1077374
0.5755696 0.1259828 0.1259828
0.6950276 0.1602690 0.1602690
0.7946919 0.2367370 0.1888741
0.8627009 0.3282525 0.2083937
0.0284535 0.0848514 0.1036487
0.0339724 0.0874840 0.1041867
0.0797413 0.0984807 0.1100387
0.2117680 0.1248342 0.1157133
0.4111550 0.1588602 0.1195731
0.6006344 0.2031813 0.1331767
0.7314636 0.2640312 0.1707266
0.8297883 0.3412255 0.1989473
0.8911403 0.4205512 0.2166827
0.0170219 0.1768685 0.1255746
0.0180965 0.1828593 0.1281561
0.0498079 0.1986117 0.1319640
0.2285807 0.2413484 0.1382255
0.4517371 0.2993844 0.1376167
0.6509569 0.3562914 0.1476200
0.7841462 0.4194928 0.1858473
0.8758943 0.4872515 0.2121804
0.9265299 0.5459146 0.2353247
0.0538692 0.3243156 0.1511029
0.0550028 0.3282652 0.1509682
0.0624207 0.3541105 0.1601924
0.2301001 0.4110345 0.1616391
0.4903053 0.4735291 0.1528833
0.6925622 0.5313902 0.1595613
0.8205186 0.5846502 0.1962867
0.9085462 0.6281693 0.2215520
0.9540785 0.6731635 0.2580040
0.0882892 0.4442399 0.1868152
0.0899851 0.4501488 0.1863296
0.0980790 0.4783491 0.1895637
0.2100093 0.5425889 0.1916429
0.4995746 0.6049399 0.1801257
0.7130713 0.6607299 0.1876886
0.8419963 0.7009369 0.2051711
0.9284810 0.7360923 0.2386250
0.9694803 0.7678053 0.2942394
0.1138760 0.5333878 0.2237332
0.1162106 0.5415219 0.2326115
0.1266914 0.5780386 0.2351328
0.2016677 0.6379253 0.2300341
0.5189665 0.7034723 0.2227901
0.7220820 0.7509043 0.2274776
0.8565434 0.7893748 0.2586234
0.9405270 0.8202438 0.3006448
0.9794233 0.8418741 0.3485157
0.1341770 0.6041194 0.2888356
0.1352849 0.6079796 0.2886336
0.1456905 0.6442341 0.2813269
0.2117938 0.7059668 0.2929610
0.5376928 0.7708603 0.2944565
0.7337772 0.8122753 0.2993146
0.8659382 0.8466860 0.3271962
0.9437535 0.8698518 0.3648569
0.9816874 0.8872199 0.4129037
0.1508083 0.6620652 0.3541463
0.1513887 0.6640876 0.3541023
0.1623185 0.7021685 0.3617303
0.2519190 0.7567844 0.3702480
0.5586317 0.8124427 0.3686985
0.7375268 0.8537281 0.3895538
0.8681567 0.8818660 0.4024970
0.9443151 0.9043404 0.4476783
0.9817781 0.9172629 0.4832357
0.0301106 0.0696625 0.2063487
0.0406382 0.0711309 0.2072566
0.0946531 0.0780118 0.2186829
0.2304117 0.0922641 0.2334122
0.4096634 0.1001255 0.2451835
0.5807092 0.1274579 0.2687542
0.6979103 0.1610963 0.3034551
0.7886945 0.2008031 0.3456790
0.8546847 0.2998249 0.4014553
0.0293892 0.0704571 0.2089393
0.0399924 0.0723215 0.2099719
0.0943608 0.0801902 0.2217604
0.2285673 0.0971822 0.2399022
0.4214500 0.1146718 0.2631192
0.5873553 0.1297134 0.2854184
0.7089674 0.1687085 0.3158741
0.8043599 0.2512155 0.3637115
0.8686098 0.3476076 0.4110039
0.0297992 0.0930902 0.2378020
0.0301928 0.0968849 0.2394074
0.0899142 0.1096061 0.2506809
0.2340418 0.1378389 0.2694401
0.4329147 0.1706078 0.2894088
0.6144983 0.2193709 0.3206370
0.7439179 0.2830047 0.3494960
0.8374788 0.3639442 0.3881590
0.8948880 0.4456696 0.4379097
0.0429834 0.2039705 0.2863880
0.0454325 0.2119208 0.2949210
0.0470404 0.2298567 0.3005234
0.2422888 0.2746068 0.3205176
0.4684475 0.3297176 0.3414401
0.6604573 0.3897486 0.3630084
0.7931452 0.4534250 0.3929302
0.8763660 0.5222190 0.4299963
0.9254795 0.5792437 0.4632728
0.0672759 0.3710267 0.3466713
0.0682041 0.3742605 0.3477428
0.0763181 0.4025310 0.3567796
0.2121137 0.4594455 0.3784305
0.4976615 0.5198841 0.3875065
0.6946844 0.5781478 0.4064755
0.8235194 0.6262649 0.4260704
0.9059682 0.6693237 0.4574138
0.9484623 0.7085221 0.4997860
0.1036739 0.4978424 0.3968812
0.1063034 0.5070038 0.3984093
0.1147377 0.5363903 0.4024771
0.1560403 0.5964764 0.4145799
0.4917910 0.6578814 0.4355183
0.7085257 0.7090741 0.4500561
0.8403715 0.7462187 0.4695036
0.9202046 0.7787070 0.5011656
0.9632478 0.8031583 0.5289984
0.1293622 0.5873440 0.4407307
0.1325830 0.5985656 0.4422513
0.1434518 0.6364343 0.4550411
0.1607102 0.6965649 0.4709677
0.5120319 0.7552205 0.4778431
0.7209632 0.7989045 0.4922943
0.8487465 0.8334551 0.5126807
0.9286409 0.8569886 0.5399293
0.9682544 0.8742000 0.5732777
0.1479068 0.6519561 0.4922237
0.1513644 0.6640029 0.5024162
0.1618702 0.7006066 0.5062195
0.1780265 0.7568975 0.5220806
0.5160413 0.8134525 0.5299590
0.7208695 0.8561794 0.5457835
0.8597288 0.8855640 0.5665596
0.9332082 0.9020458 0.5841950
0.9717013 0.9170830 0.6168904
0.1634482 0.7061044 0.5531488
0.1653340 0.7126747 0.5539938
0.1746792 0.7452348 0.5574040
0.2298130 0.8001598 0.5690129
0.5560369 0.8515286 0.5773456
0.7412359 0.8898988 0.5989736
0.8602890 0.9141870 0.6151456
0.9336484 0.9300634 0.6320921
0.9722010 0.9401947 0.6538059
0.0744509 0.0744509 0.3960254
0.0790639 0.0761358 0.4018958
0.1421723 0.0787317 0.4109401
0.2719272 0.0851439 0.4332812
0.4535884 0.0909723 0.4471125
0.6039703 0.1341342 0.4760315
0.7104914 0.1647073 0.5001742
0.7974998 0.1896800 0.5425239
0.8583552 0.2990748 0.5849420
0.0744141 0.0744141 0.3958973
0.0790639 0.0761358 0.4018958
0.1421723 0.0787317 0.4109401
0.2720143 0.0852175 0.4335378
0.4560041 0.0916657 0.4532887
0.6098258 0.1358148 0.4880924
0.7210683 0.1677430 0.5156066
0.8121800 0.2470177 0.5563686
0.8723810 0.3549450 0.5981587
0.0827679 0.0827679 0.4250029
0.0836579 0.0836579 0.4281039
0.1382452 0.0928965 0.4424191
0.2772028 0.1234036 0.4690780
0.4671389 0.1594299 0.4949956
0.6349494 0.2243659 0.5272714
0.7585115 0.2841370 0.5587335
0.8431300 0.3703275 0.5966683
0.8992947 0.4592450 0.6275389
0.1028878 0.2129052 0.4951036
0.1041972 0.2230522 0.4996656
0.1077176 0.2506231 0.5119313
0.2722722 0.2914650 0.5347439
0.4982673 0.3469310 0.5610445
0.6758682 0.4149846 0.5843785
0.7990709 0.4718743 0.6119788
0.8789926 0.5410633 0.6312523
0.9257162 0.5982839 0.6549186
0.1212158 0.4025776 0.5589607
0.1222080 0.4109981 0.5624179
0.1273177 0.4431636 0.5802208
0.2345335 0.4975598 0.5977288
0.5045722 0.5531519 0.6151066
0.7022553 0.6060818 0.6286393
0.8294979 0.6569614 0.6509423
0.9058169 0.6935264 0.6715584
0.9459462 0.7324613 0.6879701
0.1364864 0.5409318 0.6121656
0.1373551 0.5493783 0.6151924
0.1402146 0.5884014 0.6251553
0.1539555 0.6406797 0.6424040
0.5085474 0.6966514 0.6564004
0.7121114 0.7416924 0.6662899
0.8375198 0.7728651 0.6782814
0.9166386 0.8046948 0.6932046
0.9592055 0.8327234 0.7110857
0.1469857 0.6311827 0.6487468
0.1481719 0.6471946 0.6528798
0.1565559 0.6820908 0.6606967
0.1723989 0.7372898 0.6767969
0.5109285 0.7919782 0.6893336
0.7151573 0.8308938 0.6972397
0.8506703 0.8611658 0.7039095
0.9237112 0.8811348 0.7210515
0.9631190 0.8972169 0.7357394
0.1595749 0.6926095 0.6776755
0.1641982 0.7087178 0.6873529
0.1738503 0.7423469 0.6941525
0.1891216 0.7955542 0.7017933
0.5391181 0.8478985 0.7125241
0.7252513 0.8829468 0.7236308
0.8564729 0.9082186 0.7378466
0.9287562 0.9233963 0.7449195
0.9667579 0.9347426 0.7600312
0.1732656 0.7403098 0.7102748
0.1762903 0.7508483 0.7124280
0.1854681 0.7828251 0.7248945
0.2548891 0.8330559 0.7351167
0.5687116 0.8804806 0.7459334
0.7398977 0.9118591 0.7541550
0.8586566 0.9338428 0.7615370
0.9300037 0.9479456 0.7755162
0.9678975 0.9556798 0.7822705
0.1195092 0.1175511 0.5461926
0.1393503 0.1188505 0.5507197
0.2067049 0.1237163 0.5676728
0.3335744 0.1287663 0.5852679
0.4994529 0.1348606 0.6065013
0.6268762 0.1407085 0.6179191
0.7289196 0.1699965 0.6360121
0.8061417 0.1921604 0.6695571
0.8669366 0.3026710 0.7137308
0.1180092 0.1174484 0.5458347
0.1393503 0.1188505 0.5507197
0.2067049 0.1237163 0.5676728
0.3335744 0.1287663 0.5852679
0.4994529 0.1348606 0.6065013
0.6276711 0.1409367 0.6187953
0.7370890 0.1723412 0.6496501
0.8202593 0.2328094 0.6848102
0.8774819 0.3502092 0.7257017
0.1233455 0.1233455 0.5663811
0.1325255 0.1247288 0.5712006
0.2032589 0.1295507 0.5880007
0.3344488 0.1356414 0.6092215
0.5081626 0.1433214 0.6359800
0.6605192 0.2032928 0.6660457
0.7690902 0.2740704 0.6945727
0.8497686 0.3669592 0.7254128
0.9029966 0.4601190 0.7511243
0.1420896 0.2105928 0.6316881
0.1446791 0.2223760 0.6407102
0.1569254 0.2525525 0.6555566
0.3334952 0.2940079 0.6792762
0.5392445 0.3564511 0.7012267
0.6933507 0.4170150 0.7240067
0.8119426 0.4752150 0.7409428
0.8862957 0.5462737 0.7645263
0.9283369 0.6043903 0.7866353
0.1626024 0.4222848 0.7031577
0.1641977 0.4338734 0.7087157
0.1675223 0.4643846 0.7202994
0.2956053 0.5154282 0.7447650
0.5491886 0.5683521 0.7571158
0.7169549 0.6205577 0.7718114
0.8341799 0.6663874 0.7862805
0.9081069 0.7055575 0.7991237
0.9461203 0.7441270 0.8088567
0.1759292 0.5698517 0.7495902
0.1773651 0.5836828 0.7545930
0.1803897 0.6190333 0.7651311
0.2565634 0.6699629 0.7831296
0.5548723 0.7200162 0.7921351
0.7247624 0.7588138 0.8053921
0.8462339 0.7915767 0.8141434
0.9201961 0.8188940 0.8221326
0.9558718 0.8472977 0.8324697
0.1846897 0.6694211 0.7801128
0.1859488 0.6841275 0.7844997
0.1898950 0.7148668 0.7982488
0.2382083 0.7660617 0.8092117
0.5588342 0.8166049 0.8225402
0.7360527 0.8495721 0.8256593
0.8521838 0.8778387 0.8356805
0.9231935 0.8961240 0.8417966
0.9608009 0.9093321 0.8531088
0.1929760 0.7290688 0.8089834
0.1941814 0.7448772 0.8131834
0.1961410 0.7734875 0.8200111
0.2634294 0.8235745 0.8344315
0.5665398 0.8696097 0.8405612
0.7374645 0.9003191 0.8483794
0.8550180 0.9218360 0.8548123
0.9273767 0.9356576 0.8606518
0.9645982 0.9465202 0.8660083
0.1994484 0.7719649 0.8315344
0.2001353 0.7818130 0.8339275
0.2021484 0.8138980 0.8409414
0.3270730 0.8586497 0.8537725
0.5969068 0.8995843 0.8588546
0.7520471 0.9272375 0.8658958
0.8655568 0.9473050 0.8717062
0.9289688 0.9588888 0.8769527
0.9657561 0.9661178 0.8820679
0.1820488 0.1501397 0.6597357
0.2075703 0.1516674 0.6650586
0.2718245 0.1563876 0.6815045
0.3979459 0.1605970 0.6961707
0.5453965 0.1651966 0.7121964
0.6694033 0.1703175 0.7300382
0.7571635 0.1781029 0.7441491
0.8247914 0.1975131 0.7661604
0.8729901 0.2886304 0.7949779
0.1792208 0.1499701 0.6591450
0.2075703 0.1516674 0.6650586
0.2718245 0.1563876 0.6815045
0.3979459 0.1605970 0.6961707
0.5453965 0.1651966 0.7121964
0.6694033 0.1703175 0.7300382
0.7571635 0.1781029 0.7441491
0.8317858 0.2240910 0.7752414
0.8841189 0.3437555 0.8076380
0.1786603 0.1502205 0.6600173
0.2017903 0.1522120 0.6669561
0.2714833 0.1572276 0.6844311
0.3963830 0.1630077 0.7045697
0.5521039 0.1693939 0.7268202
0.6870092 0.1826885 0.7560257
0.7879182 0.2627519 0.7792315
0.8587255 0.3615763 0.8088047
0.9061003 0.4582570 0.8329468
0.1710052 0.2104255 0.7324342
0.1730274 0.2246752 0.7394797
0.2450932 0.2531263 0.7546542
0.4069634 0.2987384 0.7733918
0.5850129 0.3552515 0.7979318
0.7196165 0.4162026 0.8152331
0.8225696 0.4747880 0.8332877
0.8907517 0.5472684 0.8518209
0.9307705 0.6106610 0.8675902
0.1902264 0.4431053 0.7994035
0.1918248 0.4545604 0.8049727
0.1960935 0.4833739 0.8198453
0.3890558 0.5313001 0.8368008
0.5920622 0.5813776 0.8490971
0.7424442 0.6271843 0.8615395
0.8513094 0.6760640 0.8708460
0.9124579 0.7099750 0.8812414
0.9474977 0.7487006 0.8914978
0.2026532 0.6028001 0.8427001
0.2040311 0.6159626 0.8475012
0.2068068 0.6480744 0.8571721
0.3604808 0.6932670 0.8688588
0.5976082 0.7362139 0.8833541
0.7498298 0.7710412 0.8885169
0.8568836 0.7986327 0.8957905
0.9221400 0.8273495 0.9034154
0.9582446 0.8531023 0.9090279
0.2105075 0.7050455 0.8700657
0.2116643 0.7183497 0.8740963
0.2139167 0.7459941 0.8819438
0.3648919 0.7917896 0.8919714
0.6077539 0.8336484 0.9035630
0.7518195 0.8609856 0.9069483
0.8622293 0.8874185 0.9126059
0.9276671 0.9046538 0.9171512
0.9610623 0.9163386 0.9228742
0.2154379 0.7625024 0.8872441
0.2165172 0.7764598 0.8910044
0.2185431 0.8049690 0.8980628
0.3810731 0.8473794 0.9094824
0.6143381 0.8855150 0.9152265
0.7614817 0.9115143 0.9180763
0.8652309 0.9303629 0.9228277
0.9318904 0.9440508 0.9281611
0.9644139 0.9528589 0.9314482
0.2191565 0.8001056 0.9002001
0.2210346 0.8154906 0.9067435
0.2227633 0.8424832 0.9127669
0.4163279 0.8784586 0.9192879
0.6346923 0.9128636 0.9241384
0.7761285 0.9376840 0.9307284
0.8763250 0.9549183 0.9320085
0.9337994 0.9652594 0.9353557
0.9658297 0.9714999 0.9384444
0.2522455 0.1741145 0.7432675
0.2782851 0.1754780 0.7480180
0.3510294 0.1782190 0.7575681
0.4707372 0.1824713 0.7723837
0.6023398 0.1862887 0.7856839
0.7075410 0.1915314 0.8039505
0.7919140 0.2007928 0.8177159
0.8490024 0.2625969 0.8349331
0.8851241 0.3245097 0.8490683
0.2522455 0.1741145 0.7432675
0.2782851 0.1754780 0.7480180
0.3510294 0.1782190 0.7575681
0.4707372 0.1824713 0.7723837
0.6023398 0.1862887 0.7856839
0.7075410 0.1915314 0.8039505
0.7919140 0.2007928 0.8177159
0.8490024 0.2625969 0.8349331
0.8869522 0.3341607 0.8509927
0.2480513 0.1739299 0.7426243
0.2782851 0.1754780 0.7480180
0.3510294 0.1782190 0.7575681
0.4707372 0.1824713 0.7723837
0.6023398 0.1862887 0.7856839
0.7091419 0.1924518 0.8071570
0.8008678 0.2537678 0.8293055
0.8664994 0.3573305 0.8561552
0.9093825 0.4565111 0.8767912
0.2218454 0.2126191 0.7924865
0.2551118 0.2259787 0.7982592
0.3483467 0.2557870 0.8112161
0.4791913 0.3010018 0.8277898
0.6282369 0.3552301 0.8457980
0.7493712 0.4159263 0.8646626
0.8397283 0.4746997 0.8783138
0.8978723 0.5475075 0.8948504
0.9333834 0.6112560 0.9085327
0.2071722 0.4656490 0.8584452
0.2083156 0.4742902 0.8624290
0.3021129 0.5030435 0.8729630
0.4809633 0.5451519 0.8875923
0.6433865 0.5891983 0.8982419
0.7734766 0.6321551 0.9076535
0.8635023 0.6789799 0.9183512
0.9162315 0.7119002 0.9230438
0.9512290 0.7508337 0.9313954
0.2183923 0.6327967 0.8975374
0.2193318 0.6422899 0.9008108
0.2217634 0.6718913 0.9092831
0.4680786 0.7120057 0.9193258
0.6507210 0.7467641 0.9263327
0.7820398 0.7783011 0.9334078
0.8742052 0.8034531 0.9377502
0.9284784 0.8305379 0.9426139
0.9590973 0.8578315 0.9463817
0.2243214 0.7368719 0.9181954
0.2252274 0.7479717 0.9213520
0.2276357 0.7735474 0.9297428
0.4609043 0.8113989 0.9377493
0.6464700 0.8449128 0.9434169
0.7847169 0.8710364 0.9468750
0.8793387 0.8928643 0.9519117
0.9339221 0.9081942 0.9532880
0.9644257 0.9206299 0.9562083
0.2284361 0.7972490 0.9325317
0.2290761 0.8061455 0.9347615
0.2328752 0.8319377 0.9406863
0.4804826 0.8664749 0.9490076
0.6534774 0.8960415 0.9535133
0.7865017 0.9195979 0.9563136
0.8820881 0.9368815 0.9597765
0.9365886 0.9472927 0.9605659
0.9649061 0.9562634 0.9638418
0.2312272 0.8343489 0.9422563
0.2318029 0.8428879 0.9442621
0.3052185 0.8663542 0.9491478
0.5168688 0.8976004 0.9563001
0.6768154 0.9235088 0.9599724
0.7998140 0.9446741 0.9622895
0.8867300 0.9597880 0.9651929
0.9395253 0.9691811 0.9666587
0.9672947 0.9751661 0.9686775
0.3362540 0.1918118 0.8049275
0.3677008 0.1935590 0.8110148
0.4383636 0.1958156 0.8188772
0.5513886 0.1990293 0.8300740
0.6527280 0.2227839 0.8422616
0.7525453 0.2565918 0.8542007
0.8214450 0.2957234 0.8649071
0.8711414 0.3501159 0.8777320
0.9052546 0.4060450 0.8915528
0.3362540 0.1918118 0.8049275
0.3677008 0.1935590 0.8110148
0.4383636 0.1958156 0.8188772
0.5513886 0.1990293 0.8300740
0.6527280 0.2227839 0.8422616
0.7525453 0.2565918 0.8542007
0.8214450 0.2957234 0.8649071
0.8711414 0.3501159 0.8777320
0.9052546 0.4060450 0.8915528
0.3362540 0.1918118 0.8049275
0.3677008 0.1935590 0.8110148
0.4383636 0.1958156 0.8188772
0.5431125 0.1988835 0.8295660
0.6527280 0.2227839 0.8422616
0.7525453 0.2565918 0.8542007
0.8214450 0.2957234 0.8649071
0.8711414 0.3501159 0.8777320
0.9129814 0.4504370 0.9001186
0.3249003 0.2310257 0.8292915
0.3599000 0.2360445 0.8325489
0.4350742 0.2624159 0.8426865
0.5605161 0.3059322 0.8584810
0.6742565 0.3520962 0.8720748
0.7754766 0.4116991 0.8889287
0.8515975 0.4840895 0.9048758
0.9032136 0.5475882 0.9175172
0.9369853 0.6071845 0.9294477
0.2614946 0.4892547 0.8928154
0.3169017 0.4968787 0.8960134
0.4260269 0.5207421 0.9038607
0.5631402 0.5569571 0.9138359
0.6948280 0.5919338 0.9241580
0.7953694 0.6352468 0.9323626
0.8762682 0.6810452 0.9404189
0.9251505 0.7136594 0.9463797
0.9526888 0.7517612 0.9520956
0.2274932 0.6626052 0.9292464
0.2479164 0.6700925 0.9315743
0.3915900 0.6953200 0.9380615
0.5634825 0.7278728 0.9455592
0.6978996 0.7550860 0.9507914
0.8047404 0.7826702 0.9550728
0.8896013 0.8156089 0.9611085
0.9332960 0.8323011 0.9630523
0.9629797 0.8596052 0.9678437
0.2327879 0.7685959 0.9476937
0.2334161 0.7771547 0.9498825
0.3967133 0.7992940 0.9550965
0.5639485 0.8289528 0.9607981
0.6918995 0.8536909 0.9659501
0.8152909 0.8772756 0.9690862
0.8900771 0.8958130 0.9716981
0.9397134 0.9122376 0.9740784
0.9664952 0.9222146 0.9749718
0.2361176 0.8291175 0.9592951
0.2659524 0.8383123 0.9613467
0.4116189 0.8567158 0.9651434
0.5714939 0.8832763 0.9697702
0.7055191 0.9069419 0.9731926
0.8173630 0.9269316 0.9755369
0.8977643 0.9416211 0.9777389
0.9422502 0.9504535 0.9784583
0.9688694 0.9580747 0.9802743
0.2575961 0.8634955 0.9652559
0.3308660 0.8717886 0.9669334
0.4476457 0.8878474 0.9707291
0.6002600 0.9128728 0.9747600
0.7172864 0.9320250 0.9773579
0.8291737 0.9512586 0.9794505
0.9021170 0.9639443 0.9809629
0.9452833 0.9717932 0.9823611
0.9710199 0.9768085 0.9827010
