data/spectral_luts/vision3_250d_2383.cube
TITLE "vision3_250d_2383"
LUT_3D_SIZE 33
0.0065939 0.0054449 0.0051645
0.0069675 0.0055034 0.0051808
0.0084460 0.0057229 0.0052375
0.0110078 0.0060584 0.0052749
0.0152354 0.0066640 0.0054167
0.0222236 0.0074725 0.0055525
0.0350190 0.0086163 0.0056508
0.0557525 0.0102960 0.0056985
0.0778432 0.0123043 0.0058024
0.1117145 0.0152656 0.0077119
0.1393556 0.0175874 0.0111445
0.1674912 0.0199891 0.0154162
0.1962208 0.0221219 0.0206329
0.2320180 0.0284059 0.0284059
0.2676061 0.0376046 0.0376046
0.3047749 0.0482607 0.0482607
0.3349442 0.0569197 0.0569197
0.3692263 0.0667592 0.0667592
0.4040346 0.0767497 0.0767497
0.4399479 0.0870573 0.0870573
0.4629010 0.0936452 0.0936452
0.4871912 0.1006168 0.1006168
0.5105758 0.1073286 0.1073286
0.5350683 0.1143583 0.1143583
0.5576105 0.1208282 0.1208282
0.5759138 0.1260815 0.1260815
0.6005324 0.1404301 0.1331474
0.6180639 0.1536188 0.1381793
0.6365750 0.1695751 0.1476596
0.6518052 0.1838703 0.1629236
0.6696492 0.2013550 0.1790106
0.6860780 0.2171635 0.1954481
0.7031403 0.2363274 0.2128574
0.0066567 0.0058108 0.0052469
0.0070492 0.0059339 0.0052762
0.0085801 0.0062325 0.0053452
0.0110997 0.0067175 0.0054412
0.0156705 0.0075046 0.0056066
0.0239372 0.0087339 0.0057861
0.0367054 0.0102610 0.0059027
0.0580413 0.0123527 0.0059334
0.0804344 0.0147016 0.0060811
0.1143033 0.0177833 0.0080025
0.1404332 0.0204146 0.0112933
0.1722717 0.0231674 0.0162232
0.2043910 0.0265107 0.0222802
0.2360652 0.0296858 0.0293767
0.2722089 0.0389051 0.0389051
0.3085155 0.0493343 0.0493343
0.3401053 0.0584010 0.0584010
0.3741285 0.0681662 0.0681662
0.4105561 0.0786215 0.0786215
0.4419917 0.0876439 0.0876439
0.4689424 0.0953792 0.0953792
0.4938879 0.1025389 0.1025389
0.5153037 0.1086855 0.1086855
0.5379517 0.1151859 0.1151859
0.5610009 0.1218013 0.1218013
0.5818237 0.1360634 0.1277778
0.6044193 0.1489251 0.1342630
0.6230651 0.1646856 0.1396146
0.6405443 0.1785742 0.1481577
0.6558821 0.1933008 0.1634996
0.6738179 0.2112390 0.1796498
0.6902872 0.2273889 0.1961534
0.7052224 0.2415203 0.2132365
0.0067479 0.0071482 0.0055572
0.0072383 0.0073247 0.0055920
0.0088904 0.0077819 0.0056759
0.0117601 0.0084189 0.0057750
0.0161833 0.0092494 0.0059279
0.0246364 0.0104802 0.0060703
0.0385047 0.0122871 0.0061658
0.0592538 0.0146074 0.0061734
0.0826933 0.0171050 0.0063054
0.1154499 0.0207469 0.0081331
0.1437225 0.0242779 0.0117549
0.1759288 0.0277343 0.0168567
0.2086395 0.0323152 0.0231660
0.2403532 0.0360315 0.0304261
0.2766231 0.0404222 0.0401767
0.3110785 0.0500699 0.0500699
0.3458904 0.0600614 0.0600614
0.3815012 0.0702823 0.0702823
0.4155298 0.0800490 0.0800490
0.4478771 0.0893331 0.0893331
0.4756722 0.0973107 0.0973107
0.4987052 0.1039216 0.1039216
0.5212308 0.1103867 0.1103867
0.5429615 0.1197486 0.1166238
0.5668966 0.1322575 0.1234935
0.5858150 0.1445701 0.1289233
0.6084480 0.1577205 0.1354193
0.6269745 0.1734415 0.1407367
0.6428371 0.1877965 0.1487171
0.6610394 0.2053562 0.1641649
0.6758921 0.2161963 0.1799508
0.6924070 0.2325858 0.1964912
0.7093875 0.2520126 0.2139613
0.0068501 0.0090721 0.0059341
0.0073799 0.0094080 0.0059858
0.0091518 0.0098822 0.0060531
0.0120511 0.0106815 0.0062050
0.0169546 0.0116274 0.0063441
0.0260987 0.0133107 0.0064278
0.0416766 0.0155593 0.0064817
0.0621638 0.0183325 0.0065205
0.0853416 0.0220831 0.0067545
0.1201270 0.0268954 0.0086791
0.1483075 0.0305662 0.0124164
0.1817658 0.0363320 0.0178975
0.2145562 0.0417592 0.0244335
0.2440550 0.0465070 0.0313494
0.2806835 0.0521322 0.0413461
0.3186986 0.0583129 0.0522570
0.3540843 0.0658357 0.0624132
0.3891497 0.0729254 0.0724775
0.4209352 0.0816004 0.0816004
0.4557286 0.0915866 0.0915866
0.4817469 0.0990543 0.0990543
0.5059556 0.1093002 0.1060025
0.5257526 0.1197311 0.1116845
0.5489417 0.1321369 0.1183401
0.5723315 0.1438171 0.1250534
0.5916962 0.1572997 0.1306113
0.6152047 0.1726829 0.1373586
0.6329284 0.1869050 0.1424456
0.6481022 0.1999099 0.1543110
0.6653373 0.2154943 0.1698458
0.6823492 0.2317973 0.1861799
0.6976047 0.2454769 0.1972673
0.7135885 0.2627477 0.2146447
0.0067774 0.0126488 0.0065224
0.0073579 0.0127943 0.0065381
0.0093106 0.0136242 0.0066218
0.0126731 0.0143792 0.0067375
0.0182136 0.0158341 0.0068177
0.0274744 0.0182797 0.0069582
0.0448004 0.0212037 0.0070230
0.0652512 0.0252780 0.0072881
0.0897545 0.0294639 0.0074615
0.1239760 0.0359384 0.0091440
0.1532552 0.0419708 0.0131540
0.1872818 0.0494701 0.0189146
0.2199544 0.0551857 0.0256243
0.2534672 0.0629459 0.0337698
0.2899523 0.0683894 0.0440064
0.3290248 0.0767298 0.0552208
0.3600805 0.0821281 0.0641342
0.3961337 0.0915990 0.0744820
0.4315501 0.1003281 0.0846471
0.4657704 0.1084552 0.0944688
0.4920518 0.1184248 0.1020119
0.5134954 0.1287380 0.1081666
0.5348622 0.1385403 0.1142991
0.5580099 0.1512837 0.1209429
0.5828242 0.1664200 0.1280649
0.6002671 0.1761652 0.1330713
0.6230905 0.1904221 0.1396220
0.6382746 0.2035834 0.1439800
0.6563711 0.2194126 0.1576964
0.6716503 0.2307172 0.1732087
0.6875045 0.2445428 0.1868474
0.7040163 0.2617204 0.2036782
0.7177290 0.2734917 0.2152684
0.0063412 0.0194691 0.0072869
0.0067987 0.0196140 0.0072945
0.0090432 0.0202883 0.0073242
0.0126228 0.0223575 0.0074901
0.0187916 0.0238617 0.0074944
0.0300695 0.0270030 0.0075446
0.0475469 0.0311400 0.0078899
0.0698928 0.0368060 0.0080873
0.0946434 0.0438888 0.0082561
0.1312052 0.0513703 0.0100556
0.1619169 0.0594796 0.0145054
0.1955714 0.0654180 0.0205051
0.2297133 0.0734881 0.0278615
0.2629021 0.0805066 0.0363020
0.2979150 0.0886799 0.0462918
0.3363816 0.0959939 0.0573323
0.3713100 0.1032752 0.0673572
0.4081134 0.1145795 0.0779204
0.4427082 0.1221177 0.0878496
0.4764109 0.1295887 0.0975228
0.5000252 0.1399698 0.1043004
0.5251039 0.1528353 0.1114984
0.5459780 0.1620523 0.1174895
0.5682987 0.1735124 0.1238959
0.5906154 0.1836317 0.1303011
0.6081011 0.1984443 0.1353198
0.6303535 0.2118973 0.1417066
0.6464685 0.2229366 0.1463318
0.6625478 0.2343408 0.1581806
0.6808521 0.2535360 0.1740808
0.6958260 0.2656534 0.1904754
0.7112922 0.2807035 0.2074313
0.7250901 0.2930705 0.2190451
0.0046423 0.0308449 0.0080840
0.0051806 0.0310646 0.0080859
0.0077289 0.0327208 0.0081920
0.0117782 0.0341524 0.0081787
0.0191539 0.0378705 0.0083255
0.0308125 0.0419275 0.0086066
0.0499557 0.0477833 0.0089178
0.0735769 0.0543987 0.0090355
0.1007730 0.0624613 0.0091295
0.1373803 0.0708699 0.0108746
0.1682064 0.0779569 0.0155354
0.2032415 0.0861580 0.0220439
0.2377789 0.0950969 0.0297935
0.2705758 0.1013199 0.0384407
0.3091806 0.1112089 0.0495252
0.3484872 0.1200509 0.0608068
0.3828398 0.1262124 0.0706665
0.4184064 0.1353139 0.0808746
0.4515509 0.1467771 0.0903876
0.4862525 0.1563730 0.1003474
0.5123771 0.1659899 0.1078456
0.5368415 0.1781541 0.1148672
0.5580615 0.1886095 0.1209577
0.5798991 0.1995631 0.1272254
0.6010780 0.2127791 0.1333040
0.6191570 0.2244249 0.1384930
0.6403908 0.2359163 0.1445874
0.6576313 0.2502977 0.1495357
0.6737492 0.2623624 0.1613771
0.6890593 0.2746478 0.1773864
0.7050411 0.2898709 0.1912490
0.7193515 0.3024113 0.2082760
0.7296230 0.3097142 0.2255267
0.0024509 0.0484050 0.0089814
0.0024509 0.0484050 0.0089814
0.0048223 0.0499647 0.0090825
0.0092005 0.0518878 0.0093126
0.0166566 0.0562714 0.0095114
0.0303555 0.0610712 0.0097409
0.0539293 0.0681509 0.0097526
0.0784095 0.0736951 0.0098272
0.1044027 0.0820377 0.0093682
0.1444022 0.0920587 0.0118516
0.1765672 0.1003688 0.0169688
0.2129897 0.1102375 0.0240941
0.2476932 0.1182874 0.0322725
0.2815311 0.1259920 0.0415894
0.3194954 0.1337938 0.0524857
0.3573447 0.1458616 0.0633490
0.3922710 0.1535893 0.0733734
0.4286158 0.1643593 0.0838048
0.4640954 0.1741171 0.0939880
0.4994695 0.1854599 0.1041409
0.5242721 0.1924821 0.1112596
0.5480824 0.2036595 0.1180935
0.5684258 0.2176369 0.1239324
0.5883333 0.2245402 0.1296461
0.6110350 0.2368434 0.1361619
0.6300083 0.2511236 0.1416075
0.6513723 0.2634282 0.1477392
0.6656167 0.2706434 0.1518276
0.6829507 0.2865522 0.1670165
0.6980145 0.2985307 0.1776986
0.7112513 0.3113696 0.1945921
0.7236476 0.3190640 0.2117813
0.7384636 0.3348590 0.2264442
0.0036925 0.0676603 0.0102811
0.0036925 0.0676603 0.0102811
0.0037892 0.0689894 0.0103864
0.0043226 0.0722760 0.0104241
0.0120839 0.0775586 0.0107910
0.0281244 0.0820019 0.0107837
0.0525382 0.0886684 0.0107350
0.0809415 0.0973896 0.0102583
0.1117803 0.1041832 0.0093285
0.1488869 0.1158894 0.0125015
0.1865861 0.1260358 0.0187845
0.2194962 0.1351343 0.0255219
0.2544473 0.1428115 0.0340279
0.2889306 0.1516532 0.0437131
0.3275312 0.1608112 0.0547921
0.3696443 0.1753369 0.0668792
0.4053083 0.1841912 0.0771153
0.4408260 0.1928643 0.0873094
0.4760777 0.2021023 0.0974271
0.5111063 0.2127954 0.1074808
0.5352746 0.2250599 0.1144175
0.5580335 0.2324853 0.1209496
0.5805435 0.2473863 0.1274103
0.6008262 0.2558251 0.1332318
0.6235420 0.2684796 0.1397515
0.6398523 0.2767194 0.1444328
0.6622461 0.2923936 0.1508602
0.6764479 0.2997121 0.1549363
0.6926099 0.3131150 0.1696979
0.7040241 0.3205184 0.1836627
0.7200607 0.3367650 0.2006801
0.7343068 0.3500597 0.2123120
0.7462633 0.3581353 0.2299822
0.0055536 0.0903988 0.0117620
0.0055536 0.0903988 0.0117620
0.0056184 0.0911034 0.0117001
0.0058466 0.0935476 0.0117135
0.0063167 0.0984121 0.0117954
0.0221685 0.1060099 0.0115347
0.0520981 0.1137246 0.0108031
0.0796584 0.1200109 0.0104836
0.1131350 0.1302559 0.0099330
0.1581268 0.1416804 0.0139046
0.1933032 0.1524157 0.0200625
0.2274863 0.1627075 0.0273414
0.2631381 0.1696913 0.0363667
0.2991836 0.1812984 0.0466559
0.3456553 0.1927194 0.0599940
0.3797693 0.2024278 0.0697852
0.4168509 0.2144046 0.0804282
0.4599812 0.2252724 0.0928072
0.4853419 0.2340829 0.1000861
0.5201522 0.2438047 0.1100771
0.5468509 0.2544753 0.1177401
0.5700603 0.2636374 0.1244015
0.5916903 0.2769955 0.1306096
0.6119093 0.2851237 0.1364128
0.6339262 0.2968187 0.1427319
0.6501518 0.3049032 0.1473889
0.6716228 0.3184848 0.1535514
0.6848782 0.3291860 0.1573559
0.7011838 0.3430968 0.1691018
0.7145030 0.3513716 0.1863376
0.7276762 0.3597133 0.2036763
0.7428522 0.3766209 0.2185660
0.7547145 0.3844150 0.2302964
0.0079450 0.1137956 0.0125764
0.0079450 0.1137956 0.0125764
0.0079601 0.1139289 0.0125595
0.0082924 0.1168330 0.0126912
0.0092650 0.1249595 0.0121333
0.0110594 0.1303622 0.0116979
0.0438461 0.1371361 0.0108415
0.0807746 0.1465572 0.0121614
0.1138889 0.1574132 0.0137931
0.1618822 0.1684146 0.0155702
0.1967708 0.1813217 0.0207415
0.2338755 0.1893755 0.0288491
0.2717085 0.2010561 0.0387625
0.3134243 0.2093073 0.0507432
0.3518766 0.2227803 0.0617796
0.3868147 0.2338496 0.0718073
0.4309946 0.2455037 0.0844876
0.4684329 0.2587191 0.0952329
0.4960118 0.2643591 0.1031485
0.5311919 0.2743618 0.1132457
0.5573661 0.2840573 0.1207581
0.5814376 0.2953164 0.1276670
0.6014909 0.3049929 0.1334225
0.6218756 0.3137266 0.1392733
0.6423739 0.3277527 0.1451566
0.6599280 0.3400989 0.1501948
0.6796189 0.3490564 0.1558464
0.6941942 0.3577002 0.1603003
0.7085953 0.3661025 0.1742812
0.7245706 0.3831713 0.1915751
0.7376301 0.3911266 0.2031703
0.7499816 0.3998248 0.2214506
0.7619144 0.4085476 0.2397389
0.0112934 0.1404334 0.0131701
0.0112934 0.1404334 0.0131701
0.0112934 0.1404334 0.0131701
0.0116023 0.1426431 0.0127701
0.0122023 0.1468399 0.0122565
0.0131363 0.1531389 0.0131363
0.0352760 0.1624434 0.0145901
0.0749435 0.1736894 0.0164671
0.1144706 0.1840430 0.0183134
0.1615211 0.1950857 0.0204099
0.2002029 0.2077242 0.0229735
0.2418403 0.2189553 0.0307951
0.2753660 0.2307449 0.0398121
0.3181345 0.2399232 0.0520951
0.3600863 0.2531093 0.0641359
0.3963210 0.2666042 0.0745358
0.4401060 0.2756754 0.0871027
0.4773757 0.2871414 0.0977997
0.5076467 0.3005961 0.1064879
0.5418337 0.3067730 0.1163001
0.5682467 0.3169445 0.1238810
0.5917500 0.3272097 0.1306268
0.6103516 0.3388833 0.1359657
0.6308795 0.3486822 0.1418575
0.6520816 0.3583203 0.1479428
0.6686245 0.3672669 0.1526909
0.6891988 0.3792728 0.1585960
0.7037581 0.3882367 0.1627748
0.7181773 0.3972972 0.1757694
0.7315025 0.4063181 0.1937827
0.7454901 0.4182368 0.2120153
0.7578124 0.4269311 0.2272582
0.7714086 0.4414481 0.2394249
0.0148888 0.1642876 0.0148888
0.0148888 0.1642876 0.0148888
0.0148888 0.1642876 0.0148888
0.0151344 0.1657876 0.0151344
0.0162750 0.1725738 0.0162750
0.0173678 0.1788203 0.0173678
0.0190744 0.1881326 0.0190744
0.0672084 0.2012831 0.0216449
0.1105013 0.2102780 0.0235131
0.1667148 0.2252881 0.0268335
0.2021195 0.2340421 0.0288890
0.2457486 0.2482243 0.0324086
0.2860570 0.2601486 0.0428884
0.3248173 0.2740089 0.0540132
0.3669879 0.2833112 0.0661167
0.4033182 0.2958975 0.0765441
0.4486666 0.3074593 0.0895597
0.4865519 0.3205943 0.1004334
0.5237555 0.3326263 0.1111114
0.5476901 0.3380067 0.1179809
0.5755506 0.3509485 0.1259773
0.6044324 0.3621432 0.1342668
0.6199858 0.3713786 0.1387309
0.6389942 0.3758719 0.1441865
0.6610752 0.3889638 0.1505241
0.6776967 0.3984401 0.1552947
0.6975556 0.4083179 0.1609945
0.7121505 0.4177554 0.1653257
0.7274148 0.4298852 0.1800495
0.7406875 0.4391626 0.1985228
0.7537300 0.4475828 0.2107704
0.7659897 0.4567666 0.2296194
0.7769740 0.4688321 0.2489157
0.0191709 0.1886443 0.0191709
0.0191709 0.1886443 0.0191709
0.0191709 0.1886443 0.0191709
0.0192598 0.1891147 0.0192598
0.0202571 0.1943042 0.0202571
0.0228333 0.2070551 0.0228333
0.0246339 0.2154752 0.0246339
0.0517444 0.2268143 0.0271855
0.1029336 0.2368384 0.0295643
0.1618491 0.2504196 0.0329746
0.2051464 0.2666886 0.0373484
0.2477054 0.2776737 0.0404822
0.2893035 0.2881069 0.0438202
0.3296010 0.3043064 0.0553862
0.3729049 0.3147301 0.0678150
0.4137238 0.3287693 0.0795306
0.4517229 0.3374532 0.0904369
0.4908926 0.3530065 0.1016792
0.5274297 0.3612490 0.1121659
0.5568055 0.3727506 0.1205972
0.5828442 0.3787855 0.1280707
0.6127145 0.3929001 0.1366439
0.6330951 0.4036794 0.1424934
0.6490546 0.4135669 0.1470740
0.6689441 0.4185157 0.1527826
0.6862718 0.4300297 0.1577559
0.7061632 0.4402016 0.1634651
0.7207088 0.4498494 0.1688648
0.7335859 0.4537976 0.1882021
0.7448768 0.4623387 0.2004613
0.7588027 0.4740735 0.2161974
0.7709138 0.4831758 0.2353188
0.7827750 0.4915455 0.2482100
0.0244121 0.2144578 0.0244121
0.0244121 0.2144578 0.0244121
0.0244121 0.2144578 0.0244121
0.0244121 0.2144578 0.0244121
0.0262884 0.2229014 0.0262884
0.0280387 0.2304663 0.0280387
0.0308922 0.2422298 0.0308922
0.0333593 0.2518992 0.0333593
0.0944202 0.2646531 0.0367838
0.1571258 0.2788319 0.0408147
0.2032626 0.2942636 0.0452438
0.2448512 0.3079537 0.0491731
0.2883542 0.3183499 0.0521569
0.3291250 0.3337192 0.0565681
0.3733397 0.3448555 0.0679398
0.4185320 0.3580703 0.0809107
0.4583185 0.3721921 0.0923300
0.4965650 0.3802181 0.1033073
0.5354199 0.3960856 0.1144592
0.5638940 0.4030399 0.1226317
0.5976519 0.4160622 0.1323207
0.6196095 0.4217015 0.1386229
0.6407129 0.4350597 0.1446798
0.6553060 0.4392271 0.1488683
0.6767115 0.4498091 0.1550120
0.6955833 0.4598575 0.1604285
0.7108324 0.4686466 0.1648052
0.7248520 0.4751848 0.1731901
0.7391292 0.4839858 0.1854714
0.7524895 0.4936417 0.2049400
0.7656667 0.5032457 0.2244682
0.7764472 0.5061991 0.2375933
0.7889862 0.5181416 0.2538583
0.0305753 0.2409555 0.0305753
0.0305753 0.2409555 0.0305753
0.0305753 0.2409555 0.0305753
0.0305753 0.2409555 0.0305753
0.0318387 0.2459911 0.0318387
0.0340490 0.2545275 0.0340490
0.0367457 0.2645154 0.0367457
0.0413099 0.2805573 0.0413099
0.0760121 0.2918669 0.0445559
0.1562410 0.3078898 0.0491547
0.1991620 0.3209641 0.0529072
0.2493242 0.3344908 0.0567896
0.2885003 0.3486188 0.0608445
0.3307414 0.3614658 0.0645318
0.3762057 0.3732333 0.0687624
0.4227509 0.3893080 0.0821215
0.4629092 0.4010678 0.0936476
0.5017438 0.4105175 0.1047937
0.5404949 0.4243356 0.1159158
0.5694675 0.4307816 0.1242314
0.6040422 0.4465082 0.1341548
0.6262530 0.4525378 0.1405296
0.6443325 0.4620373 0.1457187
0.6589571 0.4669084 0.1499162
0.6809607 0.4804232 0.1562315
0.7013381 0.4849654 0.1620802
0.7165897 0.4950319 0.1680257
0.7313390 0.5042018 0.1805031
0.7443420 0.5081263 0.1971646
0.7577485 0.5171978 0.2100400
0.7715985 0.5289720 0.2224776
0.7823915 0.5330001 0.2430668
0.7939481 0.5404488 0.2561978
0.0383296 0.2701831 0.0383296
0.0383296 0.2701831 0.0383296
0.0383296 0.2701831 0.0383296
0.0383296 0.2701831 0.0383296
0.0386461 0.2712995 0.0386461
0.0412003 0.2801756 0.0412003
0.0450694 0.2936560 0.0450694
0.0481245 0.3043002 0.0481245
0.0583585 0.3187517 0.0522722
0.1461528 0.3338647 0.0566099
0.1998733 0.3467606 0.0603112
0.2464600 0.3651477 0.0655886
0.2866514 0.3766933 0.0689023
0.3381075 0.3892747 0.0725134
0.3861490 0.4030838 0.0764768
0.4253079 0.4181764 0.0828554
0.4660724 0.4276850 0.0945554
0.5055707 0.4376726 0.1058920
0.5453826 0.4542305 0.1173186
0.5709773 0.4613283 0.1246647
0.6061102 0.4738687 0.1347484
0.6292887 0.4803672 0.1414009
0.6487324 0.4857216 0.1469816
0.6703349 0.4992212 0.1531818
0.6856909 0.5033352 0.1575892
0.7071614 0.5137389 0.1637515
0.7222278 0.5218650 0.1715863
0.7362596 0.5277588 0.1847149
0.7502269 0.5367434 0.2050953
0.7624120 0.5402057 0.2185896
0.7753597 0.5480624 0.2316462
0.7871756 0.5563028 0.2486370
0.7978000 0.5594385 0.2622182
0.0460211 0.2969720 0.0460211
0.0460211 0.2969720 0.0460211
0.0460211 0.2969720 0.0460211
0.0460211 0.2969720 0.0460211
0.0460211 0.2969720 0.0460211
0.0484118 0.3053015 0.0484118
0.0515416 0.3162059 0.0515416
0.0559398 0.3315299 0.0559398
0.0594253 0.3436739 0.0594253
0.1355928 0.3599997 0.0641110
0.1879530 0.3732660 0.0679186
0.2378059 0.3902395 0.0727903
0.2879946 0.4028561 0.0764114
0.3335799 0.4167975 0.0804128
0.3823903 0.4293323 0.0840105
0.4224290 0.4392763 0.0868646
0.4641465 0.4563097 0.0940027
0.5048709 0.4658626 0.1056912
0.5442697 0.4747370 0.1169992
0.5822771 0.4885334 0.1279079
0.6096341 0.4969656 0.1357598
0.6337914 0.5078997 0.1426933
0.6535223 0.5129077 0.1483563
0.6736354 0.5179008 0.1541291
0.6898140 0.5274417 0.1587726
0.7109874 0.5345783 0.1668155
0.7258993 0.5434402 0.1873007
0.7396114 0.5468022 0.1972263
0.7535964 0.5545359 0.2105924
0.7699494 0.5586070 0.2237985
0.7790211 0.5686325 0.2446802
0.7907928 0.5760497 0.2580107
0.8015091 0.5788302 0.2683012
0.0525390 0.3196812 0.0525390
0.0525390 0.3196812 0.0525390
0.0525390 0.3196812 0.0525390
0.0525390 0.3196812 0.0525390
0.0525390 0.3196812 0.0525390
0.0552918 0.3292724 0.0552918
0.0587640 0.3413697 0.0587640
0.0623413 0.3538339 0.0623413
0.0662389 0.3674134 0.0662389
0.1188619 0.3839052 0.0709723
0.1852188 0.3979285 0.0749971
0.2310794 0.4111415 0.0787895
0.2844508 0.4231706 0.0822420
0.3314280 0.4388101 0.0867307
0.3818362 0.4512965 0.0903145
0.4228866 0.4635577 0.0938337
0.4734314 0.4770612 0.0977094
0.5063251 0.4886681 0.1061086
0.5463430 0.4978821 0.1175943
0.5847560 0.5083103 0.1286194
0.6126301 0.5186567 0.1366197
0.6362315 0.5255889 0.1433936
0.6561087 0.5307561 0.1490987
0.6774237 0.5417049 0.1552164
0.6928491 0.5471470 0.1663512
0.7137454 0.5522425 0.1794392
0.7288308 0.5603234 0.1925154
0.7425541 0.5643003 0.2064840
0.7614673 0.5757136 0.2189588
0.7735416 0.5798466 0.2366002
0.7824299 0.5877459 0.2503271
0.7915439 0.5908979 0.2643623
0.8033553 0.5992300 0.2782402
0.0600631 0.3458961 0.0600631
0.0600631 0.3458961 0.0600631
0.0600631 0.3458961 0.0600631
0.0600631 0.3458961 0.0600631
0.0600631 0.3458961 0.0600631
0.0604958 0.3474037 0.0604958
0.0636441 0.3583729 0.0636441
0.0674161 0.3715150 0.0674161
0.0715108 0.3857815 0.0715108
0.1123528 0.4023633 0.0762700
0.1724153 0.4204374 0.0814575
0.2318129 0.4328233 0.0850125
0.2788537 0.4447452 0.0884342
0.3276489 0.4588178 0.0924733
0.3801513 0.4705707 0.0958465
0.4306991 0.4827964 0.0993555
0.4742867 0.4968662 0.1033937
0.5161145 0.5087987 0.1089182
0.5477957 0.5172622 0.1180112
0.5861105 0.5271912 0.1290081
0.6143445 0.5383655 0.1371117
0.6387281 0.5466882 0.1441102
0.6587897 0.5520104 0.1498681
0.6800056 0.5619649 0.1608387
0.6957012 0.5665122 0.1747933
0.7176697 0.5759832 0.1833050
0.7323498 0.5836958 0.2048097
0.7439250 0.5874295 0.2187708
0.7626908 0.5969198 0.2318127
0.7749332 0.6001774 0.2423262
0.7877732 0.6087214 0.2558059
0.7950429 0.6117325 0.2702893
0.8072934 0.6227269 0.2842164
0.0655602 0.3650490 0.0692242
0.0655602 0.3650490 0.0692242
0.0655602 0.3650490 0.0692242
0.0655602 0.3650490 0.0692242
0.0655602 0.3650490 0.0692242
0.0655602 0.3650490 0.0692242
0.0693517 0.3782589 0.0699309
0.0736657 0.3932894 0.0736657
0.0775039 0.4066626 0.0775039
0.0829520 0.4256442 0.0829520
0.1606543 0.4378392 0.0864521
0.2230744 0.4516944 0.0904288
0.2820339 0.4665245 0.0946852
0.3326539 0.4797921 0.0984932
0.3778422 0.4900087 0.1014255
0.4296761 0.5068073 0.1062469
0.4740621 0.5198332 0.1099856
0.5164460 0.5300708 0.1129239
0.5487669 0.5382100 0.1182900
0.5884559 0.5518062 0.1296813
0.6166739 0.5610535 0.1377803
0.6409683 0.5672961 0.1469104
0.6612077 0.5727877 0.1603664
0.6798660 0.5825433 0.1732882
0.6956230 0.5871824 0.1871382
0.7175120 0.5950415 0.2003023
0.7328709 0.6036975 0.2098626
0.7470189 0.6079101 0.2238419
0.7658530 0.6176143 0.2372063
0.7780932 0.6214512 0.2514110
0.7906254 0.6272334 0.2616906
0.7987141 0.6352085 0.2760861
0.8096966 0.6388049 0.2907738
0.0736825 0.3933482 0.0846325
0.0736825 0.3933482 0.0846325
0.0736825 0.3933482 0.0846325
0.0736825 0.3933482 0.0846325
0.0736825 0.3933482 0.0846325
0.0736825 0.3933482 0.0846325
0.0761652 0.4019980 0.0873332
0.0794341 0.4133875 0.0893071
0.0840439 0.4294486 0.0899052
0.0890284 0.4468155 0.0892470
0.1474758 0.4592794 0.0926057
0.2215313 0.4750942 0.0971448
0.2754071 0.4865788 0.1004411
0.3285056 0.4996354 0.1041885
0.3842298 0.5183501 0.1095599
0.4277616 0.5300881 0.1129289
0.4730403 0.5412884 0.1161435
0.5162520 0.5517129 0.1251581
0.5581119 0.5604330 0.1272663
0.5858719 0.5744863 0.1378255
0.6149618 0.5812322 0.1460427
0.6402970 0.5878099 0.1590379
0.6606625 0.5934696 0.1727654
0.6823512 0.6059000 0.1849774
0.7037941 0.6115736 0.1987575
0.7199572 0.6163061 0.2128181
0.7352111 0.6252674 0.2263045
0.7541700 0.6297580 0.2365018
0.7680739 0.6362186 0.2504743
0.7810937 0.6448366 0.2644353
0.7931913 0.6487308 0.2791411
0.8005930 0.6513821 0.2902899
0.8123561 0.6598663 0.3050166
0.0806909 0.4177663 0.1025340
0.0806909 0.4177663 0.1025340
0.0806909 0.4177663 0.1025340
0.0806909 0.4177663 0.1025340
0.0806909 0.4177663 0.1025340
0.0806909 0.4177663 0.1025340
0.0819717 0.4222287 0.1064757
0.0857502 0.4353936 0.1035919
0.0902064 0.4509197 0.1046689
0.0946225 0.4663059 0.1054378
0.1251535 0.4809423 0.1064415
0.2047872 0.4943245 0.1073574
0.2611048 0.5072452 0.1154018
0.3176860 0.5214009 0.1162720
0.3759701 0.5341313 0.1170441
0.4207165 0.5495366 0.1251973
0.4668604 0.5609220 0.1344329
0.5117194 0.5726647 0.1361512
0.5540602 0.5828578 0.1465535
0.5859031 0.5909373 0.1585031
0.6159250 0.6016495 0.1621697
0.6415366 0.6083912 0.1753387
0.6625302 0.6158384 0.1846038
0.6834894 0.6216145 0.1984947
0.7056782 0.6319532 0.2114444
0.7219677 0.6367841 0.2255708
0.7366522 0.6413299 0.2400557
0.7561755 0.6475190 0.2460132
0.7705182 0.6554812 0.2560864
0.7828811 0.6595228 0.2708285
0.7950252 0.6634882 0.2856869
0.8068743 0.6716613 0.3004571
0.8141460 0.6743545 0.3120526
0.0863148 0.4373609 0.1191270
0.0863148 0.4373609 0.1191270
0.0863148 0.4373609 0.1191270
0.0863148 0.4373609 0.1191270
0.0863148 0.4373609 0.1191270
0.0863148 0.4373609 0.1191270
0.0863148 0.4373609 0.1191270
0.0905053 0.4519613 0.1217123
0.0963525 0.4723335 0.1229943
0.1008728 0.4880829 0.1187879
0.1160762 0.5012281 0.1207483
0.1993780 0.5167448 0.1319640
0.2609278 0.5308235 0.1338152
0.3209061 0.5433674 0.1355806
0.3717876 0.5538319 0.1343509
0.4178789 0.5654195 0.1439175
0.4749809 0.5796226 0.1449566
0.5105499 0.5927190 0.1552708
0.5540935 0.6019777 0.1583411
0.5863277 0.6102743 0.1707337
0.6160610 0.6199062 0.1829064
0.6476469 0.6265015 0.1877349
0.6634848 0.6356602 0.2015266
0.6848227 0.6409432 0.2113214
0.7066144 0.6467947 0.2250622
0.7235474 0.6527269 0.2313223
0.7388465 0.6616401 0.2452294
0.7579617 0.6668538 0.2593940
0.7717919 0.6706504 0.2702532
0.7847829 0.6791039 0.2847825
0.7969898 0.6831699 0.2999730
0.8087690 0.6879978 0.3072751
0.8165004 0.6953271 0.3224310
0.0938674 0.4636753 0.1389065
0.0938674 0.4636753 0.1389065
0.0938674 0.4636753 0.1389065
0.0938674 0.4636753 0.1389065
0.0938674 0.4636753 0.1389065
0.0938674 0.4636753 0.1389065
