data/spectral_luts/vision3_250d_2393.cube
TITLE "vision3_250d_2393"
LUT_3D_SIZE 33
0.0017814 0.0015304 0.0010764
0.0019967 0.0015643 0.0010841
0.0027286 0.0016692 0.0011046
0.0042265 0.0018493 0.0011298
0.0070310 0.0021821 0.0011520
0.0119055 0.0026256 0.0012038
0.0216238 0.0031625 0.0011581
0.0399088 0.0039506 0.0019954
0.0661015 0.0049337 0.0035808
0.0947171 0.0059577 0.0059577
0.1241382 0.0091639 0.0091639
0.1552891 0.0134644 0.0134644
0.1895211 0.0193369 0.0193369
0.2230727 0.0263273 0.0263273
0.2553092 0.0342558 0.0342558
0.2885337 0.0435992 0.0435992
0.3186746 0.0522501 0.0522501
0.3518656 0.0617764 0.0617764
0.3847167 0.0712052 0.0712052
0.4172091 0.0805310 0.0805310
0.4458059 0.0887387 0.0887387
0.4728521 0.0965013 0.0965013
0.4998834 0.1042597 0.1042597
0.5263115 0.1118450 0.1118450
0.5494857 0.1184963 0.1184963
0.5691398 0.1241373 0.1241373
0.5936071 0.1403532 0.1311598
0.6130924 0.1562051 0.1367523
0.6308336 0.1705613 0.1418443
0.6494445 0.1878131 0.1506375
0.6663297 0.2030592 0.1692177
0.6823493 0.2178266 0.1879186
0.6971864 0.2343415 0.2075595
0.0018226 0.0017428 0.0011293
0.0020168 0.0018067 0.0011399
0.0029089 0.0019699 0.0011410
0.0044764 0.0022470 0.0011691
0.0075035 0.0027001 0.0012168
0.0130929 0.0033125 0.0012300
0.0231548 0.0042329 0.0011725
0.0434543 0.0053945 0.0021787
0.0702005 0.0067806 0.0038787
0.0970814 0.0079432 0.0061860
0.1269804 0.0095167 0.0095167
0.1625511 0.0146074 0.0146074
0.1979020 0.0209658 0.0209658
0.2294922 0.0278096 0.0278096
0.2625369 0.0362020 0.0362020
0.2944971 0.0453108 0.0453108
0.3267922 0.0545800 0.0545800
0.3589059 0.0637971 0.0637971
0.3915632 0.0731702 0.0731702
0.4245510 0.0826382 0.0826382
0.4532077 0.0908631 0.0908631
0.4808474 0.0987961 0.0987961
0.5060129 0.1060190 0.1060190
0.5317466 0.1134049 0.1134049
0.5544165 0.1199115 0.1199115
0.5751150 0.1358905 0.1258523
0.5977780 0.1491769 0.1323569
0.6173589 0.1653138 0.1379769
0.6351233 0.1798620 0.1430756
0.6538295 0.1975059 0.1508161
0.6703422 0.2121036 0.1694765
0.6871609 0.2289031 0.1883297
0.6989947 0.2385885 0.2077593
0.0018871 0.0024108 0.0012056
0.0021448 0.0025091 0.0012166
0.0030846 0.0027826 0.0012424
0.0049021 0.0031264 0.0012616
0.0080508 0.0036675 0.0012983
0.0144442 0.0045417 0.0012934
0.0252717 0.0056256 0.0012636
0.0470138 0.0072474 0.0023725
0.0725319 0.0088358 0.0040543
0.1021937 0.0110987 0.0066969
0.1325074 0.0131103 0.0102252
0.1688510 0.0156433 0.0156433
0.2046530 0.0223342 0.0223342
0.2364319 0.0294656 0.0294656
0.2696646 0.0381830 0.0381830
0.3036394 0.0479348 0.0479348
0.3350684 0.0569554 0.0569554
0.3669731 0.0661125 0.0661125
0.3987776 0.0752409 0.0752409
0.4326968 0.0849762 0.0849762
0.4611620 0.0931461 0.0931461
0.4870679 0.1005815 0.1005815
0.5114527 0.1075802 0.1075802
0.5353484 0.1172030 0.1144387
0.5604230 0.1315415 0.1216355
0.5792632 0.1445946 0.1270429
0.6030155 0.1602202 0.1338601
0.6216498 0.1745029 0.1392085
0.6405215 0.1916282 0.1446249
0.6578337 0.2064108 0.1509250
0.6723650 0.2166860 0.1695884
0.6889545 0.2330583 0.1884656
0.7026356 0.2471898 0.2081338
0.0019433 0.0036923 0.0013326
0.0022432 0.0039284 0.0013466
0.0034162 0.0042901 0.0013616
0.0054380 0.0048053 0.0014011
0.0090931 0.0056078 0.0013854
0.0164389 0.0069245 0.0013414
0.0292580 0.0084516 0.0014629
0.0508078 0.0105915 0.0025898
0.0791782 0.0137501 0.0045800
0.1093043 0.0168715 0.0074470
0.1398052 0.0195425 0.0112064
0.1779483 0.0243679 0.0172127
0.2143062 0.0288591 0.0243791
0.2464404 0.0330557 0.0319529
0.2798529 0.0411077 0.0411077
0.3115860 0.0502156 0.0502156
0.3443783 0.0596274 0.0596274
0.3780257 0.0692848 0.0692848
0.4101231 0.0784972 0.0784972
0.4419582 0.0876343 0.0876343
0.4687841 0.0957785 0.0953337
0.4940145 0.1057962 0.1025752
0.5166414 0.1173851 0.1090695
0.5422990 0.1312868 0.1164336
0.5663658 0.1436887 0.1233411
0.5865172 0.1597628 0.1291249
0.6093851 0.1737114 0.1356883
0.6291212 0.1906144 0.1413529
0.6448258 0.2012916 0.1458603
0.6619607 0.2158921 0.1573694
0.6790390 0.2321813 0.1761178
0.6909928 0.2414817 0.1887664
0.7079477 0.2598669 0.2086108
0.0018075 0.0063432 0.0014745
0.0021697 0.0064664 0.0014751
0.0035559 0.0072391 0.0015143
0.0059846 0.0078801 0.0014938
0.0103060 0.0092089 0.0014778
0.0186302 0.0115389 0.0013681
0.0342000 0.0141332 0.0017100
0.0566455 0.0177040 0.0029461
0.0851720 0.0216458 0.0050864
0.1163658 0.0268356 0.0082384
0.1483590 0.0323531 0.0124239
0.1871447 0.0404334 0.0188889
0.2244186 0.0477744 0.0266342
0.2582991 0.0560616 0.0350533
0.2914709 0.0619021 0.0444422
0.3264371 0.0717994 0.0544781
0.3564652 0.0778979 0.0630966
0.3899873 0.0878397 0.0727179
0.4220146 0.0967829 0.0819102
0.4528692 0.1051001 0.0907659
0.4769551 0.1160460 0.0976790
0.5037056 0.1297274 0.1053567
0.5271409 0.1381766 0.1120830
0.5521809 0.1513370 0.1192699
0.5776404 0.1668901 0.1265771
0.5948625 0.1772957 0.1315201
0.6189314 0.1941532 0.1384282
0.6353372 0.2044025 0.1431369
0.6528317 0.2192604 0.1481581
0.6685339 0.2309691 0.1607222
0.6809511 0.2407505 0.1795100
0.6971740 0.2565101 0.1990267
0.7122900 0.2705143 0.2122778
0.0011316 0.0122494 0.0016024
0.0014464 0.0124003 0.0015966
0.0032087 0.0132255 0.0016059
0.0060444 0.0149497 0.0015314
0.0115463 0.0166727 0.0014433
0.0220955 0.0204381 0.0011849
0.0392053 0.0247695 0.0019603
0.0642115 0.0303410 0.0034482
0.0953759 0.0386872 0.0060208
0.1260663 0.0465251 0.0094024
0.1615541 0.0552021 0.0144473
0.1996776 0.0619537 0.0213209
0.2379730 0.0708689 0.0298410
0.2710795 0.0779981 0.0385836
0.3054274 0.0860504 0.0484480
0.3385392 0.0931215 0.0579515
0.3690591 0.1004631 0.0667112
0.4006963 0.1122987 0.0757915
0.4321685 0.1206936 0.0848245
0.4636857 0.1304886 0.0938704
0.4890615 0.1397036 0.1011537
0.5152153 0.1526543 0.1086602
0.5401276 0.1646370 0.1158104
0.5633329 0.1742168 0.1224707
0.5860600 0.1848594 0.1289936
0.6060563 0.2012241 0.1347329
0.6269004 0.2119222 0.1407155
0.6431400 0.2218545 0.1453764
0.6571696 0.2333703 0.1494032
0.6742682 0.2481575 0.1607822
0.6901147 0.2623778 0.1797617
0.7046477 0.2745409 0.1994328
0.7187867 0.2864671 0.2127014
0.0011516 0.0230330 0.0015268
0.0011619 0.0232380 0.0015136
0.0018341 0.0246576 0.0014145
0.0054087 0.0271326 0.0013566
0.0119762 0.0311556 0.0015578
0.0238006 0.0354961 0.0017748
0.0436013 0.0423344 0.0021865
0.0705532 0.0509590 0.0039049
0.1025332 0.0595766 0.0067316
0.1360079 0.0677584 0.0106893
0.1701210 0.0765069 0.0158572
0.2091161 0.0844171 0.0232667
0.2478645 0.0940347 0.0323164
0.2807981 0.1002851 0.0413790
0.3164103 0.1106240 0.0516002
0.3503267 0.1196884 0.0613347
0.3797948 0.1258711 0.0697925
0.4133964 0.1366006 0.0794367
0.4454253 0.1464751 0.0886294
0.4767020 0.1562112 0.0976063
0.5033305 0.1681131 0.1052491
0.5279889 0.1787434 0.1123264
0.5520653 0.1893793 0.1192367
0.5762638 0.2019465 0.1261820
0.5987476 0.2121052 0.1326352
0.6133077 0.2223046 0.1368141
0.6346993 0.2338736 0.1429539
0.6511403 0.2443960 0.1476727
0.6669406 0.2559796 0.1522076
0.6837490 0.2706005 0.1604244
0.6986657 0.2830558 0.1797096
0.7133084 0.2959224 0.1996541
0.7265069 0.3062775 0.2199775
0.0018570 0.0371392 0.0018570
0.0018570 0.0371392 0.0018570
0.0019814 0.0396275 0.0019814
0.0030014 0.0432637 0.0021686
0.0104321 0.0492605 0.0024999
0.0243881 0.0546993 0.0028243
0.0493427 0.0632978 0.0033851
0.0788745 0.0716017 0.0045551
0.1080840 0.0804384 0.0073150
0.1430461 0.0900535 0.0116591
0.1779695 0.0992668 0.0172165
0.2212884 0.1104190 0.0259237
0.2601030 0.1192443 0.0355396
0.2940186 0.1269752 0.0451735
0.3282966 0.1342321 0.0550118
0.3638705 0.1467422 0.0652220
0.3939691 0.1541949 0.0738607
0.4274112 0.1647646 0.0834591
0.4591168 0.1743370 0.0925591
0.4906589 0.1849646 0.1016121
0.5146496 0.1920406 0.1084978
0.5401146 0.2046690 0.1158066
0.5613364 0.2150619 0.1218976
0.5827767 0.2211200 0.1280513
0.6061517 0.2337436 0.1347603
0.6233192 0.2449470 0.1396876
0.6446317 0.2567009 0.1458046
0.6605225 0.2665160 0.1503655
0.6765360 0.2795461 0.1549616
0.6923512 0.2917785 0.1632840
0.7084148 0.3075669 0.1827043
0.7208964 0.3151373 0.1996040
0.7352389 0.3288432 0.2202101
0.0029602 0.0568679 0.0029602
0.0029602 0.0568679 0.0029602
0.0030944 0.0589536 0.0030944
0.0033365 0.0625876 0.0033365
0.0072185 0.0702667 0.0038836
0.0237677 0.0765903 0.0043708
0.0498197 0.0836672 0.0049564
0.0819037 0.0940776 0.0058968
0.1183195 0.1040939 0.0084657
0.1511676 0.1144050 0.0128397
0.1923921 0.1257080 0.0198862
0.2292763 0.1358153 0.0277590
0.2685350 0.1445432 0.0378650
0.3034301 0.1533764 0.0478747
0.3386858 0.1621730 0.0579936
0.3744533 0.1753830 0.0682594
0.4047028 0.1832850 0.0769415
0.4369952 0.1911974 0.0862099
0.4680268 0.1994918 0.0951164
0.4988042 0.2085963 0.1039500
0.5243728 0.2192924 0.1112885
0.5473543 0.2264633 0.1178846
0.5728565 0.2408624 0.1252040
0.5949309 0.2492451 0.1315398
0.6181890 0.2614638 0.1382152
0.6346347 0.2721610 0.1429353
0.6562002 0.2849703 0.1491249
0.6711507 0.2926944 0.1534159
0.6882462 0.3085570 0.1583226
0.7020523 0.3167292 0.1691812
0.7171010 0.3305117 0.1891040
0.7317339 0.3437715 0.2026290
0.7449850 0.3551790 0.2237695
0.0045008 0.0782066 0.0045008
0.0045008 0.0782066 0.0045008
0.0045947 0.0793583 0.0045947
0.0049323 0.0833861 0.0049323
0.0053956 0.0886606 0.0053956
0.0206813 0.0990636 0.0063813
0.0522927 0.1072559 0.0072262
0.0845000 0.1156551 0.0081567
0.1215129 0.1274938 0.0095813
0.1622804 0.1387418 0.0145638
0.2004014 0.1500943 0.0214666
0.2382773 0.1607506 0.0299154
0.2780352 0.1686574 0.0405860
0.3140416 0.1795424 0.0509204
0.3552164 0.1896362 0.0627381
0.3839906 0.1979509 0.0709968
0.4155497 0.2086847 0.0800547
0.4543830 0.2186521 0.0912004
0.4801513 0.2271899 0.0985963
0.5108876 0.2363207 0.1074181
0.5363796 0.2469148 0.1147346
0.5598252 0.2556148 0.1214639
0.5847253 0.2694828 0.1286106
0.6079909 0.2802240 0.1352881
0.6295179 0.2894981 0.1414667
0.6449713 0.2974152 0.1459020
0.6677532 0.3137244 0.1524408
0.6827862 0.3220002 0.1567555
0.6988700 0.3359427 0.1613718
0.7127212 0.3446222 0.1675824
0.7267324 0.3562145 0.1880825
0.7411844 0.3702060 0.2091135
0.7532412 0.3780093 0.2234059
0.0062004 0.0972284 0.0062004
0.0062004 0.0972284 0.0062004
0.0062216 0.0974453 0.0062216
0.0066484 0.1017188 0.0066484
0.0075319 0.1100815 0.0075319
0.0149231 0.1175278 0.0083731
0.0480155 0.1276662 0.0096030
0.0874168 0.1374856 0.0108889
0.1249847 0.1501105 0.0126823
0.1649664 0.1606674 0.0149997
0.2049503 0.1748490 0.0223956
0.2429125 0.1835188 0.0310627
0.2878516 0.1965952 0.0434034
0.3288942 0.2049099 0.0551833
0.3660384 0.2178686 0.0658442
0.3956019 0.2280117 0.0743294
0.4333362 0.2383037 0.0851597
0.4674115 0.2509343 0.0949398
0.4918139 0.2561544 0.1019436
0.5229787 0.2660886 0.1108884
0.5478467 0.2756924 0.1180259
0.5725075 0.2873452 0.1251039
0.5956555 0.2970755 0.1317477
0.6181339 0.3064190 0.1381993
0.6428078 0.3231131 0.1452811
0.6583973 0.3328265 0.1497555
0.6781947 0.3419116 0.1554377
0.6932653 0.3507099 0.1597631
0.7081535 0.3620653 0.1640363
0.7221121 0.3762496 0.1763703
0.7349409 0.3843443 0.1903226
0.7485049 0.3955514 0.2081263
0.7604939 0.4044100 0.2304291
0.0086591 0.1199590 0.0086591
0.0086591 0.1199590 0.0086591
0.0086591 0.1199590 0.0086591
0.0090847 0.1234917 0.0090847
0.0100600 0.1312394 0.0100600
0.0111631 0.1394906 0.0111631
0.0460760 0.1496173 0.0126092
0.0863606 0.1644805 0.0149203
0.1318960 0.1761169 0.0168897
0.1694739 0.1865188 0.0187719
0.2107195 0.2003184 0.0236071
0.2566009 0.2129112 0.0345990
0.2937320 0.2257508 0.0450912
0.3360797 0.2350441 0.0572456
0.3735159 0.2473067 0.0679904
0.4043521 0.2601319 0.0768408
0.4408212 0.2680975 0.0873080
0.4747146 0.2789508 0.0970359
0.5022389 0.2919878 0.1049358
0.5321652 0.2978519 0.1135250
0.5571854 0.3079802 0.1207062
0.5813207 0.3185112 0.1276334
0.6057755 0.3312014 0.1346523
0.6285006 0.3406107 0.1411747
0.6502452 0.3503101 0.1474158
0.6668870 0.3618222 0.1521922
0.6868473 0.3712303 0.1579211
0.7018163 0.3802511 0.1622174
0.7159246 0.3893606 0.1662667
0.7308528 0.4012990 0.1741376
0.7436318 0.4105002 0.1962803
0.7562380 0.4197627 0.2184517
0.7701293 0.4338101 0.2332695
0.0118423 0.1443367 0.0118423
0.0118423 0.1443367 0.0118423
0.0118423 0.1443367 0.0118423
0.0121551 0.1465136 0.0121551
0.0133580 0.1545954 0.0133580
0.0149433 0.1646214 0.0149433
0.0356536 0.1746369 0.0166313
0.0854238 0.1896781 0.0193667
0.1299972 0.2013927 0.0216671
0.1755857 0.2155156 0.0246427
0.2153008 0.2262331 0.0270512
0.2632776 0.2420103 0.0364050
0.3074386 0.2548128 0.0490252
0.3456116 0.2689160 0.0599814
0.3826472 0.2772991 0.0706112
0.4132136 0.2887925 0.0793842
0.4511628 0.2989875 0.0902762
0.4854126 0.3113635 0.1001064
0.5183337 0.3232439 0.1095552
0.5435514 0.3312590 0.1167931
0.5687834 0.3416039 0.1240350
0.5987496 0.3529657 0.1326357
0.6166493 0.3623303 0.1377732
0.6386179 0.3701648 0.1440785
0.6605030 0.3799720 0.1503599
0.6762227 0.3892567 0.1548717
0.6972054 0.4018866 0.1608940
0.7121675 0.4113525 0.1651884
0.7262810 0.4209276 0.1692392
0.7402511 0.4304726 0.1789995
0.7540260 0.4420669 0.1935301
0.7665428 0.4515408 0.2164069
0.7783257 0.4606119 0.2396978
0.0154669 0.1677956 0.0154669
0.0154669 0.1677956 0.0154669
0.0154669 0.1677956 0.0154669
0.0155825 0.1684881 0.0155825
0.0169325 0.1763606 0.0169325
0.0193101 0.1893802 0.0193101
0.0218528 0.2023061 0.0218528
0.0790829 0.2142053 0.0243572
0.1283941 0.2269245 0.0272111
0.1766689 0.2403548 0.0304265
0.2223075 0.2580608 0.0349893
0.2648973 0.2701150 0.0383103
0.3132164 0.2823208 0.0506835
0.3529937 0.2982323 0.0621002
0.3908162 0.3077228 0.0729558
0.4278948 0.3212014 0.0835979
0.4596907 0.3289822 0.0927238
0.4952420 0.3438999 0.1029276
0.5270619 0.3512477 0.1120603
0.5533133 0.3627503 0.1195949
0.5779308 0.3711905 0.1266605
0.6081736 0.3826706 0.1353406
0.6315469 0.3936526 0.1420491
0.6491686 0.4034589 0.1471068
0.6702721 0.4116007 0.1531638
0.6861138 0.4204678 0.1577106
0.7062353 0.4308933 0.1634857
0.7210978 0.4405162 0.1677515
0.7342440 0.4473495 0.1715247
0.7481598 0.4558388 0.1800732
0.7607993 0.4647726 0.1993395
0.7732010 0.4742518 0.2229131
0.7850942 0.4827047 0.2383424
0.0197024 0.1914367 0.0197024
0.0197024 0.1914367 0.0197024
0.0197024 0.1914367 0.0197024
0.0197024 0.1914367 0.0197024
0.0220180 0.2031149 0.0220180
0.0242730 0.2138171 0.0242730
0.0270557 0.2262526 0.0270557
0.0748997 0.2411077 0.0306130
0.1298511 0.2553053 0.0342548
0.1763292 0.2677741 0.0376516
0.2238163 0.2848303 0.0425363
0.2686319 0.2993394 0.0467006
0.3153251 0.3113568 0.0512888
0.3554650 0.3264255 0.0628095
0.3950525 0.3389358 0.0741717
0.4346244 0.3489702 0.0855294
0.4682847 0.3622198 0.0951904
0.5023502 0.3697476 0.1049677
0.5367948 0.3855920 0.1148538
0.5618098 0.3922245 0.1220335
0.5935384 0.4049831 0.1311401
0.6162582 0.4109500 0.1376610
0.6404063 0.4244315 0.1445918
0.6565311 0.4283535 0.1492199
0.6785274 0.4387450 0.1555331
0.6989745 0.4490410 0.1614018
0.7151280 0.4605947 0.1660381
0.7283707 0.4652917 0.1698389
0.7423848 0.4737262 0.1738612
0.7561044 0.4832338 0.1850095
0.7693477 0.4952864 0.2086627
0.7802242 0.4985110 0.2250654
0.7919766 0.5074058 0.2446898
0.0254300 0.2190836 0.0254300
0.0254300 0.2190836 0.0254300
0.0254300 0.2190836 0.0254300
0.0254300 0.2190836 0.0254300
0.0264689 0.2236950 0.0264689
0.0292471 0.2355296 0.0292471
0.0327443 0.2495293 0.0327443
0.0530143 0.2661594 0.0372011
0.1202838 0.2802739 0.0412285
0.1770255 0.2973870 0.0461403
0.2240158 0.3100810 0.0497836
0.2770971 0.3253680 0.0541712
0.3192448 0.3424909 0.0590857
0.3598779 0.3530653 0.0640761
0.3996916 0.3640641 0.0755032
0.4376621 0.3791512 0.0864013
0.4711269 0.3894272 0.0960062
0.5057375 0.3984606 0.1059399
0.5399282 0.4116569 0.1157532
0.5653616 0.4182455 0.1230529
0.5980610 0.4330342 0.1324381
0.6210368 0.4398857 0.1390325
0.6449090 0.4496951 0.1458842
0.6612360 0.4548651 0.1505703
0.6838870 0.4678775 0.1570714
0.7032444 0.4724205 0.1626273
0.7185391 0.4824696 0.1670171
0.7334486 0.4914419 0.1712964
0.7489094 0.4989131 0.1757338
0.7607083 0.5074087 0.1904564
0.7734621 0.5160680 0.2062477
0.7861362 0.5207008 0.2315444
0.7961618 0.5290483 0.2472038
0.0321973 0.2473989 0.0321973
0.0321973 0.2473989 0.0321973
0.0321973 0.2473989 0.0321973
0.0321973 0.2473989 0.0321973
0.0327181 0.2494274 0.0327181
0.0358084 0.2610939 0.0358084
0.0397787 0.2752506 0.0397787
0.0441495 0.2904509 0.0441495
0.1173337 0.3058228 0.0485615
0.1731528 0.3193845 0.0524539
0.2258237 0.3357930 0.0571633
0.2746522 0.3535859 0.0622702
0.3204185 0.3671541 0.0661644
0.3690268 0.3798733 0.0698150
0.4098887 0.3924713 0.0784299
0.4422878 0.4061560 0.0877289
0.4757612 0.4146090 0.0973363
0.5112770 0.4269025 0.1075298
0.5460652 0.4394389 0.1175146
0.5715880 0.4473585 0.1248400
0.6040949 0.4591269 0.1341699
0.6280401 0.4680992 0.1410426
0.6507635 0.4734895 0.1475645
0.6736957 0.4850472 0.1541464
0.6892893 0.4893111 0.1586220
0.7099794 0.5003361 0.1645603
0.7261909 0.5122259 0.1692133
0.7397065 0.5161674 0.1730925
0.7538967 0.5258080 0.1791781
0.7664068 0.5295621 0.1960448
0.7791464 0.5383908 0.2122992
0.7922352 0.5510091 0.2369710
0.8025662 0.5543734 0.2535631
0.0387557 0.2716847 0.0387557
0.0387557 0.2716847 0.0387557
0.0387557 0.2716847 0.0387557
0.0387557 0.2716847 0.0387557
0.0387557 0.2716847 0.0387557
0.0423194 0.2840748 0.0423194
0.0461179 0.2973092 0.0461179
0.0508973 0.3139611 0.0508973
0.1120710 0.3313197 0.0558795
0.1726029 0.3465692 0.0602563
0.2223667 0.3591330 0.0638623
0.2734322 0.3773265 0.0690841
0.3252683 0.3935300 0.0737347
0.3714352 0.4060003 0.0773139
0.4128405 0.4169329 0.0804517
0.4450065 0.4262264 0.0885092
0.4800200 0.4428319 0.0985586
0.5160342 0.4517878 0.1088952
0.5499561 0.4605348 0.1186313
0.5839933 0.4765156 0.1284005
0.6092623 0.4827551 0.1356531
0.6338609 0.4950492 0.1427132
0.6568325 0.5007008 0.1493064
0.6788976 0.5061141 0.1556394
0.6963162 0.5193482 0.1606388
0.7159741 0.5244939 0.1662809
0.7312678 0.5350618 0.1706704
0.7448536 0.5391874 0.1745698
0.7591655 0.5484997 0.1891107
0.7764815 0.5556278 0.2056000
0.7850119 0.5645689 0.2271710
0.7975094 0.5732379 0.2432612
0.8078740 0.5767496 0.2603047
0.0458045 0.2962172 0.0458045
0.0458045 0.2962172 0.0458045
0.0458045 0.2962172 0.0458045
0.0458045 0.2962172 0.0458045
0.0458045 0.2962172 0.0458045
0.0491940 0.3080266 0.0491940
0.0528445 0.3207456 0.0528445
0.0578936 0.3383372 0.0578936
0.0905949 0.3530239 0.0621089
0.1654551 0.3688296 0.0666453
0.2249901 0.3868635 0.0718213
0.2702418 0.4005392 0.0757465
0.3245627 0.4140506 0.0796244
0.3688042 0.4303929 0.0843149
0.4118510 0.4441122 0.0882526
0.4482760 0.4540000 0.0910905
0.4897151 0.4663198 0.1013413
0.5197529 0.4787814 0.1099625
0.5548948 0.4897857 0.1200488
0.5877933 0.4982865 0.1294911
0.6144858 0.5097483 0.1371523
0.6381941 0.5169833 0.1439569
0.6619698 0.5253574 0.1507809
0.6853829 0.5358571 0.1575008
0.7008747 0.5419044 0.1619472
0.7206914 0.5471815 0.1676349
0.7361737 0.5564615 0.1720785
0.7504455 0.5632472 0.1776608
0.7690572 0.5730031 0.1938790
0.7811291 0.5782104 0.2211410
0.7897481 0.5866168 0.2376762
0.8011245 0.5898073 0.2503448
0.8133337 0.6008497 0.2668101
0.0539439 0.3245759 0.0539439
0.0539439 0.3245759 0.0539439
0.0539439 0.3245759 0.0539439
0.0539439 0.3245759 0.0539439
0.0539439 0.3245759 0.0539439
0.0551799 0.3288825 0.0551799
0.0590359 0.3423172 0.0590359
0.0635601 0.3580803 0.0635601
0.0779374 0.3750058 0.0684180
0.1579758 0.3924613 0.0734280
0.2176939 0.4120214 0.0790420
0.2757639 0.4263975 0.0831682
0.3229359 0.4416918 0.0875579
0.3677549 0.4549077 0.0913510
0.4122380 0.4656969 0.0944477
0.4528859 0.4765847 0.0975726
0.4895301 0.4926392 0.1021805
0.5262743 0.5027617 0.1118343
0.5544438 0.5103049 0.1199194
0.5908823 0.5202951 0.1303777
0.6182272 0.5340637 0.1382261
0.6424835 0.5404678 0.1451880
0.6658349 0.5467125 0.1518902
0.6893821 0.5576676 0.1586486
0.7052689 0.5626818 0.1632084
0.7268631 0.5749718 0.1694062
0.7408873 0.5807833 0.1748346
0.7546285 0.5851923 0.1926737
0.7732068 0.5948359 0.2094670
0.7856135 0.5989658 0.2272393
0.7986901 0.6101351 0.2435629
0.8059666 0.6134992 0.2614200
0.8177397 0.6214756 0.2727722
0.0611073 0.3495342 0.0611073
0.0611073 0.3495342 0.0611073
0.0611073 0.3495342 0.0611073
0.0611073 0.3495342 0.0611073
0.0611073 0.3495342 0.0611073
0.0611073 0.3495342 0.0611073
0.0652360 0.3639193 0.0652360
0.0712182 0.3847623 0.0712182
0.0757486 0.4005467 0.0757486
0.1421130 0.4166476 0.0803698
0.2057747 0.4307427 0.0844153
0.2700677 0.4497450 0.0898692
0.3283745 0.4640885 0.0939860
0.3744466 0.4769176 0.0976682
0.4122574 0.4863100 0.1003639
0.4541633 0.5042244 0.1055056
0.4904585 0.5140299 0.1083200
0.5280370 0.5237817 0.1123402
0.5563183 0.5321568 0.1204573
0.5916039 0.5472792 0.1305848
0.6175980 0.5543174 0.1380455
0.6422740 0.5611462 0.1451279
0.6660097 0.5677211 0.1519404
0.6903322 0.5809240 0.1589213
0.7063030 0.5859881 0.1635052
0.7294183 0.5914367 0.1701396
0.7448842 0.6007996 0.1803071
0.7586846 0.6053625 0.1986153
0.7777755 0.6172632 0.2154937
0.7902548 0.6214707 0.2331167
0.8016503 0.6254944 0.2508734
0.8100071 0.6335281 0.2677011
0.8205405 0.6371142 0.2835506
0.0689950 0.3770160 0.0689950
0.0689950 0.3770160 0.0689950
0.0689950 0.3770160 0.0689950
0.0689950 0.3770160 0.0689950
0.0689950 0.3770160 0.0689950
0.0689950 0.3770160 0.0689950
0.0725911 0.3895456 0.0725911
0.0770834 0.4051974 0.0770834
0.0817384 0.4214158 0.0817384
0.1349823 0.4398069 0.0870169
0.2036943 0.4550076 0.0913797
0.2690663 0.4702410 0.0957519
0.3250023 0.4838945 0.0996707
0.3724798 0.4990996 0.1040347
0.4189067 0.5143096 0.1084002
0.4538345 0.5248967 0.1114389
0.4907549 0.5349870 0.1143350
0.5292403 0.5470428 0.1177952
0.5656989 0.5551869 0.1231497
0.5938763 0.5669661 0.1312370
0.6200564 0.5743703 0.1387511
0.6449357 0.5814393 0.1458918
0.6693193 0.5903640 0.1528903
0.6932636 0.6011892 0.1597627
0.7150425 0.6073219 0.1660135
0.7298439 0.6122428 0.1839496
0.7459749 0.6239886 0.2009068
0.7649307 0.6288216 0.2142297
0.7779054 0.6332358 0.2319734
0.7916462 0.6421432 0.2491444
0.8030791 0.6461989 0.2665255
0.8106346 0.6494758 0.2826566
0.8226339 0.6600397 0.2982135
0.0766478 0.4036797 0.0766478
0.0766478 0.4036797 0.0766478
0.0766478 0.4036797 0.0766478
0.0766478 0.4036797 0.0766478
0.0766478 0.4036797 0.0766478
0.0766478 0.4036797 0.0766478
0.0784999 0.4101327 0.0784999
0.0825053 0.4240880 0.0825053
0.0880458 0.4433919 0.0880458
0.1154783 0.4584446 0.0923662
0.1937900 0.4733713 0.0966503
0.2630905 0.4889987 0.1011356
0.3151996 0.5057759 0.1059509
0.3696846 0.5188872 0.1097141
0.4169608 0.5303077 0.1129919
0.4531943 0.5445678 0.1170848
0.4909826 0.5569788 0.1206469
0.5304173 0.5660818 0.1232596
0.5667437 0.5757678 0.1260397
0.5944000 0.5837422 0.1313874
0.6224582 0.5963089 0.1394405
0.6475920 0.6035635 0.1466542
0.6717900 0.6104171 0.1535994
0.6949949 0.6170045 0.1644280
0.7177801 0.6275930 0.1813055
0.7330998 0.6348649 0.1995012
0.7478605 0.6398625 0.2180721
0.7671639 0.6440716 0.2259861
0.7813140 0.6525000 0.2384631
0.7941206 0.6569803 0.2566958
0.8056324 0.6609669 0.2731257
0.8183658 0.6718416 0.2885946
0.8252149 0.6750578 0.3049030
0.0828857 0.4254132 0.0828857
0.0828857 0.4254132 0.0828857
0.0828857 0.4254132 0.0828857
0.0828857 0.4254132 0.0828857
0.0828857 0.4254132 0.0828857
0.0828857 0.4254132 0.0828857
0.0828857 0.4254132 0.0828857
0.0881104 0.4436167 0.0881104
0.0939431 0.4639387 0.0939431
0.1055199 0.4789689 0.0982569
0.1916826 0.4960836 0.1031691
0.2637132 0.5133814 0.1081338
0.3191641 0.5265047 0.1119004
0.3708800 0.5389562 0.1154742
0.4113936 0.5508859 0.1188982
0.4518220 0.5621728 0.1221377
0.4990452 0.5731382 0.1252849
0.5303719 0.5862948 0.1290610
0.5678433 0.5949723 0.1315516
0.5960928 0.6052923 0.1345136
0.6228239 0.6129972 0.1395454
0.6553699 0.6201236 0.1488866
0.6738945 0.6303775 0.1623534
0.6976822 0.6392213 0.1798390
0.7197818 0.6456348 0.1980239
0.7352154 0.6495066 0.2068109
0.7508891 0.6588909 0.2242213
0.7698938 0.6644872 0.2419770
0.7829723 0.6691088 0.2601554
0.7974364 0.6795449 0.2711223
0.8090133 0.6836126 0.2875859
0.8207261 0.6864965 0.2956450
0.8285163 0.6942563 0.3108258
0.0907311 0.4527479 0.0907311
0.0907311 0.4527479 0.0907311
0.0907311 0.4527479 0.0907311
0.0907311 0.4527479 0.0907311
0.0907311 0.4527479 0.0907311
0.0907311 0.4527479 0.0907311
