data/spectral_luts/vision3_250d_2393.cube
TITLE "vision3_250d_2393"
LUT_3D_SIZE 5
0.0017814 0.0015304 0.0010764
0.0661015 0.0049337 0.0035808
0.3186746 0.0522501 0.0522501
0.5494857 0.1184963 0.1184963
0.6971864 0.2343415 0.2075595
0.0029602 0.0568679 0.0029602
0.1183195 0.1040939 0.0084657
0.4047028 0.1832850 0.0769415
0.6181890 0.2614638 0.1382152
0.7449850 0.3551790 0.2237695
0.0321973 0.2473989 0.0321973
0.1173337 0.3058228 0.0485615
0.4757612 0.4146090 0.0973363
0.6892893 0.4893111 0.1586220
0.8025662 0.5543734 0.2535631
0.0907311 0.4527479 0.0907311
0.0981941 0.4787498 0.0981941
0.4933048 0.5932341 0.1310527
0.7218660 0.6657054 0.2145419
0.8306972 0.7085120 0.3173567
0.1396412 0.6231575 0.2511351
0.1396412 0.6231575 0.2511351
0.4861507 0.7134870 0.2805796
0.7276972 0.7714338 0.3371332
0.8412277 0.8084372 0.4095365
0.0047245 0.0047245 0.0809263
0.0923168 0.0082392 0.1145705
0.3499297 0.0612208 0.1780267
0.5613084 0.1305733 0.2594595
0.7029462 0.2496395 0.3433400
0.0110784 0.1102619 0.1388743
0.1196748 0.1560997 0.1761974
0.4195203 0.2235364 0.2284839
0.6222514 0.2891541 0.2944442
0.7472966 0.3734241 0.3695439
0.0526633 0.3201144 0.2041266
0.0698532 0.3800064 0.2303406
0.4727857 0.4652516 0.2771286
0.6894262 0.5266664 0.3343842
0.8006699 0.5801549 0.4034433
0.1049752 0.5023764 0.2692430
0.1133451 0.5315381 0.2802521
0.4784602 0.6303723 0.3209951
0.7128837 0.6887826 0.3663875
0.8292924 0.7262926 0.4350478
0.1453432 0.6430241 0.3353205
0.1456831 0.6442083 0.3416174
0.4816064 0.7310294 0.3699993
0.7211246 0.7842944 0.4182642
0.8371710 0.8184920 0.4764126
0.0567000 0.0543097 0.3258505
0.1851110 0.0665352 0.3684460
0.4191600 0.0947486 0.4318413
0.6049991 0.1866820 0.4858893
0.7220500 0.2855107 0.5339193
0.0735912 0.1723971 0.3930300
0.1905019 0.2029752 0.4291862
0.4572544 0.2568372 0.4787459
0.6450878 0.3229142 0.5188272
0.7575143 0.4035575 0.5643325
0.0942984 0.4010744 0.4651767
0.1041207 0.4463752 0.4993992
0.4942687 0.5124673 0.5378159
0.6929548 0.5589784 0.5687557
0.8040435 0.6044123 0.5979632
0.1248406 0.5715901 0.5169744
0.1349974 0.6069779 0.5390611
0.4959435 0.6789406 0.5729250
0.7090274 0.7203763 0.5980720
0.8249046 0.7545725 0.6253012
0.1621313 0.7015163 0.5636483
0.1633139 0.7056366 0.5699426
0.4832758 0.7723568 0.5971180
0.7155851 0.8165799 0.6245703
0.8307070 0.8403285 0.6456067
0.2162971 0.1388316 0.5324749
0.3167376 0.1571351 0.5552199
0.5019627 0.2112440 0.5973467
0.6479893 0.2733306 0.6312863
0.7550389 0.3675201 0.6671855
0.1979996 0.2372339 0.5640569
0.3229702 0.2625703 0.5882921
0.5192513 0.3044018 0.6240072
0.6726702 0.3704544 0.6579154
0.7736295 0.4478402 0.6842995
0.1419270 0.4750828 0.6311217
0.3000467 0.5016733 0.6516305
0.5417727 0.5485093 0.6822570
0.7130948 0.5899244 0.7035794
0.8106366 0.6268920 0.7212002
0.1525002 0.6301945 0.6679603
0.2460129 0.6601859 0.6856420
0.5433852 0.7085116 0.7097987
0.7248956 0.7469724 0.7316061
0.8275191 0.7731152 0.7466454
0.1729760 0.7393006 0.6973389
0.2201626 0.7550609 0.7056266
0.5416618 0.8033277 0.7306309
0.7301595 0.8370847 0.7473124
0.8319760 0.8570316 0.7611223
0.3845763 0.2815175 0.6692424
0.4480726 0.2927164 0.6802509
0.5791783 0.3298529 0.7064350
0.7004118 0.3900197 0.7306494
0.7853494 0.4551268 0.7565520
0.3802048 0.3259355 0.6814340
0.4535138 0.3422759 0.6942171
0.5885702 0.3823377 0.7200947
0.7074115 0.4331923 0.7409527
0.7933475 0.4925615 0.7650068
0.3645549 0.5372751 0.7346888
0.4470372 0.5567354 0.7455416
0.6113612 0.5840641 0.7637644
0.7393148 0.6194789 0.7812508
0.8231348 0.6541358 0.7943352
0.3302639 0.6899776 0.7643388
0.4345342 0.7085751 0.7740603
0.6092230 0.7362102 0.7897304
0.7491496 0.7677491 0.8052288
0.8366258 0.7880808 0.8154072
0.3068512 0.7789025 0.7838353
0.4284386 0.7945880 0.7913262
0.6071937 0.8254020 0.8058766
0.7537624 0.8518273 0.8200997
0.8400229 0.8687571 0.8291463
