data/spectral_luts/vision3_250d_2383.cube
TITLE "vision3_250d_2383"
LUT_3D_SIZE 9
0.0065939 0.0054449 0.0051645
0.0152354 0.0066640 0.0054167
0.0778432 0.0123043 0.0058024
0.1962208 0.0221219 0.0206329
0.3349442 0.0569197 0.0569197
0.4629010 0.0936452 0.0936452
0.5576105 0.1208282 0.1208282
0.6365750 0.1695751 0.1476596
0.7031403 0.2363274 0.2128574
0.0067774 0.0126488 0.0065224
0.0182136 0.0158341 0.0068177
0.0897545 0.0294639 0.0074615
0.2199544 0.0551857 0.0256243
0.3600805 0.0821281 0.0641342
0.4920518 0.1184248 0.1020119
0.5828242 0.1664200 0.1280649
0.6563711 0.2194126 0.1576964
0.7177290 0.2734917 0.2152684
0.0036925 0.0676603 0.0102811
0.0120839 0.0775586 0.0107910
0.1117803 0.1041832 0.0093285
0.2544473 0.1428115 0.0340279
0.4053083 0.1841912 0.0771153
0.5352746 0.2250599 0.1144175
0.6235420 0.2684796 0.1397515
0.6926099 0.3131150 0.1696979
0.7462633 0.3581353 0.2299822
0.0148888 0.1642876 0.0148888
0.0162750 0.1725738 0.0162750
0.1105013 0.2102780 0.0235131
0.2860570 0.2601486 0.0428884
0.4486666 0.3074593 0.0895597
0.5755506 0.3509485 0.1259773
0.6610752 0.3889638 0.1505241
0.7274148 0.4298852 0.1800495
0.7769740 0.4688321 0.2489157
0.0383296 0.2701831 0.0383296
0.0386461 0.2712995 0.0386461
0.0583585 0.3187517 0.0522722
0.2866514 0.3766933 0.0689023
0.4660724 0.4276850 0.0945554
0.6061102 0.4738687 0.1347484
0.6856909 0.5033352 0.1575892
0.7502269 0.5367434 0.2050953
0.7978000 0.5594385 0.2622182
0.0655602 0.3650490 0.0692242
0.0655602 0.3650490 0.0692242
0.0775039 0.4066626 0.0775039
0.2820339 0.4665245 0.0946852
0.4740621 0.5198332 0.1099856
0.6166739 0.5610535 0.1377803
0.6956230 0.5871824 0.1871382
0.7658530 0.6176143 0.2372063
0.8096966 0.6388049 0.2907738
0.0938674 0.4636753 0.1389065
0.0938674 0.4636753 0.1389065
0.1005558 0.4869783 0.1407356
0.2511794 0.5489627 0.1502206
0.4723534 0.5993348 0.1676615
0.6234531 0.6396939 0.1950152
0.7079552 0.6674798 0.2382308
0.7734367 0.6886733 0.2803651
0.8160536 0.7085267 0.3295159
0.1176446 0.5465184 0.2053505
0.1176446 0.5465184 0.2053505
0.1204557 0.5563126 0.2047811
0.2249142 0.6111942 0.2179100
0.4659661 0.6599722 0.2326690
0.6171327 0.6991102 0.2612119
0.7056961 0.7200000 0.2917719
0.7734090 0.7428978 0.3323610
0.8230302 0.7618244 0.3739532
0.1390796 0.6212010 0.2743286
0.1390796 0.6212010 0.2743286
0.1390796 0.6212010 0.2743286
0.2032602 0.6618498 0.2869661
0.4614120 0.7113953 0.3010522
0.6195154 0.7453142 0.3196247
0.7094259 0.7665679 0.3524247
0.7776262 0.7876726 0.3893919
0.8218161 0.8034781 0.4217086
0.0061048 0.0067105 0.0140171
0.0170427 0.0083365 0.0161034
0.0853091 0.0157059 0.0244459
0.2041689 0.0261143 0.0368329
0.3466481 0.0602789 0.0626509
0.4690993 0.0954242 0.0997519
0.5619476 0.1220730 0.1458286
0.6405159 0.1769118 0.2005280
0.7032912 0.2358242 0.2509276
0.0049873 0.0163635 0.0190171
0.0187061 0.0213180 0.0231217
0.0957853 0.0365202 0.0323367
0.2237705 0.0648995 0.0477481
0.3726282 0.0952740 0.0758074
0.4969143 0.1278968 0.1124719
0.5854001 0.1715806 0.1596300
0.6579670 0.2229626 0.2075083
0.7219743 0.2848141 0.2582956
0.0047892 0.0816992 0.0354563
0.0055664 0.0905391 0.0402693
0.1102577 0.1198474 0.0527846
0.2603704 0.1585251 0.0668817
0.4139364 0.1972520 0.0931140
0.5373407 0.2347694 0.1282543
0.6252122 0.2761934 0.1753394
0.6937096 0.3184565 0.2244828
0.7470437 0.3623536 0.2755118
0.0179648 0.1821363 0.0573673
0.0194084 0.1898979 0.0598982
0.1002898 0.2312459 0.0699824
0.2807949 0.2815084 0.0839851
0.4484630 0.3274858 0.1073074
0.5815440 0.3647215 0.1476175
0.6613389 0.3985856 0.1919734
0.7276285 0.4371918 0.2413757
0.7770771 0.4737111 0.2919619
0.0441987 0.2906224 0.0808876
0.0449607 0.2932774 0.0806337
0.0575794 0.3372427 0.0897292
0.2843046 0.3929410 0.0988196
0.4703810 0.4427266 0.1231816
0.6043307 0.4850273 0.1603139
0.6855116 0.5176030 0.2107217
0.7538341 0.5442297 0.2578386
0.7977309 0.5673377 0.3089958
0.0688964 0.3766728 0.1097334
0.0696946 0.3794535 0.1137624
0.0823743 0.4236316 0.1166691
0.2716909 0.4770347 0.1309355
0.4700234 0.5286493 0.1519800
0.6145578 0.5686584 0.1876175
0.7002321 0.5962347 0.2277362
0.7648292 0.6232489 0.2783361
0.8087711 0.6443286 0.3327721
0.0945739 0.4661367 0.1490174
0.0945739 0.4661367 0.1490174
0.1028041 0.4948117 0.1561272
0.2571486 0.5544900 0.1687891
0.4701438 0.6029168 0.1894986
0.6221088 0.6431884 0.2181889
0.7072712 0.6697133 0.2535329
0.7727128 0.6914682 0.3001858
0.8152711 0.7117643 0.3534046
0.1176446 0.5465184 0.2053505
0.1176446 0.5465184 0.2053505
0.1201889 0.5553830 0.2048654
0.2249142 0.6111942 0.2179100
0.4659661 0.6599722 0.2326690
0.6171327 0.6991102 0.2612119
0.7056961 0.7200000 0.2917719
0.7734090 0.7428978 0.3323610
0.8227118 0.7629009 0.3818491
0.1390796 0.6212010 0.2743286
0.1390796 0.6212010 0.2743286
0.1390796 0.6212010 0.2743286
0.2032602 0.6618498 0.2869661
0.4614120 0.7113953 0.3010522
0.6195154 0.7453142 0.3196247
0.7094259 0.7665679 0.3524247
0.7776262 0.7876726 0.3893919
0.8218161 0.8034781 0.4217086
0.0074453 0.0098547 0.1005258
0.0254801 0.0121358 0.1100697
0.1072455 0.0194395 0.1269366
0.2274015 0.0310308 0.1506041
0.3633410 0.0650700 0.1795750
0.4836376 0.0995969 0.2096419
0.5693128 0.1277112 0.2514358
0.6510074 0.1883763 0.2893825
0.7109969 0.2522788 0.3369240
0.0083112 0.0266648 0.1169952
0.0235530 0.0322038 0.1270515
0.1127225 0.0505337 0.1466164
0.2440119 0.0758410 0.1681214
0.3853323 0.1047059 0.1978627
0.5093794 0.1383883 0.2296323
0.5924900 0.1844111 0.2632549
0.6684367 0.2377494 0.3051446
0.7262962 0.2952394 0.3487397
0.0132488 0.1077015 0.1538795
0.0149565 0.1201592 0.1647025
0.1209537 0.1479520 0.1844197
0.2701891 0.1789757 0.2042867
0.4246742 0.2192284 0.2289712
0.5469993 0.2509773 0.2589157
0.6291687 0.2906811 0.2884791
0.7010173 0.3318870 0.3226315
0.7511822 0.3780030 0.3645130
0.0259464 0.2213894 0.1910582
0.0285327 0.2325513 0.2001145
0.0882876 0.2685165 0.2145072
0.2817096 0.3077247 0.2348675
0.4519957 0.3485476 0.2552538
0.5819836 0.3863294 0.2825707
0.6678129 0.4185506 0.3146868
0.7331275 0.4545139 0.3453363
0.7772229 0.4831498 0.3863761
0.0557035 0.3307067 0.2242460
0.0578788 0.3382858 0.2262454
0.0709688 0.3838931 0.2439747
0.2754156 0.4271283 0.2610875
0.4693356 0.4711826 0.2837256
0.6068151 0.5089968 0.3057736
0.6881979 0.5349975 0.3389692
0.7521964 0.5578904 0.3697940
0.7973831 0.5824534 0.4042012
0.0816892 0.4212447 0.2556200
0.0816892 0.4212447 0.2556200
0.0941304 0.4645916 0.2692511
0.2565431 0.5106200 0.2833231
0.4657004 0.5564256 0.3002563
0.6146821 0.5900858 0.3264599
0.6956863 0.6141002 0.3575056
0.7620274 0.6406885 0.3924716
0.8109085 0.6607374 0.4231091
0.1053104 0.5035442 0.2866286
0.1053104 0.5035442 0.2866286
0.1139839 0.5337639 0.2944739
0.2237997 0.5849110 0.3118182
0.4634733 0.6298444 0.3299064
0.6208008 0.6643226 0.3501873
0.7013706 0.6870167 0.3744708
0.7686653 0.7083878 0.4096188
0.8159804 0.7235875 0.4410060
0.1273525 0.5803421 0.3218552
0.1273525 0.5803421 0.3218552
0.1301041 0.5899289 0.3233793
0.2052018 0.6380818 0.3413720
0.4597915 0.6819034 0.3536318
0.6150262 0.7187946 0.3815718
0.7054482 0.7383152 0.3990753
0.7734257 0.7593002 0.4340393
0.8194230 0.7734616 0.4624310
0.1441023 0.6387006 0.3539661
0.1444301 0.6398429 0.3601531
0.1444301 0.6398429 0.3601531
0.2012597 0.6807215 0.3683546
0.4596489 0.7269914 0.3845731
0.6196783 0.7597346 0.4057347
0.7041946 0.7791291 0.4303877
0.7738724 0.7971199 0.4586659
0.8188825 0.8116394 0.4839259
0.0243836 0.0240269 0.2126783
0.0565254 0.0263048 0.2229737
0.1419883 0.0321088 0.2470526
0.2569246 0.0387042 0.2715038
0.3931783 0.0736338 0.3034130
0.5056286 0.1059087 0.3324115
0.5863670 0.1423997 0.3641863
0.6589754 0.2014802 0.4030106
0.7210152 0.2639086 0.4362040
0.0284506 0.0323415 0.2322059
0.0523415 0.0390990 0.2428834
0.1481494 0.0567892 0.2678525
0.2693216 0.0824153 0.2929232
0.4088044 0.1143648 0.3218994
0.5227340 0.1501689 0.3542117
0.6063533 0.1975677 0.3809127
0.6755167 0.2492298 0.4150180
0.7338879 0.3032726 0.4460328
0.0417877 0.1329241 0.2822222
0.0448835 0.1438444 0.2930084
0.1531790 0.1669418 0.3155176
0.2900735 0.1987034 0.3386780
0.4428124 0.2349128 0.3648297
0.5582513 0.2663364 0.3861416
0.6396636 0.3070747 0.4120691
0.7029666 0.3428001 0.4366517
0.7578108 0.3896025 0.4685326
0.0527569 0.2510605 0.3204403
0.0569360 0.2656510 0.3350009
0.1156308 0.2996914 0.3548441
0.3017661 0.3344812 0.3784799
0.4654447 0.3716498 0.3965296
0.5947960 0.4053354 0.4218437
0.6690219 0.4347237 0.4389512
0.7333151 0.4640740 0.4648127
0.7822031 0.4976645 0.4882288
0.0661343 0.3670492 0.3593669
0.0692632 0.3779508 0.3656643
0.0800554 0.4155520 0.3889117
0.2901540 0.4579106 0.4094698
0.4787646 0.4961629 0.4228332
0.6097375 0.5316900 0.4473205
0.6921012 0.5556531 0.4633214
0.7512410 0.5744256 0.4882627
0.7996790 0.5929796 0.5098768
0.0913846 0.4550248 0.3873224
0.0917495 0.4562962 0.3879202
0.1038096 0.4983151 0.4102184
0.2565852 0.5413989 0.4261781
0.4710109 0.5842221 0.4481341
0.6152431 0.6159315 0.4661466
0.6973498 0.6349581 0.4849588
0.7631875 0.6540372 0.5069813
0.8085286 0.6720213 0.5288442
0.1144775 0.5354837 0.4202980
0.1160454 0.5409463 0.4208639
0.1246494 0.5709242 0.4318817
0.2373697 0.6139985 0.4503524
0.4680019 0.6529030 0.4682730
0.6193382 0.6854811 0.4862875
0.7010987 0.7060584 0.5021214
0.7688046 0.7223029 0.5206080
0.8147361 0.7375981 0.5425814
0.1362378 0.6112998 0.4475645
0.1362378 0.6112998 0.4475645
0.1393707 0.6222150 0.4511224
0.2048852 0.6658753 0.4690524
0.4629473 0.7070903 0.4906338
0.6128459 0.7385716 0.5052429
0.7044507 0.7550017 0.5209498
0.7682663 0.7726954 0.5433614
0.8155553 0.7868811 0.5617397
0.1521419 0.6667118 0.4771762
0.1521419 0.6667118 0.4771762
0.1521419 0.6667118 0.4771762
0.2014984 0.7110133 0.4944786
0.4641689 0.7503828 0.5091324
0.6166166 0.7784129 0.5236595
0.7032102 0.7970585 0.5397858
0.7731028 0.8120072 0.5619903
0.8183668 0.8251604 0.5805702
0.0732879 0.0553705 0.3295463
0.1069808 0.0586857 0.3410972
0.1896030 0.0649439 0.3629014
0.3024096 0.0731558 0.3915129
0.4295321 0.0850582 0.4218676
0.5320152 0.1275493 0.4485803
0.6143302 0.1756788 0.4787697
0.6785440 0.2332758 0.5058454
0.7317712 0.2856184 0.5325260
0.0658296 0.0596184 0.3443469
0.1041170 0.0627599 0.3552923
0.1949253 0.0697579 0.3796743
0.3082162 0.0904389 0.4071092
0.4401999 0.1232480 0.4342444
0.5441828 0.1671205 0.4608119
0.6239557 0.2129158 0.4899591
0.6879326 0.2635992 0.5150123
0.7404594 0.3203450 0.5421487
0.0741953 0.1565484 0.3951347
0.0768783 0.1642129 0.4044828
0.1941743 0.1897248 0.4270316
0.3278064 0.2145659 0.4520169
0.4701353 0.2506049 0.4768526
0.5752472 0.2828145 0.5013549
0.6554557 0.3227119 0.5191119
0.7147280 0.3663346 0.5405601
0.7629583 0.4046749 0.5661554
0.0871186 0.2852203 0.4401613
0.0907904 0.2959224 0.4529545
0.1642378 0.3255311 0.4736347
0.3296427 0.3565928 0.4975612
0.4894696 0.3922519 0.5199324
0.6023970 0.4266614 0.5370222
0.6810433 0.4477420 0.5520619
0.7403895 0.4824381 0.5739397
0.7850950 0.5151457 0.5904030
0.0974894 0.3996944 0.4762945
0.1001577 0.4142201 0.4855914
0.1072768 0.4457668 0.5103953
0.3170352 0.4827912 0.5253966
0.4998472 0.5163466 0.5453326
0.6187693 0.5479606 0.5660020
0.6958970 0.5653735 0.5769041
0.7549771 0.5877579 0.5932475
0.8031392 0.6049291 0.6066323
0.1056880 0.4848934 0.5048597
0.1079224 0.4992024 0.5126448
0.1124829 0.5275509 0.5285343
0.2957965 0.5683532 0.5485353
0.4914787 0.6009971 0.5670397
0.6224710 0.6289508 0.5811998
0.6997576 0.6462418 0.5975280
0.7656775 0.6689645 0.6093153
0.8106625 0.6831547 0.6222559
0.1244451 0.5702121 0.5330204
0.1244451 0.5702121 0.5330204
0.1332101 0.6007506 0.5525870
0.2683849 0.6381181 0.5682452
0.4870446 0.6753162 0.5868351
0.6185248 0.7027589 0.5999918
0.7023346 0.7183161 0.6116536
0.7697246 0.7333851 0.6252978
0.8141173 0.7511094 0.6377621
0.1428926 0.6344857 0.5625817
0.1428926 0.6344857 0.5625817
0.1481179 0.6526917 0.5679222
0.2411204 0.6891713 0.5874807
0.4715078 0.7270591 0.5994048
0.6181219 0.7533175 0.6169183
0.7050859 0.7727820 0.6263542
0.7689418 0.7866745 0.6369916
0.8162384 0.7961748 0.6473056
0.1592826 0.6915910 0.5820245
0.1592826 0.6915910 0.5820245
0.1600204 0.6941615 0.5875978
0.2445751 0.7331176 0.5998926
0.4724866 0.7669054 0.6155902
0.6206319 0.7925083 0.6278027
0.7034088 0.8107828 0.6409130
0.7689577 0.8210630 0.6455193
0.8171070 0.8334150 0.6560966
0.1462346 0.0869270 0.4394938
0.1776565 0.0905658 0.4521719
0.2443567 0.0955125 0.4694069
0.3553618 0.1025314 0.4938616
0.4693675 0.1271999 0.5188198
0.5654415 0.1721655 0.5436772
0.6345850 0.2176832 0.5630031
0.6959038 0.2654752 0.5828328
0.7474031 0.3245623 0.6066289
0.1384234 0.0886003 0.4453240
0.1738488 0.0922039 0.4578793
0.2461223 0.0972625 0.4755040
0.3528988 0.1150144 0.4989606
0.4707735 0.1466762 0.5252227
0.5702378 0.1901675 0.5481398
0.6398597 0.2363529 0.5692222
0.7022035 0.2880432 0.5895808
0.7508905 0.3377772 0.6093520
0.1144275 0.1884376 0.4948461
0.1646695 0.1937397 0.5030321
0.2490581 0.2160635 0.5204815
0.3768035 0.2434555 0.5416889
0.4954460 0.2738154 0.5629076
0.5974347 0.3078838 0.5814633
0.6664329 0.3400160 0.5959530
0.7233574 0.3789099 0.6118759
0.7720734 0.4246517 0.6297172
0.1144607 0.3172373 0.5354252
0.1173797 0.3333487 0.5455953
0.2327655 0.3484079 0.5595763
0.3790653 0.3825741 0.5828506
0.5184243 0.4095108 0.5982376
0.6195335 0.4429485 0.6139104
0.6886921 0.4633158 0.6246206
0.7473696 0.4979633 0.6403098
0.7901112 0.5238490 0.6498268
0.1234845 0.4360957 0.5668655
0.1258415 0.4467200 0.5750775
0.1778157 0.4744661 0.5938635
0.3716544 0.5028316 0.6108510
0.5237949 0.5309563 0.6264406
0.6285087 0.5583616 0.6397228
0.7063811 0.5804983 0.6501831
0.7639374 0.5991335 0.6588933
0.8035224 0.6128792 0.6664423
0.1301064 0.5204309 0.5899370
0.1321385 0.5311613 0.5970172
0.1362100 0.5558834 0.6112028
0.3455406 0.5860109 0.6304783
0.5153998 0.6162065 0.6419810
0.6312848 0.6413943 0.6545302
0.7096072 0.6607060 0.6640402
0.7693263 0.6792352 0.6727492
0.8138865 0.6932600 0.6848381
0.1362172 0.5904819 0.6112280
0.1375125 0.6012412 0.6157410
0.1412459 0.6263700 0.6287485
0.3244686 0.6584624 0.6421973
0.5119696 0.6886439 0.6585439
0.6327389 0.7116990 0.6707416
0.7112854 0.7301772 0.6802551
0.7726641 0.7437053 0.6883810
0.8163834 0.7566217 0.6980266
0.1482524 0.6531600 0.6311248
0.1482524 0.6531600 0.6311248
0.1556828 0.6790489 0.6423248
0.3043289 0.7111286 0.6564585
0.5079646 0.7426591 0.6708945
0.6260465 0.7651339 0.6825458
0.7077262 0.7797505 0.6916131
0.7712284 0.7930864 0.6996964
0.8182897 0.8056219 0.7070398
0.1641768 0.7086431 0.6497971
0.1641768 0.7086431 0.6497971
0.1671326 0.7189415 0.6545931
0.3134357 0.7520312 0.6684245
0.5099537 0.7822472 0.6839792
0.6284667 0.8037667 0.6930380
0.7118064 0.8185275 0.7020650
0.7757024 0.8329087 0.7101938
0.8187110 0.8396968 0.7169555
0.2213117 0.1129599 0.5270200
0.2479136 0.1229446 0.5345104
0.3147219 0.1331554 0.5477309
0.4101065 0.1571402 0.5704044
0.5187758 0.1936427 0.5933006
0.5956850 0.2296601 0.6129299
0.6599150 0.2666096 0.6285140
0.7183587 0.3109431 0.6463712
0.7633978 0.3662902 0.6667955
0.2162806 0.1125552 0.5259951
0.2479136 0.1229446 0.5345104
0.3147219 0.1331554 0.5477309
0.4101065 0.1571402 0.5704044
0.5187758 0.1936427 0.5933006
0.5934097 0.2295952 0.6127150
0.6599150 0.2666096 0.6285140
0.7183587 0.3109431 0.6463712
0.7633978 0.3662902 0.6667955
0.2046127 0.2232370 0.5642179
0.2426253 0.2330487 0.5721293
0.3197625 0.2502798 0.5863778
0.4279082 0.2730995 0.6077176
0.5367509 0.2975509 0.6234207
0.6186534 0.3312683 0.6434773
0.6807284 0.3646916 0.6589863
0.7385520 0.4052519 0.6704882
0.7809504 0.4449216 0.6861874
0.1618307 0.3525091 0.6064757
0.2068104 0.3635813 0.6131880
0.3064478 0.3793625 0.6279305
0.4313487 0.4020092 0.6438368
0.5512550 0.4324575 0.6591530
0.6371432 0.4585041 0.6740238
0.7025293 0.4877386 0.6871959
0.7567692 0.5154719 0.6987047
0.7963422 0.5384908 0.7103960
0.1447600 0.4733101 0.6409921
0.1463086 0.4802137 0.6463876
0.2801382 0.4964562 0.6584892
0.4286614 0.5261440 0.6744630
0.5520999 0.5507297 0.6906049
0.6447957 0.5727332 0.6995640
0.7168190 0.5893674 0.7099122
0.7686442 0.6068529 0.7190628
0.8112495 0.6210477 0.7271554
0.1500175 0.5513083 0.6593101
0.1516731 0.5615842 0.6650783
0.2454402 0.5801987 0.6770731
0.4077291 0.6101137 0.6953357
0.5580791 0.6321730 0.7074950
0.6468238 0.6532101 0.7192863
0.7193838 0.6711853 0.7252532
0.7732568 0.6887466 0.7341052
0.8173963 0.7023289 0.7397636
0.1557157 0.6208775 0.6791633
0.1572628 0.6297253 0.6845539
0.2006353 0.6484390 0.6954377
0.3945724 0.6787469 0.7093214
0.5465002 0.7034348 0.7207186
0.6481295 0.7232837 0.7324229
0.7205654 0.7405816 0.7399212
0.7760047 0.7550414 0.7480869
0.8192040 0.7653977 0.7549033
0.1596397 0.6749333 0.6928353
0.1608789 0.6826493 0.6971527
0.1630969 0.7005774 0.7048807
0.3830349 0.7284925 0.7220132
0.5431121 0.7577789 0.7335540
0.6415573 0.7731158 0.7440786
0.7167029 0.7896556 0.7492054
0.7788836 0.8008201 0.7568756
0.8206258 0.8105100 0.7614712
0.1688144 0.7248011 0.7108560
0.1688144 0.7248011 0.7108560
0.1737275 0.7419190 0.7195027
0.3786770 0.7705786 0.7315107
0.5462289 0.7967658 0.7442265
0.6443194 0.8118101 0.7502822
0.7207183 0.8280719 0.7591240
0.7783325 0.8384323 0.7664527
0.8187788 0.8475797 0.7729189
0.2995054 0.1862425 0.6096564
0.3274312 0.1946768 0.6160566
0.3855287 0.2086526 0.6275828
0.4750368 0.2273523 0.6429133
0.5559878 0.2543311 0.6577716
0.6260183 0.2869669 0.6768919
0.6894855 0.3263328 0.6906867
0.7389213 0.3661024 0.7075824
0.7803166 0.4063902 0.7216378
0.2995054 0.1862425 0.6096564
0.3274312 0.1946768 0.6160566
0.3855287 0.2086526 0.6275828
0.4750368 0.2273523 0.6429133
0.5559878 0.2543311 0.6577716
0.6260183 0.2869669 0.6768919
0.6894855 0.3263328 0.6906867
0.7389213 0.3661024 0.7075824
0.7803166 0.4063902 0.7216378
0.2985268 0.2670380 0.6359469
0.3292572 0.2705738 0.6407021
0.3877695 0.2829211 0.6507986
0.4831152 0.3078668 0.6669538
0.5710481 0.3378626 0.6818744
0.6416548 0.3663762 0.6972358
0.7015973 0.3946086 0.7090534
0.7517863 0.4282969 0.7222955
0.7930171 0.4694901 0.7357957
0.2739127 0.3936087 0.6723504
0.3120722 0.3985617 0.6771338
0.3810623 0.4140224 0.6871533
0.4881630 0.4376746 0.7015699
0.5824053 0.4585812 0.7131073
0.6557857 0.4796510 0.7255595
0.7200911 0.5089722 0.7349299
0.7670339 0.5295907 0.7446231
0.8069293 0.5628917 0.7556925
0.2342008 0.5045095 0.7010159
0.2845126 0.5106621 0.7057927
0.3728344 0.5296196 0.7161446
0.4848140 0.5453061 0.7256269
0.5905758 0.5671987 0.7400239
0.6614826 0.5813971 0.7468268
0.7276122 0.6011381 0.7572400
0.7777323 0.6185228 0.7625699
0.8141441 0.6331743 0.7701021
0.1838772 0.5826976 0.7189355
0.2510807 0.5896871 0.7236834
0.3579490 0.6033133 0.7326222
0.4795504 0.6289095 0.7481933
0.5887559 0.6473306 0.7561387
0.6605548 0.6629514 0.7625881
0.7297066 0.6801392 0.7722653
0.7817675 0.6973324 0.7771857
0.8209437 0.7104318 0.7841870
0.1722748 0.6500461 0.7368578
0.2067746 0.6576274 0.7399133
0.3216816 0.6727379 0.7479655
0.4607709 0.6964015 0.7594752
0.5872277 0.7173164 0.7696074
0.6647040 0.7355871 0.7795781
0.7306135 0.7493342 0.7846361
0.7841381 0.7632592 0.7921687
0.8224571 0.7729002 0.7983856
0.1750197 0.7017553 0.7464212
0.1764376 0.7117862 0.7513616
0.2992319 0.7256953 0.7589859
0.4529084 0.7463079 0.7696970
0.5764908 0.7668407 0.7822049
0.6582392 0.7844384 0.7885606
0.7321892 0.7954530 0.7950923
0.7822932 0.8080888 0.7987977
0.8235422 0.8178017 0.8050402
0.1787557 0.7442035 0.7594379
0.1794294 0.7485777 0.7617853
0.3082016 0.7662625 0.7704571
0.4525855 0.7854658 0.7799034
0.5789458 0.8057145 0.7887934
0.6610810 0.8227783 0.7981207
0.7304242 0.8331609 0.8025086
0.7858714 0.8459661 0.8097309
0.8254545 0.8515253 0.8102664
0.3924063 0.2686776 0.6774821
0.4156899 0.2710026 0.6808612
0.4589135 0.2811858 0.6883758
0.5278019 0.3026527 0.7037750
0.5976252 0.3243927 0.7154688
0.6599665 0.3490086 0.7263125
0.7091495 0.3831014 0.7388538
0.7579207 0.4172240 0.7521035
0.7935011 0.4510243 0.7638762
0.3846771 0.2678863 0.6763347
0.4078502 0.2702299 0.6797364
0.4589135 0.2811858 0.6883758
0.5278019 0.3026527 0.7037750
0.5976252 0.3243927 0.7154688
0.6548641 0.3486576 0.7258154
0.7091495 0.3831014 0.7388538
0.7579207 0.4172240 0.7521035
0.7935011 0.4510243 0.7638762
0.3818270 0.3132500 0.6893901
0.4060886 0.3160020 0.6928152
0.4631937 0.3285551 0.7020292
0.5340567 0.3516746 0.7172947
0.6055856 0.3748683 0.7288361
0.6611821 0.3997391 0.7386291
0.7173164 0.4279990 0.7499400
0.7651147 0.4559380 0.7614853
0.7990443 0.4897052 0.7727950
0.3786354 0.4356879 0.7234272
0.4067370 0.4394144 0.7268494
0.4618734 0.4466295 0.7333721
0.5385727 0.4626180 0.7459976
0.6156481 0.4882158 0.7570945
0.6805149 0.5047335 0.7648411
0.7298522 0.5290865 0.7753917
0.7777972 0.5503065 0.7820278
0.8123568 0.5769948 0.7914097
0.3593973 0.5338206 0.7490426
0.3854707 0.5422646 0.7527853
0.4485666 0.5510605 0.7593369
0.5422039 0.5665246 0.7691628
0.6225864 0.5819930 0.7774704
0.6851580 0.6012542 0.7847309
0.7426487 0.6129915 0.7930615
0.7866976 0.6308969 0.7983457
0.8222251 0.6489862 0.8059905
0.3389681 0.6136703 0.7666057
0.3754406 0.6213347 0.7704167
0.4450971 0.6311244 0.7768001
0.5363154 0.6442491 0.7850723
0.6186491 0.6638077 0.7934090
0.6839643 0.6781296 0.8024736
0.7445130 0.6940722 0.8081959
0.7899280 0.7052718 0.8121742
0.8281015 0.7226730 0.8193067
0.3154325 0.6789808 0.7803366
0.3581515 0.6844728 0.7836674
0.4335866 0.6993158 0.7905568
0.5311878 0.7157359 0.7989372
0.6143403 0.7279584 0.8055804
0.6824505 0.7445746 0.8145140
0.7452444 0.7576321 0.8195701
0.7920392 0.7705917 0.8263544
0.8290612 0.7798629 0.8292837
0.2937901 0.7281007 0.7906127
0.3418707 0.7339342 0.7939099
0.4238823 0.7486177 0.8005434
0.5163043 0.7638798 0.8092354
0.6119668 0.7781132 0.8164617
0.6828123 0.7940229 0.8222654
0.7416873 0.8025942 0.8263048
0.7900193 0.8151749 0.8329493
0.8299210 0.8246435 0.8387426
0.2843207 0.7667770 0.8006313
0.3367626 0.7729008 0.8039177
0.4242519 0.7844321 0.8099502
0.5179921 0.8022850 0.8173481
0.6065481 0.8155310 0.8237259
0.6798317 0.8279843 0.8289999
0.7452749 0.8408246 0.8365354
0.7938053 0.8492454 0.8383331
0.8281118 0.8572721 0.8436291
