data/spectral_luts/vision3_200t_2383.cube
TITLE "vision3_200t_2383"
LUT_3D_SIZE 9
0.0063331 0.0053035 0.0050949
0.0127837 0.0062816 0.0053533
0.0729101 0.0111136 0.0056611
0.1916372 0.0197409 0.0197409
0.3277204 0.0548464 0.0548464
0.4615972 0.0932710 0.0932710
0.5526721 0.1194109 0.1194109
0.6327765 0.1690837 0.1424020
0.7009507 0.2383719 0.2048193
0.0065035 0.0118743 0.0063728
0.0157348 0.0146123 0.0067962
0.0839284 0.0277319 0.0068892
0.2101054 0.0534817 0.0234764
0.3588552 0.0798809 0.0637825
0.4871049 0.1138159 0.1005921
0.5785307 0.1620044 0.1268326
0.6532547 0.2161374 0.1482795
0.7167027 0.2786261 0.2128166
0.0035209 0.0652531 0.0098307
0.0135772 0.0760646 0.0097987
0.1087474 0.1042857 0.0084411
0.2523681 0.1438084 0.0334817
0.4046269 0.1827715 0.0769197
0.5342583 0.2223562 0.1141258
0.6200967 0.2652658 0.1387627
0.6904045 0.3170165 0.1589421
0.7440367 0.3605030 0.2271539
0.0141217 0.1595072 0.0141217
0.0169688 0.1765670 0.0169688
0.1195071 0.2165668 0.0248732
0.2861556 0.2632134 0.0429167
0.4492524 0.3109395 0.0897278
0.5822203 0.3546014 0.1278916
0.6585711 0.3882899 0.1498054
0.7273655 0.4286732 0.1700041
0.7769425 0.4676488 0.2388084
0.0379821 0.2689517 0.0379821
0.0416946 0.2818978 0.0416946
0.1058955 0.3278724 0.0548900
0.3005128 0.3810942 0.0701655
0.4739940 0.4301185 0.0968291
0.6061102 0.4738687 0.1347484
0.6889108 0.5057762 0.1585134
0.7498010 0.5340610 0.2016524
0.7986849 0.5630339 0.2583946
0.0658706 0.3661303 0.0736776
0.0684868 0.3752455 0.0709440
0.0819463 0.4221403 0.0819463
0.3066231 0.4754243 0.0972396
0.4914617 0.5246485 0.1113677
0.6201664 0.5610580 0.1387827
0.6989481 0.5889042 0.1786428
0.7674371 0.6159452 0.2412059
0.8096143 0.6393163 0.2946153
0.0932585 0.4615537 0.1365543
0.0945586 0.4660834 0.1359077
0.1072292 0.5102295 0.1386098
0.3049058 0.5586070 0.1467266
0.5003204 0.6045869 0.1651090
0.6339222 0.6421313 0.1980670
0.7108045 0.6654018 0.2343105
0.7732940 0.6892316 0.2843176
0.8195295 0.7095904 0.3333342
0.1176973 0.5467019 0.1995961
0.1176973 0.5467019 0.1995961
0.1285906 0.5846558 0.2083122
0.3201536 0.6265468 0.2219185
0.5060096 0.6664362 0.2344848
0.6388688 0.7012232 0.2602325
0.7146415 0.7255645 0.2949940
0.7801652 0.7445580 0.3361238
0.8225565 0.7612222 0.3819295
0.1386962 0.6198651 0.2711529
0.1386962 0.6198651 0.2711529
0.1459869 0.6452667 0.2774576
0.3356400 0.6828336 0.2856637
0.5236408 0.7219025 0.3033846
0.6422317 0.7525833 0.3304005
0.7244800 0.7710290 0.3557132
0.7820872 0.7902704 0.3929793
0.8253404 0.8032050 0.4254768
0.0056173 0.0064792 0.0141181
0.0141834 0.0079378 0.0165468
0.0763852 0.0130602 0.0230369
0.1988295 0.0221843 0.0361422
0.3380915 0.0578230 0.0609068
0.4662244 0.0945991 0.0945991
0.5569172 0.1206292 0.1387575
0.6347417 0.1720127 0.1899754
0.7024118 0.2411733 0.2515150
0.0045119 0.0148317 0.0193476
0.0157321 0.0188257 0.0224077
0.0893122 0.0341179 0.0319635
0.2173637 0.0614210 0.0487487
0.3633200 0.0888027 0.0722785
0.4925373 0.1243663 0.1061998
0.5828056 0.1710116 0.1502501
0.6571416 0.2252928 0.2050728
0.7179143 0.2819397 0.2581118
0.0043583 0.0764327 0.0363345
0.0053661 0.0883334 0.0418839
0.1102850 0.1182586 0.0515070
0.2571149 0.1564682 0.0669896
0.4062730 0.1943596 0.0914717
0.5389335 0.2385809 0.1209329
0.6245568 0.2804514 0.1675665
0.6955177 0.3236408 0.2218591
0.7447917 0.3647894 0.2726440
0.0177672 0.1810458 0.0561346
0.0206050 0.1960791 0.0611764
0.1079386 0.2342404 0.0680406
0.2807076 0.2789253 0.0820705
0.4479872 0.3242393 0.1024509
0.5822816 0.3658623 0.1360217
0.6595743 0.3999508 0.1827552
0.7276044 0.4360774 0.2318163
0.7770706 0.4733423 0.2886119
0.0427864 0.2857017 0.0778420
0.0471466 0.3008932 0.0797346
0.0899762 0.3436864 0.0811117
0.2926916 0.3935184 0.0928435
0.4708438 0.4412711 0.1135267
0.6046718 0.4831222 0.1467018
0.6883597 0.5165417 0.2000568
0.7492461 0.5401230 0.2478989
0.7981410 0.5693899 0.3089518
0.0681133 0.3739441 0.1036244
0.0717310 0.3865488 0.1041717
0.0845061 0.4310591 0.1037978
0.3008652 0.4820534 0.1161162
0.4886580 0.5313244 0.1323164
0.6188380 0.5693657 0.1721977
0.7033479 0.5950955 0.2165325
0.7667195 0.6200098 0.2709303
0.8089401 0.6433537 0.3252650
0.0924805 0.4588428 0.1317003
0.0945586 0.4660834 0.1359077
0.1072292 0.5102295 0.1386098
0.3057900 0.5548850 0.1474578
0.5003204 0.6045869 0.1651090
0.6334864 0.6433169 0.2060167
0.7103316 0.6696181 0.2495205
0.7727128 0.6914682 0.3001858
0.8190156 0.7117488 0.3492801
0.1176973 0.5467019 0.1995961
0.1176973 0.5467019 0.1995961
0.1285906 0.5846558 0.2083122
0.3201536 0.6265468 0.2219185
0.5060096 0.6664362 0.2344848
0.6388688 0.7012232 0.2602325
0.7144173 0.7220702 0.2953455
0.7801652 0.7445580 0.3361238
0.8225565 0.7612222 0.3819295
0.1386962 0.6198651 0.2711529
0.1386962 0.6198651 0.2711529
0.1459869 0.6452667 0.2774576
0.3356400 0.6828336 0.2856637
0.5236408 0.7219025 0.3033846
0.6422317 0.7525833 0.3304005
0.7244800 0.7710290 0.3557132
0.7820872 0.7902704 0.3929793
0.8253404 0.8032050 0.4254768
0.0058857 0.0076060 0.0939603
0.0189911 0.0092184 0.1004738
0.0919877 0.0154542 0.1202824
0.2171919 0.0259215 0.1465772
0.3546619 0.0625790 0.1760654
0.4749209 0.0970951 0.2058264
0.5629194 0.1223520 0.2471819
0.6436138 0.1786363 0.2877998
0.7098988 0.2494543 0.3336458
0.0075561 0.0218528 0.1103024
0.0164529 0.0266317 0.1202950
0.0991983 0.0430688 0.1381975
0.2308568 0.0682584 0.1638092
0.3752574 0.0959949 0.1937563
0.5034468 0.1313702 0.2211751
0.5883716 0.1798494 0.2625175
0.6656467 0.2350426 0.3047422
0.7252895 0.2923052 0.3483508
0.0123520 0.1006759 0.1478676
0.0140353 0.1130598 0.1589590
0.1117131 0.1410684 0.1767290
0.2668723 0.1763804 0.1993884
0.4157742 0.2118499 0.2254692
0.5460370 0.2480315 0.2507295
0.6267600 0.2905333 0.2884639
0.6972936 0.3316626 0.3226110
0.7520813 0.3810601 0.3648218
0.0249465 0.2169001 0.1858943
0.0277230 0.2291224 0.1915874
0.0891029 0.2681758 0.2122594
0.2820135 0.3122515 0.2328632
0.4525445 0.3509316 0.2527882
0.5826135 0.3891068 0.2827379
0.6659495 0.4208820 0.3116243
0.7277715 0.4481516 0.3449813
0.7786703 0.4890871 0.3833782
0.0542693 0.3257096 0.2144859
0.0591016 0.3425460 0.2233036
0.0719690 0.3873780 0.2374464
0.2850758 0.4277911 0.2558821
0.4702611 0.4752054 0.2747684
0.6066296 0.5053223 0.2991696
0.6857058 0.5334095 0.3288126
0.7474538 0.5550573 0.3697464
0.7970435 0.5799969 0.4008469
0.0798968 0.4149995 0.2474996
0.0837140 0.4282994 0.2502926
0.0957365 0.4701874 0.2599416
0.2884034 0.5175322 0.2807345
0.4840926 0.5595999 0.3002002
0.6185641 0.5925626 0.3229895
0.6990764 0.6160561 0.3501577
0.7642632 0.6405369 0.3887986
0.8106536 0.6579136 0.4195862
0.1039498 0.4988038 0.2778344
0.1062160 0.5066994 0.2792971
0.1176514 0.5465420 0.2904397
0.2911280 0.5929673 0.3026399
0.4942134 0.6340439 0.3230012
0.6247452 0.6644037 0.3464635
0.7102510 0.6884044 0.3743689
0.7732149 0.7085922 0.4060909
0.8179281 0.7234213 0.4375173
0.1259869 0.5755842 0.3096173
0.1265294 0.5774741 0.3098982
0.1358170 0.6098335 0.3167459
0.3051379 0.6500129 0.3321684
0.5016374 0.6892331 0.3535814
0.6364274 0.7206607 0.3704196
0.7147042 0.7415812 0.3989500
0.7757534 0.7575181 0.4305566
0.8233391 0.7713985 0.4551514
0.1433741 0.6361637 0.3440962
0.1433741 0.6361637 0.3440962
0.1510402 0.6628733 0.3537027
0.3274139 0.6994343 0.3696609
0.5139815 0.7343125 0.3810938
0.6361921 0.7633520 0.4021505
0.7199470 0.7824921 0.4266892
0.7789586 0.7982426 0.4513532
0.8247171 0.8106695 0.4802901
0.0220666 0.0220666 0.2033523
0.0403677 0.0247080 0.2158143
0.1276988 0.0303956 0.2402296
0.2442393 0.0384165 0.2704904
0.3771315 0.0690281 0.2976840
0.4945106 0.1027176 0.3321251
0.5806050 0.1327583 0.3620396
0.6541057 0.1935735 0.3958031
0.7149916 0.2549751 0.4344586
0.0257852 0.0257852 0.2206722
0.0370175 0.0288760 0.2339876
0.1322128 0.0427305 0.2568484
0.2537745 0.0663603 0.2871476
0.3894469 0.0965842 0.3138074
0.5177041 0.1370191 0.3460739
0.5986041 0.1822147 0.3776684
0.6706936 0.2408903 0.4077113
0.7298091 0.3000742 0.4453905
0.0393713 0.1211154 0.2738368
0.0426178 0.1328511 0.2851142
0.1402953 0.1594492 0.3098410
0.2794698 0.1911489 0.3338487
0.4337133 0.2270161 0.3602576
0.5581960 0.2662998 0.3833555
0.6354659 0.3012506 0.4054077
0.7009734 0.3425191 0.4307077
0.7553622 0.3923717 0.4627044
0.0529009 0.2476947 0.3209420
0.0558058 0.2617175 0.3310631
0.0974016 0.2951296 0.3530757
0.2941105 0.3304593 0.3747919
0.4653901 0.3718489 0.3993925
0.5878807 0.4012959 0.4154176
0.6657686 0.4313856 0.4384970
0.7333049 0.4638733 0.4617063
0.7788575 0.4973383 0.4881335
0.0641384 0.3600953 0.3548541
0.0697835 0.3797635 0.3643447
0.0803335 0.4165210 0.3867950
0.2908920 0.4572841 0.4038605
0.4786049 0.4964643 0.4257758
0.6096145 0.5281088 0.4408099
0.6890019 0.5529936 0.4630615
0.7513298 0.5738409 0.4816551
0.7959126 0.5898558 0.5030885
0.0899865 0.4501535 0.3833506
0.0939899 0.4641020 0.3945818
0.1055278 0.5043017 0.4067026
0.2822076 0.5422544 0.4241188
0.4812068 0.5830565 0.4451979
0.6189535 0.6107878 0.4595843
0.7001543 0.6324452 0.4815445
0.7611902 0.6530778 0.5003452
0.8088186 0.6745038 0.5289968
0.1131502 0.5308592 0.4107285
0.1175031 0.5460252 0.4212486
0.1273137 0.5802069 0.4326136
0.2826665 0.6190693 0.4456854
0.4892394 0.6559446 0.4657847
0.6229426 0.6851850 0.4796660
0.7040485 0.7044342 0.5020959
0.7688046 0.7223029 0.5206080
0.8145537 0.7354178 0.5424798
0.1348430 0.6064401 0.4435907
0.1364661 0.6120951 0.4454700
0.1443191 0.6394559 0.4506183
0.2965720 0.6774019 0.4718564
0.4956213 0.7132423 0.4850200
0.6326389 0.7390701 0.4989343
0.7080215 0.7582853 0.5142515
0.7755945 0.7708371 0.5329834
0.8192679 0.7856959 0.5617475
0.1516603 0.6650339 0.4704675
0.1516603 0.6650339 0.4704675
0.1586107 0.6892499 0.4772902
0.3244456 0.7235909 0.4915303
0.5202746 0.7565777 0.5007623
0.6325898 0.7800688 0.5171328
0.7183291 0.7980961 0.5400643
0.7784023 0.8129022 0.5516534
0.8244019 0.8224461 0.5737088
0.0506353 0.0506353 0.3130484
0.0807768 0.0552849 0.3292483
0.1692681 0.0623497 0.3538629
0.2814485 0.0714256 0.3854846
0.4126586 0.0796429 0.4141148
0.5226585 0.1109301 0.4416338
0.6044340 0.1649335 0.4730417
0.6738776 0.2240673 0.5037344
0.7277325 0.2823759 0.5317072
0.0526644 0.0526644 0.3201181
0.0781749 0.0573293 0.3363711
0.1716613 0.0647410 0.3621945
0.2857444 0.0730751 0.3912319
0.4194913 0.0949472 0.4230193
0.5310821 0.1384570 0.4508406
0.6124607 0.1900780 0.4816293
0.6813784 0.2484186 0.5089958
0.7361215 0.3109643 0.5374227
0.0700426 0.1369257 0.3806663
0.0731739 0.1445729 0.3915759
0.1757910 0.1697163 0.4164817
0.3085429 0.2005656 0.4441554
0.4529562 0.2362309 0.4697643
0.5690702 0.2769455 0.4913412
0.6460174 0.3132907 0.5139591
0.7103612 0.3565471 0.5386970
0.7620642 0.4014629 0.5597547
0.0846276 0.2718533 0.4314824
0.0875882 0.2837018 0.4417975
0.1404413 0.3143707 0.4692773
0.3128699 0.3511798 0.4871145
0.4811136 0.3851567 0.5095840
0.6004149 0.4142579 0.5322181
0.6726198 0.4435248 0.5454123
0.7350882 0.4753421 0.5638882
0.7839300 0.5089233 0.5871099
0.0960087 0.3924946 0.4711357
0.0988578 0.4076969 0.4810626
0.1044944 0.4410542 0.5007010
0.3083085 0.4729783 0.5233197
0.4912534 0.5150896 0.5447595
0.6130641 0.5384585 0.5558851
0.6928247 0.5624479 0.5734556
0.7543561 0.5826676 0.5899872
0.7993058 0.6021293 0.6036888
0.1046135 0.4810823 0.5011162
0.1078474 0.5012341 0.5123836
0.1119425 0.5266514 0.5264068
0.2967292 0.5659608 0.5482364
0.4918664 0.5982655 0.5638182
0.6196992 0.6231429 0.5774756
0.7029757 0.6490933 0.5952010
0.7630187 0.6634598 0.6087301
0.8070071 0.6826832 0.6221108
0.1219083 0.5613736 0.5298658
0.1272216 0.5798858 0.5379584
0.1352829 0.6079724 0.5505909
0.2982660 0.6416502 0.5668420
0.4974637 0.6766019 0.5843076
0.6276155 0.6996720 0.5973057
0.7055462 0.7185329 0.6091918
0.7698090 0.7331452 0.6226364
0.8157934 0.7471071 0.6354291
0.1418864 0.6309801 0.5538791
0.1444500 0.6399119 0.5573967
0.1512149 0.6634819 0.5730296
0.3144403 0.6971497 0.5826775
0.5042103 0.7319038 0.5984995
0.6310202 0.7526033 0.6095158
0.7081925 0.7712477 0.6236801
0.7713963 0.7867763 0.6345592
0.8163838 0.7977446 0.6452886
0.1582432 0.6879694 0.5787157
0.1588027 0.6899189 0.5795237
0.1656678 0.7138381 0.5885543
0.3437447 0.7451601 0.6016300
0.5177354 0.7721400 0.6150011
0.6366023 0.7961087 0.6258960
0.7184945 0.8095711 0.6345779
0.7738580 0.8229797 0.6436403
0.8210666 0.8309245 0.6538854
0.0980792 0.0824168 0.4237798
0.1427187 0.0862575 0.4371611
0.2158025 0.0922251 0.4579532
0.3279849 0.1001382 0.4855237
0.4532427 0.1161639 0.5128308
0.5519795 0.1547505 0.5368136
0.6255587 0.2084995 0.5585230
0.6894127 0.2558101 0.5786740
0.7415541 0.3146978 0.6025890
0.0980792 0.0824168 0.4237798
0.1370305 0.0858401 0.4357069
0.2158025 0.0922251 0.4579532
0.3215691 0.0998671 0.4845789
0.4519192 0.1103598 0.5113708
0.5519795 0.1547505 0.5368136
0.6255587 0.2084995 0.5585230
0.6921313 0.2655520 0.5808637
0.7433103 0.3212419 0.6039593
0.0959267 0.1538532 0.4708499
0.1258565 0.1675747 0.4857588
0.2229115 0.1829485 0.5041918
0.3455891 0.2162704 0.5314981
0.4806781 0.2527135 0.5550668
0.5833631 0.2861271 0.5740650
0.6559666 0.3238482 0.5903745
0.7191269 0.3689542 0.6098172
0.7642736 0.4046685 0.6240581
0.1102841 0.2992451 0.5208733
0.1137316 0.3101678 0.5328849
0.1927623 0.3347682 0.5510958
0.3545730 0.3619135 0.5746566
0.5012270 0.3952737 0.5960892
0.6126905 0.4295108 0.6094120
0.6857465 0.4597417 0.6220681
0.7409883 0.4843199 0.6360473
0.7855795 0.5171748 0.6467602
0.1209470 0.4212883 0.5580242
0.1248883 0.4364805 0.5717563
0.1418453 0.4618745 0.5877190
0.3533403 0.4910664 0.6040951
0.5104203 0.5289631 0.6235659
0.6227160 0.5504944 0.6364545
0.6980807 0.5721244 0.6467921
0.7588593 0.5918724 0.6558269
0.8032249 0.6107154 0.6683560
0.1289926 0.5119764 0.5860562
0.1310457 0.5226521 0.5932097
0.1352178 0.5493467 0.6077458
0.3474441 0.5808220 0.6261378
0.5156993 0.6135203 0.6397716
0.6284593 0.6355677 0.6517776
0.7067282 0.6547692 0.6612893
0.7668656 0.6765583 0.6745872
0.8097960 0.6873222 0.6795576
0.1353571 0.5909421 0.6082312
0.1370606 0.6012523 0.6141665
0.1407391 0.6264890 0.6269828
0.3394752 0.6563758 0.6444348
0.5226755 0.6879908 0.6570308
0.6298401 0.7110661 0.6683556
0.7141688 0.7258593 0.6754593
0.7727921 0.7433428 0.6837938
0.8183449 0.7567003 0.6957795
0.1479129 0.6519772 0.6286101
0.1505314 0.6611004 0.6314800
0.1571725 0.6842390 0.6421432
0.3575234 0.7158253 0.6549931
0.5287632 0.7437677 0.6697044
0.6387247 0.7668595 0.6809614
0.7164441 0.7790899 0.6895818
0.7737784 0.7930282 0.6951199
0.8182364 0.8038239 0.7068905
0.1631269 0.7049852 0.6465931
0.1648769 0.7110822 0.6494647
0.1702622 0.7298453 0.6559041
0.3768415 0.7583462 0.6671999
0.5416406 0.7866538 0.6812076
0.6384426 0.8036699 0.6911166
0.7208105 0.8182446 0.7000238
0.7759367 0.8296128 0.7051794
0.8208954 0.8409983 0.7122881
0.1704437 0.1075278 0.5112698
0.2007901 0.1099232 0.5196157
0.2703966 0.1194197 0.5372045
0.3763812 0.1446079 0.5610650
0.4887907 0.1744809 0.5855957
0.5796747 0.2203030 0.6053213
0.6508684 0.2566101 0.6256213
0.7100559 0.3073677 0.6450548
0.7568323 0.3522330 0.6636519
0.1704437 0.1075278 0.5112698
0.1957844 0.1096128 0.5185344
0.2703966 0.1194197 0.5372045
0.3763812 0.1446079 0.5610650
0.4887907 0.1744809 0.5855957
0.5796747 0.2203030 0.6053213
0.6508684 0.2566101 0.6256213
0.7100559 0.3073677 0.6450548
0.7568323 0.3522330 0.6636519
0.1543399 0.1803553 0.5429872
0.1940276 0.1898677 0.5520796
0.2706974 0.2062357 0.5678909
0.3857802 0.2374176 0.5903873
0.5110894 0.2682926 0.6144084
0.6007478 0.3022182 0.6296289
0.6710442 0.3412348 0.6493170
0.7275277 0.3810413 0.6652300
0.7718462 0.4173403 0.6787948
0.1305944 0.3277292 0.5916373
0.1511460 0.3338258 0.5982744
0.2653549 0.3560726 0.6144570
0.3962944 0.3821813 0.6324890
0.5269433 0.4107220 0.6531154
0.6243054 0.4373943 0.6650276
0.6922871 0.4673829 0.6789536
0.7480024 0.4989136 0.6915870
0.7907234 0.5250692 0.7019772
0.1408750 0.4510483 0.6274562
0.1428144 0.4592546 0.6342133
0.2353100 0.4844627 0.6488541
0.3989205 0.5128666 0.6699589
0.5355682 0.5412431 0.6841233
0.6386742 0.5598125 0.6952541
0.7084282 0.5807508 0.7041941
0.7635689 0.5993020 0.7116293
0.8073604 0.6180604 0.7203498
0.1487058 0.5394804 0.6547398
0.1502812 0.5473171 0.6602289
0.2034878 0.5676997 0.6726015
0.3872350 0.5963892 0.6879499
0.5402584 0.6269174 0.7057180
0.6382597 0.6463397 0.7138321
0.7111294 0.6646798 0.7219584
0.7703667 0.6780397 0.7305627
0.8132535 0.6965920 0.7389134
0.1542967 0.6155607 0.6742194
0.1558317 0.6243200 0.6795676
0.1913015 0.6471525 0.6909911
0.3959071 0.6746489 0.7087769
0.5471466 0.6990539 0.7181349
0.6453622 0.7183462 0.7296034
0.7178817 0.7354420 0.7349756
0.7759281 0.7483586 0.7431919
0.8171703 0.7606732 0.7503902
0.1594787 0.6759261 0.6922741
0.1610235 0.6856788 0.6976567
0.2137960 0.7058260 0.7075813
0.4034342 0.7290446 0.7189745
0.5542221 0.7537992 0.7336146
0.6480999 0.7737437 0.7403179
0.7198470 0.7846251 0.7467984
0.7789426 0.7988737 0.7547058
0.8205865 0.8086928 0.7612954
0.1682350 0.7227824 0.7048172
0.1700385 0.7290662 0.7080131
0.2491790 0.7484605 0.7213901
0.4203965 0.7747735 0.7319520
0.5651157 0.7978474 0.7412950
0.6477323 0.8109062 0.7503395
0.7207941 0.8266420 0.7589890
0.7786174 0.8350490 0.7601292
0.8229936 0.8462031 0.7668634
0.2396148 0.1727232 0.5916145
0.2637583 0.1804720 0.5993673
0.3345446 0.1955846 0.6156767
0.4303076 0.2153732 0.6331345
0.5362151 0.2436494 0.6532909
0.6095571 0.2762492 0.6712704
0.6765305 0.3157669 0.6856350
0.7313445 0.3554540 0.7032369
0.7719867 0.3956962 0.7173584
0.2337983 0.1721508 0.5904908
0.2637583 0.1804720 0.5993673
0.3345446 0.1955846 0.6156767
0.4303076 0.2153732 0.6331345
0.5362151 0.2436494 0.6532909
0.6095571 0.2762492 0.6712704
0.6765305 0.3157669 0.6856350
0.7313445 0.3554540 0.7032369
0.7718783 0.3958434 0.7140548
0.2332296 0.2138921 0.6065499
0.2590502 0.2167062 0.6111445
0.3364031 0.2305309 0.6272685
0.4363221 0.2608803 0.6488333
0.5450307 0.2915921 0.6672466
0.6158841 0.3186566 0.6831262
0.6836295 0.3596618 0.6972604
0.7391698 0.4005171 0.7144518
0.7812698 0.4407950 0.7248148
0.2012406 0.3509041 0.6524221
0.2455775 0.3592194 0.6590201
0.3348327 0.3767399 0.6723747
0.4491045 0.4007867 0.6887004
0.5590551 0.4265989 0.7033489
0.6395819 0.4519074 0.7175718
0.7046801 0.4814828 0.7274310
0.7580447 0.5065655 0.7384993
0.8003774 0.5393794 0.7498388
0.1580393 0.4791629 0.6872593
0.2031715 0.4862972 0.6931760
0.3125836 0.5026947 0.7028867
0.4472574 0.5276132 0.7179731
0.5685844 0.5519926 0.7309369
0.6497019 0.5675120 0.7421458
0.7191781 0.5884927 0.7496169
0.7682421 0.6036454 0.7581103
0.8116391 0.6248042 0.7670025
0.1641502 0.5628207 0.7085504
0.1752602 0.5710964 0.7144374
0.3115153 0.5890282 0.7253948
0.4500210 0.6136001 0.7386618
0.5702286 0.6391388 0.7520488
0.6547199 0.6510285 0.7587946
0.7214425 0.6738418 0.7691919
0.7791563 0.6865061 0.7738479
0.8170297 0.7045506 0.7816188
0.1698266 0.6410485 0.7283279
0.1711691 0.6485569 0.7330052
0.2958825 0.6628432 0.7432221
0.4504555 0.6903974 0.7562399
0.5716807 0.7104934 0.7660445
0.6558853 0.7272711 0.7728427
0.7279247 0.7445229 0.7822767
0.7797624 0.7562743 0.7894819
0.8223807 0.7683366 0.7928328
0.1746060 0.6991444 0.7449799
0.1756158 0.7053164 0.7484980
0.3108729 0.7211400 0.7572175
0.4541453 0.7424968 0.7676306
0.5770524 0.7646470 0.7770838
0.6587399 0.7790320 0.7862925
0.7297355 0.7930492 0.7913694
0.7823504 0.8061538 0.7969069
0.8235579 0.8158445 0.8031334
0.1776944 0.7446054 0.7557404
0.1906548 0.7509391 0.7590834
0.3268830 0.7665661 0.7665355
0.4653398 0.7857268 0.7789525
0.5836947 0.8048522 0.7872785
0.6649757 0.8200451 0.7929868
0.7305731 0.8315895 0.8006572
0.7861159 0.8426558 0.8042767
0.8255092 0.8499232 0.8083912
0.3080377 0.2506872 0.6603339
0.3385198 0.2539953 0.6653185
0.3999992 0.2663002 0.6791911
0.4825957 0.2893809 0.6944305
0.5753022 0.3163294 0.7100834
0.6415783 0.3444202 0.7222686
0.6965409 0.3718466 0.7355436
0.7464621 0.4130513 0.7490543
0.7891002 0.4437358 0.7607703
0.3080377 0.2506872 0.6603339
0.3385198 0.2539953 0.6653185
0.3999992 0.2663002 0.6791911
0.4825957 0.2893809 0.6944305
0.5753022 0.3163294 0.7100834
0.6366134 0.3440650 0.7217727
0.6965409 0.3718466 0.7355436
0.7464621 0.4130513 0.7490543
0.7891002 0.4437358 0.7607703
0.3080377 0.2506872 0.6603339
0.3385198 0.2539953 0.6653185
0.3998587 0.2666024 0.6764085
0.4825957 0.2893809 0.6944305
0.5753022 0.3163294 0.7100834
0.6366134 0.3440650 0.7217727
0.6978659 0.3788368 0.7371088
0.7477790 0.4200082 0.7505206
0.7911263 0.4544285 0.7629162
0.2956016 0.3836414 0.6998926
0.3332979 0.3884904 0.7049336
0.4047863 0.4039509 0.7184556
0.4964519 0.4251069 0.7317247
0.5887722 0.4492936 0.7445305
0.6582185 0.4731012 0.7544808
0.7189729 0.4960301 0.7658564
0.7680306 0.5200833 0.7733260
0.8059491 0.5531342 0.7841734
0.2737144 0.5020500 0.7327774
0.3207788 0.5112723 0.7384412
0.3943574 0.5265438 0.7474528
0.4980435 0.5457181 0.7592253
0.5975623 0.5664732 0.7701921
0.6641489 0.5800146 0.7769699
0.7298614 0.5999404 0.7872657
0.7776349 0.6170850 0.7942354
0.8156175 0.6314772 0.8000265
0.2502123 0.5863483 0.7542417
0.3061377 0.5957591 0.7595638
0.3923898 0.6073000 0.7674825
0.4990231 0.6278675 0.7783998
0.5994793 0.6504182 0.7886543
0.6719082 0.6605119 0.7961433
0.7367547 0.6824858 0.8030992
0.7832634 0.6937177 0.8071909
0.8207491 0.7118527 0.8146414
0.2401631 0.6635948 0.7722651
0.2889290 0.6690277 0.7756762
0.3873156 0.6838941 0.7837928
0.5029914 0.7003291 0.7919309
0.6021668 0.7217114 0.8039908
0.6734948 0.7320350 0.8094911
0.7350454 0.7474890 0.8148678
0.7876645 0.7592568 0.8219417
0.8253386 0.7706496 0.8251904
0.2510399 0.7212049 0.7848251
0.3036931 0.7270501 0.7881687
0.4065264 0.7403442 0.7955614
0.5072198 0.7569709 0.8063914
0.6063206 0.7716941 0.8139352
0.6733926 0.7871150 0.8195277
0.7391701 0.7968762 0.8268965
0.7900957 0.8095760 0.8308964
0.8263732 0.8184019 0.8350287
0.2858748 0.7652241 0.7977826
0.3379820 0.7713400 0.8010545
0.4112905 0.7809465 0.8060781
0.5196034 0.7965029 0.8139183
0.6102478 0.8144087 0.8210045
0.6767268 0.8246028 0.8284440
0.7401637 0.8354533 0.8328459
0.7894923 0.8455616 0.8363064
0.8281621 0.8557392 0.8420287
