data/spectral_luts/vision3_500t_2393.cube
TITLE "vision3_500t_2393"
LUT_3D_SIZE 5
0.0022871 0.0020904 0.0015169
0.0552196 0.0052345 0.0028566
0.3075013 0.0490432 0.0490432
0.5389550 0.1154738 0.1154738
0.6933007 0.2248536 0.1911280
0.0029589 0.0568483 0.0029589
0.1126053 0.0994449 0.0078112
0.3964336 0.1781120 0.0745681
0.6127837 0.2539365 0.1366638
0.7400155 0.3449047 0.2094087
0.0310250 0.2427618 0.0310250
0.1524654 0.3158922 0.0514515
0.4835056 0.4181441 0.0995590
0.6919900 0.4896740 0.1593971
0.8024646 0.5548974 0.2578799
0.0895123 0.4485015 0.0895123
0.1742702 0.5108544 0.1074086
0.5238234 0.5996483 0.1328937
0.7298538 0.6641707 0.2093889
0.8326566 0.7119849 0.3250252
0.1377898 0.6167069 0.2362178
0.2475227 0.6577310 0.2414801
0.5542586 0.7270948 0.2742207
0.7425972 0.7775794 0.3322432
0.8493561 0.8110061 0.4093338
0.0042102 0.0044421 0.0745537
0.0830518 0.0093265 0.1084848
0.3326943 0.0562740 0.1645717
0.5570801 0.1263378 0.2479534
0.7002189 0.2427000 0.3366180
0.0107562 0.1102317 0.1365053
0.1104395 0.1486029 0.1653672
0.4113813 0.2168341 0.2160218
0.6188852 0.2858000 0.2850314
0.7455969 0.3728961 0.3631302
0.0539716 0.3246724 0.2100866
0.0709837 0.3829817 0.2317741
0.4725367 0.4656874 0.2802892
0.6873168 0.5289985 0.3343913
0.8029443 0.5752704 0.4068059
0.1067022 0.5083935 0.2898974
0.1220410 0.5618359 0.3061357
0.5064202 0.6417320 0.3452030
0.7196000 0.6961501 0.3955187
0.8328723 0.7308078 0.4493987
0.1475523 0.6507210 0.3763122
0.2361437 0.6926485 0.3901971
0.5435006 0.7519230 0.4170291
0.7381250 0.7979005 0.4614030
0.8431160 0.8255465 0.5121303
0.0513676 0.0513676 0.3155999
0.1641427 0.0631096 0.3565108
0.4029425 0.0819271 0.4220734
0.5928301 0.1702736 0.4771310
0.7174899 0.2765070 0.5274224
0.0715546 0.1691466 0.3859342
0.1769230 0.1995449 0.4265529
0.4438471 0.2534439 0.4720998
0.6372555 0.3195596 0.5130139
0.7550047 0.4001774 0.5589681
0.0956563 0.4094370 0.4699080
0.1444045 0.4506181 0.4979787
0.4942687 0.5124673 0.5378159
0.6903521 0.5586655 0.5686047
0.8045586 0.6071486 0.5982360
0.1286934 0.5850137 0.5278112
0.1535324 0.6275092 0.5525973
0.5137563 0.6843997 0.5767051
0.7174236 0.7243715 0.6039482
0.8286007 0.7578812 0.6308022
0.1649309 0.7112704 0.5788008
0.2497907 0.7394695 0.5902625
0.5526639 0.7866175 0.6112732
0.7357749 0.8225559 0.6360952
0.8381435 0.8436644 0.6535172
0.1856971 0.1229352 0.5183086
0.2941143 0.1455093 0.5483074
0.4805252 0.1952087 0.5875757
0.6408530 0.2546977 0.6267038
0.7489352 0.3503661 0.6635408
0.1715269 0.2448449 0.5629126
0.3055418 0.2635315 0.5863047
0.5088553 0.3155321 0.6254259
0.6689888 0.3735916 0.6565087
0.7728331 0.4444593 0.6836854
0.1419152 0.4804996 0.6310806
0.2933384 0.5062547 0.6520312
0.5458612 0.5543745 0.6799402
0.7113853 0.5955955 0.7042354
0.8115568 0.6326454 0.7219548
0.1553059 0.6522368 0.6777354
0.3097054 0.6748452 0.6912434
0.5591769 0.7178609 0.7153974
0.7277332 0.7496499 0.7320262
0.8313923 0.7756985 0.7470706
0.2149163 0.7596855 0.7094940
0.3716218 0.7781153 0.7187420
0.5811952 0.8114173 0.7371747
0.7442731 0.8409858 0.7520404
0.8394057 0.8584403 0.7650586
0.3575996 0.2645842 0.6622559
0.4252820 0.2818045 0.6758928
0.5661250 0.3226226 0.7021354
0.6946717 0.3730936 0.7281086
0.7830335 0.4447945 0.7532138
0.3558055 0.3416717 0.6837013
0.4279615 0.3555141 0.6957106
0.5778669 0.3909530 0.7195419
0.7078947 0.4465328 0.7462400
0.7942889 0.5051482 0.7658848
0.3629484 0.5454962 0.7362126
0.4465539 0.5623904 0.7465478
0.6082411 0.5925786 0.7675233
0.7379912 0.6278121 0.7823663
0.8207868 0.6621104 0.7980178
0.3692729 0.7019485 0.7700694
0.4595536 0.7145346 0.7779762
0.6165991 0.7422104 0.7951177
0.7515858 0.7681950 0.8068376
0.8367532 0.7903302 0.8170892
0.4208691 0.7981729 0.7941227
0.4979835 0.8091365 0.7987334
0.6415338 0.8324170 0.8129057
0.7615827 0.8531000 0.8220395
0.8471516 0.8698797 0.8309835
