data/spectral_luts/vision3_250d_2393.cube
TITLE "vision3_250d_2393"
LUT_3D_SIZE 9
0.0017814 0.0015304 0.0010764
0.0070310 0.0021821 0.0011520
0.0661015 0.0049337 0.0035808
0.1895211 0.0193369 0.0193369
0.3186746 0.0522501 0.0522501
0.4458059 0.0887387 0.0887387
0.5494857 0.1184963 0.1184963
0.6308336 0.1705613 0.1418443
0.6971864 0.2343415 0.2075595
0.0018075 0.0063432 0.0014745
0.0103060 0.0092089 0.0014778
0.0851720 0.0216458 0.0050864
0.2244186 0.0477744 0.0266342
0.3564652 0.0778979 0.0630966
0.4769551 0.1160460 0.0976790
0.5776404 0.1668901 0.1265771
0.6528317 0.2192604 0.1481581
0.7122900 0.2705143 0.2122778
0.0029602 0.0568679 0.0029602
0.0072185 0.0702667 0.0038836
0.1183195 0.1040939 0.0084657
0.2685350 0.1445432 0.0378650
0.4047028 0.1832850 0.0769415
0.5243728 0.2192924 0.1112885
0.6181890 0.2614638 0.1382152
0.6882462 0.3085570 0.1583226
0.7449850 0.3551790 0.2237695
0.0118423 0.1443367 0.0118423
0.0133580 0.1545954 0.0133580
0.1299972 0.2013927 0.0216671
0.3074386 0.2548128 0.0490252
0.4511628 0.2989875 0.0902762
0.5687834 0.3416039 0.1240350
0.6605030 0.3799720 0.1503599
0.7262810 0.4209276 0.1692392
0.7783257 0.4606119 0.2396978
0.0321973 0.2473989 0.0321973
0.0327181 0.2494274 0.0327181
0.1173337 0.3058228 0.0485615
0.3204185 0.3671541 0.0661644
0.4757612 0.4146090 0.0973363
0.6040949 0.4591269 0.1341699
0.6892893 0.4893111 0.1586220
0.7538967 0.5258080 0.1791781
0.8025662 0.5543734 0.2535631
0.0611073 0.3495342 0.0611073
0.0611073 0.3495342 0.0611073
0.0757486 0.4005467 0.0757486
0.3283745 0.4640885 0.0939860
0.4904585 0.5140299 0.1083200
0.6175980 0.5543174 0.1380455
0.7063030 0.5859881 0.1635052
0.7777755 0.6172632 0.2154937
0.8205405 0.6371142 0.2835506
0.0907311 0.4527479 0.0907311
0.0907311 0.4527479 0.0907311
0.0981941 0.4787498 0.0981941
0.3129357 0.5460686 0.1175155
0.4933048 0.5932341 0.1310527
0.6309181 0.6344149 0.1586526
0.7218660 0.6657054 0.2145419
0.7863548 0.6902012 0.2657335
0.8306972 0.7085120 0.3173567
0.1162694 0.5417268 0.1686129
0.1162694 0.5417268 0.1686129
0.1194496 0.5528072 0.1670877
0.2979732 0.6150918 0.1795671
0.4942760 0.6598637 0.1990664
0.6270525 0.6982176 0.2364851
0.7223842 0.7231563 0.2717511
0.7890218 0.7468678 0.3183234
0.8385953 0.7651333 0.3647751
0.1396412 0.6231575 0.2511351
0.1396412 0.6231575 0.2511351
0.1396412 0.6231575 0.2511351
0.2847686 0.6696706 0.2654522
0.4861507 0.7134870 0.2805796
0.6269438 0.7457511 0.3007911
0.7276972 0.7714338 0.3371332
0.7952623 0.7924851 0.3712332
0.8412277 0.8084372 0.4095365
0.0013456 0.0023040 0.0061929
0.0083279 0.0032021 0.0079080
0.0746637 0.0070509 0.0136697
0.1962174 0.0206322 0.0225342
0.3315122 0.0559347 0.0559347
0.4523383 0.0906136 0.0906136
0.5543631 0.1198962 0.1359459
0.6343685 0.1791861 0.1956538
0.6980110 0.2373485 0.2564368
0.0004983 0.0099665 0.0094675
0.0104636 0.0148498 0.0125060
0.0922752 0.0297727 0.0193636
0.2284783 0.0594744 0.0291423
0.3682840 0.0928902 0.0664888
0.4820469 0.1293789 0.0991404
0.5793542 0.1733781 0.1469216
0.6538277 0.2238226 0.2016054
0.7150567 0.2795500 0.2630799
0.0042619 0.0752138 0.0180339
0.0053083 0.0876882 0.0209907
0.1160593 0.1229662 0.0277886
0.2747503 0.1641518 0.0396343
0.4119795 0.1996807 0.0790300
0.5259883 0.2321424 0.1117522
0.6198587 0.2728163 0.1604337
0.6885747 0.3149623 0.2144534
0.7450962 0.3601485 0.2773814
0.0151373 0.1658050 0.0269580
0.0172594 0.1782111 0.0278737
0.1211879 0.2269184 0.0332746
0.3025935 0.2797746 0.0476346
0.4504036 0.3226617 0.0900583
0.5742427 0.3588023 0.1256019
0.6595880 0.3911268 0.1716842
0.7254623 0.4298199 0.2350130
0.7777440 0.4660367 0.2889568
0.0384209 0.2705058 0.0415891
0.0394601 0.2741457 0.0406218
0.0869691 0.3280083 0.0549290
0.3185120 0.3868257 0.0718105
0.4785416 0.4325260 0.0981343
0.6017793 0.4732266 0.1335053
0.6891111 0.5073271 0.1860261
0.7564703 0.5348534 0.2482845
0.8013013 0.5605771 0.3050747
0.0655004 0.3648406 0.0655004
0.0658523 0.3660667 0.0705769
0.0807016 0.4178036 0.0807016
0.3180408 0.4779038 0.0979512
0.4853278 0.5239400 0.1111643
0.6142515 0.5631541 0.1528807
0.7098452 0.5936098 0.2034465
0.7757248 0.6242598 0.2698474
0.8189898 0.6425527 0.3265793
0.0916792 0.4560513 0.1037069
0.0916792 0.4560513 0.1037069
0.1004088 0.4864662 0.1091190
0.3173490 0.5539263 0.1197708
0.4906428 0.5994131 0.1455185
0.6292933 0.6377863 0.1840744
0.7208200 0.6682724 0.2336557
0.7850729 0.6936398 0.2914862
0.8299857 0.7137812 0.3409830
0.1162694 0.5417268 0.1686129
0.1162694 0.5417268 0.1686129
0.1195365 0.5531098 0.1670995
0.2979732 0.6150918 0.1795671
0.4942760 0.6598637 0.1990664
0.6270525 0.6982176 0.2364851
0.7223842 0.7231563 0.2717511
0.7890218 0.7468678 0.3183234
0.8381467 0.7662133 0.3729329
0.1396412 0.6231575 0.2511351
0.1396412 0.6231575 0.2511351
0.1396412 0.6231575 0.2511351
0.2847686 0.6696706 0.2654522
0.4861507 0.7134870 0.2805796
0.6269438 0.7457511 0.3007911
0.7276972 0.7714338 0.3371332
0.7952623 0.7924851 0.3712332
0.8412277 0.8084372 0.4095365
0.0047245 0.0047245 0.0809263
0.0151512 0.0058578 0.0936660
0.0923168 0.0082392 0.1145705
0.2219878 0.0260815 0.1434187
0.3499297 0.0612208 0.1780267
0.4661570 0.0945797 0.2146377
0.5613084 0.1305733 0.2594595
0.6454763 0.1947780 0.3009952
0.7029462 0.2496395 0.3433400
0.0065980 0.0220929 0.1012229
0.0119818 0.0280698 0.1149778
0.1070835 0.0469210 0.1404744
0.2491751 0.0756765 0.1661358
0.3795390 0.1049154 0.1969743
0.4931294 0.1431385 0.2337857
0.5855431 0.1885161 0.2707718
0.6636913 0.2402479 0.3154901
0.7182289 0.2901374 0.3574880
0.0110784 0.1102619 0.1388743
0.0128273 0.1257890 0.1510843
0.1196748 0.1560997 0.1761974
0.2818385 0.1881231 0.1984553
0.4195203 0.2235364 0.2284839
0.5333476 0.2508093 0.2599218
0.6222514 0.2891541 0.2944442
0.6949408 0.3300178 0.3283506
0.7472966 0.3734241 0.3695439
0.0240668 0.2128633 0.1720477
0.0278421 0.2296307 0.1839197
0.0933720 0.2698426 0.2007066
0.3001488 0.3130136 0.2274931
0.4502342 0.3471066 0.2473699
0.5719745 0.3839365 0.2822570
0.6647382 0.4159912 0.3157524
0.7306628 0.4509813 0.3490563
0.7772681 0.4785472 0.3864802
0.0526633 0.3201144 0.2041266
0.0547197 0.3272792 0.2065384
0.0698532 0.3800064 0.2303406
0.3064592 0.4250497 0.2472534
0.4727857 0.4652516 0.2771286
0.6006772 0.5002062 0.3009219
0.6894262 0.5266664 0.3343842
0.7536211 0.5518317 0.3685662
0.8006699 0.5801549 0.4034433
0.0805958 0.4174350 0.2384879
0.0805958 0.4174350 0.2384879
0.0938061 0.4634615 0.2541104
0.2992728 0.5160149 0.2708014
0.4758634 0.5581862 0.2923248
0.6111826 0.5894961 0.3165664
0.7030692 0.6155940 0.3507395
0.7707787 0.6390398 0.3862243
0.8205873 0.6618991 0.4217539
0.1049752 0.5023764 0.2692430
0.1049752 0.5023764 0.2692430
0.1133451 0.5315381 0.2802521
0.2831150 0.5892561 0.2991687
0.4784602 0.6303723 0.3209951
0.6242057 0.6632711 0.3381401
0.7128837 0.6887826 0.3663875
0.7794161 0.7104602 0.4026489
0.8292924 0.7262926 0.4350478
0.1278999 0.5822493 0.3071422
0.1278999 0.5822493 0.3071422
0.1310077 0.5930772 0.3088984
0.2775586 0.6464894 0.3241367
0.4840180 0.6857818 0.3396531
0.6218753 0.7207047 0.3683127
0.7200030 0.7425646 0.3901059
0.7872315 0.7617323 0.4231552
0.8339326 0.7783583 0.4521580
0.1453432 0.6430241 0.3353205
0.1456831 0.6442083 0.3416174
0.1456831 0.6442083 0.3416174
0.2802645 0.6892537 0.3536633
0.4816064 0.7310294 0.3699993
0.6248294 0.7615240 0.3885609
0.7211246 0.7842944 0.4182642
0.7899263 0.8027549 0.4473507
0.8371710 0.8184920 0.4764126
0.0219983 0.0219983 0.2030185
0.0432754 0.0249987 0.2171370
0.1312216 0.0319264 0.2463363
0.2556573 0.0409238 0.2792122
0.3804970 0.0699941 0.3129663
0.4890880 0.1011613 0.3438765
0.5777238 0.1489740 0.3774348
0.6538245 0.2093754 0.4139899
0.7125270 0.2634387 0.4452637
0.0271061 0.0333061 0.2264711
0.0340395 0.0420430 0.2418639
0.1408426 0.0614407 0.2719029
0.2743571 0.0872054 0.3031941
0.4014566 0.1188856 0.3324038
0.5076269 0.1577494 0.3639098
0.5987289 0.2060831 0.3913554
0.6667667 0.2506697 0.4241360
0.7256749 0.3013316 0.4544663
0.0405428 0.1438223 0.2778846
0.0446173 0.1563231 0.2920807
0.1451541 0.1803429 0.3204417
0.2995772 0.2116381 0.3440301
0.4346715 0.2410281 0.3695322
0.5422032 0.2667387 0.3904185
0.6308566 0.3063022 0.4199911
0.6973253 0.3418972 0.4445452
0.7535872 0.3883146 0.4758030
0.0499020 0.2513946 0.3104936
0.0551561 0.2692108 0.3287996
0.1097796 0.3020314 0.3509746
0.3167225 0.3389138 0.3809378
0.4601560 0.3717211 0.3986421
0.5822102 0.4060694 0.4220432
0.6641850 0.4325391 0.4395836
0.7289838 0.4608849 0.4683381
0.7810327 0.4930603 0.4909258
0.0646246 0.3617892 0.3491031
0.0684236 0.3750252 0.3574822
0.0797794 0.4145904 0.3834658
0.3170381 0.4593302 0.4042745
0.4787702 0.4928980 0.4203553
0.6006585 0.5227176 0.4452651
0.6914327 0.5492074 0.4620028
0.7511058 0.5696925 0.4900664
0.8014203 0.5911984 0.5115609
0.0917500 0.4562977 0.3762963
0.0922187 0.4579308 0.3771078
0.1051174 0.5028719 0.4018037
0.2953213 0.5505908 0.4232527
0.4769238 0.5867226 0.4450195
0.6083896 0.6160365 0.4601296
0.7025306 0.6392375 0.4831728
0.7705927 0.6554793 0.5046535
0.8169330 0.6757513 0.5259317
0.1158898 0.5404044 0.4106523
0.1169396 0.5440620 0.4109707
0.1254481 0.5737067 0.4225052
0.2893396 0.6212358 0.4431052
0.4825240 0.6570081 0.4641363
0.6191509 0.6854991 0.4792206
0.7101527 0.7082209 0.4952857
0.7777375 0.7249921 0.5170719
0.8245528 0.7404159 0.5373801
0.1375795 0.6159744 0.4370195
0.1375795 0.6159744 0.4370195
0.1412443 0.6287430 0.4413982
0.2776732 0.6768008 0.4612414
0.4817482 0.7112798 0.4790570
0.6161152 0.7413372 0.4967662
0.7163299 0.7613069 0.5130019
0.7802206 0.7774266 0.5341395
0.8302817 0.7928492 0.5542877
0.1541140 0.6735830 0.4637633
0.1541140 0.6735830 0.4637633
0.1541140 0.6735830 0.4637633
0.2747827 0.7210536 0.4821518
0.4797028 0.7544680 0.4961104
0.6222093 0.7823196 0.5141922
0.7176389 0.8043984 0.5299231
0.7879114 0.8176835 0.5473471
0.8356461 0.8315534 0.5670777
0.0567000 0.0543097 0.3258505
0.0987161 0.0587749 0.3414079
0.1851110 0.0665352 0.3684460
0.3034147 0.0760982 0.4017646
0.4191600 0.0947486 0.4318413
0.5173041 0.1383544 0.4565273
0.6049991 0.1866820 0.4858893
0.6711417 0.2384496 0.5125507
0.7220500 0.2855107 0.5339193
0.0604667 0.0604667 0.3473025
0.0941886 0.0642996 0.3606566
0.1888743 0.0769520 0.3850506
0.3127726 0.1006981 0.4150484
0.4280748 0.1363948 0.4444306
0.5299196 0.1783044 0.4684380
0.6165253 0.2220033 0.4959875
0.6786832 0.2677047 0.5184397
0.7329157 0.3198372 0.5427447
0.0735912 0.1723971 0.3930300
0.0772601 0.1812431 0.4058130
0.1905019 0.2029752 0.4291862
0.3327159 0.2269119 0.4558550
0.4572544 0.2568372 0.4787459
0.5594632 0.2868536 0.5019275
0.6450878 0.3229142 0.5188272
0.7084392 0.3661765 0.5418679
0.7575143 0.4035575 0.5643325
0.0846344 0.2909490 0.4315059
0.0898008 0.3040371 0.4495066
0.1671678 0.3332158 0.4721307
0.3403033 0.3637841 0.4949030
0.4792079 0.3926270 0.5149079
0.5884765 0.4250563 0.5315917
0.6745189 0.4489433 0.5496303
0.7358632 0.4824809 0.5668467
0.7829413 0.5106949 0.5821823
0.0942984 0.4010744 0.4651767
0.0975523 0.4155041 0.4765139
0.1041207 0.4463752 0.4993992
0.3383457 0.4814890 0.5191076
0.4942687 0.5124673 0.5378159
0.6096895 0.5425360 0.5577967
0.6929548 0.5589784 0.5687557
0.7545522 0.5865458 0.5840831
0.8040435 0.6044123 0.5979632
0.1020962 0.4923456 0.4915116
0.1055737 0.5044615 0.4992356
0.1151023 0.5376607 0.5177933
0.3251773 0.5772421 0.5411015
0.4909919 0.6057069 0.5582883
0.6147187 0.6296005 0.5692757
0.7054077 0.6506056 0.5851511
0.7720590 0.6701965 0.5996506
0.8174144 0.6844158 0.6128201
0.1248406 0.5715901 0.5169744
0.1248406 0.5715901 0.5169744
0.1349974 0.6069779 0.5390611
0.3092298 0.6449409 0.5557882
0.4959435 0.6789406 0.5729250
0.6176562 0.7056247 0.5855322
0.7090274 0.7203763 0.5980720
0.7776737 0.7380002 0.6124429
0.8249046 0.7545725 0.6253012
0.1450505 0.6420041 0.5435815
0.1450505 0.6420041 0.5435815
0.1507034 0.6617000 0.5527082
0.2966874 0.7008653 0.5732256
0.4849748 0.7330464 0.5841414
0.6210417 0.7579467 0.5994616
0.7150350 0.7771025 0.6095996
0.7799998 0.7938304 0.6232316
0.8297735 0.8022653 0.6358367
0.1621313 0.7015163 0.5636483
0.1621313 0.7015163 0.5636483
0.1633139 0.7056366 0.5699426
0.2967303 0.7420446 0.5820014
0.4832758 0.7723568 0.5971180
0.6275173 0.7981446 0.6099960
0.7155851 0.8165799 0.6245703
0.7819743 0.8290281 0.6327657
0.8307070 0.8403285 0.6456067
0.1282908 0.0863292 0.4374110
0.1673127 0.0898858 0.4498028
0.2457684 0.0964019 0.4725058
0.3507995 0.1131742 0.4959584
0.4535037 0.1460684 0.5217414
0.5524270 0.1868230 0.5479203
0.6260179 0.2273202 0.5676274
0.6856735 0.2705511 0.5875491
0.7389643 0.3249320 0.6100398
0.1215625 0.0876806 0.4421193
0.1622936 0.0917951 0.4564548
0.2474420 0.1039544 0.4767748
0.3493546 0.1332328 0.5007988
0.4577553 0.1624277 0.5280231
0.5579193 0.2064384 0.5527452
0.6288989 0.2445952 0.5734570
0.6911638 0.2892020 0.5915911
0.7428169 0.3381364 0.6146405
0.1013937 0.2037223 0.4898978
0.1509460 0.2091999 0.4997160
0.2522062 0.2296239 0.5194919
0.3733273 0.2534843 0.5403838
0.4819314 0.2778358 0.5610871
0.5828135 0.3100067 0.5808043
0.6556154 0.3414661 0.5966887
0.7164069 0.3800466 0.6142516
0.7645469 0.4240905 0.6326686
0.1120345 0.3270770 0.5269720
0.1152318 0.3411077 0.5381116
0.2435237 0.3580489 0.5556305
0.3804191 0.3894631 0.5791063
0.5076626 0.4133676 0.5943521
0.6076909 0.4421956 0.6108369
0.6814161 0.4648919 0.6235928
0.7420771 0.4979763 0.6404749
0.7875775 0.5229307 0.6505545
0.1199982 0.4361731 0.5547184
0.1229603 0.4502701 0.5650389
0.2090931 0.4775825 0.5872952
0.3796605 0.5027431 0.6040314
0.5133500 0.5270954 0.6217497
0.6203700 0.5553607 0.6370388
0.7033582 0.5798063 0.6491044
0.7624882 0.5984864 0.6586788
0.8039736 0.6173875 0.6671532
0.1272246 0.5266155 0.5798962
0.1297737 0.5409216 0.5887778
0.1564982 0.5670379 0.6059711
0.3602203 0.5947617 0.6256652
0.5098472 0.6218693 0.6387085
0.6244677 0.6459235 0.6502963
0.7135134 0.6634104 0.6611082
0.7746977 0.6842426 0.6704572
0.8192331 0.6954746 0.6823350
0.1331430 0.5971881 0.6005169
0.1358767 0.6100414 0.6064999
0.1439657 0.6382247 0.6219441
0.3466913 0.6657763 0.6366401
0.5139266 0.6936824 0.6533841
0.6330871 0.7168963 0.6664380
0.7162239 0.7361666 0.6767125
0.7793517 0.7497787 0.6830182
0.8256489 0.7637488 0.6947911
0.1515671 0.6647092 0.6224110
0.1515671 0.6647092 0.6224110
0.1596920 0.6930172 0.6353463
0.3383754 0.7213321 0.6491672
0.5123215 0.7497737 0.6653133
0.6289992 0.7723054 0.6776674
0.7153845 0.7879083 0.6875432
0.7807230 0.8016306 0.6935747
0.8305271 0.8144662 0.7007744
0.1678398 0.7214054 0.6418665
0.1678398 0.7214054 0.6418665
0.1712559 0.7333078 0.6471470
0.3407472 0.7614194 0.6600686
0.5111422 0.7889258 0.6753420
0.6345638 0.8120221 0.6875783
0.7221774 0.8274552 0.6948489
0.7873259 0.8405340 0.7027773
0.8310127 0.8488121 0.7093884
0.2162971 0.1388316 0.5324749
0.2480491 0.1482561 0.5411618
0.3167376 0.1571351 0.5552199
0.4032490 0.1789420 0.5770182
0.5019627 0.2112440 0.5973467
0.5828504 0.2401337 0.6161658
0.6479893 0.2733306 0.6312863
0.7076244 0.3160047 0.6485027
0.7550389 0.3675201 0.6671855
0.2099475 0.1384554 0.5311544
0.2480491 0.1482561 0.5411618
0.3167376 0.1571351 0.5552199
0.4032490 0.1789420 0.5770182
0.5019627 0.2112440 0.5973467
0.5775698 0.2400541 0.6156034
0.6479893 0.2733306 0.6312863
0.7076244 0.3160047 0.6485027
0.7550389 0.3675201 0.6671855
0.1979996 0.2372339 0.5640569
0.2438197 0.2468757 0.5733597
0.3229702 0.2625703 0.5882921
0.4167810 0.2819434 0.6078693
0.5192513 0.3044018 0.6240072
0.6064571 0.3375977 0.6425120
0.6726702 0.3704544 0.6579154
0.7315878 0.4093959 0.6712654
0.7736295 0.4478402 0.6842995
0.1546835 0.3619667 0.6001410
0.2138849 0.3767308 0.6108808
0.3155908 0.3890010 0.6254059
0.4235956 0.4081419 0.6401628
0.5366951 0.4361949 0.6557453
0.6273000 0.4611961 0.6708459
0.6945198 0.4862686 0.6833992
0.7520246 0.5128071 0.6949858
0.7928988 0.5370218 0.7064224
0.1419270 0.4750828 0.6311217
0.1649748 0.4835219 0.6383661
0.3000467 0.5016733 0.6516305
0.4259226 0.5241795 0.6658357
0.5417727 0.5485093 0.6822570
0.6385216 0.5721155 0.6926309
0.7130948 0.5899244 0.7035794
0.7663199 0.6079570 0.7128351
0.8106366 0.6268920 0.7212002
0.1477097 0.5643131 0.6512693
0.1495594 0.5732636 0.6577139
0.2740355 0.5938650 0.6706352
0.4099004 0.6174135 0.6869456
0.5464292 0.6395863 0.6994288
0.6412837 0.6581537 0.7115816
0.7226629 0.6765831 0.7186539
0.7774774 0.6939241 0.7271504
0.8218231 0.7044772 0.7323987
0.1525002 0.6301945 0.6679603
0.1543764 0.6420570 0.6744972
0.2460129 0.6601859 0.6856420
0.4009977 0.6873547 0.6983483
0.5433852 0.7085116 0.7097987
0.6502752 0.7314023 0.7222943
0.7248956 0.7469724 0.7316061
0.7814207 0.7597152 0.7394305
0.8275191 0.7731152 0.7466454
0.1584344 0.6886358 0.6799899
0.1608098 0.6969118 0.6847954
0.2258234 0.7152650 0.6950657
0.3986469 0.7392079 0.7102087
0.5423393 0.7645110 0.7213519
0.6460753 0.7826763 0.7325839
0.7241734 0.7982330 0.7382051
0.7893378 0.8098503 0.7461545
0.8315481 0.8196518 0.7527045
0.1729760 0.7393006 0.6973389
0.1729760 0.7393006 0.6973389
0.2201626 0.7550609 0.7056266
0.3919784 0.7804763 0.7165844
0.5416618 0.8033277 0.7306309
0.6522568 0.8220267 0.7383594
0.7301595 0.8370847 0.7473124
0.7886428 0.8475693 0.7547413
0.8319760 0.8570316 0.7611223
0.3010509 0.2087615 0.6086143
0.3278464 0.2151917 0.6145601
0.3782458 0.2255348 0.6247018
0.4584700 0.2401585 0.6390783
0.5362867 0.2641612 0.6540397
0.6131042 0.2947875 0.6719585
0.6778492 0.3330158 0.6876697
0.7307698 0.3723502 0.7030801
0.7731151 0.4111502 0.7167271
0.3010509 0.2087615 0.6086143
0.3278464 0.2151917 0.6145601
0.3782458 0.2255348 0.6247018
0.4584700 0.2401585 0.6390783
0.5362867 0.2641612 0.6540397
0.6131042 0.2947875 0.6719585
0.6778492 0.3330158 0.6876697
0.7307698 0.3723502 0.7030801
0.7731151 0.4111502 0.7167271
0.3018844 0.2809488 0.6306232
0.3310485 0.2838451 0.6352923
0.3852826 0.2976592 0.6458107
0.4706652 0.3171385 0.6605488
0.5521397 0.3453614 0.6754392
0.6304190 0.3736283 0.6931900
0.6926454 0.3967780 0.7031012
0.7422530 0.4292483 0.7161726
0.7848593 0.4685613 0.7291433
0.2841951 0.4040940 0.6651701
0.3202012 0.4084224 0.6684668
0.3835488 0.4251359 0.6801779
0.4789712 0.4427090 0.6916837
0.5655710 0.4619207 0.7031898
0.6469466 0.4825242 0.7166967
0.7123523 0.5100943 0.7278984
0.7620237 0.5264466 0.7370228
0.8027891 0.5569120 0.7474031
0.2584682 0.5106022 0.6892190
0.3030896 0.5160834 0.6938757
0.3772320 0.5313876 0.7030322
0.4758423 0.5474917 0.7141507
0.5772719 0.5666696 0.7284544
0.6563092 0.5822866 0.7367448
0.7236842 0.6051208 0.7477167
0.7758895 0.6249495 0.7538244
0.8151635 0.6408532 0.7613904
0.2205424 0.5969488 0.7077010
0.2772940 0.6033219 0.7123011
0.3650909 0.6146518 0.7202789
0.4740112 0.6350463 0.7343940
0.5750219 0.6518580 0.7441159
0.6594359 0.6684851 0.7521192
0.7319673 0.6859102 0.7620325
0.7853263 0.7025928 0.7672490
0.8250787 0.7152060 0.7741198
0.1744950 0.6631238 0.7224709
0.2481980 0.6701819 0.7270388
0.3382822 0.6810434 0.7339003
0.4594103 0.7046590 0.7451454
0.5810683 0.7225882 0.7554603
0.6677165 0.7422507 0.7663622
0.7339389 0.7562045 0.7718772
0.7890711 0.7709249 0.7797409
0.8299600 0.7808026 0.7861883
0.1711888 0.7164351 0.7330739
0.2258367 0.7246721 0.7365725
0.3273531 0.7380722 0.7434844
0.4599184 0.7564191 0.7536381
0.5730212 0.7736824 0.7657380
0.6641352 0.7931839 0.7733356
0.7382776 0.8043754 0.7819061
0.7896425 0.8170609 0.7859362
0.8317343 0.8267784 0.7922638
0.1784959 0.7585329 0.7439033
0.2000210 0.7622184 0.7459645
0.3291182 0.7775465 0.7537150
0.4561493 0.7949789 0.7628454
0.5773625 0.8147889 0.7721360
0.6695495 0.8319766 0.7823702
0.7388585 0.8437882 0.7873114
0.7956827 0.8552492 0.7944536
0.8376274 0.8612590 0.7971027
0.3845763 0.2815175 0.6692424
0.4045680 0.2832063 0.6723184
0.4480726 0.2927164 0.6802509
0.5099111 0.3124704 0.6949054
0.5791783 0.3298529 0.7064350
0.6477880 0.3569469 0.7191195
0.7004118 0.3900197 0.7306494
0.7501804 0.4227075 0.7452441
0.7853494 0.4551268 0.7565520
0.3780432 0.2809518 0.6682203
0.3978369 0.2826450 0.6712915
0.4480726 0.2927164 0.6802509
0.5099111 0.3124704 0.6949054
0.5791783 0.3298529 0.7064350
0.6430730 0.3566807 0.7186148
0.7004118 0.3900197 0.7306494
0.7501804 0.4227075 0.7452441
0.7853494 0.4551268 0.7565520
0.3802048 0.3259355 0.6814340
0.4009773 0.3280024 0.6845149
0.4535138 0.3422759 0.6942171
0.5169304 0.3606861 0.7080702
0.5885702 0.3823377 0.7200947
0.6503924 0.4063815 0.7308213
0.7074115 0.4331923 0.7409527
0.7564414 0.4598927 0.7525718
0.7933475 0.4925615 0.7650068
0.3812960 0.4439833 0.7124446
0.4052462 0.4469396 0.7155270
0.4554297 0.4530476 0.7218482
0.5241306 0.4698690 0.7345353
0.6002574 0.4901602 0.7452569
0.6720535 0.5067785 0.7542261
0.7246740 0.5294912 0.7648081
0.7733333 0.5490429 0.7715547
0.8087245 0.5733346 0.7804691
0.3645549 0.5372751 0.7346888
0.3908757 0.5464478 0.7400321
0.4470372 0.5567354 0.7455416
0.5310492 0.5679307 0.7546151
0.6113612 0.5840641 0.7637644
0.6812019 0.6069510 0.7726015
0.7393148 0.6194789 0.7812508
0.7850986 0.6389189 0.7870848
0.8231348 0.6541358 0.7943352
0.3477592 0.6249961 0.7528126
0.3792170 0.6291901 0.7558486
0.4424029 0.6379130 0.7620623
0.5241345 0.6519208 0.7704604
0.6103443 0.6689981 0.7793074
0.6836330 0.6866124 0.7895681
0.7448378 0.6995285 0.7953095
0.7933851 0.7106367 0.7997569
0.8307516 0.7281215 0.8069230
0.3302639 0.6899776 0.7643388
0.3657989 0.6946045 0.7673385
0.4345342 0.7085751 0.7740603
0.5270277 0.7219483 0.7822829
0.6092230 0.7362102 0.7897304
0.6856296 0.7519876 0.7994363
0.7491496 0.7677491 0.8052288
0.7970384 0.7786332 0.8121238
0.8366258 0.7880808 0.8154072
0.3202661 0.7410208 0.7746918
0.3595339 0.7460034 0.7776754
0.4327399 0.7598919 0.7841090
0.5150377 0.7721493 0.7937075
0.6102579 0.7881420 0.8003749
0.6888867 0.8033437 0.8069745
0.7481167 0.8136883 0.8116019
0.7974002 0.8244684 0.8183999
0.8381696 0.8357475 0.8245960
0.3068512 0.7789025 0.7838353
0.3497595 0.7841549 0.7868204
0.4284386 0.7945880 0.7913262
0.5132521 0.8114021 0.7999380
0.6071937 0.8254020 0.8058766
0.6880934 0.8375978 0.8120088
0.7537624 0.8518273 0.8200997
0.8032131 0.8589913 0.8235278
0.8400229 0.8687571 0.8291463
