data/spectral_luts/vision3_50d_2383.cube
TITLE "vision3_50d_2383"
LUT_3D_SIZE 33
0.0062563 0.0054860 0.0053956
0.0062563 0.0054860 0.0053956
0.0067910 0.0055714 0.0054213
0.0087514 0.0058628 0.0055011
0.0125918 0.0063582 0.0056108
0.0205978 0.0072465 0.0057409
0.0353666 0.0083895 0.0057866
0.0549237 0.0096486 0.0057614
0.0800804 0.0111809 0.0056506
0.1137920 0.0130589 0.0079446
0.1411990 0.0145113 0.0113998
0.1675917 0.0162928 0.0154329
0.1990490 0.0211948 0.0211948
0.2279885 0.0274582 0.0274582
0.2638753 0.0365693 0.0365693
0.2976455 0.0462144 0.0462144
0.3345696 0.0568122 0.0568122
0.3694754 0.0668307 0.0668307
0.4014600 0.0760107 0.0760107
0.4328341 0.0850156 0.0850156
0.4623575 0.0934892 0.0934892
0.4846495 0.0998873 0.0998873
0.5088115 0.1068222 0.1068222
0.5300156 0.1129081 0.1129081
0.5522059 0.1192770 0.1192770
0.5743273 0.1256262 0.1256262
0.5948657 0.1315210 0.1315210
0.6099040 0.1401117 0.1358372
0.6312785 0.1579295 0.1419720
0.6464052 0.1717664 0.1522685
0.6614009 0.1861096 0.1651956
0.6804684 0.2039621 0.1840464
0.6949097 0.2199597 0.2007493
0.0062033 0.0055250 0.0054043
0.0062638 0.0055349 0.0054073
0.0068090 0.0056711 0.0054447
0.0088916 0.0059828 0.0055281
0.0130858 0.0066316 0.0056648
0.0208451 0.0075881 0.0057985
0.0352988 0.0089201 0.0059227
0.0560086 0.0105374 0.0059112
0.0802596 0.0123184 0.0058197
0.1161288 0.0150426 0.0082111
0.1424302 0.0172202 0.0115723
0.1748107 0.0195035 0.0166615
0.2001836 0.0214919 0.0214227
0.2320454 0.0284124 0.0284124
0.2677522 0.0376455 0.0376455
0.3017096 0.0473809 0.0473809
0.3385687 0.0579600 0.0579600
0.3734065 0.0679590 0.0679590
0.4055156 0.0771748 0.0771748
0.4365590 0.0860847 0.0860847
0.4649438 0.0942315 0.0942315
0.4860198 0.1002806 0.1002806
0.5103076 0.1072516 0.1072516
0.5316258 0.1133702 0.1133702
0.5539979 0.1197914 0.1197914
0.5760218 0.1261125 0.1261125
0.5948657 0.1315210 0.1315210
0.6118599 0.1444069 0.1363986
0.6312785 0.1579295 0.1419720
0.6464052 0.1717664 0.1522685
0.6614009 0.1861096 0.1651956
0.6804684 0.2039621 0.1840464
0.6949097 0.2199597 0.2007493
0.0062790 0.0061762 0.0056022
0.0062862 0.0062409 0.0056164
0.0069953 0.0064276 0.0056627
0.0091010 0.0068411 0.0057580
0.0134924 0.0076271 0.0059023
0.0216704 0.0088557 0.0060510
0.0369328 0.0105622 0.0061808
0.0584635 0.0128066 0.0061689
0.0835638 0.0154028 0.0061683
0.1183239 0.0187293 0.0084662
0.1465652 0.0215181 0.0121625
0.1772967 0.0245027 0.0170974
0.2053601 0.0277686 0.0224805
0.2375008 0.0317244 0.0297257
0.2734734 0.0392669 0.0392669
0.3080662 0.0492053 0.0492053
0.3418100 0.0588903 0.0588903
0.3795896 0.0697336 0.0697336
0.4115410 0.0789041 0.0789041
0.4429650 0.0879233 0.0879233
0.4716590 0.0961589 0.0961589
0.4932999 0.1023702 0.1023702
0.5166299 0.1090662 0.1090662
0.5382889 0.1152826 0.1152826
0.5591339 0.1212655 0.1212655
0.5802195 0.1283495 0.1273173
0.6002399 0.1399768 0.1330635
0.6160031 0.1534066 0.1375878
0.6353047 0.1668870 0.1431276
0.6504189 0.1809096 0.1527916
0.6657107 0.1960114 0.1709255
0.6825805 0.2089779 0.1843847
0.6970289 0.2251153 0.2011209
0.0063486 0.0083814 0.0060838
0.0064174 0.0083957 0.0060867
0.0071941 0.0086463 0.0061333
0.0095186 0.0092804 0.0062393
0.0143630 0.0103983 0.0063847
0.0236704 0.0119097 0.0064937
0.0390607 0.0140159 0.0065880
0.0632305 0.0172262 0.0065744
0.0891457 0.0204013 0.0065640
0.1234221 0.0248583 0.0090762
0.1507554 0.0291248 0.0127782
0.1839067 0.0335124 0.0182883
0.2124140 0.0381750 0.0239700
0.2416026 0.0423778 0.0307359
0.2788990 0.0490881 0.0408339
0.3134585 0.0543468 0.0507530
0.3505009 0.0613847 0.0613847
0.3888274 0.0723850 0.0723850
0.4202774 0.0814116 0.0814116
0.4493870 0.0897665 0.0897665
0.4781023 0.0980082 0.0980082
0.5030469 0.1051677 0.1051677
0.5228747 0.1108585 0.1108585
0.5422510 0.1182325 0.1164198
0.5645995 0.1322235 0.1228342
0.5856281 0.1442457 0.1288697
0.6080666 0.1570432 0.1353099
0.6239263 0.1709604 0.1398619
0.6412649 0.1803413 0.1448383
0.6567255 0.1953414 0.1585785
0.6709214 0.2082632 0.1716550
0.6889639 0.2242689 0.1879708
0.7012979 0.2355943 0.2018351
0.0062520 0.0122643 0.0067114
0.0062306 0.0126065 0.0067538
0.0072936 0.0128765 0.0067860
0.0099672 0.0138740 0.0068903
0.0155528 0.0154204 0.0070039
0.0253034 0.0175451 0.0071417
0.0444856 0.0206939 0.0072261
0.0670252 0.0248594 0.0072281
0.0949245 0.0293179 0.0071512
0.1319968 0.0357969 0.0101585
0.1599704 0.0414277 0.0141950
0.1906678 0.0484629 0.0195552
0.2191500 0.0537700 0.0254448
0.2575668 0.0609489 0.0348569
0.2885914 0.0660266 0.0436158
0.3239717 0.0730351 0.0537705
0.3621063 0.0804415 0.0647157
0.3960598 0.0857452 0.0744608
0.4282543 0.0940217 0.0837011
0.4598306 0.1028628 0.0927640
0.4883542 0.1110141 0.1009507
0.5122050 0.1177464 0.1077962
0.5318012 0.1278504 0.1134206
0.5522431 0.1391056 0.1192877
0.5738155 0.1518441 0.1254793
0.5933174 0.1609026 0.1310766
0.6139938 0.1745274 0.1370111
0.6308526 0.1865638 0.1418498
0.6485462 0.1969549 0.1469281
0.6639550 0.2122782 0.1593773
0.6772461 0.2233444 0.1750931
0.6952823 0.2397336 0.1888439
0.7075495 0.2511905 0.2027931
0.0053187 0.0199183 0.0075295
0.0054102 0.0199492 0.0075314
0.0066261 0.0203885 0.0076262
0.0098516 0.0220763 0.0077175
0.0157964 0.0240357 0.0077676
0.0277922 0.0275909 0.0079652
0.0478044 0.0321960 0.0080512
0.0723498 0.0378005 0.0080424
0.1002343 0.0441533 0.0078831
0.1386595 0.0530384 0.0110489
0.1688308 0.0588247 0.0156399
0.1998420 0.0659485 0.0213539
0.2317426 0.0729620 0.0283405
0.2652587 0.0801312 0.0369512
0.2969618 0.0870486 0.0460182
0.3384534 0.0944280 0.0579269
0.3703266 0.1015680 0.0670750
0.4081307 0.1088109 0.0779253
0.4395601 0.1160112 0.0869460
0.4714545 0.1259096 0.0961002
0.4994133 0.1333383 0.1041248
0.5238480 0.1416299 0.1111379
0.5444619 0.1543193 0.1170544
0.5636591 0.1634090 0.1225643
0.5844395 0.1749295 0.1285285
0.6041486 0.1848409 0.1341853
0.6229833 0.1947820 0.1395912
0.6392286 0.2102607 0.1442538
0.6570574 0.2210317 0.1493710
0.6723593 0.2324284 0.1627211
0.6877797 0.2492271 0.1816843
0.7037726 0.2610633 0.1953226
0.7160596 0.2730092 0.2096049
0.0030664 0.0315728 0.0083665
0.0033874 0.0317136 0.0083686
0.0049504 0.0324734 0.0085005
0.0086933 0.0339234 0.0085048
0.0162214 0.0386022 0.0086560
0.0301120 0.0425831 0.0087737
0.0520213 0.0489506 0.0088851
0.0786359 0.0560740 0.0086973
0.1054135 0.0631279 0.0085042
0.1447693 0.0720852 0.0119041
0.1760212 0.0791908 0.0168729
0.2071542 0.0858457 0.0228540
0.2423710 0.0949481 0.0309274
0.2763682 0.1026166 0.0401026
0.3082760 0.1097557 0.0492656
0.3500159 0.1173418 0.0612455
0.3817723 0.1243453 0.0703601
0.4204258 0.1334596 0.0814542
0.4526714 0.1426336 0.0907092
0.4840204 0.1518253 0.0997068
0.5127275 0.1612125 0.1079462
0.5354357 0.1706635 0.1144637
0.5565246 0.1805182 0.1205166
0.5760473 0.1908057 0.1261199
0.5962135 0.2014854 0.1319079
0.6159980 0.2119812 0.1375863
0.6352253 0.2233689 0.1431048
0.6493727 0.2344706 0.1471653
0.6675093 0.2465385 0.1557843
0.6809430 0.2582232 0.1688727
0.6949798 0.2675219 0.1823308
0.7109860 0.2797490 0.1960724
0.7234221 0.2925432 0.2134036
0.0024487 0.0483659 0.0092992
0.0024683 0.0487102 0.0094388
0.0025209 0.0496247 0.0094225
0.0057825 0.0515995 0.0095204
0.0141967 0.0565160 0.0097201
0.0303020 0.0619313 0.0097421
0.0561658 0.0695082 0.0096801
0.0825204 0.0753240 0.0094268
0.1141949 0.0839550 0.0088706
0.1521363 0.0934427 0.0129850
0.1846939 0.1017986 0.0184333
0.2175239 0.1112534 0.0250841
0.2503372 0.1192309 0.0329532
0.2845206 0.1270877 0.0424474
0.3230083 0.1354721 0.0534940
0.3601823 0.1459691 0.0641634
0.3985037 0.1538223 0.0751622
0.4316839 0.1644942 0.0846855
0.4627351 0.1714596 0.0935976
0.4948642 0.1824348 0.1028191
0.5227323 0.1892586 0.1108177
0.5484827 0.1999504 0.1182084
0.5677311 0.2109865 0.1237330
0.5855200 0.2178949 0.1288387
0.6080787 0.2295659 0.1353133
0.6270342 0.2384858 0.1407539
0.6463577 0.2506554 0.1463000
0.6586285 0.2575973 0.1498219
0.6766068 0.2695822 0.1559717
0.6900660 0.2818184 0.1692186
0.7069137 0.2948414 0.1885519
0.7212499 0.3075657 0.2055152
0.7333307 0.3198195 0.2143558
0.0037359 0.0682590 0.0103629
0.0037411 0.0683303 0.0103596
0.0038347 0.0696079 0.0104731
0.0040356 0.0722868 0.0106955
0.0098038 0.0778841 0.0106269
0.0287576 0.0843127 0.0104858
0.0550295 0.0902002 0.0103665
0.0867619 0.0998117 0.0099194
0.1171976 0.1066208 0.0091758
0.1610513 0.1184494 0.0143669
0.1956182 0.1293890 0.0205143
0.2293522 0.1388520 0.0277768
0.2597838 0.1446020 0.0354533
0.2949124 0.1535842 0.0454300
0.3343486 0.1630538 0.0567488
0.3710934 0.1722959 0.0672951
0.4117089 0.1850475 0.0789523
0.4439868 0.1935913 0.0882166
0.4755588 0.2015269 0.0972782
0.5064099 0.2095585 0.1061329
0.5364392 0.2216649 0.1147518
0.5606685 0.2290421 0.1217059
0.5800769 0.2410667 0.1272764
0.5980214 0.2486837 0.1324268
0.6183794 0.2611660 0.1382698
0.6367936 0.2684697 0.1435549
0.6561260 0.2813589 0.1491036
0.6706023 0.2890102 0.1532585
0.6885647 0.3015447 0.1613028
0.6999825 0.3088150 0.1749304
0.7167423 0.3221197 0.1917206
0.7293352 0.3351518 0.2061169
0.7412798 0.3428839 0.2207771
0.0054552 0.0893199 0.0114574
0.0054552 0.0893199 0.0114574
0.0057124 0.0921175 0.0115442
0.0059720 0.0948668 0.0115267
0.0063749 0.0989998 0.0115733
0.0227716 0.1075535 0.0114376
0.0545872 0.1157814 0.0108483
0.0891189 0.1234259 0.0098285
0.1225113 0.1341325 0.0104392
0.1665982 0.1440062 0.0152681
0.2026281 0.1563715 0.0219185
0.2351339 0.1666875 0.0291516
0.2663458 0.1731271 0.0372530
0.3022060 0.1837628 0.0475234
0.3457796 0.1950083 0.0600296
0.3800036 0.2051842 0.0698524
0.4200402 0.2154053 0.0813435
0.4526192 0.2248645 0.0906942
0.4917493 0.2345238 0.1019251
0.5228874 0.2435289 0.1108622
0.5482563 0.2520732 0.1181434
0.5728064 0.2603530 0.1251897
0.5914562 0.2710229 0.1305425
0.6102822 0.2811575 0.1359458
0.6287969 0.2890873 0.1412598
0.6473604 0.2971401 0.1465878
0.6665804 0.3101519 0.1521042
0.6831406 0.3185353 0.1568572
0.6972844 0.3262645 0.1665309
0.7107040 0.3398667 0.1834921
0.7255414 0.3479566 0.1976053
0.7380561 0.3613935 0.2123635
0.7484258 0.3693096 0.2272005
0.0078376 0.1128409 0.0128041
0.0078376 0.1128409 0.0128041
0.0081478 0.1155775 0.0125865
0.0085342 0.1189025 0.0126630
0.0090813 0.1234641 0.0125112
0.0136240 0.1327634 0.0117009
0.0493034 0.1417301 0.0114740
0.0872946 0.1501277 0.0126848
0.1237589 0.1619097 0.0145043
0.1735200 0.1750669 0.0167062
0.2054194 0.1827000 0.0224927
0.2415220 0.1944107 0.0307159
0.2805625 0.2064575 0.0413114
0.3170260 0.2142566 0.0517769
0.3518313 0.2252472 0.0617666
0.3903347 0.2366348 0.0728176
0.4304542 0.2460590 0.0843325
0.4635092 0.2563428 0.0938198
0.5032568 0.2669624 0.1052279
0.5348185 0.2768972 0.1142866
0.5576146 0.2859950 0.1208294
0.5830213 0.2947717 0.1281215
0.6007573 0.3034834 0.1332120
0.6211259 0.3121483 0.1390581
0.6398039 0.3207883 0.1444189
0.6584786 0.3292222 0.1497788
0.6759508 0.3375878 0.1547936
0.6943782 0.3519613 0.1600826
0.7067633 0.3604060 0.1745192
0.7200894 0.3687273 0.1889605
0.7349755 0.3772597 0.2033773
0.7473067 0.3908612 0.2184816
0.7575610 0.3986042 0.2303755
0.0109155 0.1376820 0.0136272
0.0109155 0.1376820 0.0136272
0.0110971 0.1390108 0.0137217
0.0115946 0.1425887 0.0134736
0.0127572 0.1506145 0.0130160
0.0141172 0.1594785 0.0141172
0.0408358 0.1677814 0.0154645
0.0841373 0.1767010 0.0169923
0.1249112 0.1896494 0.0193612
0.1757324 0.2032381 0.0220432
0.2118295 0.2123294 0.0239518
0.2495808 0.2246349 0.0327576
0.2832859 0.2328933 0.0420930
0.3214407 0.2458398 0.0530440
0.3598846 0.2555913 0.0640780
0.3991376 0.2681709 0.0753442
0.4407828 0.2805758 0.0872970
0.4802510 0.2882258 0.0986249
0.5134208 0.2986497 0.1081451
0.5454268 0.3095935 0.1173313
0.5684138 0.3190926 0.1239289
0.5924514 0.3234820 0.1308281
0.6102755 0.3327138 0.1359439
0.6284220 0.3417307 0.1411522
0.6495391 0.3508037 0.1472131
0.6683937 0.3604725 0.1526246
0.6859102 0.3691791 0.1576521
0.7024589 0.3777192 0.1624018
0.7147829 0.3863474 0.1795975
0.7278706 0.4003803 0.1941632
0.7446477 0.4093243 0.2089480
0.7551945 0.4173483 0.2211392
0.7654786 0.4257806 0.2364959
0.0147633 0.1635152 0.0148480
0.0147633 0.1635152 0.0148480
0.0148438 0.1640111 0.0148438
0.0154979 0.1679818 0.0154979
0.0165078 0.1739249 0.0165078
0.0181936 0.1833904 0.0181936
0.0280821 0.1962755 0.0206437
0.0800501 0.2053126 0.0224706
0.1283562 0.2185421 0.0253096
0.1784832 0.2304462 0.0280340
0.2143407 0.2432537 0.0311482
0.2528914 0.2532872 0.0337225
0.2882526 0.2640261 0.0435186
0.3276274 0.2773581 0.0548197
0.3702919 0.2870630 0.0670651
0.4103662 0.2999242 0.0785670
0.4439572 0.3076833 0.0882081
0.4858143 0.3202860 0.1002217
0.5193836 0.3323516 0.1098565
0.5511909 0.3403416 0.1189857
0.5837727 0.3518749 0.1283372
0.6037272 0.3611185 0.1340644
0.6216130 0.3705486 0.1391979
0.6431044 0.3756652 0.1453662
0.6620192 0.3849455 0.1507951
0.6761350 0.3937016 0.1548465
0.6959472 0.4030673 0.1605329
0.7126176 0.4125880 0.1689150
0.7249412 0.4214165 0.1840328
0.7363207 0.4302285 0.1991615
0.7514108 0.4394675 0.2145281
0.7636240 0.4477059 0.2266646
0.7738068 0.4562311 0.2424917
0.0192500 0.1890631 0.0192500
0.0192500 0.1890631 0.0192500
0.0192500 0.1890631 0.0192500
0.0199462 0.1927026 0.0199462
0.0215115 0.2006238 0.0215115
0.0234051 0.2097699 0.0234051
0.0263216 0.2230477 0.0263216
0.0674088 0.2346163 0.0290270
0.1265342 0.2464023 0.0319432
0.1794239 0.2595386 0.0353870
0.2170239 0.2735642 0.0392930
0.2550371 0.2851791 0.0426364
0.2947723 0.2952023 0.0455132
0.3285426 0.3080660 0.0550824
0.3760635 0.3188502 0.0687216
0.4159364 0.3281132 0.0801657
0.4590145 0.3417520 0.0925297
0.4933465 0.3514434 0.1023835
0.5273321 0.3632708 0.1121379
0.5602598 0.3757553 0.1215886
0.5888274 0.3816684 0.1297879
0.6096486 0.3915330 0.1357639
0.6332186 0.3965060 0.1425289
0.6516769 0.4065817 0.1478267
0.6707164 0.4164096 0.1532913
0.6848172 0.4254192 0.1573384
0.7008700 0.4292882 0.1619458
0.7177075 0.4389629 0.1734165
0.7320678 0.4480602 0.1886699
0.7472894 0.4573273 0.2039758
0.7584099 0.4662628 0.2198588
0.7688094 0.4745027 0.2323243
0.7806597 0.4831333 0.2485058
0.0248005 0.2162362 0.0248005
0.0248005 0.2162362 0.0248005
0.0248005 0.2162362 0.0248005
0.0257107 0.2203401 0.0257107
0.0276058 0.2286213 0.0276058
0.0296321 0.2371170 0.0296321
0.0325596 0.2488122 0.0325596
0.0535405 0.2599772 0.0355056
0.1249033 0.2777117 0.0404932
0.1750601 0.2892558 0.0438065
0.2155865 0.3013355 0.0472735
0.2581998 0.3125058 0.0504796
0.2967106 0.3271307 0.0546771
0.3382917 0.3375643 0.0578805
0.3802681 0.3500137 0.0699283
0.4221352 0.3645211 0.0819448
0.4651715 0.3740778 0.0942969
0.5006251 0.3867385 0.1044726
0.5339691 0.3941593 0.1140428
0.5660728 0.4011476 0.1232570
0.5962709 0.4125378 0.1319243
0.6171877 0.4227034 0.1379278
0.6393179 0.4304745 0.1442794
0.6577356 0.4408989 0.1495656
0.6779026 0.4455993 0.1553538
0.6965719 0.4553381 0.1607122
0.7094873 0.4641870 0.1649272
0.7249552 0.4686499 0.1843632
0.7392614 0.4768563 0.1930176
0.7544184 0.4861272 0.2088551
0.7654208 0.4949734 0.2249158
0.7757695 0.5033662 0.2377499
0.7862610 0.5066386 0.2543513
0.0311804 0.2433823 0.0311804
0.0311804 0.2433823 0.0311804
0.0311804 0.2433823 0.0311804
0.0317843 0.2457767 0.0317843
0.0336520 0.2530183 0.0336520
0.0369868 0.2653871 0.0369868
0.0397957 0.2753092 0.0397957
0.0439349 0.2897033 0.0439349
0.1051082 0.3052628 0.0484007
0.1709219 0.3191740 0.0523934
0.2147262 0.3296868 0.0554108
0.2569055 0.3399572 0.0583585
0.3003567 0.3558509 0.0629203
0.3400171 0.3685065 0.0665526
0.3791070 0.3775072 0.0695951
0.4218990 0.3924478 0.0818770
0.4660126 0.4026648 0.0945383
0.5008056 0.4109464 0.1045244
0.5396605 0.4242837 0.1156763
0.5728660 0.4336297 0.1252068
0.6033442 0.4453513 0.1339545
0.6231929 0.4505530 0.1396513
0.6460727 0.4611679 0.1462182
0.6632689 0.4662838 0.1511537
0.6822694 0.4763269 0.1566072
0.7023346 0.4812135 0.1623662
0.7152950 0.4899903 0.1723921
0.7321731 0.4997731 0.1880577
0.7429954 0.5033863 0.2048385
0.7584245 0.5121436 0.2139740
0.7714115 0.5219848 0.2335639
0.7811191 0.5273338 0.2434247
0.7912670 0.5362529 0.2600046
0.0384704 0.2706804 0.0384704
0.0384704 0.2706804 0.0384704
0.0384704 0.2706804 0.0384704
0.0386647 0.2713647 0.0386647
0.0416037 0.2815810 0.0416037
0.0444118 0.2913649 0.0444118
0.0473118 0.3014690 0.0473118
0.0514252 0.3158004 0.0514252
0.1003781 0.3321504 0.0561179
0.1689659 0.3466000 0.0602651
0.2164976 0.3577402 0.0634625
0.2567080 0.3708660 0.0672298
0.2991699 0.3811490 0.0701812
0.3445480 0.3964008 0.0745587
0.3886930 0.4076259 0.0777804
0.4319140 0.4178146 0.0847515
0.4690993 0.4294635 0.0954242
0.5133683 0.4444842 0.1081301
0.5481011 0.4517106 0.1180989
0.5819400 0.4645455 0.1278111
0.6047927 0.4705500 0.1343702
0.6329448 0.4767255 0.1424503
0.6511101 0.4870246 0.1476640
0.6690723 0.4946449 0.1528194
0.6881281 0.5056219 0.1582887
0.7061130 0.5095189 0.1634506
0.7212313 0.5185609 0.1796285
0.7369835 0.5225236 0.1926406
0.7487875 0.5306500 0.2094842
0.7639018 0.5391697 0.2257484
0.7756818 0.5424981 0.2392614
0.7856678 0.5503850 0.2561168
0.7955961 0.5573921 0.2660016
0.0471579 0.3009328 0.0471579
0.0471579 0.3009328 0.0471579
0.0471579 0.3009328 0.0471579
0.0471579 0.3009328 0.0471579
0.0489716 0.3072517 0.0489716
0.0520066 0.3178262 0.0520066
0.0555588 0.3302026 0.0555588
0.0590047 0.3422085 0.0590047
0.1004314 0.3580922 0.0635635
0.1613320 0.3723361 0.0676517
0.2087895 0.3837610 0.0709309
0.2556465 0.3996029 0.0754777
0.3004757 0.4104523 0.0785917
0.3435441 0.4208423 0.0815737
0.3892681 0.4345337 0.0855034
0.4333861 0.4457510 0.0887229
0.4798734 0.4600534 0.0985166
0.5163246 0.4685813 0.1089786
0.5513684 0.4771374 0.1190366
0.5853527 0.4891736 0.1287907
0.6090025 0.4964680 0.1355785
0.6348755 0.5035270 0.1430044
0.6554959 0.5121750 0.1489228
0.6730239 0.5172739 0.1539536
0.6919880 0.5261588 0.1593965
0.7099983 0.5312158 0.1751466
0.7275097 0.5403625 0.1913189
0.7409282 0.5441571 0.2049702
0.7569272 0.5525383 0.2214699
0.7669843 0.5552829 0.2315729
0.7777950 0.5625219 0.2451687
0.7891002 0.5682724 0.2621608
0.7989334 0.5749293 0.2722780
0.0542411 0.3256113 0.0584319
0.0542411 0.3256113 0.0584319
0.0542411 0.3256113 0.0584319
0.0542411 0.3256113 0.0584319
0.0555815 0.3302818 0.0569905
0.0588363 0.3416219 0.0588363
0.0621546 0.3531832 0.0621546
0.0651447 0.3636012 0.0651447
0.0885931 0.3831855 0.0707657
0.1577309 0.3943067 0.0739576
0.2039933 0.4089777 0.0781684
0.2503117 0.4198982 0.0813028
0.2968653 0.4329482 0.0850483
0.3457291 0.4445922 0.0883903
0.3924122 0.4561983 0.0917214
0.4298745 0.4689005 0.0953671
0.4767739 0.4798723 0.0985162
0.5141942 0.4899830 0.1083671
0.5537596 0.4995773 0.1197230
0.5881485 0.5110704 0.1295931
0.6180370 0.5185477 0.1381715
0.6378953 0.5232222 0.1438711
0.6559324 0.5317906 0.1490481
0.6761305 0.5374200 0.1576680
0.6947408 0.5441294 0.1706070
0.7136030 0.5532503 0.1869263
0.7304685 0.5571561 0.1966365
0.7424251 0.5652906 0.2138432
0.7600031 0.5696540 0.2270807
0.7710063 0.5771633 0.2369701
0.7809892 0.5809274 0.2545345
0.7910230 0.5889232 0.2681979
0.8019499 0.5917921 0.2786960
0.0608155 0.3485176 0.0704117
0.0608155 0.3485176 0.0704117
0.0608155 0.3485176 0.0704117
0.0608155 0.3485176 0.0704117
0.0615344 0.3510224 0.0697413
0.0646901 0.3620173 0.0710564
0.0682422 0.3743934 0.0720192
0.0718007 0.3867918 0.0718007
0.0761948 0.4021012 0.0761948
0.1492341 0.4135046 0.0794677
0.1998114 0.4267182 0.0832602
0.2476754 0.4411955 0.0874154
0.3013357 0.4531075 0.0908343
0.3433028 0.4633240 0.0937666
0.3914737 0.4746067 0.0970049
0.4379132 0.4876382 0.1007452
0.4773845 0.5003224 0.1043857
0.5150004 0.5094674 0.1085985
0.5508987 0.5186365 0.1189018
0.5855538 0.5261346 0.1288484
0.6203893 0.5382498 0.1388467
0.6407925 0.5453482 0.1447027
0.6581054 0.5512951 0.1606654
0.6767781 0.5602976 0.1694291
0.6979269 0.5650803 0.1787255
0.7160878 0.5709227 0.1997363
0.7339172 0.5797373 0.2090643
0.7453216 0.5828832 0.2191885
0.7616708 0.5930181 0.2398625
0.7739092 0.5962088 0.2500923
0.7845106 0.6015683 0.2602529
0.7945349 0.6097564 0.2742207
0.8053921 0.6136997 0.2923707
0.0674500 0.3716333 0.0859513
0.0674500 0.3716333 0.0859513
0.0674500 0.3716333 0.0859513
0.0674500 0.3716333 0.0859513
0.0674500 0.3716333 0.0859513
0.0706118 0.3826493 0.0834573
0.0739235 0.3941877 0.0852217
0.0772208 0.4056759 0.0841896
0.0825215 0.4241444 0.0831424
0.1399522 0.4369777 0.0868462
0.1984109 0.4479447 0.0893525
0.2506187 0.4582606 0.0923133
0.2920306 0.4709503 0.0959555
0.3441323 0.4873042 0.1006493
0.3896017 0.4975050 0.1035771
0.4373724 0.5085913 0.1067590
0.4855771 0.5200789 0.1100561
0.5236835 0.5288043 0.1147699
0.5610728 0.5442950 0.1230540
0.5878672 0.5506176 0.1311344
0.6189944 0.5586517 0.1467093
0.6424893 0.5647067 0.1594568
0.6661850 0.5747039 0.1677304
0.6842802 0.5797307 0.1813013
0.7033848 0.5865920 0.1906237
0.7173018 0.5961184 0.2080605
0.7368269 0.6011215 0.2214122
0.7483079 0.6043789 0.2318489
0.7648579 0.6136700 0.2453083
0.7748980 0.6176695 0.2632151
0.7880602 0.6259739 0.2733853
0.7973226 0.6288037 0.2842386
0.8082943 0.6323543 0.2989263
0.0738639 0.3939800 0.0988089
0.0738639 0.3939800 0.0988089
0.0738639 0.3939800 0.0988089
0.0738639 0.3939800 0.0988089
0.0738639 0.3939800 0.0988089
0.0763487 0.4026377 0.1020191
0.0801626 0.4159256 0.1016450
0.0838177 0.4286604 0.0981515
0.0887801 0.4459502 0.0984812
0.1244941 0.4590550 0.1024967
0.1904135 0.4703977 0.1041283
0.2404097 0.4827318 0.1056390
0.2945127 0.4950070 0.1100881
0.3403290 0.5052580 0.1119878
0.3911377 0.5171469 0.1167324
0.4398652 0.5312317 0.1248149
0.4811793 0.5440238 0.1222282
0.5242098 0.5543601 0.1317672
0.5617025 0.5628507 0.1386230
0.5967263 0.5712597 0.1498456
0.6204295 0.5769991 0.1587919
0.6476381 0.5907821 0.1702387
0.6656737 0.5954148 0.1800028
0.6865732 0.6010072 0.1935245
0.7061421 0.6103296 0.2028429
0.7193987 0.6151237 0.2207271
0.7365212 0.6198984 0.2346590
0.7559229 0.6288582 0.2442445
0.7672657 0.6321073 0.2547424
0.7777892 0.6380290 0.2690516
0.7909172 0.6460956 0.2794439
0.8002263 0.6490070 0.2904694
0.8094906 0.6524315 0.3055595
0.0817262 0.4213735 0.1162485
0.0817262 0.4213735 0.1162485
0.0817262 0.4213735 0.1162485
0.0817262 0.4213735 0.1162485
0.0817262 0.4213735 0.1162485
0.0834186 0.4272702 0.1153565
0.0868689 0.4392914 0.1181706
0.0903223 0.4513236 0.1154760
0.0945581 0.4660816 0.1142135
0.1147454 0.4800045 0.1160091
0.1861228 0.4922561 0.1212222
0.2354676 0.5020550 0.1241695
0.2929776 0.5140699 0.1261808
0.3448440 0.5280776 0.1310704
0.3876386 0.5417324 0.1327555
0.4381475 0.5533956 0.1380674
0.4799449 0.5625831 0.1408455
0.5197088 0.5718217 0.1476367
0.5576259 0.5832158 0.1581533
0.5975918 0.5920480 0.1655160
0.6218428 0.6029050 0.1777476
0.6486864 0.6091657 0.1867302
0.6667241 0.6144829 0.2006788
0.6879623 0.6196249 0.2104271
0.7076345 0.6288874 0.2195974
0.7264343 0.6363394 0.2332744
0.7387744 0.6399110 0.2439192
0.7558174 0.6491239 0.2574526
0.7695687 0.6528216 0.2681165
0.7798930 0.6559864 0.2791101
0.7902527 0.6596667 0.2940106
0.8061337 0.6678225 0.3047340
0.8151754 0.6707374 0.3161961
0.0882690 0.4441694 0.1307499
0.0882690 0.4441694 0.1307499
0.0882690 0.4441694 0.1307499
0.0882690 0.4441694 0.1307499
0.0882690 0.4441694 0.1307499
0.0886744 0.4455820 0.1305566
0.0925258 0.4590006 0.1337554
0.0967101 0.4735793 0.1311217
0.1005004 0.4867854 0.1309364
0.1037436 0.4980853 0.1340512
0.1776860 0.5099745 0.1369168
0.2361082 0.5222527 0.1363200
0.2849195 0.5338438 0.1455333
0.3392172 0.5496303 0.1472990
0.3938021 0.5607855 0.1461574
0.4452483 0.5732906 0.1555521
0.4876403 0.5839337 0.1547158
0.5273368 0.5938476 0.1657531
0.5656827 0.6026796 0.1735491
0.5938836 0.6088795 0.1784473
0.6294740 0.6214228 0.1898100
0.6497568 0.6286922 0.1994295
0.6681349 0.6335379 0.2095167
0.6866412 0.6388862 0.2232917
0.7063015 0.6479212 0.2328684
0.7277928 0.6536051 0.2467292
0.7402195 0.6572194 0.2573333
0.7568626 0.6614453 0.2678586
0.7713767 0.6690146 0.2744032
0.7817509 0.6722397 0.2854986
0.7964047 0.6787973 0.3003237
0.8064064 0.6862415 0.3115422
0.8174673 0.6894690 0.3227613
0.0950543 0.4678103 0.1463244
0.0950543 0.4678103 0.1463244
0.0950543 0.4678103 0.1463244
0.0950543 0.4678103 0.1463244
0.0950543 0.4678103 0.1463244
0.0950543 0.4678103 0.1463244
