data/spectral_luts/vision3_500t_2383.cube
TITLE "vision3_500t_2383"
LUT_3D_SIZE 5
0.0074967 0.0063909 0.0059928
0.0677193 0.0124403 0.0071721
0.3223902 0.0533165 0.0533165
0.5472087 0.1178428 0.1178428
0.6968467 0.2247611 0.1956946
0.0036063 0.0664589 0.0121616
0.1057493 0.1001935 0.0116535
0.3953626 0.1765605 0.0742607
0.6182473 0.2606055 0.1382319
0.7426045 0.3511894 0.2180405
0.0370525 0.2656240 0.0370525
0.1201695 0.3285517 0.0550850
0.4742364 0.4291442 0.0968986
0.6883190 0.5036972 0.1583435
0.7965004 0.5617111 0.2657615
0.0927607 0.4598191 0.1289943
0.1088205 0.5157738 0.1340632
0.5009760 0.6053752 0.1569758
0.7163698 0.6643697 0.2341626
0.8197896 0.7116807 0.3331990
0.1377045 0.6164100 0.2650625
0.1477140 0.6512842 0.2706630
0.5343341 0.7252802 0.2952103
0.7248127 0.7730950 0.3517123
0.8294108 0.8046463 0.4215834
0.0073934 0.0104791 0.0942016
0.0917983 0.0195673 0.1208105
0.3488877 0.0609217 0.1680860
0.5650028 0.1243122 0.2381974
0.7051809 0.2411102 0.3265396
0.0128286 0.1071283 0.1510929
0.1086024 0.1403942 0.1745504
0.4157403 0.2115289 0.2207034
0.6257564 0.2874357 0.2823919
0.7486050 0.3744557 0.3579185
0.0569004 0.3348770 0.2293545
0.0715764 0.3860102 0.2475266
0.4691427 0.4716062 0.2867732
0.6859161 0.5364278 0.3356212
0.7983053 0.5787998 0.4073388
0.1067844 0.5086799 0.3035841
0.1214665 0.5598343 0.3187299
0.4903288 0.6413821 0.3577856
0.7089761 0.6942918 0.4030624
0.8194075 0.7279605 0.4550821
0.1462638 0.6462315 0.3940076
0.1571870 0.6842898 0.4067248
0.5285532 0.7481148 0.4297114
0.7225711 0.7923284 0.4728998
0.8249615 0.8186985 0.5202456
0.0605643 0.0524625 0.3194144
0.1729933 0.0619468 0.3524592
0.4125188 0.0791848 0.4116038
0.6025751 0.1597167 0.4690624
0.7271835 0.2763475 0.5250052
0.0721277 0.1535052 0.3879310
0.1857676 0.1841544 0.4244618
0.4551701 0.2469094 0.4696334
0.6474996 0.3193208 0.5122193
0.7604455 0.4013544 0.5596721
0.0990991 0.4090654 0.4819031
0.1107793 0.4487895 0.5068931
0.4998487 0.5193011 0.5457321
0.6930518 0.5650144 0.5767623
0.8013847 0.6045605 0.6040117
0.1279761 0.5825146 0.5436741
0.1386079 0.6195576 0.5659171
0.5119833 0.6816583 0.5914918
0.7108135 0.7200768 0.6172395
0.8179745 0.7538655 0.6401559
0.1615324 0.6994296 0.5962011
0.1728612 0.7293251 0.6076462
0.5518811 0.7818838 0.6273755
0.7235155 0.8145993 0.6480769
0.8226779 0.8351322 0.6649215
0.1955762 0.1082152 0.5136650
0.2913174 0.1208850 0.5409120
0.4949271 0.1753923 0.5825363
0.6527286 0.2467867 0.6236216
0.7583554 0.3454931 0.6624258
0.1826362 0.2287358 0.5649642
0.3012893 0.2508595 0.5862908
0.5248270 0.3085028 0.6269366
0.6796533 0.3712805 0.6559518
0.7792811 0.4447955 0.6860727
0.1440596 0.4751422 0.6385517
0.2707011 0.5042554 0.6595165
0.5563681 0.5558985 0.6878242
0.7146090 0.5934940 0.7103955
0.8103325 0.6284882 0.7281118
0.1581343 0.6392000 0.6875900
0.2826640 0.6660022 0.7018270
0.5689349 0.7136717 0.7273051
0.7233877 0.7432171 0.7403435
0.8231580 0.7680272 0.7553380
0.1750144 0.7464027 0.7236872
0.3479038 0.7681196 0.7317432
0.5858068 0.8046353 0.7507895
0.7346973 0.8319688 0.7640698
0.8264692 0.8504980 0.7775623
0.3579997 0.2464499 0.6685783
0.4355357 0.2697264 0.6842685
0.5859993 0.3105665 0.7097422
0.7036784 0.3653708 0.7361317
0.7899593 0.4402592 0.7616071
0.3574717 0.3289956 0.6935256
0.4405736 0.3449796 0.7065362
0.5973571 0.3842966 0.7301921
0.7174650 0.4415776 0.7540320
0.8014083 0.5037159 0.7754393
0.3526458 0.5377181 0.7479721
0.4526212 0.5586757 0.7597061
0.6198799 0.5861209 0.7794457
0.7407784 0.6199352 0.7925440
0.8194987 0.6543574 0.8080930
0.3552186 0.6908646 0.7860194
0.4567248 0.7049603 0.7942638
0.6228786 0.7360343 0.8113740
0.7478009 0.7601760 0.8214117
0.8291087 0.7821059 0.8309634
0.4085030 0.7867386 0.8108432
0.4960511 0.7991749 0.8171397
0.6360222 0.8217545 0.8302172
0.7534227 0.8434932 0.8372260
0.8353201 0.8597242 0.8456555
