data/spectral_luts/vision3_50d_2383.cube
TITLE "vision3_50d_2383"
LUT_3D_SIZE 5
0.0062563 0.0054860 0.0053956
0.0800804 0.0111809 0.0056506
0.3345696 0.0568122 0.0568122
0.5522059 0.1192770 0.1192770
0.6949097 0.2199597 0.2007493
0.0037359 0.0682590 0.0103629
0.1171976 0.1066208 0.0091758
0.4117089 0.1850475 0.0789523
0.6183794 0.2611660 0.1382698
0.7412798 0.3428839 0.2207771
0.0384704 0.2706804 0.0384704
0.1003781 0.3321504 0.0561179
0.4690993 0.4294635 0.0954242
0.6881281 0.5056219 0.1582887
0.7955961 0.5573921 0.2660016
0.0950543 0.4678103 0.1463244
0.1057148 0.5049533 0.1514831
0.4855879 0.6011748 0.1743090
0.7070179 0.6627164 0.2466307
0.8188808 0.7059636 0.3375545
0.1404933 0.6261266 0.2838056
0.1425566 0.6333153 0.2839870
0.4878458 0.7147403 0.3081488
0.7153603 0.7681557 0.3560522
0.8236073 0.7991733 0.4180642
0.0067890 0.0071154 0.1030914
0.1057003 0.0153909 0.1314208
0.3588309 0.0637756 0.1807800
0.5688369 0.1240504 0.2428962
0.7028162 0.2353659 0.3167615
0.0143468 0.1079791 0.1609256
0.1275692 0.1477032 0.1886539
0.4192073 0.2124763 0.2303853
0.6268885 0.2767969 0.2783690
0.7438738 0.3587196 0.3441391
0.0556487 0.3305157 0.2325380
0.0722045 0.3881984 0.2549081
0.4691427 0.4716062 0.2867732
0.6903114 0.5292423 0.3286814
0.7942431 0.5721825 0.3907818
0.1070426 0.5095795 0.3013524
0.1179398 0.5475467 0.3140923
0.4724070 0.6311033 0.3402060
0.7066606 0.6823826 0.3781545
0.8142752 0.7199177 0.4306166
0.1463645 0.6465823 0.3795122
0.1489708 0.6556633 0.3811086
0.4856082 0.7316447 0.4020581
0.7131686 0.7816348 0.4373485
0.8209022 0.8068736 0.4766851
0.0547286 0.0536339 0.3234958
0.1807511 0.0643464 0.3608197
0.4158130 0.0811912 0.4195096
0.6073335 0.1680383 0.4711262
0.7275454 0.2826306 0.5262011
0.0712831 0.1455711 0.3849881
0.1835180 0.1770469 0.4244914
0.4566128 0.2366432 0.4674488
0.6460934 0.3046164 0.5094242
0.7536001 0.3749741 0.5464820
0.0970153 0.3975168 0.4746428
0.1044944 0.4410542 0.5007010
0.4869729 0.5113115 0.5412559
0.6894969 0.5571907 0.5697447
0.7952024 0.5968084 0.5954781
0.1250403 0.5722859 0.5366175
0.1343629 0.6047671 0.5517983
0.4825419 0.6738981 0.5804346
0.7056065 0.7161570 0.6064346
0.8118684 0.7416953 0.6297460
0.1589762 0.6905233 0.5842566
0.1624391 0.7025887 0.5891919
0.4961856 0.7671754 0.6138620
0.7067820 0.8080413 0.6366516
0.8171885 0.8287096 0.6515014
0.1861944 0.1104127 0.5213213
0.2831489 0.1273943 0.5451285
0.4972145 0.1834705 0.5906336
0.6525020 0.2631509 0.6271801
0.7568323 0.3522330 0.6636519
0.1720409 0.1926421 0.5516055
0.2840391 0.2155822 0.5742246
0.5110894 0.2682926 0.6144084
0.6659061 0.3280351 0.6462291
0.7696533 0.4072624 0.6768235
0.1413527 0.4550880 0.6291208
0.2271677 0.4867848 0.6529825
0.5356649 0.5351525 0.6809241
0.7079825 0.5757166 0.7014295
0.8011612 0.6105278 0.7190465
0.1546246 0.6161059 0.6753617
0.1592004 0.6444226 0.6913045
0.5325983 0.6988446 0.7153192
0.7150173 0.7329799 0.7366847
0.8151417 0.7559579 0.7456170
0.1681040 0.7223260 0.7101357
0.1736216 0.7415500 0.7198673
0.5417904 0.7928575 0.7396730
0.7151055 0.8239915 0.7545324
0.8189784 0.8441660 0.7665311
0.3270031 0.2555332 0.6670330
0.4120352 0.2735013 0.6825137
0.5759490 0.3193578 0.7137325
0.6993614 0.3753940 0.7379018
0.7876058 0.4436280 0.7606511
0.3191533 0.2607042 0.6674585
0.4044029 0.2757571 0.6822050
0.5759490 0.3193578 0.7137325
0.6993614 0.3753940 0.7379018
0.7876058 0.4436280 0.7606511
0.2761749 0.5109290 0.7377383
0.3995501 0.5273401 0.7507959
0.5975526 0.5665358 0.7730798
0.7298741 0.6000069 0.7902378
0.8121067 0.6283769 0.8008815
0.2302793 0.6627018 0.7730745
0.3813493 0.6808844 0.7829272
0.5982332 0.7190039 0.8048267
0.7324705 0.7449480 0.8158882
0.8234584 0.7661572 0.8245556
0.2481315 0.7598766 0.7967237
0.3837425 0.7758385 0.8052812
0.5970746 0.8112040 0.8226865
0.7348201 0.8332061 0.8323318
0.8227634 0.8534859 0.8415471
