data/spectral_luts/vision3_500t_2383.cube
TITLE "vision3_500t_2383"
LUT_3D_SIZE 9
0.0074967 0.0063909 0.0059928
0.0148375 0.0074644 0.0062285
0.0677193 0.0124403 0.0071721
0.1861860 0.0230718 0.0187099
0.3223902 0.0533165 0.0533165
0.4525032 0.0906609 0.0906609
0.5472087 0.1178428 0.1178428
0.6305605 0.1602241 0.1417660
0.6968467 0.2247611 0.1956946
0.0077947 0.0128632 0.0073514
0.0176351 0.0159073 0.0078666
0.0798531 0.0275786 0.0092779
0.2072133 0.0524339 0.0228664
0.3511173 0.0775823 0.0615616
0.4835639 0.1120025 0.0995758
0.5720374 0.1576826 0.1249690
0.6500207 0.2085193 0.1473513
0.7128837 0.2647710 0.2063396
0.0036063 0.0664589 0.0121616
0.0159224 0.0766103 0.0126999
0.1057493 0.1001935 0.0116535
0.2455841 0.1391400 0.0317355
0.3953626 0.1765605 0.0742607
0.5298048 0.2181166 0.1128476
0.6182473 0.2606055 0.1382319
0.6876487 0.3038003 0.1585602
0.7426045 0.3511894 0.2180405
0.0145443 0.1621589 0.0150265
0.0166207 0.1745756 0.0166207
0.1200587 0.2094841 0.0233446
0.2826432 0.2574802 0.0419086
0.4402426 0.3046179 0.0871419
0.5763001 0.3445958 0.1261924
0.6577956 0.3859718 0.1495828
0.7227921 0.4208069 0.1808888
0.7745941 0.4591597 0.2424189
0.0370525 0.2656240 0.0370525
0.0417131 0.2819621 0.0417131
0.1201695 0.3285517 0.0550850
0.2980474 0.3736226 0.0680210
0.4742364 0.4291442 0.0968986
0.6018379 0.4686085 0.1335221
0.6883190 0.5036972 0.1583435
0.7515293 0.5326383 0.2054051
0.7965004 0.5617111 0.2657615
0.0649531 0.3629335 0.0654745
0.0695850 0.3790718 0.0695850
0.1037464 0.4224735 0.0820419
0.3130436 0.4720436 0.0962693
0.4915260 0.5218938 0.1105770
0.6236659 0.5610641 0.1397871
0.6987279 0.5899819 0.1864659
0.7631218 0.6147919 0.2376577
0.8129469 0.6408135 0.3021737
0.0927607 0.4598191 0.1289943
0.0968090 0.4739242 0.1263877
0.1088205 0.5157738 0.1340632
0.3276404 0.5594873 0.1386590
0.5009760 0.6053752 0.1569758
0.6347170 0.6422379 0.1855687
0.7163698 0.6643697 0.2341626
0.7752109 0.6875339 0.2844002
0.8197896 0.7116807 0.3331990
0.1161651 0.5413637 0.1942552
0.1214783 0.5598753 0.1986219
0.1297185 0.5885855 0.2013085
0.3391151 0.6316376 0.2140884
0.5211274 0.6704537 0.2220624
0.6423177 0.7039157 0.2518794
0.7209748 0.7236143 0.2868372
0.7806716 0.7450529 0.3279406
0.8265842 0.7651434 0.3816719
0.1377045 0.6164100 0.2650625
0.1409372 0.6276730 0.2649877
0.1477140 0.6512842 0.2706630
0.3738853 0.6878346 0.2779526
0.5343341 0.7252802 0.2952103
0.6487495 0.7510663 0.3225366
0.7248127 0.7730950 0.3517123
0.7847992 0.7895458 0.3851608
0.8294108 0.8046463 0.4215834
0.0071250 0.0073624 0.0136337
0.0158717 0.0087393 0.0153568
0.0736298 0.0152358 0.0226105
0.1937157 0.0272259 0.0362565
0.3335514 0.0565200 0.0565200
0.4634437 0.0938010 0.0938010
0.5516259 0.1191106 0.1365858
0.6343173 0.1671942 0.1845099
0.7005713 0.2328757 0.2451984
0.0066693 0.0161596 0.0182547
0.0184000 0.0202041 0.0218611
0.0853188 0.0339627 0.0311875
0.2149394 0.0610421 0.0463764
0.3565649 0.0884280 0.0677246
0.4881653 0.1208324 0.1008964
0.5763025 0.1665867 0.1454811
0.6518313 0.2124014 0.1961307
0.7161274 0.2731645 0.2489032
0.0046467 0.0799891 0.0378057
0.0098720 0.0874296 0.0418481
0.1042357 0.1134242 0.0524325
0.2502131 0.1508093 0.0671339
0.4048152 0.1904657 0.0914705
0.5335974 0.2318095 0.1235734
0.6197991 0.2673736 0.1647239
0.6888074 0.3090992 0.2127970
0.7453256 0.3614400 0.2663412
0.0178490 0.1814981 0.0647554
0.0212314 0.1992320 0.0704606
0.1072166 0.2300147 0.0763737
0.2830631 0.2788004 0.0905709
0.4472582 0.3228432 0.1103575
0.5785389 0.3643596 0.1478447
0.6588206 0.3975624 0.1859841
0.7254692 0.4366010 0.2382705
0.7770706 0.4733423 0.2886119
0.0444213 0.2913978 0.0983528
0.0494648 0.3089700 0.0996000
0.0891621 0.3536924 0.1072840
0.2927614 0.4018382 0.1212120
0.4697220 0.4481105 0.1414633
0.6068028 0.4842240 0.1704184
0.6871219 0.5141684 0.2178755
0.7508665 0.5399652 0.2616000
0.7959917 0.5675802 0.3127149
0.0714550 0.3855870 0.1371791
0.0762310 0.4022273 0.1411689
0.0884621 0.4448423 0.1523315
0.2976753 0.4911945 0.1610712
0.4854141 0.5383961 0.1771877
0.6206684 0.5753040 0.2085020
0.7021890 0.6002628 0.2530331
0.7616143 0.6229230 0.2972056
0.8123117 0.6491224 0.3477858
0.0973782 0.4759073 0.1889111
0.1019640 0.4918848 0.1887851
0.1131463 0.5308454 0.1978408
0.3135358 0.5726290 0.2110626
0.5041853 0.6183884 0.2259190
0.6374105 0.6537603 0.2542388
0.7138670 0.6752633 0.2954287
0.7737845 0.6987541 0.3351711
0.8182582 0.7179193 0.3797415
0.1205837 0.5567585 0.2449331
0.1249202 0.5718675 0.2453552
0.1347639 0.6061645 0.2570626
0.3401249 0.6429043 0.2643126
0.5147922 0.6800995 0.2807274
0.6384185 0.7122762 0.3061818
0.7182179 0.7329603 0.3383251
0.7784813 0.7517127 0.3752513
0.8250788 0.7701335 0.4189475
0.1402349 0.6252262 0.3023442
0.1429289 0.6346122 0.2997904
0.1537720 0.6613565 0.3072143
0.3647126 0.6953326 0.3208348
0.5289292 0.7326313 0.3406078
0.6515338 0.7593490 0.3612074
0.7280945 0.7790628 0.3864231
0.7828288 0.7947041 0.4223553
0.8278907 0.8090411 0.4546777
0.0073934 0.0104791 0.0942016
0.0211493 0.0127978 0.1025063
0.0917983 0.0195673 0.1208105
0.2094641 0.0307605 0.1403000
0.3488877 0.0609217 0.1680860
0.4721731 0.0963064 0.2013157
0.5650028 0.1243122 0.2381974
0.6399504 0.1787814 0.2821136
0.7051809 0.2411102 0.3265396
0.0076256 0.0254756 0.1109348
0.0200637 0.0300677 0.1194972
0.0976803 0.0466658 0.1358469
0.2297809 0.0721320 0.1609475
0.3708028 0.1003426 0.1901278
0.4969425 0.1350569 0.2216619
0.5862944 0.1752285 0.2539231
0.6599320 0.2295538 0.2982821
0.7204430 0.2831638 0.3354135
0.0128286 0.1071283 0.1510929
0.0136393 0.1140069 0.1564233
0.1086024 0.1403942 0.1745504
0.2609839 0.1756059 0.1991023
0.4157403 0.2115289 0.2207034
0.5431843 0.2478435 0.2507070
0.6257564 0.2874357 0.2823919
0.6926224 0.3226669 0.3156424
0.7486050 0.3744557 0.3579185
0.0251494 0.2178195 0.1912097
0.0290049 0.2345244 0.1971469
0.1029619 0.2656941 0.2144680
0.2783449 0.3068125 0.2323010
0.4519215 0.3488541 0.2579215
0.5776767 0.3801594 0.2792616
0.6652462 0.4179575 0.3114546
0.7297236 0.4483465 0.3449807
0.7772229 0.4831498 0.3863761
0.0569004 0.3348770 0.2293545
0.0616766 0.3515178 0.2341524
0.0715764 0.3860102 0.2475266
0.2878323 0.4302505 0.2667876
0.4691427 0.4716062 0.2867732
0.6033829 0.5089387 0.3091051
0.6859161 0.5364278 0.3356212
0.7501458 0.5576346 0.3698029
0.7983053 0.5787998 0.4073388
0.0816239 0.4210169 0.2605859
0.0870331 0.4398634 0.2698162
0.0989538 0.4813969 0.2825268
0.2959031 0.5201011 0.2989525
0.4826416 0.5620732 0.3168028
0.6213973 0.5950091 0.3367093
0.6982994 0.6187831 0.3712927
0.7640624 0.6414034 0.3958949
0.8104129 0.6591212 0.4300193
0.1067844 0.5086799 0.3035841
0.1117945 0.5261358 0.3073200
0.1214665 0.5598343 0.3187299
0.3075663 0.6044504 0.3355303
0.4903288 0.6413821 0.3577856
0.6297327 0.6715634 0.3750456
0.7089761 0.6942918 0.4030624
0.7746553 0.7141625 0.4307750
0.8194075 0.7279605 0.4550821
0.1287058 0.5850570 0.3493606
0.1337465 0.6026195 0.3521164
0.1414709 0.6295326 0.3625475
0.3250135 0.6661772 0.3797038
0.5115168 0.7011006 0.3924198
0.6360683 0.7290215 0.4131739
0.7126364 0.7463745 0.4342154
0.7791827 0.7652388 0.4588388
0.8222992 0.7788305 0.4874851
0.1462638 0.6462315 0.3940076
0.1497361 0.6583296 0.3964254
0.1571870 0.6842898 0.4067248
0.3686167 0.7189487 0.4139277
0.5285532 0.7481148 0.4297114
0.6441636 0.7723431 0.4512009
0.7225711 0.7923284 0.4728998
0.7838606 0.8044978 0.4911179
0.8249615 0.8186985 0.5202456
0.0228149 0.0228149 0.2069672
0.0450353 0.0246824 0.2156972
0.1264109 0.0300833 0.2389619
0.2415977 0.0365909 0.2639537
0.3759723 0.0686954 0.2944929
0.4953870 0.1029692 0.3241206
0.5803912 0.1333197 0.3567816
0.6529430 0.1911536 0.3898372
0.7142841 0.2580372 0.4292395
0.0271431 0.0309526 0.2266309
0.0422998 0.0369667 0.2361293
0.1355983 0.0541338 0.2608841
0.2543362 0.0795077 0.2859433
0.3937097 0.1090935 0.3170111
0.5179589 0.1463731 0.3428797
0.5996938 0.1926527 0.3743541
0.6725904 0.2464929 0.4087516
0.7281061 0.3000187 0.4394886
0.0402287 0.1295333 0.2768020
0.0428944 0.1378936 0.2860778
0.1426388 0.1635485 0.3087604
0.2800873 0.1953637 0.3324056
0.4349186 0.2318416 0.3586852
0.5544260 0.2633981 0.3799625
0.6346540 0.2985027 0.4049487
0.7009734 0.3425191 0.4307077
0.7552340 0.3860912 0.4618573
0.0535614 0.2544706 0.3232432
0.0560414 0.2671898 0.3318840
0.1170837 0.2972772 0.3543952
0.2981946 0.3308470 0.3724407
0.4650879 0.3689461 0.3961429
0.5916236 0.4045910 0.4159174
0.6664065 0.4344501 0.4388641
0.7313118 0.4634752 0.4585576
0.7822031 0.4976645 0.4882288
0.0666520 0.3688529 0.3623082
0.0725044 0.3892433 0.3709202
0.0818968 0.4219680 0.3910435
0.2949128 0.4609877 0.4072818
0.4784453 0.4967649 0.4287334
0.6125602 0.5262229 0.4469157
0.6885719 0.5512832 0.4692047
0.7536898 0.5770714 0.4885082
0.7979351 0.5927746 0.5098334
0.0936796 0.4630210 0.3951581
0.0983784 0.4793920 0.4075037
0.1074977 0.5111651 0.4171037
0.3028467 0.5515912 0.4344157
0.4903099 0.5857496 0.4550351
0.6213823 0.6126395 0.4724340
0.7002548 0.6386688 0.4919007
0.7610188 0.6537426 0.5069323
0.8122947 0.6756390 0.5359337
0.1169918 0.5442439 0.4279774
0.1224056 0.5631061 0.4404540
0.1311268 0.5934921 0.4494987
0.3061164 0.6272401 0.4622348
0.4971252 0.6616511 0.4823492
0.6273997 0.6905144 0.5001023
0.7096159 0.7089545 0.5157195
0.7706889 0.7262786 0.5346451
0.8161811 0.7392746 0.5562078
0.1382602 0.6183461 0.4663009
0.1414233 0.6293666 0.4700890
0.1490520 0.6559461 0.4839659
0.3332692 0.6872105 0.4894700
0.5186249 0.7240301 0.5091627
0.6335486 0.7464574 0.5261807
0.7125337 0.7641672 0.5421109
0.7748115 0.7766046 0.5538149
0.8226606 0.7895226 0.5760071
0.1544312 0.6746880 0.5023752
0.1565539 0.6820838 0.5018269
0.1640144 0.7080774 0.5085862
0.3733491 0.7387349 0.5227245
0.5360232 0.7671023 0.5351438
0.6423023 0.7863292 0.5517031
0.7225439 0.8045824 0.5643375
0.7793675 0.8164740 0.5796076
0.8253093 0.8285239 0.6007330
0.0605643 0.0524625 0.3194144
0.0899327 0.0554498 0.3298226
0.1729933 0.0619468 0.3524592
0.2778466 0.0698294 0.3799232
0.4125188 0.0791848 0.4116038
0.5190756 0.1097682 0.4378201
0.6025751 0.1597167 0.4690624
0.6708205 0.2154408 0.4962852
0.7271835 0.2763475 0.5250052
0.0580855 0.0580855 0.3390061
0.0883703 0.0609335 0.3489288
0.1766929 0.0676695 0.3723979
0.2953318 0.0910765 0.4005970
0.4272772 0.1236633 0.4304816
0.5360619 0.1625998 0.4538527
0.6153166 0.2076340 0.4826713
0.6849838 0.2607658 0.5089279
0.7393915 0.3173409 0.5359283
0.0721277 0.1535052 0.3879310
0.0752019 0.1652611 0.3986420
0.1857676 0.1841544 0.4244618
0.3101189 0.2153025 0.4455352
0.4551701 0.2469094 0.4696334
0.5721139 0.2799051 0.4949195
0.6474996 0.3193208 0.5122193
0.7118753 0.3629952 0.5342813
0.7604455 0.4013544 0.5596721
0.0867716 0.2862842 0.4389525
0.0893638 0.2956611 0.4479840
0.1602164 0.3247450 0.4679822
0.3256200 0.3530940 0.4910944
0.4813892 0.3881509 0.5129851
0.5994664 0.4231081 0.5305678
0.6785467 0.4472865 0.5462036
0.7383249 0.4820031 0.5678693
0.7850621 0.5149310 0.5855038
0.0990991 0.4090654 0.4819031
0.1016693 0.4218171 0.4908581
0.1107793 0.4487895 0.5068931
0.3277660 0.4843729 0.5262173
0.4998487 0.5193011 0.5457321
0.6162588 0.5472002 0.5599717
0.6930518 0.5650144 0.5767623
0.7573822 0.5901862 0.5935931
0.8013847 0.6045605 0.6040117
0.1079224 0.4992024 0.5126448
0.1119075 0.5163449 0.5265294
0.1154457 0.5388568 0.5360707
0.3308266 0.5765152 0.5568425
0.5006583 0.6049242 0.5678766
0.6222350 0.6294682 0.5873494
0.7029757 0.6490933 0.5952010
0.7636778 0.6711570 0.6094556
0.8111668 0.6882493 0.6227205
0.1279761 0.5825146 0.5436741
0.1308887 0.5926626 0.5487133
0.1386079 0.6195576 0.5659171
0.3339057 0.6541189 0.5785180
0.5119833 0.6816583 0.5914918
0.6330802 0.7073684 0.6034033
0.7108135 0.7200768 0.6172395
0.7719550 0.7363763 0.6309138
0.8179745 0.7538655 0.6401559
0.1458368 0.6447438 0.5689162
0.1492903 0.6567764 0.5737414
0.1556464 0.6789219 0.5875546
0.3652791 0.7134437 0.5991894
0.5285612 0.7391568 0.6126456
0.6393914 0.7588062 0.6206473
0.7132713 0.7765944 0.6346915
0.7758752 0.7898779 0.6415849
0.8201716 0.8024716 0.6520884
0.1615324 0.6994296 0.5962011
0.1645813 0.7100523 0.6001423
0.1728612 0.7293251 0.6076462
0.3833418 0.7562536 0.6215801
0.5518811 0.7818838 0.6273755
0.6480918 0.8023562 0.6407226
0.7235155 0.8145993 0.6480769
0.7804027 0.8284156 0.6591491
0.8226779 0.8351322 0.6649215
0.1207114 0.0837448 0.4284067
0.1586753 0.0870666 0.4399800
0.2250056 0.0922180 0.4579283
0.3335066 0.0996765 0.4839150
0.4518255 0.1108206 0.5097783
0.5540366 0.1550504 0.5353355
0.6270872 0.1994149 0.5549011
0.6893619 0.2495402 0.5755448
0.7419871 0.3051760 0.5989807
0.1142139 0.0873052 0.4408115
0.1562005 0.0905722 0.4521943
0.2287028 0.0966183 0.4732597
0.3368296 0.1147238 0.4951904
0.4584232 0.1525552 0.5219657
0.5621754 0.1933227 0.5464084
0.6384118 0.2397617 0.5662436
0.7010939 0.2915051 0.5867194
0.7516345 0.3412075 0.6064500
0.1008446 0.1881655 0.4879847
0.1462737 0.1944449 0.4977739
0.2395272 0.2126279 0.5151115
0.3588828 0.2443128 0.5401394
0.4922112 0.2766597 0.5597949
0.5896721 0.3045327 0.5766165
0.6625656 0.3430148 0.5927022
0.7221726 0.3820901 0.6123897
0.7703457 0.4245397 0.6259230
0.1138974 0.3224071 0.5334625
0.1161511 0.3322573 0.5413148
0.2268063 0.3533182 0.5603145
0.3663110 0.3807877 0.5779335
0.5148852 0.4151474 0.5990618
0.6170150 0.4426720 0.6137210
0.6873147 0.4693648 0.6255288
0.7452799 0.4976625 0.6364244
0.7901112 0.5238490 0.6498268
0.1245505 0.4427921 0.5705795
0.1265582 0.4520368 0.5775744
0.1851860 0.4749787 0.5909656
0.3707261 0.5085987 0.6100613
0.5238404 0.5389358 0.6240472
0.6258656 0.5578120 0.6357956
0.7038678 0.5799835 0.6461996
0.7617815 0.5988769 0.6587729
0.8053061 0.6130843 0.6665360
0.1323865 0.5342110 0.5978812
0.1338462 0.5422677 0.6029668
0.1690145 0.5641076 0.6149714
0.3677017 0.5941613 0.6311057
0.5249409 0.6202284 0.6429959
0.6370310 0.6448747 0.6552071
0.7122678 0.6610697 0.6641898
0.7672699 0.6814809 0.6729124
0.8138865 0.6932600 0.6848381
0.1384697 0.6129903 0.6190758
0.1398327 0.6217266 0.6238247
0.1742036 0.6412661 0.6339127
0.3758854 0.6681905 0.6496103
0.5356186 0.6986465 0.6607830
0.6417016 0.7151908 0.6714849
0.7197219 0.7333918 0.6786471
0.7751328 0.7460771 0.6864085
0.8203165 0.7592152 0.6983975
0.1539168 0.6728958 0.6386828
0.1562295 0.6809536 0.6445960
0.1947513 0.6993306 0.6532468
0.3965218 0.7258725 0.6641975
0.5526642 0.7519346 0.6781985
0.6475941 0.7706308 0.6884562
0.7218201 0.7840454 0.6971331
0.7783131 0.7961022 0.7025384
0.8221812 0.8081826 0.7097627
0.1682773 0.7229299 0.6599510
0.1701093 0.7293126 0.6628414
0.2610127 0.7460979 0.6680579
0.4270521 0.7699739 0.6815099
0.5647799 0.7938227 0.6896049
0.6506329 0.8091103 0.6989816
0.7262511 0.8226187 0.7076430
0.7828326 0.8344321 0.7153576
0.8245617 0.8453502 0.7224399
0.1955762 0.1082152 0.5136650
0.2236703 0.1113002 0.5244135
0.2913174 0.1208850 0.5409120
0.3865457 0.1455441 0.5607086
0.4949271 0.1753923 0.5825363
0.5840689 0.2108496 0.6035530
0.6527286 0.2467867 0.6236216
0.7086629 0.2943690 0.6422561
0.7583554 0.3454931 0.6624258
0.1953137 0.1112867 0.5199653
0.2214916 0.1203494 0.5310382
0.2929114 0.1364994 0.5472830
0.3894366 0.1620723 0.5672289
0.4988729 0.1935789 0.5873315
0.5895404 0.2328583 0.6110904
0.6601515 0.2764045 0.6306522
0.7161367 0.3239304 0.6510038
0.7625848 0.3695931 0.6673807
0.1826362 0.2287358 0.5649642
0.2194706 0.2329510 0.5710056
0.3012893 0.2508595 0.5862908
0.4085953 0.2771019 0.6048192
0.5248270 0.3085028 0.6269366
0.6102125 0.3371760 0.6399318
0.6796533 0.3712805 0.6559518
0.7326532 0.4047722 0.6722244
0.7792811 0.4447955 0.6860727
0.1355398 0.3558885 0.6055424
0.2021492 0.3630282 0.6126488
0.2916283 0.3834415 0.6256101
0.4177537 0.4063403 0.6415987
0.5479512 0.4385151 0.6622044
0.6301951 0.4639575 0.6723983
0.7000541 0.4874639 0.6850569
0.7562574 0.5122958 0.6961789
0.7973065 0.5448824 0.7073690
0.1440596 0.4751422 0.6385517
0.1452932 0.4807212 0.6428500
0.2707011 0.5042554 0.6595165
0.4280911 0.5306949 0.6752488
0.5563681 0.5558985 0.6878242
0.6421757 0.5748314 0.6997367
0.7146090 0.5934940 0.7103955
0.7669384 0.6111676 0.7195796
0.8103325 0.6284882 0.7281118
0.1515171 0.5607702 0.6645349
0.1528815 0.5697685 0.6692885
0.2735402 0.5862113 0.6796601
0.4295331 0.6159391 0.6975698
0.5579140 0.6348182 0.7078682
0.6468220 0.6559386 0.7196537
0.7168661 0.6758892 0.7257275
0.7756881 0.6916397 0.7345633
0.8173743 0.7024513 0.7419131
0.1581343 0.6392000 0.6875900
0.1593792 0.6466808 0.6919277
0.2826640 0.6660022 0.7018270
0.4298885 0.6860111 0.7122318
0.5689349 0.7136717 0.7273051
0.6511695 0.7257652 0.7307700
0.7233877 0.7432171 0.7403435
0.7783555 0.7553672 0.7482217
0.8231580 0.7680272 0.7553380
0.1633716 0.6964948 0.7058377
0.1643078 0.7026806 0.7090993
0.2996612 0.7194811 0.7169704
0.4507593 0.7438891 0.7273380
0.5746479 0.7647128 0.7399677
0.6573039 0.7772511 0.7452558
0.7309837 0.7938702 0.7541742
0.7811768 0.8050735 0.7613658
0.8245234 0.8169987 0.7682722
0.1750144 0.7464027 0.7236872
0.2216401 0.7526020 0.7267089
0.3479038 0.7681196 0.7317432
0.4686949 0.7850661 0.7392786
0.5858068 0.8046353 0.7507895
0.6669652 0.8170629 0.7557378
0.7346973 0.8319688 0.7640698
0.7851059 0.8397732 0.7708864
0.8264692 0.8504980 0.7775623
0.2701928 0.1722881 0.5995275
0.2991225 0.1778226 0.6055803
0.3622695 0.1890967 0.6176638
0.4518815 0.2169039 0.6360188
0.5454837 0.2439266 0.6559882
0.6150939 0.2700730 0.6686096
0.6796458 0.3089371 0.6879068
0.7297201 0.3485470 0.7000691
0.7720625 0.3886229 0.7159845
0.2701928 0.1722881 0.5995275
0.2991225 0.1778226 0.6055803
0.3622695 0.1890967 0.6176638
0.4518815 0.2169039 0.6360188
0.5454837 0.2439266 0.6559882
0.6165395 0.2767862 0.6702637
0.6811501 0.3156955 0.6894865
0.7312852 0.3555569 0.7016182
0.7758610 0.4061848 0.7196373
0.2716323 0.2726565 0.6325843
0.3017015 0.2762155 0.6372860
0.3725427 0.2933017 0.6501289
0.4609675 0.3180349 0.6655273
0.5594220 0.3399753 0.6831023
0.6322271 0.3689958 0.6953362
0.6969488 0.4039653 0.7122338
0.7483161 0.4382812 0.7222810
0.7891064 0.4726766 0.7344289
0.2576865 0.3978507 0.6704522
0.2963166 0.4028105 0.6752005
0.3713155 0.4191513 0.6858965
0.4706408 0.4417190 0.7025732
0.5793694 0.4613752 0.7150595
0.6538426 0.4860065 0.7249314
0.7132173 0.5082596 0.7360741
0.7642277 0.5357785 0.7472061
0.8069068 0.5628643 0.7539428
0.2235767 0.5104088 0.7017118
0.2754674 0.5166060 0.7064779
0.3674354 0.5288696 0.7155993
0.4841879 0.5524913 0.7285435
0.5870317 0.5715828 0.7388418
0.6589937 0.5880432 0.7494537
0.7256173 0.6053615 0.7560286
0.7762526 0.6232864 0.7649500
0.8150265 0.6415820 0.7731191
0.2042653 0.5927786 0.7219761
0.2770173 0.6008432 0.7273287
0.3674435 0.6126761 0.7349253
0.4792901 0.6313813 0.7451835
0.5884128 0.6528745 0.7586876
0.6634548 0.6710315 0.7656536
0.7323109 0.6857262 0.7749438
0.7798633 0.6998019 0.7792158
0.8195868 0.7152204 0.7863702
0.2210976 0.6657829 0.7436971
0.2723751 0.6734893 0.7473522
0.3742099 0.6864223 0.7547765
0.4925743 0.7034044 0.7640759
0.5987049 0.7257921 0.7731567
0.6677725 0.7361415 0.7814364
0.7382420 0.7525924 0.7870510
0.7862402 0.7635472 0.7923005
0.8259896 0.7755015 0.7988396
0.2542170 0.7225310 0.7565670
0.3062313 0.7284200 0.7597373
0.3952295 0.7399940 0.7658017
0.5037974 0.7559518 0.7769284
0.6037647 0.7762767 0.7848099
0.6743516 0.7886285 0.7898530
0.7398812 0.8021199 0.7978785
0.7886865 0.8146092 0.8014733
0.8306019 0.8207479 0.8073601
0.2893078 0.7656986 0.7711861
0.3407719 0.7718495 0.7742959
0.4271592 0.7834312 0.7799950
0.5265618 0.7979612 0.7868599
0.6114146 0.8152578 0.7948435
0.6778613 0.8253074 0.7992042
0.7435908 0.8397720 0.8072047
0.7924901 0.8469256 0.8101172
0.8288875 0.8566432 0.8160972
0.3579997 0.2464499 0.6685783
0.3805136 0.2580376 0.6746008
0.4355357 0.2697264 0.6842685
0.5151069 0.2858664 0.6969675
0.5859993 0.3105665 0.7097422
0.6429325 0.3374945 0.7237885
0.7036784 0.3653708 0.7361317
0.7492194 0.3995299 0.7493888
0.7899593 0.4402592 0.7616071
0.3579997 0.2464499 0.6685783
0.3805136 0.2580376 0.6746008
0.4355357 0.2697264 0.6842685
0.5151069 0.2858664 0.6969675
0.5859993 0.3105665 0.7097422
0.6429325 0.3374945 0.7237885
0.7036784 0.3653708 0.7361317
0.7492194 0.3995299 0.7493888
0.7899593 0.4402592 0.7616071
0.3574717 0.3289956 0.6935256
0.3817263 0.3318967 0.6969835
0.4405736 0.3449796 0.7065362
0.5207330 0.3633379 0.7187338
0.5973571 0.3842966 0.7301921
0.6607457 0.4128709 0.7441025
0.7174650 0.4415776 0.7540320
0.7621080 0.4697919 0.7653220
0.8014083 0.5037159 0.7754393
0.3589319 0.4393134 0.7238113
0.3873311 0.4430970 0.7272775
0.4436245 0.4569193 0.7353787
0.5311162 0.4779732 0.7471308
0.6109332 0.4937487 0.7592228
0.6707429 0.5162129 0.7677026
0.7282975 0.5353807 0.7749361
0.7729470 0.5563999 0.7842290
0.8114356 0.5819467 0.7921508
0.3526458 0.5377181 0.7479721
0.3735512 0.5454761 0.7511559
0.4526212 0.5586757 0.7597061
0.5376968 0.5706198 0.7710117
0.6198799 0.5861209 0.7794457
0.6824492 0.6055105 0.7867217
0.7407784 0.6199352 0.7925440
0.7852088 0.6362675 0.8005744
0.8194987 0.6543574 0.8080930
0.3505763 0.6180481 0.7696115
0.3876165 0.6230974 0.7729710
0.4544828 0.6403241 0.7804789
0.5354082 0.6519969 0.7877471
0.6212111 0.6719142 0.7962908
0.6870338 0.6862630 0.8023294
0.7422075 0.7017577 0.8106096
0.7882271 0.7126769 0.8145638
0.8265464 0.7249794 0.8209164
0.3552186 0.6908646 0.7860194
0.3830656 0.6945983 0.7882369
0.4567248 0.7049603 0.7942638
0.5456178 0.7201943 0.8018994
0.6228786 0.7360343 0.8113740
0.6920117 0.7460245 0.8166025
0.7478009 0.7601760 0.8214117
0.7941414 0.7709592 0.8279052
0.8291087 0.7821059 0.8309634
0.3761825 0.7442273 0.8013163
0.4030494 0.7478579 0.8033113
0.4773133 0.7583796 0.8089749
0.5524496 0.7711406 0.8136174
0.6273910 0.7859172 0.8196895
0.6925861 0.7973757 0.8245766
0.7493958 0.8094856 0.8317191
0.7965073 0.8180323 0.8350034
0.8334738 0.8268658 0.8405852
0.4085030 0.7867386 0.8108432
0.4352267 0.7904392 0.8127408
0.4960511 0.7991749 0.8171397
0.5714585 0.8118280 0.8228026
0.6360222 0.8217545 0.8302172
0.7020041 0.8360173 0.8352797
0.7534227 0.8434932 0.8372260
0.8002855 0.8534091 0.8433860
0.8353201 0.8597242 0.8456555
