data/spectral_luts/vision3_500t_2393.cube
TITLE "vision3_500t_2393"
LUT_3D_SIZE 33
0.0022871 0.0020904 0.0015169
0.0025023 0.0021253 0.0015254
0.0031341 0.0022210 0.0015466
0.0045245 0.0024048 0.0015795
0.0068568 0.0026590 0.0016094
0.0110038 0.0030118 0.0016233
0.0187868 0.0035640 0.0016847
0.0324220 0.0042834 0.0017250
0.0552196 0.0052345 0.0028566
0.0818628 0.0065162 0.0048030
0.1147882 0.0080576 0.0080576
0.1442549 0.0118306 0.0118306
0.1778384 0.0171932 0.0171932
0.2131549 0.0241297 0.0241297
0.2454807 0.0317093 0.0317093
0.2779566 0.0405635 0.0405635
0.3075013 0.0490432 0.0490432
0.3400556 0.0583868 0.0583868
0.3730601 0.0678596 0.0678596
0.4062502 0.0773856 0.0773856
0.4319646 0.0847660 0.0847660
0.4639427 0.0939442 0.0939442
0.4916194 0.1018878 0.1018878
0.5128314 0.1079760 0.1079760
0.5389550 0.1154738 0.1154738
0.5617809 0.1220252 0.1220252
0.5833480 0.1312971 0.1282153
0.6066309 0.1462905 0.1348978
0.6244083 0.1605685 0.1400002
0.6431891 0.1775321 0.1453905
0.6601331 0.1927642 0.1565653
0.6775036 0.2100449 0.1752167
0.6933007 0.2248536 0.1911280
0.0023032 0.0021660 0.0015281
0.0025212 0.0022021 0.0015365
0.0031746 0.0023420 0.0015630
0.0047442 0.0026397 0.0016072
0.0070753 0.0029526 0.0016377
0.0115476 0.0035349 0.0017017
0.0200554 0.0044225 0.0017679
0.0342271 0.0056073 0.0018077
0.0591676 0.0071677 0.0031083
0.0860600 0.0088049 0.0051641
0.1176950 0.0104068 0.0083926
0.1492086 0.0125489 0.0125489
0.1824983 0.0180307 0.0180307
0.2178476 0.0251556 0.0251556
0.2496329 0.0327711 0.0327711
0.2820931 0.0417507 0.0417507
0.3113904 0.0501594 0.0501594
0.3444465 0.0596470 0.0596470
0.3765435 0.0688593 0.0688593
0.4117806 0.0789729 0.0789729
0.4394770 0.0869222 0.0869222
0.4707288 0.0958919 0.0958919
0.4968019 0.1033753 0.1033753
0.5192508 0.1098184 0.1098184
0.5427328 0.1165581 0.1165581
0.5688050 0.1271041 0.1240412
0.5874467 0.1398840 0.1293917
0.6109708 0.1555706 0.1361434
0.6298315 0.1722178 0.1415567
0.6475220 0.1869931 0.1466342
0.6653789 0.2044404 0.1568003
0.6816353 0.2195256 0.1786095
0.6961168 0.2315636 0.1978715
0.0023591 0.0028473 0.0016148
0.0027396 0.0030320 0.0016385
0.0034879 0.0032293 0.0016627
0.0052879 0.0036504 0.0017010
0.0077572 0.0040750 0.0017637
0.0130453 0.0049223 0.0018155
0.0220313 0.0060194 0.0018599
0.0393897 0.0076545 0.0019695
0.0643572 0.0096298 0.0034583
0.0934884 0.0117639 0.0058410
0.1222733 0.0137444 0.0089366
0.1561210 0.0159656 0.0135926
0.1920182 0.0198142 0.0198142
0.2234259 0.0264076 0.0264076
0.2564227 0.0345515 0.0345515
0.2882210 0.0435095 0.0435095
0.3185862 0.0522247 0.0522247
0.3566211 0.0631413 0.0631413
0.3859176 0.0715498 0.0715498
0.4191010 0.0810740 0.0810740
0.4449892 0.0885043 0.0885043
0.4775151 0.0978397 0.0978397
0.5029787 0.1051481 0.1051481
0.5290861 0.1126413 0.1126413
0.5496222 0.1228640 0.1185355
0.5728363 0.1354534 0.1251983
0.5925718 0.1505689 0.1308626
0.6152365 0.1646208 0.1373677
0.6341026 0.1814282 0.1427826
0.6519101 0.1966235 0.1478936
0.6694678 0.2137134 0.1601451
0.6836412 0.2241149 0.1787398
0.6997412 0.2400264 0.1981950
0.0024415 0.0042932 0.0017847
0.0028683 0.0044872 0.0018005
0.0038212 0.0047967 0.0018218
0.0057606 0.0052815 0.0018429
0.0088704 0.0061635 0.0019053
0.0145118 0.0071160 0.0019797
0.0250053 0.0085685 0.0019895
0.0432832 0.0106125 0.0021696
0.0688280 0.0131642 0.0037774
0.0968589 0.0158597 0.0061643
0.1284996 0.0194155 0.0097085
0.1628679 0.0226939 0.0146585
0.1978336 0.0263572 0.0209522
0.2330611 0.0317403 0.0286543
0.2662387 0.0372232 0.0372232
0.2989423 0.0465866 0.0465866
0.3287166 0.0551323 0.0551323
0.3692774 0.0667739 0.0667739
0.3964252 0.0745657 0.0745657
0.4285946 0.0837988 0.0837988
0.4542394 0.0911592 0.0911592
0.4852886 0.1000708 0.1000708
0.5101650 0.1091241 0.1072107
0.5358863 0.1226612 0.1145931
0.5557051 0.1353730 0.1202814
0.5799076 0.1500215 0.1272278
0.5989872 0.1641396 0.1327039
0.6227086 0.1805519 0.1395123
0.6406126 0.1955599 0.1446511
0.6569771 0.2079361 0.1493479
0.6734909 0.2228132 0.1602463
0.6881225 0.2344319 0.1789860
0.7035405 0.2489682 0.1984924
0.0023711 0.0066079 0.0019587
0.0029457 0.0070903 0.0019765
0.0042061 0.0074455 0.0019826
0.0063763 0.0081839 0.0020367
0.0100103 0.0093603 0.0020751
0.0167330 0.0110222 0.0021226
0.0285481 0.0134674 0.0020783
0.0472838 0.0158866 0.0023876
0.0751402 0.0199134 0.0042561
0.1047285 0.0247162 0.0069590
0.1352991 0.0298661 0.0105944
0.1727631 0.0357932 0.0163075
0.2095877 0.0436261 0.0233665
0.2416582 0.0492610 0.0307498
0.2764486 0.0571640 0.0401260
0.3134586 0.0666906 0.0507530
0.3478504 0.0726298 0.0606240
0.3814788 0.0822453 0.0702759
0.4135519 0.0908596 0.0794813
0.4384632 0.0974692 0.0866312
0.4706160 0.1088322 0.0958595
0.4963344 0.1201255 0.1032411
0.5207673 0.1300998 0.1102537
0.5457904 0.1427219 0.1174357
0.5667362 0.1578663 0.1234474
0.5883630 0.1677380 0.1296547
0.6084649 0.1841869 0.1354242
0.6291644 0.1944443 0.1413652
0.6476253 0.2110760 0.1466638
0.6629803 0.2213617 0.1510709
0.6780268 0.2371081 0.1603816
0.6921367 0.2474339 0.1792690
0.7072726 0.2616557 0.1988904
0.0019101 0.0117488 0.0021310
0.0026696 0.0127206 0.0021865
0.0043134 0.0133405 0.0021692
0.0070749 0.0149794 0.0021893
0.0112903 0.0162969 0.0022498
0.0195284 0.0191120 0.0022279
0.0336438 0.0227312 0.0020756
0.0567766 0.0281282 0.0029544
0.0853115 0.0342120 0.0050986
0.1133252 0.0420805 0.0078920
0.1502544 0.0492616 0.0127037
0.1835008 0.0580119 0.0182139
0.2228381 0.0662476 0.0262740
0.2609482 0.0735722 0.0357688
0.2950497 0.0802817 0.0454694
0.3231580 0.0879403 0.0535369
0.3575633 0.0948255 0.0634117
0.3903323 0.1031732 0.0728169
0.4233391 0.1138108 0.0822904
0.4515237 0.1221132 0.0903798
0.4825931 0.1319265 0.0992971
0.5086945 0.1445608 0.1067886
0.5334226 0.1553762 0.1138860
0.5568590 0.1651841 0.1206125
0.5758281 0.1817629 0.1260570
0.5977848 0.1922387 0.1323588
0.6156422 0.2040393 0.1374842
0.6361469 0.2145891 0.1433693
0.6542026 0.2302709 0.1485516
0.6693998 0.2401024 0.1529134
0.6839787 0.2512583 0.1669880
0.6996690 0.2656039 0.1859833
0.7137495 0.2773023 0.1991835
0.0010944 0.0218876 0.0022798
0.0012092 0.0241836 0.0022948
0.0032536 0.0254137 0.0023055
0.0068636 0.0271651 0.0022766
0.0119325 0.0304078 0.0021734
0.0221124 0.0338754 0.0020472
0.0393114 0.0397380 0.0019869
0.0650537 0.0478445 0.0035069
0.0942180 0.0557521 0.0059101
0.1266018 0.0636343 0.0094692
0.1592551 0.0710793 0.0140819
0.1945712 0.0794102 0.0203092
0.2323331 0.0884522 0.0284808
0.2728482 0.0954335 0.0390878
0.3086838 0.1051931 0.0493826
0.3370534 0.1136952 0.0575251
0.3708211 0.1193974 0.0672169
0.4044911 0.1299006 0.0768807
0.4364236 0.1389500 0.0860458
0.4631962 0.1503944 0.0937299
0.4941250 0.1603169 0.1026070
0.5187681 0.1698877 0.1096799
0.5440701 0.1823287 0.1169419
0.5677657 0.1928516 0.1237429
0.5866349 0.2049216 0.1291587
0.6084338 0.2156071 0.1354153
0.6249815 0.2249113 0.1401647
0.6459531 0.2365686 0.1461839
0.6617388 0.2474998 0.1507146
0.6786857 0.2617404 0.1555786
0.6935856 0.2742880 0.1699951
0.7083317 0.2868445 0.1894060
0.7236969 0.3025737 0.2095892
0.0018801 0.0376015 0.0022595
0.0019541 0.0390812 0.0022623
0.0020383 0.0407601 0.0021431
0.0055891 0.0432338 0.0021670
0.0116169 0.0480438 0.0024304
0.0248920 0.0528634 0.0027122
0.0447306 0.0608344 0.0032184
0.0699527 0.0670165 0.0038603
0.1028025 0.0764659 0.0067593
0.1351217 0.0854896 0.0105707
0.1697530 0.0954894 0.0157950
0.2085679 0.1045685 0.0231509
0.2493440 0.1134103 0.0326966
0.2829714 0.1208019 0.0420028
0.3183803 0.1296918 0.0521656
0.3554028 0.1403827 0.0627916
0.3847051 0.1468012 0.0712018
0.4191438 0.1590651 0.0810863
0.4500268 0.1665511 0.0899501
0.4771660 0.1790320 0.0977395
0.5064886 0.1860002 0.1061555
0.5311139 0.1958804 0.1132233
0.5563093 0.2088200 0.1204548
0.5795959 0.2189267 0.1271384
0.5955230 0.2247567 0.1317097
0.6179744 0.2368861 0.1381536
0.6353337 0.2487755 0.1431359
0.6573001 0.2633827 0.1494406
0.6712959 0.2705476 0.1534576
0.6873252 0.2831257 0.1580583
0.7033753 0.2987624 0.1761646
0.7181136 0.3113083 0.1891612
0.7335229 0.3277808 0.2096185
0.0029589 0.0568483 0.0029589
0.0030650 0.0585018 0.0030650
0.0032081 0.0606807 0.0032081
0.0033945 0.0634350 0.0033945
0.0106826 0.0693763 0.0038177
0.0265975 0.0757272 0.0043023
0.0473536 0.0811597 0.0047440
0.0757208 0.0905756 0.0055698
0.1126053 0.0994449 0.0078112
0.1453564 0.1107011 0.0119882
0.1813458 0.1207424 0.0178214
0.2193987 0.1308344 0.0255002
0.2588069 0.1407865 0.0351898
0.2969597 0.1515657 0.0460176
0.3326269 0.1604766 0.0562546
0.3661310 0.1688060 0.0658708
0.3964336 0.1781120 0.0745681
0.4289456 0.1862410 0.0838995
0.4629865 0.1943378 0.0936698
0.4953439 0.2067372 0.1029568
0.5191770 0.2138759 0.1097973
0.5421162 0.2203270 0.1163811
0.5674198 0.2338295 0.1236436
0.5894947 0.2411001 0.1299795
0.6127837 0.2539365 0.1366638
0.6292321 0.2635052 0.1413847
0.6467209 0.2758039 0.1464043
0.6678540 0.2887029 0.1524697
0.6830097 0.2990542 0.1568197
0.6991393 0.3124763 0.1614491
0.7120041 0.3206246 0.1754452
0.7279203 0.3372751 0.1956863
0.7400155 0.3449047 0.2094087
0.0044602 0.0777043 0.0044602
0.0046238 0.0797113 0.0046238
0.0048023 0.0818549 0.0048023
0.0050796 0.0850933 0.0050796
0.0071213 0.0926419 0.0057614
0.0240905 0.0983539 0.0063109
0.0508900 0.1051636 0.0070045
0.0817339 0.1152158 0.0081064
0.1162594 0.1251942 0.0092940
0.1569949 0.1374346 0.0137280
0.1891620 0.1449896 0.0192688
0.2339368 0.1571987 0.0288638
0.2693206 0.1678784 0.0380860
0.3093297 0.1753767 0.0495680
0.3480504 0.1850221 0.0606814
0.3764996 0.1929136 0.0688467
0.4070621 0.2029444 0.0776186
0.4401313 0.2121787 0.0871100
0.4719425 0.2211662 0.0962402
0.5035137 0.2316351 0.1053017
0.5278569 0.2402191 0.1122885
0.5535100 0.2532711 0.1196513
0.5801767 0.2642135 0.1273050
0.6025966 0.2730420 0.1337399
0.6240519 0.2812223 0.1398979
0.6426970 0.2966042 0.1452493
0.6624424 0.3049127 0.1509165
0.6795566 0.3184968 0.1558286
0.6947629 0.3295307 0.1601930
0.7088007 0.3381088 0.1642221
0.7238422 0.3528013 0.1846791
0.7365155 0.3606947 0.1985794
0.7515566 0.3775188 0.2197160
0.0061525 0.0967380 0.0061525
0.0063360 0.0986073 0.0063360
0.0066057 0.1012990 0.0066057
0.0071772 0.1067968 0.0071772
0.0078410 0.1128714 0.0078410
0.0224035 0.1189743 0.0085426
0.0520552 0.1259597 0.0093891
0.0883706 0.1377101 0.0109194
0.1236923 0.1485663 0.0124543
0.1638567 0.1585389 0.0148187
0.2008220 0.1701847 0.0215515
0.2382808 0.1786758 0.0299163
0.2829144 0.1913668 0.0419864
0.3199644 0.2040594 0.0526203
0.3557097 0.2112529 0.0628797
0.3876120 0.2213104 0.0720361
0.4253328 0.2342592 0.0828626
0.4587566 0.2446525 0.0924557
0.4851899 0.2536484 0.1000424
0.5173358 0.2662261 0.1092688
0.5420217 0.2758369 0.1163540
0.5660774 0.2847789 0.1232584
0.5904901 0.2962608 0.1302651
0.6133205 0.3060260 0.1368178
0.6348730 0.3148717 0.1430037
0.6507816 0.3236848 0.1475697
0.6718327 0.3353131 0.1536117
0.6888923 0.3495757 0.1585080
0.7031863 0.3582467 0.1626107
0.7201326 0.3698878 0.1694133
0.7329431 0.3778552 0.1831534
0.7475460 0.3923560 0.2045058
0.7605083 0.4040007 0.2265460
0.0085940 0.1194095 0.0085940
0.0088200 0.1213058 0.0088200
0.0091627 0.1241285 0.0091627
0.0096562 0.1280872 0.0096562
0.0105232 0.1347653 0.0105232
0.0173841 0.1444999 0.0118656
0.0548823 0.1528508 0.0130927
0.0920769 0.1623618 0.0145769
0.1306215 0.1722013 0.0162111
0.1690751 0.1872956 0.0189171
0.2123327 0.1978690 0.0239525
0.2528667 0.2110652 0.0336122
0.2887267 0.2200420 0.0436546
0.3298708 0.2342677 0.0554636
0.3665243 0.2422670 0.0659837
0.4019572 0.2542745 0.0761534
0.4343824 0.2671931 0.0854599
0.4698988 0.2746533 0.0956537
0.5025361 0.2853279 0.1050211
0.5292242 0.2982571 0.1126809
0.5542114 0.3080391 0.1198526
0.5785548 0.3178291 0.1268396
0.6002556 0.3235422 0.1330680
0.6241993 0.3357613 0.1399402
0.6458265 0.3449249 0.1461475
0.6617144 0.3536748 0.1507076
0.6817601 0.3628974 0.1564610
0.6976912 0.3746562 0.1610335
0.7139085 0.3891883 0.1656881
0.7279527 0.3974791 0.1697189
0.7418341 0.4094774 0.1885419
0.7546011 0.4187680 0.2107505
0.7665756 0.4270189 0.2256335
0.0116783 0.1431817 0.0116783
0.0119870 0.1453482 0.0119870
0.0124115 0.1482741 0.0124115
0.0130823 0.1527818 0.0130823
0.0140078 0.1587845 0.0140078
0.0170020 0.1681584 0.0155274
0.0537197 0.1796737 0.0175203
0.0947623 0.1894882 0.0193306
0.1391521 0.2011616 0.0216202
0.1773623 0.2130954 0.0241169
0.2206261 0.2281887 0.0275048
0.2588984 0.2380400 0.0352144
0.3035419 0.2524146 0.0479068
0.3414010 0.2630078 0.0587729
0.3826472 0.2772991 0.0706112
0.4117306 0.2842977 0.0789585
0.4444923 0.2987048 0.0883616
0.4775861 0.3059305 0.0978601
0.5107249 0.3173297 0.1073714
0.5396649 0.3292750 0.1156776
0.5700042 0.3378189 0.1243854
0.5940793 0.3479752 0.1312953
0.6175276 0.3580180 0.1380253
0.6352432 0.3673276 0.1431100
0.6579379 0.3797064 0.1496237
0.6738954 0.3890203 0.1542037
0.6921826 0.3933670 0.1594524
0.7071427 0.4028698 0.1637461
0.7223913 0.4151597 0.1681227
0.7364553 0.4236915 0.1721593
0.7493384 0.4331601 0.1944908
0.7630520 0.4451888 0.2129054
0.7749391 0.4546159 0.2362051
0.0155699 0.1684130 0.0155699
0.0160445 0.1712258 0.0160445
0.0167360 0.1752381 0.0167360
0.0175328 0.1797436 0.0175328
0.0187258 0.1862714 0.0187258
0.0205283 0.1956896 0.0205283
0.0535194 0.2058428 0.0225806
0.1009736 0.2168842 0.0249430
0.1440377 0.2315978 0.0283062
0.1821211 0.2420969 0.0308590
0.2242464 0.2555596 0.0343222
0.2673157 0.2667747 0.0375234
0.3098888 0.2816373 0.0497285
0.3479500 0.2915621 0.0606526
0.3878025 0.3075658 0.0720908
0.4204249 0.3156988 0.0814540
0.4596907 0.3289822 0.0927238
0.4873438 0.3381864 0.1006607
0.5209519 0.3503679 0.1103067
0.5454057 0.3573497 0.1173253
0.5770382 0.3690812 0.1264043
0.6052336 0.3827509 0.1344968
0.6271123 0.3881460 0.1407763
0.6448711 0.3982937 0.1458733
0.6676682 0.4113055 0.1524164
0.6884822 0.4207305 0.1583903
0.7021897 0.4249972 0.1623246
0.7171556 0.4350281 0.1666200
0.7321776 0.4471346 0.1709315
0.7461377 0.4556314 0.1802317
0.7588603 0.4650553 0.2035487
0.7715327 0.4735975 0.2188461
0.7840606 0.4855784 0.2422277
0.0201320 0.1936617 0.0201320
0.0206072 0.1960906 0.0206072
0.0211949 0.1990495 0.0211949
0.0223615 0.2047852 0.0223615
0.0237497 0.2113872 0.0237497
0.0255709 0.2197154 0.0255709
0.0528586 0.2312202 0.0282168
0.0974791 0.2430766 0.0311038
0.1471214 0.2598639 0.0354749
0.1882737 0.2710892 0.0385864
0.2326998 0.2829355 0.0419925
0.2785594 0.2966977 0.0459424
0.3222345 0.3128237 0.0532719
0.3609657 0.3233692 0.0643883
0.3999049 0.3355677 0.0755644
0.4314771 0.3484064 0.0846261
0.4669222 0.3574497 0.0947993
0.5021810 0.3706542 0.1049192
0.5289660 0.3800568 0.1126068
0.5617351 0.3926989 0.1220120
0.5857183 0.3994919 0.1288956
0.6104604 0.4096923 0.1359969
0.6334877 0.4178916 0.1426061
0.6565311 0.4283535 0.1492199
0.6758910 0.4384245 0.1547765
0.6949565 0.4435502 0.1602486
0.7112708 0.4550741 0.1649310
0.7260768 0.4650312 0.1691805
0.7401631 0.4744907 0.1732235
0.7564448 0.4783179 0.1855709
0.7659032 0.4898407 0.2093647
0.7784828 0.4983250 0.2251631
0.7902760 0.5067390 0.2406914
0.0244206 0.2144971 0.0244206
0.0260368 0.2217899 0.0260368
0.0271851 0.2268124 0.0271851
0.0285579 0.2326571 0.0285579
0.0303323 0.2399735 0.0303323
0.0325899 0.2489298 0.0325899
0.0484743 0.2601603 0.0355551
0.1004288 0.2734172 0.0392508
0.1497913 0.2849608 0.0425738
0.1931531 0.2972555 0.0461025
0.2369422 0.3136274 0.0508015
0.2884878 0.3293704 0.0553200
0.3289623 0.3406767 0.0585650
0.3724470 0.3516505 0.0676836
0.4058661 0.3652720 0.0772753
0.4372640 0.3764353 0.0862870
0.4700704 0.3844161 0.0957029
0.5090678 0.3990197 0.1068958
0.5417672 0.4073907 0.1162810
0.5690922 0.4216622 0.1241236
0.5934231 0.4283445 0.1311070
0.6182326 0.4385189 0.1382277
0.6407298 0.4445705 0.1446847
0.6645288 0.4576264 0.1515153
0.6799393 0.4616255 0.1559384
0.7008195 0.4721171 0.1619313
0.7162750 0.4821915 0.1663673
0.7319451 0.4862647 0.1708648
0.7510267 0.4991621 0.1763415
0.7646699 0.5078693 0.1901392
0.7756562 0.5122909 0.2153461
0.7843789 0.5205035 0.2316421
0.7969124 0.5317600 0.2469716
0.0310250 0.2427618 0.0310250
0.0316522 0.2452551 0.0316522
0.0327028 0.2493681 0.0327028
0.0343738 0.2557544 0.0343738
0.0366148 0.2640406 0.0366148
0.0392071 0.2732647 0.0392071
0.0445690 0.2859785 0.0428658
0.1052599 0.2976315 0.0462104
0.1524654 0.3158922 0.0514515
0.2032206 0.3288169 0.0551611
0.2429900 0.3403585 0.0584737
0.2892600 0.3531549 0.0621465
0.3311274 0.3645562 0.0654188
0.3728696 0.3826550 0.0706134
0.4162945 0.3937458 0.0802685
0.4482612 0.4020885 0.0894434
0.4835056 0.4181441 0.0995590
0.5114239 0.4263808 0.1075720
0.5482250 0.4348123 0.1181345
0.5750197 0.4468321 0.1258249
0.6002287 0.4562920 0.1330603
0.6252366 0.4666457 0.1402379
0.6478390 0.4735855 0.1467251
0.6712646 0.4836602 0.1534486
0.6919900 0.4896740 0.1593971
0.7084388 0.5014393 0.1641182
0.7224711 0.5067408 0.1681456
0.7420521 0.5164637 0.1737657
0.7544880 0.5213544 0.1844902
0.7691032 0.5329630 0.1999441
0.7814921 0.5429228 0.2253346
0.7942593 0.5465676 0.2416008
0.8024646 0.5548974 0.2578799
0.0375814 0.2675232 0.0375814
0.0383488 0.2702512 0.0383488
0.0394730 0.2741905 0.0394730
0.0412737 0.2804312 0.0412737
0.0435559 0.2883826 0.0435559
0.0462504 0.2977709 0.0462504
0.0505741 0.3128350 0.0505741
0.1067659 0.3251294 0.0541027
0.1521146 0.3395657 0.0582462
0.2052075 0.3539771 0.0623824
0.2483531 0.3670889 0.0661457
0.2964056 0.3806178 0.0700287
0.3392278 0.3926225 0.0734743
0.3821785 0.4082784 0.0779677
0.4198048 0.4204276 0.0814547
0.4523987 0.4292041 0.0906309
0.4865910 0.4391412 0.1004446
0.5231358 0.4524732 0.1109335
0.5503648 0.4634291 0.1187486
0.5829400 0.4711528 0.1280982
0.6123155 0.4837792 0.1365294
0.6359328 0.4896137 0.1433079
0.6603488 0.5035865 0.1503156
0.6768938 0.5082146 0.1550643
0.6977251 0.5146734 0.1610432
0.7134898 0.5241534 0.1655679
0.7324540 0.5290527 0.1710109
0.7479165 0.5421425 0.1754488
0.7620221 0.5514674 0.1884380
0.7745473 0.5553824 0.2057487
0.7868618 0.5653514 0.2313732
0.7978935 0.5689275 0.2480926
0.8065853 0.5796405 0.2645826
0.0449815 0.2933497 0.0449815
0.0456606 0.2957157 0.0456606
0.0473718 0.3016779 0.0473718
0.0494232 0.3088252 0.0494232
0.0512989 0.3153603 0.0512989
0.0541075 0.3251459 0.0541075
0.0575268 0.3370592 0.0575268
0.1000795 0.3490222 0.0609603
0.1591111 0.3640340 0.0652689
0.2067242 0.3813243 0.0702315
0.2526543 0.3931820 0.0736348
0.2986256 0.4063306 0.0774087
0.3474876 0.4205492 0.0814896
0.3909575 0.4324242 0.0848979
0.4248476 0.4419299 0.0876262
0.4621474 0.4567482 0.0934289
0.4984045 0.4683958 0.1038352
0.5265253 0.4771635 0.1119063
0.5617836 0.4904056 0.1220260
0.5881165 0.4972095 0.1295839
0.6138993 0.5072630 0.1369839
0.6390815 0.5183396 0.1442116
0.6651654 0.5246962 0.1516981
0.6815193 0.5307260 0.1563919
0.7039425 0.5410921 0.1628277
0.7187838 0.5492544 0.1670873
0.7391385 0.5592592 0.1729295
0.7528411 0.5635737 0.1774236
0.7668721 0.5727097 0.1940713
0.7791752 0.5779541 0.2212768
0.7923681 0.5894782 0.2372174
0.8034427 0.5932175 0.2544290
0.8150545 0.6015764 0.2706780
0.0526503 0.3200690 0.0526503
0.0541027 0.3251293 0.0541027
0.0550221 0.3283326 0.0550221
0.0564904 0.3334484 0.0564904
0.0591301 0.3426456 0.0591301
0.0624241 0.3541221 0.0624241
0.0657635 0.3657570 0.0657635
0.0978783 0.3784049 0.0693936
0.1552362 0.3904005 0.0728365
0.2125163 0.4040000 0.0767398
0.2641082 0.4204291 0.0814551
0.3043194 0.4308740 0.0844530
0.3539922 0.4485555 0.0895278
0.3916733 0.4580503 0.0922530
0.4266393 0.4700764 0.0957047
0.4605849 0.4795729 0.0984303
0.5005730 0.4899094 0.1044576
0.5375751 0.5036487 0.1150778
0.5654973 0.5132920 0.1230919
0.5917539 0.5214832 0.1306279
0.6175486 0.5282294 0.1380313
0.6428283 0.5393241 0.1452870
0.6661846 0.5454866 0.1519906
0.6915396 0.5556245 0.1592678
0.7084405 0.5659576 0.1641186
0.7283208 0.5707477 0.1698246
0.7434227 0.5805148 0.1741591
0.7574493 0.5884820 0.1967931
0.7714025 0.5975255 0.2140456
0.7840627 0.6016746 0.2315229
0.7955394 0.6049945 0.2443282
0.8076491 0.6142958 0.2657194
0.8183032 0.6172578 0.2772287
0.0603126 0.3467653 0.0603126
0.0610582 0.3493631 0.0610582
0.0622041 0.3533558 0.0622041
0.0642612 0.3605228 0.0642612
0.0663239 0.3677097 0.0663239
0.0696671 0.3793577 0.0696671
0.0722635 0.3884042 0.0722635
0.0990999 0.4032823 0.0765338
0.1608128 0.4156368 0.0800797
0.2129846 0.4279100 0.0836023
0.2686798 0.4457040 0.0887094
0.3090428 0.4576310 0.0921326
0.3609274 0.4724222 0.0963779
0.3987286 0.4833663 0.0995191
0.4340995 0.4921452 0.1020387
0.4687932 0.5018800 0.1048328
0.5071297 0.5180556 0.1094754
0.5397101 0.5274001 0.1156906
0.5745085 0.5363013 0.1256782
0.6011003 0.5434758 0.1333104
0.6283150 0.5570459 0.1411214
0.6527457 0.5637178 0.1481334
0.6698824 0.5691957 0.1530519
0.6920775 0.5767208 0.1594222
0.7091273 0.5864226 0.1643158
0.7323472 0.5948181 0.1709802
0.7476084 0.6040005 0.1845072
0.7614622 0.6085848 0.2028635
0.7743504 0.6129777 0.2211552
0.7881002 0.6217816 0.2378677
0.7994662 0.6258095 0.2556301
0.8122294 0.6366572 0.2714205
0.8224989 0.6413103 0.2956398
0.0669344 0.3698368 0.0669344
0.0677706 0.3727502 0.0677706
0.0686533 0.3758256 0.0686533
0.0708601 0.3835143 0.0708601
0.0733048 0.3920320 0.0733048
0.0765751 0.4034263 0.0765751
0.0797903 0.4146284 0.0797903
0.0946508 0.4253099 0.0828560
0.1654433 0.4425586 0.0878067
0.2109483 0.4559990 0.0916642
0.2709428 0.4703335 0.0957785
0.3137603 0.4812016 0.0988977
0.3618600 0.4946307 0.1027521
0.4054095 0.5054104 0.1058460
0.4411266 0.5163387 0.1089826
0.4767039 0.5262347 0.1118229
0.5077606 0.5389606 0.1154754
0.5453666 0.5475210 0.1179324
0.5767990 0.5559365 0.1263356
0.6040419 0.5654445 0.1341547
0.6309283 0.5769354 0.1418715
0.6555279 0.5839165 0.1489320
0.6788141 0.5905726 0.1556154
0.6955524 0.5959346 0.1604196
0.7186911 0.6087290 0.1670607
0.7333143 0.6136639 0.1730818
0.7474190 0.6197450 0.2016341
0.7622713 0.6290684 0.2191896
0.7822245 0.6344870 0.2363338
0.7950054 0.6410825 0.2539271
0.8034013 0.6489945 0.2703730
0.8146689 0.6528012 0.2864062
0.8262383 0.6611001 0.3022938
0.0744531 0.3960328 0.0744531
0.0749134 0.3976369 0.0749134
0.0763545 0.4026579 0.0763545
0.0782314 0.4091971 0.0782314
0.0803781 0.4166764 0.0803781
0.0833971 0.4271950 0.0833971
0.0865146 0.4380569 0.0865146
0.0933649 0.4508328 0.0901815
0.1698145 0.4682716 0.0951867
0.2203375 0.4796313 0.0984470
0.2686312 0.4912708 0.1017878
0.3260532 0.5051675 0.1057763
0.3676029 0.5175166 0.1093207
0.4114310 0.5282955 0.1124144
0.4478533 0.5373172 0.1150038
0.4766341 0.5459706 0.1174874
0.5170539 0.5594102 0.1213448
0.5466053 0.5698524 0.1243418
0.5748464 0.5778894 0.1266486
0.6124194 0.5876049 0.1365592
0.6382000 0.5950307 0.1439586
0.6579139 0.6039349 0.1496168
0.6818437 0.6127893 0.1564850
0.7043614 0.6192338 0.1629479
0.7205777 0.6245726 0.1713370
0.7361664 0.6339803 0.1891093
0.7556206 0.6397070 0.2076023
0.7701213 0.6466971 0.2253976
0.7838483 0.6557380 0.2427146
0.7984573 0.6604639 0.2607234
0.8100524 0.6644118 0.2768281
0.8181903 0.6723939 0.2928523
0.8293097 0.6783351 0.3083750
0.0815533 0.4207709 0.0815533
0.0820605 0.4225384 0.0820605
0.0830885 0.4261198 0.0830885
0.0847302 0.4318399 0.0847302
0.0878130 0.4425808 0.0878130
0.0903613 0.4514595 0.0903613
0.0935746 0.4626551 0.0935746
0.1002104 0.4727281 0.0964657
0.1690481 0.4849104 0.0999622
0.2223760 0.4964612 0.1032775
0.2809905 0.5156508 0.1087852
0.3305116 0.5277207 0.1122494
0.3730684 0.5383457 0.1152989
0.4132987 0.5483785 0.1181785
0.4467539 0.5568134 0.1205994
0.4842976 0.5693017 0.1241838
0.5246857 0.5787659 0.1269001
0.5542195 0.5873690 0.1293693
0.5834127 0.5984201 0.1325412
0.6105684 0.6064212 0.1360279
0.6404507 0.6167895 0.1446046
0.6654271 0.6239600 0.1517732
0.6832966 0.6284112 0.1569020
0.7067635 0.6393279 0.1684965
0.7230912 0.6447690 0.1874902
0.7435861 0.6529273 0.2056549
0.7578717 0.6578554 0.2240659
0.7728424 0.6670822 0.2414401
0.7856927 0.6716773 0.2597011
0.7987875 0.6747931 0.2673793
0.8117225 0.6856254 0.2829109
0.8209862 0.6893458 0.2997214
0.8317171 0.6930075 0.3148136
0.0895123 0.4485015 0.0895123
0.0900754 0.4504634 0.0900754
0.0912172 0.4544414 0.0912172
0.0923683 0.4584521 0.0923683
0.0946858 0.4665266 0.0946858
0.0976480 0.4768473 0.0976480
