data/spectral_luts/vision3_50d_2383.cube
TITLE "vision3_50d_2383"
LUT_3D_SIZE 9
0.0062563 0.0054860 0.0053956
0.0125918 0.0063582 0.0056108
0.0800804 0.0111809 0.0056506
0.1990490 0.0211948 0.0211948
0.3345696 0.0568122 0.0568122
0.4623575 0.0934892 0.0934892
0.5522059 0.1192770 0.1192770
0.6312785 0.1579295 0.1419720
0.6949097 0.2199597 0.2007493
0.0062520 0.0122643 0.0067114
0.0155528 0.0154204 0.0070039
0.0949245 0.0293179 0.0071512
0.2191500 0.0537700 0.0254448
0.3621063 0.0804415 0.0647157
0.4883542 0.1110141 0.1009507
0.5738155 0.1518441 0.1254793
0.6485462 0.1969549 0.1469281
0.7075495 0.2511905 0.2027931
0.0037359 0.0682590 0.0103629
0.0098038 0.0778841 0.0106269
0.1171976 0.1066208 0.0091758
0.2597838 0.1446020 0.0354533
0.4117089 0.1850475 0.0789523
0.5364392 0.2216649 0.1147518
0.6183794 0.2611660 0.1382698
0.6885647 0.3015447 0.1613028
0.7412798 0.3428839 0.2207771
0.0147633 0.1635152 0.0148480
0.0165078 0.1739249 0.0165078
0.1283562 0.2185421 0.0253096
0.2882526 0.2640261 0.0435186
0.4439572 0.3076833 0.0882081
0.5837727 0.3518749 0.1283372
0.6620192 0.3849455 0.1507951
0.7249412 0.4214165 0.1840328
0.7738068 0.4562311 0.2424917
0.0384704 0.2706804 0.0384704
0.0416037 0.2815810 0.0416037
0.1003781 0.3321504 0.0561179
0.2991699 0.3811490 0.0701812
0.4690993 0.4294635 0.0954242
0.6047927 0.4705500 0.1343702
0.6881281 0.5056219 0.1582887
0.7487875 0.5306500 0.2094842
0.7955961 0.5573921 0.2660016
0.0674500 0.3716333 0.0859513
0.0674500 0.3716333 0.0859513
0.0825215 0.4241444 0.0831424
0.2920306 0.4709503 0.0959555
0.4855771 0.5200789 0.1100561
0.6189944 0.5586517 0.1467093
0.7033848 0.5865920 0.1906237
0.7648579 0.6136700 0.2453083
0.8082943 0.6323543 0.2989263
0.0950543 0.4678103 0.1463244
0.0950543 0.4678103 0.1463244
0.1057148 0.5049533 0.1514831
0.2883554 0.5519352 0.1587081
0.4855879 0.6011748 0.1743090
0.6261984 0.6401969 0.2069154
0.7070179 0.6627164 0.2466307
0.7700192 0.6833666 0.2889617
0.8188808 0.7059636 0.3375545
0.1205116 0.5565074 0.2165193
0.1205116 0.5565074 0.2165193
0.1261980 0.5763196 0.2185022
0.2745302 0.6203603 0.2297575
0.4845324 0.6629149 0.2466791
0.6276553 0.6988753 0.2687008
0.7113152 0.7198377 0.2956577
0.7774507 0.7412489 0.3404903
0.8207075 0.7587333 0.3781117
0.1404933 0.6261266 0.2838056
0.1404933 0.6261266 0.2838056
0.1425566 0.6333153 0.2839870
0.2795412 0.6740124 0.2932704
0.4878458 0.7147403 0.3081488
0.6338429 0.7447790 0.3272081
0.7153603 0.7681557 0.3560522
0.7799801 0.7848019 0.3854819
0.8236073 0.7991733 0.4180642
0.0049960 0.0066832 0.0170994
0.0139589 0.0079808 0.0197586
0.0870611 0.0136101 0.0275785
0.2062372 0.0226627 0.0425918
0.3439529 0.0595054 0.0621241
0.4680253 0.0951160 0.0951160
0.5581670 0.1209879 0.1363240
0.6349643 0.1647554 0.1817809
0.6959985 0.2217836 0.2332059
0.0030284 0.0161453 0.0243755
0.0145183 0.0201479 0.0277054
0.0971595 0.0369474 0.0393673
0.2243492 0.0616071 0.0545765
0.3682005 0.0865101 0.0734400
0.4911736 0.1159677 0.1034734
0.5760259 0.1559165 0.1422412
0.6502709 0.2045796 0.1877410
0.7106383 0.2588445 0.2365307
0.0047778 0.0815629 0.0458222
0.0058154 0.0932166 0.0512013
0.1182771 0.1244572 0.0614244
0.2630022 0.1602879 0.0763110
0.4099097 0.1949555 0.0933277
0.5382381 0.2296810 0.1207936
0.6196830 0.2668604 0.1594763
0.6895628 0.3059762 0.2068600
0.7418573 0.3456569 0.2506606
0.0186426 0.1858243 0.0736357
0.0206785 0.1964519 0.0758008
0.1122974 0.2373616 0.0843951
0.2866673 0.2842147 0.0921899
0.4514121 0.3262462 0.1123778
0.5808571 0.3610291 0.1393163
0.6622623 0.3913759 0.1766906
0.7251346 0.4259894 0.2225888
0.7739208 0.4591999 0.2686416
0.0449600 0.2932750 0.1036994
0.0476558 0.3026673 0.1036712
0.0787564 0.3547962 0.1072823
0.2972848 0.3974529 0.1189171
0.4736021 0.4423908 0.1327411
0.6032747 0.4801143 0.1643734
0.6873650 0.5122889 0.2040080
0.7526414 0.5357819 0.2444003
0.7953470 0.5605409 0.2910587
0.0720954 0.3878182 0.1371371
0.0724187 0.3889448 0.1371106
0.0862625 0.4371786 0.1402499
0.2904674 0.4872679 0.1498528
0.4816140 0.5314970 0.1680744
0.6170772 0.5656357 0.1952137
0.7021870 0.5923613 0.2317389
0.7643228 0.6167064 0.2675135
0.8061500 0.6346402 0.3182107
0.0980790 0.4783490 0.1838774
0.0977335 0.4771451 0.1787886
0.1087620 0.5155700 0.1846180
0.2740444 0.5594035 0.1937631
0.4824230 0.6064849 0.2066681
0.6246557 0.6441914 0.2332340
0.7061706 0.6654915 0.2656477
0.7695909 0.6850299 0.3007935
0.8182313 0.7023539 0.3417515
0.1214116 0.5596431 0.2309178
0.1214116 0.5596431 0.2309178
0.1270901 0.5794279 0.2334236
0.2706619 0.6228127 0.2428564
0.4832478 0.6646847 0.2572347
0.6270878 0.7000688 0.2763958
0.7108678 0.7210235 0.3036693
0.7774507 0.7412489 0.3404903
0.8207075 0.7587333 0.3781117
0.1397790 0.6236377 0.2838809
0.1397790 0.6236377 0.2838809
0.1425566 0.6333153 0.2839870
0.2795412 0.6740124 0.2932704
0.4878458 0.7147403 0.3081488
0.6338429 0.7447790 0.3272081
0.7153603 0.7681557 0.3560522
0.7799801 0.7848019 0.3854819
0.8236073 0.7991733 0.4180642
0.0067890 0.0071154 0.1030914
0.0204106 0.0087810 0.1091355
0.1057003 0.0153909 0.1314208
0.2207133 0.0269689 0.1526402
0.3588309 0.0637756 0.1807800
0.4837315 0.0996239 0.2119374
0.5688369 0.1240504 0.2428962
0.6425515 0.1811467 0.2797101
0.7028162 0.2353659 0.3167615
0.0086095 0.0232176 0.1195404
0.0174071 0.0286226 0.1292105
0.1166765 0.0462063 0.1491187
0.2369516 0.0702967 0.1722621
0.3784370 0.0959358 0.1959542
0.5013924 0.1260837 0.2250915
0.5863057 0.1639806 0.2522374
0.6555790 0.2138627 0.2902691
0.7132109 0.2631580 0.3266154
0.0143468 0.1079791 0.1609256
0.0153441 0.1179760 0.1670571
0.1275692 0.1477032 0.1886539
0.2701521 0.1791381 0.2064947
0.4192073 0.2124763 0.2303853
0.5452493 0.2457618 0.2530400
0.6268885 0.2767969 0.2783690
0.6915956 0.3194554 0.3093728
0.7438738 0.3587196 0.3441391
0.0257078 0.2203275 0.1977122
0.0292686 0.2356184 0.2065393
0.1034858 0.2740445 0.2221749
0.2850920 0.3086367 0.2374568
0.4518468 0.3491601 0.2606052
0.5813520 0.3835696 0.2824006
0.6638395 0.4118463 0.3079013
0.7274083 0.4381175 0.3344897
0.7742542 0.4693808 0.3688285
0.0556487 0.3305157 0.2325380
0.0587422 0.3412941 0.2362507
0.0722045 0.3881984 0.2549081
0.2781115 0.4316222 0.2694585
0.4691427 0.4716062 0.2867732
0.6060119 0.5033497 0.3056836
0.6903114 0.5292423 0.3286814
0.7511521 0.5495208 0.3561185
0.7942431 0.5721825 0.3907818
0.0825979 0.4244107 0.2682702
0.0836250 0.4279891 0.2692495
0.0962393 0.4719393 0.2814242
0.2637826 0.5165252 0.2954672
0.4737261 0.5553296 0.3134156
0.6178154 0.5887186 0.3298602
0.6987864 0.6135677 0.3501720
0.7614055 0.6311789 0.3779220
0.8087766 0.6540560 0.4092068
0.1070426 0.5095795 0.3013524
0.1070426 0.5095795 0.3013524
0.1179398 0.5475467 0.3140923
0.2597685 0.5914807 0.3283606
0.4724070 0.6311033 0.3402060
0.6240080 0.6659954 0.3575632
0.7066606 0.6823826 0.3781545
0.7706850 0.7011412 0.3992400
0.8142752 0.7199177 0.4306166
0.1290329 0.5861968 0.3407717
0.1290329 0.5861968 0.3407717
0.1350995 0.6073336 0.3442231
0.2552173 0.6466004 0.3587500
0.4790134 0.6866585 0.3710548
0.6260366 0.7200756 0.3889335
0.7110106 0.7366954 0.4060707
0.7712868 0.7545763 0.4270122
0.8175844 0.7688661 0.4551814
0.1463645 0.6465823 0.3795122
0.1463645 0.6465823 0.3795122
0.1489708 0.6556633 0.3811086
0.2627995 0.6942894 0.3895522
0.4856082 0.7316447 0.4020581
0.6258776 0.7600592 0.4198166
0.7131686 0.7816348 0.4373485
0.7762765 0.7942943 0.4550490
0.8209022 0.8068736 0.4766851
0.0233954 0.0233954 0.2097241
0.0480325 0.0261704 0.2223807
0.1377852 0.0326200 0.2490469
0.2456932 0.0394394 0.2740738
0.3852548 0.0713596 0.3042338
0.5020249 0.1048744 0.3338057
0.5872679 0.1449153 0.3647116
0.6566394 0.1965355 0.3909684
0.7140173 0.2581805 0.4207922
0.0277620 0.0277620 0.2292888
0.0428679 0.0307365 0.2416047
0.1428612 0.0467134 0.2663189
0.2577631 0.0701903 0.2910041
0.3960876 0.0958209 0.3192176
0.5155054 0.1308769 0.3446985
0.5971599 0.1724577 0.3704371
0.6664602 0.2240352 0.3990121
0.7200475 0.2759216 0.4267402
0.0411519 0.1273841 0.2800070
0.0446945 0.1375794 0.2923498
0.1481354 0.1623763 0.3113540
0.2861796 0.1940291 0.3373510
0.4336725 0.2270013 0.3576804
0.5550410 0.2556249 0.3813781
0.6353099 0.2927908 0.4012826
0.6992843 0.3306191 0.4230408
0.7475550 0.3699605 0.4504235
0.0534014 0.2489538 0.3226859
0.0566835 0.2645061 0.3341210
0.1104428 0.2993900 0.3570142
0.2939532 0.3306600 0.3774495
0.4651404 0.3687484 0.3932998
0.5899161 0.3958348 0.4147890
0.6664219 0.4219885 0.4284229
0.7292234 0.4534793 0.4483486
0.7777253 0.4838894 0.4739898
0.0652383 0.3639273 0.3584499
0.0699839 0.3804615 0.3694079
0.0803335 0.4165210 0.3867950
0.2816098 0.4531655 0.4030126
0.4696060 0.4922997 0.4251074
0.6058761 0.5246725 0.4404489
0.6856673 0.5477806 0.4594734
0.7482016 0.5661988 0.4777685
0.7970087 0.5852143 0.4963263
0.0910462 0.4538458 0.3921741
0.0938779 0.4637118 0.3961560
0.1053018 0.5035141 0.4116165
0.2636431 0.5399858 0.4262435
0.4763113 0.5822631 0.4450159
0.6151717 0.6105877 0.4626512
0.6972423 0.6287667 0.4747195
0.7607837 0.6470956 0.4932806
0.8064961 0.6651917 0.5115107
0.1159883 0.5407474 0.4244807
0.1159883 0.5407474 0.4244807
0.1254374 0.5736696 0.4365526
0.2589249 0.6173558 0.4541477
0.4729551 0.6541774 0.4716466
0.6197714 0.6826577 0.4795001
0.7010868 0.7015123 0.4985738
0.7667954 0.7187145 0.5102199
0.8110942 0.7312533 0.5284341
0.1368583 0.6134616 0.4541964
0.1368583 0.6134616 0.4541964
0.1424955 0.6331024 0.4605448
0.2653323 0.6725093 0.4771234
0.4797383 0.7111214 0.4878960
0.6235209 0.7362522 0.5020394
0.7046655 0.7564231 0.5175671
0.7707412 0.7687401 0.5363929
0.8174244 0.7811859 0.5546156
0.1528280 0.6691023 0.4864631
0.1528280 0.6691023 0.4864631
0.1563226 0.6812778 0.4898857
0.2682273 0.7167429 0.5025211
0.4912867 0.7528058 0.5165153
0.6229651 0.7765208 0.5237167
0.7064793 0.7948542 0.5397713
0.7708741 0.8084735 0.5583523
0.8167385 0.8194822 0.5699387
0.0547286 0.0536339 0.3234958
0.0916088 0.0572627 0.3361392
0.1807511 0.0643464 0.3608197
0.2863320 0.0722751 0.3884446
0.4158130 0.0811912 0.4195096
0.5268575 0.1181479 0.4435038
0.6073335 0.1680383 0.4711262
0.6736663 0.2245188 0.4982617
0.7275454 0.2826306 0.5262011
0.0562948 0.0562948 0.3327668
0.0906131 0.0597159 0.3446864
0.1788740 0.0664229 0.3680547
0.2905155 0.0745051 0.3962141
0.4207247 0.0995710 0.4241980
0.5314282 0.1334804 0.4471419
0.6086962 0.1793305 0.4735604
0.6756784 0.2304001 0.5024459
0.7275454 0.2826306 0.5262011
0.0712831 0.1455711 0.3849881
0.0747218 0.1543288 0.3969692
0.1835180 0.1770469 0.4244914
0.3091038 0.2053880 0.4454481
0.4566128 0.2366432 0.4674488
0.5697552 0.2714429 0.4874816
0.6460934 0.3046164 0.5094242
0.7052100 0.3376875 0.5268691
0.7536001 0.3749741 0.5464820
0.0858669 0.2773753 0.4358004
0.0892249 0.2889844 0.4475001
0.1533087 0.3184732 0.4685634
0.3173811 0.3462106 0.4891203
0.4766191 0.3818523 0.5116134
0.5979714 0.4137946 0.5260505
0.6746870 0.4405936 0.5450614
0.7352459 0.4660353 0.5596725
0.7797346 0.4957650 0.5771576
0.0970153 0.3975168 0.4746428
0.0998790 0.4110425 0.4846202
0.1044944 0.4410542 0.5007010
0.3076533 0.4757116 0.5237387
0.4869729 0.5113115 0.5412559
0.6154243 0.5357485 0.5556437
0.6894969 0.5571907 0.5697447
0.7513340 0.5745217 0.5797811
0.7952024 0.5968084 0.5954781
0.1050951 0.4853182 0.5027942
0.1074689 0.4989813 0.5110648
0.1125930 0.5289179 0.5267239
0.2842671 0.5638940 0.5446237
0.4872206 0.5975490 0.5635394
0.6225857 0.6232901 0.5745784
0.6997495 0.6431162 0.5913988
0.7632343 0.6626200 0.5982825
0.8064156 0.6742932 0.6109475
0.1250403 0.5722859 0.5366175
0.1257956 0.5749175 0.5379798
0.1343629 0.6047671 0.5517983
0.2849418 0.6379882 0.5688210
0.4825419 0.6738981 0.5804346
0.6188810 0.6962459 0.5967143
0.7056065 0.7161570 0.6064346
0.7653096 0.7298412 0.6169961
0.8118684 0.7416953 0.6297460
0.1431243 0.6352932 0.5611947
0.1431243 0.6352932 0.5611947
0.1498187 0.6586174 0.5709890
0.2771546 0.6908966 0.5837827
0.4880666 0.7278286 0.6000714
0.6248903 0.7516411 0.6092485
0.7020647 0.7684895 0.6233053
0.7714542 0.7791722 0.6286520
0.8125395 0.7912810 0.6384366
0.1589762 0.6905233 0.5842566
0.1589762 0.6905233 0.5842566
0.1624391 0.7025887 0.5891919
0.2886383 0.7370923 0.6040664
0.4961856 0.7671754 0.6138620
0.6240036 0.7927260 0.6252692
0.7067820 0.8080413 0.6366516
0.7690593 0.8208467 0.6433858
0.8171885 0.8287096 0.6515014
0.1124487 0.0847431 0.4318848
0.1571108 0.0892295 0.4475160
0.2264927 0.0946055 0.4662466
0.3297458 0.1013262 0.4896628
0.4546600 0.1215001 0.5159009
0.5535376 0.1606651 0.5382741
0.6277394 0.2082696 0.5604337
0.6921313 0.2655520 0.5808637
0.7438825 0.3181959 0.5998428
0.1087790 0.0844597 0.4308975
0.1571108 0.0892295 0.4475160
0.2264927 0.0946055 0.4662466
0.3297458 0.1013262 0.4896628
0.4546600 0.1215001 0.5159009
0.5535376 0.1606651 0.5382741
0.6277394 0.2082696 0.5604337
0.6903211 0.2590556 0.5794054
0.7438825 0.3181959 0.5998428
0.0985662 0.1672129 0.4800463
0.1455187 0.1743055 0.4923785
0.2282022 0.1959681 0.5103958
0.3528185 0.2197375 0.5315056
0.4795514 0.2469073 0.5536062
0.5826544 0.2830259 0.5733463
0.6529462 0.3112690 0.5876534
0.7150725 0.3525128 0.6029562
0.7601532 0.3878258 0.6154209
0.1116916 0.3056215 0.5257772
0.1146870 0.3154017 0.5362138
0.2088094 0.3397172 0.5536984
0.3585620 0.3652892 0.5757258
0.4972568 0.3947655 0.5921770
0.6068071 0.4226426 0.6060941
0.6840435 0.4496716 0.6185138
0.7391897 0.4744933 0.6288689
0.7850202 0.5048460 0.6411426
0.1225858 0.4302534 0.5637342
0.1248527 0.4402460 0.5716322
0.1569334 0.4631600 0.5870158
0.3477871 0.4932137 0.6041353
0.5060844 0.5251945 0.6209303
0.6225528 0.5475134 0.6341674
0.6976122 0.5671920 0.6442133
0.7537051 0.5836927 0.6507158
0.7988039 0.6030952 0.6588210
0.1286671 0.5126019 0.5849223
0.1316722 0.5235460 0.5953923
0.1356849 0.5510487 0.6093732
0.3301489 0.5782021 0.6230099
0.5059540 0.6122102 0.6409620
0.6285191 0.6354343 0.6498542
0.7012829 0.6510644 0.6567493
0.7663479 0.6684470 0.6692554
0.8095934 0.6846054 0.6770213
0.1348592 0.5907606 0.6064962
0.1371302 0.5987660 0.6144089
0.1405669 0.6220590 0.6263828
0.3185290 0.6555568 0.6415228
0.5019872 0.6848164 0.6557047
0.6301225 0.7086006 0.6640218
0.7087056 0.7227141 0.6727117
0.7679170 0.7360570 0.6829342
0.8125186 0.7514355 0.6904841
0.1484662 0.6539053 0.6296196
0.1490057 0.6557847 0.6305974
0.1557053 0.6791270 0.6410155
0.3134624 0.7101552 0.6545631
0.5088577 0.7388174 0.6683290
0.6294578 0.7635939 0.6802851
0.7108707 0.7761867 0.6868311
0.7713835 0.7909140 0.6948603
0.8144373 0.8010758 0.7018164
0.1633036 0.7056009 0.6473883
0.1633036 0.7056009 0.6473883
0.1677952 0.7212502 0.6521161
0.3310612 0.7511125 0.6689578
0.5156118 0.7826074 0.6797622
0.6321466 0.8012865 0.6906652
0.7121808 0.8152806 0.6971402
0.7710946 0.8274652 0.7048503
0.8169612 0.8358754 0.7093728
0.1861944 0.1104127 0.5213213
0.2165803 0.1127325 0.5294038
0.2831489 0.1273943 0.5451285
0.3842386 0.1501857 0.5654188
0.4972145 0.1834705 0.5906336
0.5842627 0.2201461 0.6077149
0.6525020 0.2631509 0.6271801
0.7093175 0.3039203 0.6464089
0.7568323 0.3522330 0.6636519
0.1861944 0.1104127 0.5213213
0.2165803 0.1127325 0.5294038
0.2831489 0.1273943 0.5451285
0.3842386 0.1501857 0.5654188
0.4972145 0.1834705 0.5906336
0.5842627 0.2201461 0.6077149
0.6525020 0.2631509 0.6271801
0.7093175 0.3039203 0.6464089
0.7568323 0.3522330 0.6636519
0.1720409 0.1926421 0.5516055
0.2081448 0.2018295 0.5597793
0.2840391 0.2155822 0.5742246
0.3932793 0.2379347 0.5932767
0.5110894 0.2682926 0.6144084
0.6001678 0.2989576 0.6309265
0.6659061 0.3280351 0.6462291
0.7218496 0.3641048 0.6615764
0.7696533 0.4072624 0.6768235
0.1321031 0.3328645 0.5968938
0.1714565 0.3446844 0.6049969
0.2696821 0.3566334 0.6169615
0.3962944 0.3821813 0.6324890
0.5269433 0.4107220 0.6531154
0.6213365 0.4338483 0.6641739
0.6917987 0.4641807 0.6783655
0.7463635 0.4888124 0.6898285
0.7896677 0.5186772 0.7009201
0.1413527 0.4550880 0.6291208
0.1432781 0.4633288 0.6358291
0.2271677 0.4867848 0.6529825
0.3994597 0.5097792 0.6672878
0.5356649 0.5351525 0.6809241
0.6360800 0.5618686 0.6954260
0.7079825 0.5757166 0.7014295
0.7627926 0.5922660 0.7106018
0.8011612 0.6105278 0.7190465
0.1487058 0.5394804 0.6547398
0.1502812 0.5473171 0.6602289
0.1909539 0.5717035 0.6728524
0.3873820 0.5962683 0.6860116
0.5358735 0.6261469 0.7033633
0.6383099 0.6462230 0.7117907
0.7110202 0.6619154 0.7215980
0.7681426 0.6776314 0.7283173
0.8130664 0.6938540 0.7364554
0.1546246 0.6161059 0.6753617
0.1559377 0.6250749 0.6799369
0.1592004 0.6444226 0.6913045
0.3830847 0.6726413 0.7058122
0.5325983 0.6988446 0.7153192
0.6393915 0.7173074 0.7271051
0.7150173 0.7329799 0.7366847
0.7712453 0.7453188 0.7405199
0.8151417 0.7559579 0.7456170
0.1586145 0.6738285 0.6892632
0.1606572 0.6799752 0.6963804
0.1636043 0.6990186 0.7066485
0.3840252 0.7265186 0.7197428
0.5392817 0.7511381 0.7283943
0.6387695 0.7704681 0.7395312
0.7170902 0.7821619 0.7442680
0.7741944 0.7962438 0.7522788
0.8167272 0.8060285 0.7569004
0.1681040 0.7223260 0.7101357
0.1681040 0.7223260 0.7101357
0.1736216 0.7415500 0.7198673
0.3868061 0.7687878 0.7316321
0.5417904 0.7928575 0.7396730
0.6381045 0.8080110 0.7496139
0.7151055 0.8239915 0.7545324
0.7761869 0.8332477 0.7598680
0.8189784 0.8441660 0.7665311
0.2545796 0.1793053 0.5991600
0.2797205 0.1817512 0.6037878
0.3422719 0.1987188 0.6208549
0.4344518 0.2181759 0.6376742
0.5381277 0.2530884 0.6574551
0.6133244 0.2831224 0.6731668
0.6796953 0.3189831 0.6900800
0.7296009 0.3552538 0.7047095
0.7710703 0.3992759 0.7163274
0.2545796 0.1793053 0.5991600
0.2797205 0.1817512 0.6037878
0.3422719 0.1987188 0.6208549
0.4344518 0.2181759 0.6376742
0.5381277 0.2530884 0.6574551
0.6133244 0.2831224 0.6731668
0.6751389 0.3187486 0.6896703
0.7294823 0.3554602 0.7014697
0.7710703 0.3992759 0.7163274
0.2484917 0.2239982 0.6134443
0.2785912 0.2330359 0.6203194
0.3408399 0.2452631 0.6351755
0.4407774 0.2672914 0.6526253
0.5410081 0.2880417 0.6677632
0.6182054 0.3189526 0.6816246
0.6815883 0.3492206 0.6966615
0.7363063 0.3865401 0.7114998
0.7761460 0.4231823 0.7228894
0.2206886 0.3622744 0.6589793
0.2574065 0.3667671 0.6637291
0.3387348 0.3834255 0.6759365
0.4533567 0.4075560 0.6921508
0.5635468 0.4336004 0.7067327
0.6400283 0.4553370 0.7199092
0.7062234 0.4750741 0.7280442
0.7549522 0.4997582 0.7371408
0.7953504 0.5291435 0.7461573
0.1588846 0.4848750 0.6902043
0.2079423 0.4899372 0.6943496
0.3174010 0.5065271 0.7056608
0.4517153 0.5311894 0.7206129
0.5642934 0.5514660 0.7322267
0.6525939 0.5703732 0.7444966
0.7165793 0.5882284 0.7511539
0.7660610 0.6033925 0.7579551
0.8090402 0.6175453 0.7658225
0.1644883 0.5644573 0.7097284
0.1657927 0.5726895 0.7142730
0.3029552 0.5932209 0.7256936
0.4445104 0.6130013 0.7415676
0.5655720 0.6385633 0.7533975
0.6517538 0.6561974 0.7611216
0.7186388 0.6709298 0.7686427
0.7770541 0.6862367 0.7737083
0.8149667 0.7016535 0.7811533
0.1704404 0.6394508 0.7304663
0.1711416 0.6458349 0.7329095
0.2859595 0.6659901 0.7432870
0.4327066 0.6878247 0.7548303
0.5639501 0.7071620 0.7651494
0.6527915 0.7248489 0.7759403
0.7222498 0.7414742 0.7816215
0.7773902 0.7537637 0.7874175
0.8183178 0.7636874 0.7937899
0.1738665 0.6933866 0.7424032
0.1750402 0.7004644 0.7464929
0.2778187 0.7172460 0.7551111
0.4353424 0.7418439 0.7681381
0.5727369 0.7641306 0.7784128
0.6525503 0.7760959 0.7839880
0.7269054 0.7909684 0.7926648
0.7801189 0.8040217 0.7965760
0.8215294 0.8099574 0.8007278
0.1777519 0.7394671 0.7559407
0.1787596 0.7459739 0.7594518
0.2929049 0.7613656 0.7674896
0.4412065 0.7820831 0.7756577
0.5706651 0.8015919 0.7878821
0.6516041 0.8181677 0.7938036
0.7280354 0.8296234 0.7986450
0.7794911 0.8374439 0.8051596
0.8196344 0.8477470 0.8096469
0.3270031 0.2555332 0.6670330
0.3505394 0.2580615 0.6708088
0.4120352 0.2735013 0.6825137
0.4902836 0.2932033 0.6961839
0.5759490 0.3193578 0.7137325
0.6416920 0.3442021 0.7251629
0.6993614 0.3753940 0.7379018
0.7470056 0.4061423 0.7505555
0.7876058 0.4436280 0.7606511
0.3270031 0.2555332 0.6670330
0.3505394 0.2580615 0.6708088
0.4120352 0.2735013 0.6825137
0.4902836 0.2932033 0.6961839
0.5759490 0.3193578 0.7137325
0.6416920 0.3442021 0.7251629
0.6993614 0.3753940 0.7379018
0.7470056 0.4061423 0.7505555
0.7876058 0.4436280 0.7606511
0.3191533 0.2607042 0.6674585
0.3505921 0.2641422 0.6724898
0.4044029 0.2757571 0.6822050
0.4910418 0.2995957 0.6978310
0.5759490 0.3193578 0.7137325
0.6392009 0.3440249 0.7249132
0.6993614 0.3753940 0.7379018
0.7470056 0.4061423 0.7505555
0.7876058 0.4436280 0.7606511
0.3084449 0.3914949 0.7058793
0.3468072 0.3964584 0.7109571
0.4088994 0.4108746 0.7204763
0.5047742 0.4293494 0.7361171
0.5954837 0.4499875 0.7479935
0.6605673 0.4700314 0.7568933
0.7167397 0.4958059 0.7656657
0.7643481 0.5197089 0.7759451
0.8029559 0.5430048 0.7823063
0.2761749 0.5109290 0.7377383
0.3246074 0.5171535 0.7427770
0.3995501 0.5273401 0.7507959
0.4978308 0.5481744 0.7625001
0.5975526 0.5665358 0.7730798
0.6669790 0.5804312 0.7801362
0.7298741 0.6000069 0.7902378
0.7750213 0.6098444 0.7929677
0.8121067 0.6283769 0.8008815
0.2561796 0.5898055 0.7567133
0.3035917 0.6009223 0.7618565
0.3848107 0.6117125 0.7692266
0.4939894 0.6272148 0.7793970
0.5994473 0.6504811 0.7901367
0.6718867 0.6661710 0.7984864
0.7317277 0.6793071 0.8038772
0.7831109 0.6911455 0.8083544
0.8188922 0.7090073 0.8156574
0.2302793 0.6627018 0.7730745
0.2887261 0.6691191 0.7771205
0.3813493 0.6808844 0.7829272
0.4966314 0.7039015 0.7935808
0.5982332 0.7190039 0.8048267
0.6670679 0.7334441 0.8107949
0.7324705 0.7449480 0.8158882
0.7834206 0.7565840 0.8213937
0.8234584 0.7661572 0.8245556
0.2324950 0.7177717 0.7874763
0.2788634 0.7226187 0.7902973
0.3796360 0.7370316 0.7976854
0.4969164 0.7535131 0.8053145
0.5994708 0.7743580 0.8139135
0.6669938 0.7843745 0.8188458
0.7338158 0.7979192 0.8267518
0.7836251 0.8068362 0.8302682
0.8245836 0.8163096 0.8347105
0.2481315 0.7598766 0.7967237
0.2956899 0.7649384 0.7994803
0.3837425 0.7758385 0.8052812
0.5032548 0.7942073 0.8141059
0.5970746 0.8112040 0.8226865
0.6699818 0.8235958 0.8279819
0.7348201 0.8332061 0.8323318
0.7850277 0.8436532 0.8387458
0.8227634 0.8534859 0.8415471
