data/spectral_luts/vision3_500t_2383.cube
TITLE "vision3_500t_2383"
LUT_3D_SIZE 33
0.0074967 0.0063909 0.0059928
0.0078978 0.0064548 0.0060104
0.0089825 0.0066209 0.0060538
0.0113904 0.0070293 0.0061466
0.0148375 0.0074644 0.0062285
0.0207073 0.0080405 0.0063941
0.0311089 0.0090484 0.0065707
0.0472085 0.0105179 0.0069139
0.0677193 0.0124403 0.0071721
0.0973897 0.0152586 0.0073329
0.1303195 0.0182641 0.0099412
0.1568606 0.0208514 0.0137072
0.1861860 0.0230718 0.0187099
0.2205567 0.0259560 0.0257592
0.2540032 0.0339108 0.0339108
0.2896812 0.0439286 0.0439286
0.3223902 0.0533165 0.0533165
0.3555654 0.0628383 0.0628383
0.3901426 0.0727625 0.0727625
0.4255444 0.0829233 0.0829233
0.4525032 0.0906609 0.0906609
0.4820840 0.0991510 0.0991510
0.5025324 0.1050200 0.1050200
0.5222449 0.1106778 0.1106778
0.5472087 0.1178428 0.1178428
0.5702144 0.1244457 0.1244457
0.5902932 0.1320338 0.1302086
0.6116614 0.1441012 0.1363416
0.6305605 0.1602241 0.1417660
0.6456628 0.1741077 0.1524944
0.6635509 0.1910332 0.1680474
0.6799131 0.2064948 0.1842820
0.6968467 0.2247611 0.1956946
0.0075189 0.0065250 0.0060229
0.0080262 0.0066065 0.0060447
0.0091473 0.0068473 0.0061028
0.0114934 0.0073498 0.0062106
0.0150303 0.0078989 0.0063087
0.0212469 0.0089113 0.0065381
0.0323791 0.0105546 0.0068786
0.0491004 0.0124125 0.0072383
0.0700698 0.0148107 0.0076302
0.0979456 0.0179158 0.0078411
0.1311534 0.0208484 0.0100489
0.1594811 0.0238749 0.0141176
0.1892867 0.0268818 0.0192924
0.2232280 0.0294968 0.0263626
0.2569600 0.0346948 0.0346948
0.2933023 0.0449679 0.0449679
0.3264880 0.0544927 0.0544927
0.3601597 0.0641569 0.0641569
0.3948799 0.0741221 0.0741221
0.4303821 0.0843118 0.0843118
0.4585081 0.0923844 0.0923844
0.4845674 0.0998638 0.0998638
0.5079394 0.1065719 0.1065719
0.5272660 0.1121189 0.1121189
0.5505993 0.1188159 0.1188159
0.5752426 0.1265330 0.1258889
0.5940240 0.1400415 0.1312794
0.6168985 0.1554407 0.1378448
0.6344843 0.1690159 0.1428921
0.6506962 0.1856030 0.1531354
0.6676940 0.2007011 0.1686306
0.6851479 0.2190101 0.1850900
0.6991583 0.2303260 0.2014830
0.0076754 0.0078386 0.0063771
0.0082360 0.0081175 0.0064334
0.0094315 0.0084168 0.0064930
0.0121165 0.0090419 0.0066028
0.0159271 0.0097180 0.0067915
0.0226429 0.0109060 0.0070189
0.0337636 0.0124755 0.0073229
0.0527963 0.0147895 0.0076778
0.0745069 0.0174661 0.0079224
0.1045786 0.0209277 0.0080238
0.1341952 0.0245663 0.0104475
0.1644621 0.0277990 0.0149173
0.1967760 0.0312719 0.0207425
0.2266503 0.0344655 0.0271476
0.2607463 0.0380806 0.0357140
0.2971581 0.0460745 0.0460745
0.3308682 0.0557498 0.0557498
0.3717883 0.0674945 0.0674945
0.4007424 0.0758048 0.0758048
0.4333954 0.0851767 0.0851767
0.4602316 0.0928791 0.0928791
0.4913219 0.1018024 0.1018024
0.5126738 0.1079307 0.1079307
0.5372450 0.1149830 0.1149830
0.5556044 0.1229431 0.1202525
0.5795639 0.1357113 0.1271292
0.5978906 0.1484234 0.1323892
0.6208083 0.1640947 0.1389669
0.6367369 0.1780097 0.1435387
0.6547830 0.1950204 0.1536053
0.6728992 0.2129834 0.1692979
0.6872530 0.2240926 0.1853946
0.7044200 0.2433435 0.2023271
0.0076859 0.0098333 0.0068176
0.0085057 0.0101227 0.0068667
0.0099363 0.0105272 0.0069308
0.0125370 0.0112630 0.0070332
0.0166523 0.0122498 0.0072433
0.0237173 0.0134706 0.0075452
0.0361588 0.0153536 0.0078426
0.0543119 0.0181601 0.0082268
0.0771975 0.0211283 0.0084471
0.1079052 0.0254564 0.0085291
0.1378283 0.0296610 0.0109354
0.1688633 0.0342838 0.0156454
0.1991956 0.0383814 0.0212241
0.2300927 0.0441637 0.0279507
0.2676241 0.0497356 0.0376096
0.3049136 0.0549989 0.0483005
0.3383073 0.0602786 0.0578850
0.3767545 0.0689199 0.0689199
0.4058383 0.0772674 0.0772674
0.4401332 0.0871105 0.0871105
0.4681988 0.0951658 0.0951658
0.4975427 0.1035879 0.1035879
0.5199981 0.1123703 0.1100329
0.5422755 0.1229045 0.1164269
0.5616901 0.1356422 0.1219991
0.5852794 0.1479633 0.1287696
0.6048621 0.1635843 0.1343901
0.6248050 0.1772500 0.1401141
0.6437920 0.1940882 0.1455636
0.6589134 0.2046312 0.1540313
0.6771573 0.2231471 0.1724295
0.6915802 0.2346229 0.1886398
0.7086824 0.2540440 0.2057450
0.0077947 0.0128632 0.0073514
0.0086889 0.0134346 0.0074238
0.0103880 0.0138536 0.0075734
0.0133611 0.0148585 0.0076769
0.0176351 0.0159073 0.0078666
0.0255023 0.0177199 0.0081949
0.0386010 0.0204141 0.0086469
0.0572657 0.0234643 0.0088704
0.0798531 0.0275786 0.0092779
0.1104180 0.0332252 0.0091636
0.1418857 0.0393883 0.0114958
0.1752620 0.0455063 0.0167402
0.2072133 0.0524339 0.0228664
0.2378213 0.0576413 0.0298039
0.2732328 0.0645156 0.0391980
0.3117997 0.0723642 0.0502769
0.3511173 0.0775823 0.0615616
0.3862381 0.0851194 0.0716418
0.4222340 0.0946760 0.0819732
0.4497863 0.1010876 0.0898811
0.4835639 0.1120025 0.0995758
0.5081780 0.1220725 0.1066404
0.5291147 0.1309817 0.1126495
0.5518623 0.1428808 0.1191784
0.5720374 0.1576826 0.1249690
0.5940654 0.1669852 0.1312913
0.6116171 0.1831807 0.1363289
0.6318820 0.1932538 0.1421453
0.6500207 0.2085193 0.1473513
0.6662284 0.2219220 0.1572782
0.6834203 0.2383805 0.1730892
0.6988282 0.2526468 0.1895472
0.7128837 0.2647710 0.2063396
0.0075049 0.0187330 0.0082022
0.0084428 0.0197029 0.0083990
0.0104250 0.0202491 0.0084354
0.0137869 0.0218544 0.0086579
0.0186526 0.0230356 0.0088216
0.0276707 0.0261228 0.0091874
0.0424633 0.0296425 0.0094827
0.0624242 0.0341336 0.0098207
0.0875215 0.0398035 0.0101308
0.1170663 0.0478861 0.0100632
0.1525692 0.0545131 0.0130502
0.1813168 0.0611195 0.0178161
0.2160514 0.0691654 0.0247600
0.2528632 0.0762801 0.0336113
0.2890413 0.0830731 0.0437449
0.3217630 0.0908593 0.0531365
0.3619343 0.0977303 0.0646663
0.3966663 0.1048681 0.0746349
0.4333757 0.1162344 0.0851710
0.4612079 0.1235709 0.0931593
0.4937713 0.1325087 0.1025054
0.5192036 0.1446884 0.1098049
0.5398553 0.1533809 0.1157322
0.5599929 0.1648150 0.1215120
0.5794453 0.1787381 0.1270951
0.6027711 0.1908434 0.1337900
0.6195610 0.2012409 0.1386089
0.6411671 0.2148053 0.1448102
0.6594427 0.2309562 0.1500556
0.6756570 0.2449020 0.1631840
0.6907990 0.2568115 0.1792088
0.7052085 0.2689607 0.1957392
0.7201340 0.2836901 0.2072354
0.0062716 0.0296128 0.0093569
0.0074556 0.0312754 0.0095691
0.0098673 0.0322152 0.0097385
0.0136533 0.0335308 0.0099142
0.0189735 0.0364330 0.0101331
0.0293509 0.0399673 0.0104540
0.0461671 0.0450794 0.0107017
0.0690093 0.0513339 0.0109442
0.0922490 0.0583136 0.0109433
0.1264686 0.0663174 0.0104557
0.1609975 0.0738350 0.0143583
0.1900882 0.0801341 0.0194447
0.2236548 0.0896484 0.0264598
0.2602734 0.0963837 0.0355858
0.2970956 0.1048247 0.0460566
0.3305559 0.1141157 0.0556602
0.3733245 0.1201439 0.0679354
0.4086571 0.1286350 0.0780764
0.4448612 0.1394041 0.0884675
0.4705620 0.1489426 0.0958440
0.5044452 0.1602429 0.1055690
0.5288591 0.1694981 0.1125762
0.5498348 0.1795261 0.1185965
0.5723673 0.1921930 0.1250636
0.5900473 0.2026726 0.1301381
0.6137909 0.2163189 0.1369528
0.6308309 0.2278441 0.1418436
0.6513669 0.2393379 0.1477377
0.6686302 0.2536336 0.1526925
0.6839024 0.2657261 0.1662878
0.7000909 0.2808357 0.1826723
0.7145215 0.2935799 0.1994274
0.7284282 0.3062311 0.2168489
0.0030018 0.0470829 0.0107228
0.0050243 0.0480628 0.0108989
0.0077559 0.0492484 0.0110731
0.0119720 0.0508453 0.0112372
0.0185656 0.0556294 0.0114304
0.0312378 0.0590631 0.0116729
0.0498488 0.0648985 0.0117993
0.0711323 0.0695467 0.0118788
0.1001064 0.0783013 0.0114923
0.1330624 0.0866896 0.0105538
0.1671201 0.0951240 0.0153546
0.2019601 0.1043138 0.0217823
0.2379332 0.1123428 0.0298312
0.2707131 0.1196819 0.0384796
0.3080707 0.1287619 0.0492066
0.3482763 0.1395219 0.0607462
0.3824364 0.1463256 0.0705507
0.4195288 0.1586378 0.0811968
0.4541816 0.1663229 0.0911426
0.4834092 0.1769437 0.0995314
0.5161533 0.1860721 0.1089294
0.5409850 0.1966305 0.1160565
0.5622498 0.2078476 0.1221598
0.5850819 0.2219086 0.1287129
0.6009498 0.2285475 0.1332673
0.6237008 0.2402161 0.1397971
0.6418491 0.2551376 0.1450059
0.6625159 0.2674583 0.1509376
0.6768289 0.2747346 0.1560850
0.6931427 0.2900755 0.1720730
0.7081869 0.3027201 0.1887680
0.7233858 0.3179541 0.1999736
0.7373042 0.3312191 0.2176131
0.0036063 0.0664589 0.0121616
0.0036878 0.0675954 0.0123412
0.0037918 0.0690239 0.0125083
0.0081909 0.0717192 0.0124364
0.0159224 0.0766103 0.0126999
0.0313747 0.0804767 0.0125632
0.0508346 0.0846816 0.0125155
0.0760298 0.0936900 0.0122735
0.1057493 0.1001935 0.0116535
0.1417057 0.1102730 0.0114706
0.1790749 0.1214097 0.0174132
0.2109137 0.1301086 0.0236485
0.2455841 0.1391400 0.0317355
0.2825685 0.1496828 0.0418871
0.3203985 0.1586591 0.0527449
0.3602830 0.1679333 0.0641923
0.3953626 0.1765605 0.0742607
0.4316980 0.1871396 0.0846895
0.4668793 0.1957242 0.0947870
0.5029067 0.2080999 0.1051274
0.5298048 0.2181166 0.1128476
0.5531036 0.2253666 0.1195347
0.5745575 0.2376317 0.1256923
0.5954967 0.2474400 0.1317021
0.6182473 0.2606055 0.1382319
0.6346195 0.2680696 0.1429309
0.6526570 0.2832972 0.1481080
0.6733182 0.2961258 0.1540380
0.6876487 0.3038003 0.1585602
0.7019877 0.3195117 0.1749572
0.7152708 0.3271198 0.1890132
0.7295809 0.3407257 0.2062530
0.7426045 0.3511894 0.2180405
0.0053652 0.0883230 0.0133551
0.0054763 0.0895520 0.0134928
0.0057178 0.0921756 0.0133682
0.0059095 0.0942114 0.0134172
0.0103475 0.0997383 0.0132802
0.0265090 0.1038835 0.0132401
0.0517856 0.1105463 0.0128372
0.0775198 0.1190818 0.0124431
0.1086348 0.1259706 0.0113262
0.1533263 0.1401719 0.0131647
0.1834184 0.1465854 0.0181988
0.2236382 0.1579089 0.0264560
0.2545168 0.1670995 0.0340462
0.2944268 0.1759075 0.0452906
0.3335738 0.1864085 0.0565264
0.3676867 0.1958997 0.0663173
0.4067629 0.2060613 0.0775328
0.4437550 0.2180319 0.0881500
0.4795594 0.2278596 0.0984264
0.5143188 0.2368489 0.1084029
0.5415115 0.2478644 0.1162076
0.5670429 0.2613473 0.1235355
0.5867725 0.2694427 0.1291982
0.6078783 0.2803853 0.1352558
0.6286820 0.2884736 0.1412268
0.6447304 0.3013513 0.1458329
0.6643268 0.3096947 0.1514574
0.6818247 0.3256846 0.1564796
0.6961889 0.3339362 0.1636274
0.7097368 0.3422519 0.1805423
0.7258881 0.3589506 0.1976963
0.7381673 0.3667181 0.2093416
0.7522113 0.3811692 0.2272838
0.0076491 0.1111474 0.0141097
0.0078155 0.1126440 0.0142076
0.0081546 0.1156373 0.0142346
0.0087533 0.1207492 0.0140815
0.0091875 0.1243302 0.0138611
0.0201746 0.1287075 0.0134190
0.0485239 0.1359967 0.0128056
0.0819244 0.1461790 0.0121067
0.1112725 0.1529527 0.0131082
0.1611587 0.1657130 0.0151222
0.1933967 0.1762004 0.0200806
0.2274466 0.1836030 0.0273322
0.2673868 0.1953996 0.0375433
0.3040406 0.2081951 0.0480499
0.3430527 0.2156722 0.0592470
0.3779362 0.2265699 0.0692591
0.4222419 0.2409749 0.0819754
0.4590271 0.2519461 0.0925333
0.4882889 0.2613455 0.1009319
0.5238095 0.2719724 0.1111268
0.5517783 0.2841384 0.1191543
0.5762919 0.2931457 0.1261901
0.5960474 0.3017370 0.1318602
0.6172670 0.3136447 0.1379505
0.6382026 0.3225501 0.1439594
0.6549118 0.3312204 0.1487551
0.6746168 0.3400770 0.1544107
0.6920739 0.3568439 0.1594212
0.7064734 0.3655863 0.1713610
0.7200016 0.3740543 0.1858369
0.7332246 0.3818540 0.1972479
0.7481670 0.3989944 0.2152898
0.7602529 0.4077355 0.2334734
0.0108487 0.1371896 0.0146758
0.0110210 0.1384551 0.0144683
0.0115022 0.1419313 0.0144124
0.0118626 0.1444789 0.0143325
0.0124162 0.1483065 0.0139587
0.0136646 0.1565862 0.0136646
0.0424638 0.1645757 0.0149358
0.0810833 0.1721749 0.0162066
0.1141584 0.1797400 0.0175322
0.1612009 0.1956792 0.0205263
0.2019783 0.2049419 0.0223939
0.2387535 0.2169964 0.0300321
0.2711152 0.2247503 0.0385937
0.3116733 0.2390806 0.0502406
0.3518092 0.2477674 0.0617602
0.3944352 0.2610478 0.0739945
0.4325305 0.2749197 0.0849284
0.4685739 0.2821869 0.0952734
0.5053582 0.2933526 0.1058311
0.5343125 0.3041855 0.1141414
0.5625017 0.3166520 0.1222321
0.5872542 0.3263615 0.1293364
0.6055802 0.3311884 0.1345962
0.6259710 0.3404192 0.1404487
0.6478953 0.3525658 0.1467413
0.6646776 0.3617743 0.1515581
0.6844203 0.3709291 0.1572245
0.6991554 0.3797279 0.1614537
0.7160692 0.3971010 0.1759320
0.7295229 0.4054076 0.1875961
0.7428576 0.4144185 0.2057274
0.7551733 0.4234371 0.2242451
0.7680570 0.4348148 0.2363556
0.0145443 0.1621589 0.0150265
0.0147500 0.1634332 0.0147578
0.0150757 0.1654304 0.0150757
0.0158680 0.1701852 0.0158680
0.0166207 0.1745756 0.0166207
0.0176772 0.1805472 0.0176772
0.0347736 0.1924641 0.0199001
0.0772746 0.2000923 0.0214043
0.1200587 0.2094841 0.0233446
0.1661896 0.2202153 0.0256827
0.2069757 0.2356462 0.0292753
0.2422946 0.2441432 0.0313716
0.2826432 0.2574802 0.0419086
0.3207366 0.2684356 0.0528419
0.3632857 0.2826685 0.0650541
0.4021690 0.2913147 0.0762142
0.4402426 0.3046179 0.0871419
0.4776371 0.3146020 0.0978747
0.5150062 0.3267228 0.1086002
0.5442626 0.3383193 0.1169972
0.5763001 0.3445958 0.1261924
0.6006365 0.3571190 0.1331773
0.6207888 0.3667478 0.1389613
0.6366174 0.3759965 0.1435044
0.6577956 0.3859718 0.1495828
0.6753590 0.3981894 0.1546238
0.6936351 0.4024406 0.1598693
0.7084007 0.4113856 0.1641072
0.7227921 0.4208069 0.1808888
0.7371225 0.4324457 0.1924592
0.7504238 0.4417208 0.2111651
0.7626151 0.4500237 0.2234094
0.7745941 0.4591597 0.2424189
0.0192585 0.1891080 0.0192585
0.0195791 0.1907931 0.0195791
0.0200691 0.1933373 0.0200691
0.0210394 0.1982712 0.0210394
0.0220425 0.2032344 0.0220425
0.0232908 0.2092304 0.0232908
0.0264001 0.2171124 0.0249932
0.0736929 0.2270282 0.0272351
0.1207102 0.2410888 0.0306083
0.1702115 0.2522190 0.0334428
0.2075710 0.2635988 0.0364932
0.2502088 0.2741448 0.0394599
0.2861310 0.2874697 0.0432938
0.3249635 0.2973965 0.0540551
0.3690124 0.3144144 0.0666978
0.4051764 0.3231623 0.0770774
0.4517229 0.3374532 0.0904369
0.4852205 0.3450378 0.1000512
0.5237188 0.3603090 0.1111008
0.5519298 0.3675503 0.1191978
0.5858350 0.3796010 0.1289291
0.6103892 0.3930145 0.1359765
0.6292188 0.3978476 0.1413809
0.6451163 0.4076758 0.1459437
0.6664217 0.4182192 0.1520586
0.6885421 0.4302926 0.1584075
0.7023491 0.4343773 0.1623703
0.7170904 0.4439330 0.1696649
0.7314257 0.4535617 0.1883705
0.7448768 0.4623387 0.2004613
0.7588036 0.4744785 0.2195040
0.7709134 0.4827659 0.2319393
0.7827744 0.4919434 0.2515298
0.0244765 0.2147538 0.0244765
0.0248361 0.2163983 0.0248361
0.0253609 0.2187732 0.0253609
0.0262206 0.2226023 0.0262206
0.0277733 0.2293370 0.0277733
0.0293731 0.2360501 0.0293731
0.0315419 0.2448187 0.0315419
0.0639705 0.2528278 0.0336020
0.1160295 0.2696134 0.0381686
0.1720260 0.2824158 0.0418433
0.2121076 0.2918575 0.0445532
0.2541703 0.3046728 0.0482314
0.2949957 0.3197130 0.0525481
0.3357095 0.3304302 0.0571394
0.3804399 0.3415033 0.0699777
0.4185320 0.3580703 0.0809107
0.4573289 0.3673224 0.0920459
0.4964625 0.3810698 0.1032779
0.5260278 0.3883113 0.1117635
0.5638284 0.4039398 0.1226129
0.5902275 0.4103979 0.1301898
0.6149189 0.4206283 0.1372766
0.6338653 0.4258025 0.1427145
0.6553060 0.4392271 0.1488683
0.6715997 0.4491654 0.1535448
0.6919808 0.4543388 0.1593945
0.7071604 0.4630280 0.1637512
0.7227135 0.4749301 0.1733888
0.7369223 0.4846067 0.1925824
0.7531173 0.4882519 0.2052711
0.7624540 0.4974007 0.2249612
0.7746316 0.5059938 0.2376972
0.7873405 0.5175344 0.2505362
0.0298396 0.2379674 0.0298396
0.0314145 0.2443136 0.0314145
0.0320999 0.2470175 0.0320999
0.0331250 0.2509992 0.0331250
0.0345961 0.2565899 0.0345961
0.0371308 0.2659064 0.0371308
0.0396564 0.2748268 0.0396564
0.0543320 0.2834051 0.0421273
0.1156060 0.2941698 0.0452169
0.1699675 0.3085403 0.0493414
0.2150284 0.3243259 0.0538721
0.2594754 0.3356808 0.0571311
0.2986239 0.3489281 0.0609333
0.3450863 0.3602062 0.0641703
0.3843400 0.3747936 0.0710971
0.4220240 0.3845821 0.0819129
0.4621918 0.3960123 0.0934417
0.5018206 0.4100594 0.1048157
0.5395554 0.4190225 0.1156462
0.5694138 0.4312612 0.1242160
0.5966952 0.4405228 0.1320461
0.6215431 0.4509243 0.1391778
0.6406823 0.4564516 0.1446711
0.6614627 0.4672472 0.1506353
0.6765918 0.4711045 0.1549776
0.6990088 0.4846649 0.1614116
0.7142069 0.4947288 0.1682641
0.7278925 0.4983293 0.1814032
0.7465293 0.5088572 0.2005612
0.7603954 0.5208021 0.2131995
0.7720724 0.5249106 0.2333594
0.7805556 0.5327817 0.2431732
0.7922742 0.5402516 0.2562863
0.0370525 0.2656240 0.0370525
0.0374487 0.2670482 0.0374487
0.0388941 0.2721702 0.0388941
0.0401967 0.2766920 0.0401967
0.0417131 0.2819621 0.0417131
0.0439131 0.2896275 0.0439131
0.0471656 0.3009594 0.0471656
0.0500234 0.3109166 0.0500234
0.1201695 0.3285517 0.0550850
0.1746554 0.3416079 0.0588323
0.2169037 0.3524572 0.0619462
0.2568960 0.3629580 0.0649601
0.2980474 0.3736226 0.0680210
0.3421338 0.3923503 0.0733961
0.3939565 0.4045981 0.0769114
0.4330700 0.4140006 0.0850833
0.4742364 0.4291442 0.0968986
0.5059825 0.4401414 0.1060102
0.5445486 0.4486623 0.1170793
0.5747615 0.4614325 0.1257508
0.6018379 0.4686085 0.1335221
0.6274677 0.4821971 0.1408783
0.6468046 0.4880792 0.1464282
0.6678330 0.4983760 0.1524637
0.6883190 0.5036972 0.1583435
0.7048903 0.5124505 0.1630997
0.7193622 0.5194067 0.1721600
0.7384546 0.5280449 0.1845097
0.7515293 0.5326383 0.2054051
0.7644478 0.5404626 0.2184422
0.7771140 0.5492266 0.2387499
0.7885176 0.5547031 0.2522103
0.7965004 0.5617111 0.2657615
0.0444965 0.2916601 0.0444965
0.0449338 0.2931834 0.0449338
0.0457888 0.2961626 0.0457888
0.0472039 0.3010930 0.0472039
0.0496765 0.3097078 0.0496765
0.0518095 0.3171394 0.0518095
0.0547007 0.3272129 0.0547007
0.0583650 0.3399796 0.0583650
0.1149700 0.3569907 0.0632474
0.1701880 0.3692258 0.0667591
0.2136310 0.3789767 0.0695577
0.2597346 0.3924529 0.0734256
0.3033701 0.4036986 0.0766532
0.3498137 0.4200981 0.0813601
0.3910245 0.4304934 0.0843437
0.4311591 0.4426333 0.0878281
0.4765534 0.4543332 0.0975636
0.5173655 0.4675046 0.1092773
0.5481827 0.4759143 0.1181223
0.5859194 0.4861255 0.1289533
0.6128518 0.4974691 0.1366833
0.6356431 0.5030909 0.1432247
0.6560399 0.5132816 0.1490789
0.6710558 0.5175268 0.1533887
0.6920503 0.5256602 0.1594144
0.7086015 0.5342468 0.1670723
0.7276713 0.5388914 0.1802183
0.7417738 0.5475943 0.2007719
0.7562051 0.5573133 0.2137889
0.7683004 0.5603554 0.2237421
0.7808660 0.5688695 0.2445668
0.7918407 0.5721522 0.2581987
0.7997624 0.5790866 0.2720359
0.0522979 0.3188412 0.0522979
0.0528146 0.3206415 0.0528146
0.0537495 0.3238986 0.0537495
0.0554511 0.3298272 0.0554511
0.0568421 0.3346737 0.0568421
0.0595430 0.3440839 0.0595430
0.0623499 0.3538638 0.0623499
0.0650343 0.3632165 0.0650343
0.1178377 0.3788287 0.0695152
0.1658448 0.3949094 0.0741306
0.2133512 0.4051756 0.0770772
0.2578924 0.4165513 0.0803422
0.3083940 0.4280821 0.0836517
0.3567199 0.4420834 0.0876703
0.3985461 0.4527237 0.0907242
0.4398749 0.4668168 0.0947691
0.4820747 0.4770187 0.0991484
0.5148109 0.4878994 0.1085441
0.5589262 0.5012487 0.1212059
0.5887272 0.5084167 0.1297592
0.6152660 0.5154478 0.1373762
0.6392429 0.5268475 0.1442579
0.6591634 0.5320223 0.1499754
0.6741149 0.5374343 0.1542667
0.6956927 0.5465022 0.1604598
0.7113376 0.5519009 0.1796777
0.7317144 0.5628988 0.1919629
0.7452149 0.5668536 0.2060118
0.7594232 0.5754368 0.2191156
0.7714036 0.5800664 0.2404602
0.7842318 0.5884722 0.2538434
0.7952561 0.5918699 0.2678313
0.8072024 0.6026580 0.2816232
0.0584896 0.3404140 0.0584896
0.0596275 0.3443784 0.0596275
0.0608949 0.3487942 0.0608949
0.0619861 0.3525960 0.0619861
0.0639194 0.3593319 0.0639194
0.0662195 0.3673458 0.0662195
0.0688290 0.3764378 0.0688290
0.0722652 0.3884101 0.0722652
0.1020812 0.4012474 0.0759497
0.1732139 0.4138639 0.0795709
0.2222105 0.4256564 0.0829555
0.2609210 0.4362682 0.0860012
0.3125842 0.4526203 0.0906945
0.3548470 0.4624239 0.0935083
0.3976746 0.4734225 0.0966650
0.4396602 0.4856918 0.1001865
0.4826010 0.4960644 0.1031636
0.5243760 0.5097097 0.1112894
0.5564196 0.5176178 0.1204864
0.5866854 0.5283328 0.1291732
0.6142499 0.5350748 0.1370846
0.6389526 0.5456221 0.1441746
0.6615668 0.5513569 0.1506652
0.6818765 0.5577084 0.1614652
0.6988165 0.5692775 0.1740842
0.7196952 0.5739490 0.1834653
0.7350115 0.5829944 0.1968082
0.7484381 0.5880657 0.2184222
0.7626908 0.5969198 0.2318127
0.7752922 0.6031072 0.2457423
0.7872660 0.6067572 0.2597317
0.7992163 0.6152261 0.2736557
0.8098075 0.6186560 0.2881506
0.0649531 0.3629335 0.0654745
0.0655676 0.3650745 0.0655676
0.0665287 0.3684234 0.0665287
0.0681763 0.3741637 0.0681763
0.0695850 0.3790718 0.0695850
0.0728502 0.3904482 0.0728502
0.0749195 0.3976581 0.0749195
0.0786233 0.4105624 0.0786233
0.1037464 0.4224735 0.0820419
0.1693468 0.4350786 0.0856598
0.2209866 0.4505633 0.0901041
0.2614115 0.4611019 0.0931288
0.3130436 0.4720436 0.0962693
0.3605781 0.4862038 0.1003335
0.4048241 0.4962057 0.1032041
0.4479009 0.5069826 0.1062973
0.4915260 0.5218938 0.1105770
0.5252939 0.5326614 0.1136675
0.5657535 0.5422440 0.1231654
0.5964338 0.5497935 0.1319711
0.6236659 0.5610641 0.1397871
0.6463565 0.5670391 0.1462996
0.6617940 0.5740176 0.1518126
0.6821837 0.5806028 0.1734522
0.6987279 0.5899819 0.1864659
0.7199730 0.5954079 0.2000828
0.7352846 0.6045887 0.2134305
0.7495991 0.6112295 0.2271651
0.7631218 0.6147919 0.2376577
0.7763936 0.6236712 0.2512887
0.7886482 0.6274836 0.2655909
0.8024721 0.6362506 0.2796936
0.8129469 0.6408135 0.3021737
0.0713628 0.3852661 0.0791546
0.0720290 0.3875870 0.0784986
0.0732206 0.3917389 0.0774586
0.0749800 0.3978688 0.0806474
0.0764960 0.4031509 0.0789470
0.0788298 0.4112821 0.0815768
0.0818268 0.4217240 0.0818268
0.0859589 0.4361209 0.0859589
0.0978490 0.4510500 0.0902438
0.1554108 0.4603620 0.0929165
0.2191558 0.4725746 0.0964217
0.2630180 0.4842685 0.0997780
0.3157945 0.4972593 0.1035066
0.3617593 0.5076790 0.1064971
0.4114962 0.5187749 0.1096818
0.4558485 0.5320472 0.1134912
0.4910605 0.5456181 0.1173862
0.5340202 0.5547927 0.1200195
0.5667726 0.5630246 0.1234579
0.5978351 0.5707924 0.1323733
0.6255907 0.5847517 0.1403396
0.6486893 0.5903493 0.1493119
0.6691948 0.5960311 0.1632940
0.6847208 0.6008077 0.1776093
0.7068355 0.6108891 0.1904975
0.7230048 0.6178707 0.2046112
0.7374166 0.6233670 0.2264147
0.7520958 0.6322655 0.2402845
0.7700766 0.6370469 0.2541251
0.7824151 0.6409734 0.2685960
0.7915382 0.6513566 0.2828782
0.8027968 0.6545625 0.2938919
0.8143895 0.6630562 0.3087264
0.0787518 0.4110102 0.0963731
0.0791139 0.4122717 0.0960831
0.0802238 0.4161390 0.0951502
0.0817352 0.4214049 0.0991080
0.0833526 0.4270402 0.0976563
0.0858805 0.4358475 0.0924203
0.0893390 0.4478976 0.0940380
0.0926467 0.4594219 0.0955799
0.0969490 0.4744117 0.0969490
0.1587050 0.4860081 0.1002773
0.2158685 0.4967484 0.1033599
0.2730394 0.5086185 0.1067668
0.3198529 0.5190341 0.1097562
0.3677375 0.5298000 0.1128462
0.4135921 0.5421612 0.1163940
0.4542993 0.5526915 0.1194164
0.4996495 0.5666648 0.1234269
0.5338735 0.5754921 0.1259605
0.5672585 0.5861169 0.1364575
0.6062729 0.5953956 0.1475872
0.6329725 0.6023744 0.1606778
0.6500146 0.6108028 0.1659917
0.6707250 0.6165836 0.1797826
0.6921517 0.6246366 0.1932980
0.7084762 0.6289981 0.2038417
0.7250360 0.6382337 0.2172550
0.7449102 0.6435719 0.2313467
0.7585072 0.6478671 0.2458529
0.7728275 0.6584811 0.2595810
0.7852314 0.6625377 0.2744038
0.7971601 0.6664727 0.2893045
0.8051206 0.6741196 0.3043488
0.8160290 0.6778595 0.3196065
0.0854981 0.4345155 0.1122168
0.0858937 0.4358938 0.1119497
0.0866934 0.4386798 0.1113875
0.0884252 0.4447136 0.1101975
0.0904925 0.4519167 0.1138459
0.0923600 0.4584232 0.1122502
0.0960319 0.4712164 0.1144401
0.0990322 0.4816700 0.1111241
0.1023244 0.4931405 0.1136305
0.1548560 0.5032366 0.1163700
0.2240505 0.5198203 0.1171159
0.2741662 0.5302814 0.1196257
0.3228552 0.5428971 0.1214921
0.3734353 0.5534104 0.1196422
0.4105266 0.5619747 0.1225101
0.4570745 0.5735962 0.1318705
0.5075364 0.5844456 0.1333850
0.5417924 0.5952567 0.1444674
0.5755771 0.6065400 0.1473456
0.6069792 0.6146126 0.1599588
0.6339633 0.6217489 0.1731970
0.6558861 0.6299025 0.1865503
0.6717583 0.6337581 0.1930648
0.6935407 0.6438318 0.2063611
0.7098631 0.6488003 0.2206023
0.7310356 0.6544853 0.2347133
0.7460857 0.6585284 0.2452408
0.7605954 0.6693922 0.2589917
0.7740898 0.6737171 0.2738384
0.7868001 0.6767381 0.2809389
0.7993293 0.6849177 0.2957230
0.8066767 0.6882644 0.3113947
0.8176296 0.6920277 0.3265188
0.0927607 0.4598191 0.1289943
0.0931839 0.4612936 0.1287546
0.0940500 0.4643113 0.1282410
0.0949289 0.4673734 0.1276873
0.0968090 0.4739242 0.1263877
0.0995954 0.4836322 0.1299678
