data/spectral_luts/vision3_200t_2383.cube
TITLE "vision3_200t_2383"
LUT_3D_SIZE 5
0.0063331 0.0053035 0.0050949
0.0729101 0.0111136 0.0056611
0.3277204 0.0548464 0.0548464
0.5526721 0.1194109 0.1194109
0.7009507 0.2383719 0.2048193
0.0035209 0.0652531 0.0098307
0.1087474 0.1042857 0.0084411
0.4046269 0.1827715 0.0769197
0.6200967 0.2652658 0.1387627
0.7440367 0.3605030 0.2271539
0.0379821 0.2689517 0.0379821
0.1058955 0.3278724 0.0548900
0.4739940 0.4301185 0.0968291
0.6889108 0.5057762 0.1585134
0.7986849 0.5630339 0.2583946
0.0932585 0.4615537 0.1365543
0.1072292 0.5102295 0.1386098
0.5003204 0.6045869 0.1651090
0.7108045 0.6654018 0.2343105
0.8195295 0.7095904 0.3333342
0.1386962 0.6198651 0.2711529
0.1459869 0.6452667 0.2774576
0.5236408 0.7219025 0.3033846
0.7244800 0.7710290 0.3557132
0.8253404 0.8032050 0.4254768
0.0058857 0.0076060 0.0939603
0.0919877 0.0154542 0.1202824
0.3546619 0.0625790 0.1760654
0.5629194 0.1223520 0.2471819
0.7098988 0.2494543 0.3336458
0.0123520 0.1006759 0.1478676
0.1117131 0.1410684 0.1767290
0.4157742 0.2118499 0.2254692
0.6267600 0.2905333 0.2884639
0.7520813 0.3810601 0.3648218
0.0542693 0.3257096 0.2144859
0.0719690 0.3873780 0.2374464
0.4702611 0.4752054 0.2747684
0.6857058 0.5334095 0.3288126
0.7970435 0.5799969 0.4008469
0.1039498 0.4988038 0.2778344
0.1176514 0.5465420 0.2904397
0.4942134 0.6340439 0.3230012
0.7102510 0.6884044 0.3743689
0.8179281 0.7234213 0.4375173
0.1433741 0.6361637 0.3440962
0.1510402 0.6628733 0.3537027
0.5139815 0.7343125 0.3810938
0.7199470 0.7824921 0.4266892
0.8247171 0.8106695 0.4802901
0.0506353 0.0506353 0.3130484
0.1692681 0.0623497 0.3538629
0.4126586 0.0796429 0.4141148
0.6044340 0.1649335 0.4730417
0.7277325 0.2823759 0.5317072
0.0700426 0.1369257 0.3806663
0.1757910 0.1697163 0.4164817
0.4529562 0.2362309 0.4697643
0.6460174 0.3132907 0.5139591
0.7620642 0.4014629 0.5597547
0.0960087 0.3924946 0.4711357
0.1044944 0.4410542 0.5007010
0.4912534 0.5150896 0.5447595
0.6928247 0.5624479 0.5734556
0.7993058 0.6021293 0.6036888
0.1219083 0.5613736 0.5298658
0.1352829 0.6079724 0.5505909
0.4974637 0.6766019 0.5843076
0.7055462 0.7185329 0.6091918
0.8157934 0.7471071 0.6354291
0.1582432 0.6879694 0.5787157
0.1656678 0.7138381 0.5885543
0.5177354 0.7721400 0.6150011
0.7184945 0.8095711 0.6345779
0.8210666 0.8309245 0.6538854
0.1704437 0.1075278 0.5112698
0.2703966 0.1194197 0.5372045
0.4887907 0.1744809 0.5855957
0.6508684 0.2566101 0.6256213
0.7568323 0.3522330 0.6636519
0.1543399 0.1803553 0.5429872
0.2706974 0.2062357 0.5678909
0.5110894 0.2682926 0.6144084
0.6710442 0.3412348 0.6493170
0.7718462 0.4173403 0.6787948
0.1408750 0.4510483 0.6274562
0.2353100 0.4844627 0.6488541
0.5355682 0.5412431 0.6841233
0.7084282 0.5807508 0.7041941
0.8073604 0.6180604 0.7203498
0.1542967 0.6155607 0.6742194
0.1913015 0.6471525 0.6909911
0.5471466 0.6990539 0.7181349
0.7178817 0.7354420 0.7349756
0.8171703 0.7606732 0.7503902
0.1682350 0.7227824 0.7048172
0.2491790 0.7484605 0.7213901
0.5651157 0.7978474 0.7412950
0.7207941 0.8266420 0.7589890
0.8229936 0.8462031 0.7668634
0.3080377 0.2506872 0.6603339
0.3999992 0.2663002 0.6791911
0.5753022 0.3163294 0.7100834
0.6965409 0.3718466 0.7355436
0.7891002 0.4437358 0.7607703
0.3080377 0.2506872 0.6603339
0.3998587 0.2666024 0.6764085
0.5753022 0.3163294 0.7100834
0.6978659 0.3788368 0.7371088
0.7911263 0.4544285 0.7629162
0.2737144 0.5020500 0.7327774
0.3943574 0.5265438 0.7474528
0.5975623 0.5664732 0.7701921
0.7298614 0.5999404 0.7872657
0.8156175 0.6314772 0.8000265
0.2401631 0.6635948 0.7722651
0.3873156 0.6838941 0.7837928
0.6021668 0.7217114 0.8039908
0.7350454 0.7474890 0.8148678
0.8253386 0.7706496 0.8251904
0.2858748 0.7652241 0.7977826
0.4112905 0.7809465 0.8060781
0.6102478 0.8144087 0.8210045
0.7401637 0.8354533 0.8328459
0.8281621 0.8557392 0.8420287
