data/spectral_luts/vision3_500t_2393.cube
TITLE "vision3_500t_2393"
LUT_3D_SIZE 9
0.0022871 0.0020904 0.0015169
0.0068568 0.0026590 0.0016094
0.0552196 0.0052345 0.0028566
0.1778384 0.0171932 0.0171932
0.3075013 0.0490432 0.0490432
0.4319646 0.0847660 0.0847660
0.5389550 0.1154738 0.1154738
0.6244083 0.1605685 0.1400002
0.6933007 0.2248536 0.1911280
0.0023711 0.0066079 0.0019587
0.0100103 0.0093603 0.0020751
0.0751402 0.0199134 0.0042561
0.2095877 0.0436261 0.0233665
0.3478504 0.0726298 0.0606240
0.4706160 0.1088322 0.0958595
0.5667362 0.1578663 0.1234474
0.6476253 0.2110760 0.1466638
0.7072726 0.2616557 0.1988904
0.0029589 0.0568483 0.0029589
0.0106826 0.0693763 0.0038177
0.1126053 0.0994449 0.0078112
0.2588069 0.1407865 0.0351898
0.3964336 0.1781120 0.0745681
0.5191770 0.2138759 0.1097973
0.6127837 0.2539365 0.1366638
0.6830097 0.2990542 0.1568197
0.7400155 0.3449047 0.2094087
0.0116783 0.1431817 0.0116783
0.0140078 0.1587845 0.0140078
0.1391521 0.2011616 0.0216202
0.3035419 0.2524146 0.0479068
0.4444923 0.2987048 0.0883616
0.5700042 0.3378189 0.1243854
0.6579379 0.3797064 0.1496237
0.7223913 0.4151597 0.1681227
0.7749391 0.4546159 0.2362051
0.0310250 0.2427618 0.0310250
0.0366148 0.2640406 0.0366148
0.1524654 0.3158922 0.0514515
0.3311274 0.3645562 0.0654188
0.4835056 0.4181441 0.0995590
0.6002287 0.4562920 0.1330603
0.6919900 0.4896740 0.1593971
0.7544880 0.5213544 0.1844902
0.8024646 0.5548974 0.2578799
0.0603126 0.3467653 0.0603126
0.0663239 0.3677097 0.0663239
0.1608128 0.4156368 0.0800797
0.3609274 0.4724222 0.0963779
0.5071297 0.5180556 0.1094754
0.6283150 0.5570459 0.1411214
0.7091273 0.5864226 0.1643158
0.7743504 0.6129777 0.2211552
0.8224989 0.6413103 0.2956398
0.0895123 0.4485015 0.0895123
0.0946858 0.4665266 0.0946858
0.1742702 0.5108544 0.1074086
0.3778098 0.5561920 0.1204211
0.5238234 0.5996483 0.1328937
0.6384064 0.6363307 0.1463363
0.7298538 0.6641707 0.2093889
0.7876692 0.6868836 0.2704960
0.8326566 0.7119849 0.3250252
0.1149006 0.5369579 0.1546454
0.1197491 0.5538507 0.1594459
0.2096786 0.5902679 0.1594834
0.3934984 0.6354770 0.1734959
0.5382329 0.6694120 0.1906326
0.6520063 0.7036637 0.2297687
0.7371231 0.7267073 0.2663253
0.7987792 0.7478296 0.3138888
0.8426261 0.7681353 0.3686047
0.1377898 0.6167069 0.2362178
0.1418262 0.6307704 0.2355727
0.2475227 0.6577310 0.2414801
0.4145451 0.6927719 0.2543955
0.5542586 0.7270948 0.2742207
0.6591074 0.7536162 0.3034159
0.7425972 0.7775794 0.3322432
0.8026084 0.7936763 0.3710681
0.8493561 0.8110061 0.4093338
0.0018716 0.0027553 0.0060091
0.0075820 0.0035110 0.0073906
0.0625122 0.0070865 0.0124487
0.1864602 0.0187610 0.0214974
0.3190823 0.0523671 0.0523671
0.4434738 0.0880693 0.0880693
0.5428310 0.1165863 0.1256945
0.6279165 0.1688987 0.1800415
0.6969551 0.2346624 0.2464570
0.0008961 0.0100191 0.0091321
0.0102108 0.0140108 0.0117244
0.0816938 0.0267314 0.0180157
0.2182242 0.0543249 0.0271223
0.3537942 0.0868373 0.0623300
0.4746275 0.1193347 0.0970109
0.5703457 0.1679272 0.1306122
0.6488271 0.2163215 0.1919032
0.7101183 0.2708254 0.2523978
0.0041695 0.0740304 0.0191740
0.0050752 0.0850425 0.0223623
0.1108567 0.1166906 0.0281810
0.2635196 0.1563433 0.0398494
0.4028212 0.1916526 0.0764014
0.5223280 0.2295745 0.1107016
0.6144564 0.2640990 0.1477431
0.6834426 0.3057536 0.2042832
0.7423345 0.3561533 0.2669494
0.0152172 0.1662900 0.0340279
0.0190172 0.1878285 0.0382957
0.1254223 0.2258916 0.0417907
0.3038571 0.2752991 0.0514435
0.4482540 0.3160791 0.0894413
0.5704144 0.3558502 0.1245031
0.6570867 0.3900149 0.1645934
0.7234988 0.4287427 0.2272706
0.7760415 0.4654976 0.2854710
0.0388343 0.2719606 0.0624853
0.0451077 0.2937894 0.0613844
0.1271128 0.3438470 0.0666587
0.3260677 0.3963545 0.0769265
0.4771440 0.4360297 0.1000196
0.6031711 0.4711053 0.1410076
0.6901512 0.5041454 0.1991198
0.7535151 0.5324514 0.2527286
0.8011132 0.5614471 0.3124219
0.0677229 0.3725841 0.0984754
0.0739332 0.3942215 0.1006814
0.1251661 0.4404957 0.1086676
0.3464124 0.4927768 0.1121821
0.4989692 0.5342306 0.1382856
0.6231642 0.5708001 0.1792294
0.7116844 0.6006304 0.2347488
0.7716933 0.6219126 0.2903372
0.8208156 0.6470848 0.3415182
0.0947802 0.4668555 0.1527354
0.1007030 0.4874914 0.1510283
0.1507978 0.5280762 0.1600193
0.3630400 0.5732065 0.1739503
0.5232274 0.6169428 0.1973946
0.6394767 0.6517195 0.2344541
0.7258107 0.6740593 0.2823573
0.7859113 0.7008809 0.3268865
0.8304263 0.7180991 0.3721133
0.1198377 0.5541593 0.2175170
0.1245273 0.5704985 0.2174290
0.1894475 0.6107000 0.2306645
0.3894144 0.6487730 0.2428560
0.5298462 0.6823216 0.2640616
0.6469235 0.7144337 0.2918129
0.7331535 0.7348518 0.3245689
0.7961625 0.7561932 0.3618909
0.8404641 0.7732552 0.4076252
0.1408040 0.6272089 0.2827492
0.1442996 0.6393879 0.2800005
0.2498063 0.6692919 0.2875351
0.4048927 0.7007280 0.3018744
0.5481179 0.7358473 0.3215386
0.6623712 0.7606596 0.3425514
0.7452000 0.7842066 0.3722157
0.7999466 0.7989930 0.4102106
0.8470303 0.8159606 0.4471150
0.0042102 0.0044421 0.0745537
0.0117393 0.0055648 0.0853054
0.0830518 0.0093265 0.1084848
0.2047609 0.0223565 0.1321250
0.3326943 0.0562740 0.1645717
0.4526405 0.0907003 0.2050447
0.5570801 0.1263378 0.2479534
0.6355374 0.1847698 0.2913821
0.7002189 0.2427000 0.3366180
0.0059301 0.0204726 0.0944282
0.0091890 0.0254483 0.1060286
0.0953099 0.0426767 0.1266175
0.2351014 0.0724842 0.1558712
0.3661561 0.1019069 0.1883776
0.4836377 0.1392503 0.2246561
0.5804287 0.1813888 0.2642109
0.6525578 0.2314708 0.3057868
0.7133397 0.2812495 0.3444050
0.0107562 0.1102317 0.1365053
0.0118167 0.1196218 0.1441572
0.1104395 0.1486029 0.1653672
0.2756448 0.1852252 0.1928254
0.4113813 0.2168341 0.2160218
0.5298591 0.2477088 0.2502905
0.6188852 0.2858000 0.2850314
0.6859374 0.3207192 0.3214638
0.7455969 0.3728961 0.3631302
0.0239612 0.2123732 0.1731698
0.0285014 0.2324195 0.1809267
0.1074775 0.2676700 0.2035128
0.2970026 0.3092968 0.2212524
0.4500916 0.3474799 0.2505233
0.5675378 0.3778961 0.2789077
0.6624327 0.4154534 0.3126927
0.7269104 0.4445122 0.3455846
0.7747164 0.4755619 0.3863059
0.0539716 0.3246724 0.2100866
0.0591202 0.3426108 0.2160034
0.0709837 0.3829817 0.2317741
0.3173746 0.4310569 0.2573018
0.4725367 0.4656874 0.2802892
0.5972570 0.5006467 0.3078738
0.6873168 0.5289985 0.3343913
0.7515345 0.5511811 0.3650972
0.8029443 0.5752704 0.4068059
0.0806259 0.4175400 0.2443918
0.0868931 0.4393757 0.2557136
0.0994958 0.4832852 0.2698676
0.3338289 0.5276170 0.2876439
0.4955177 0.5645736 0.3100374
0.6203431 0.5952781 0.3300830
0.7051457 0.6178041 0.3648281
0.7732027 0.6425775 0.3931847
0.8180724 0.6595896 0.4251421
0.1067022 0.5083935 0.2898974
0.1121128 0.5272446 0.2940558
0.1220410 0.5618359 0.3061357
0.3522874 0.6081350 0.3231184
0.5064202 0.6417320 0.3452030
0.6288517 0.6706781 0.3667472
0.7196000 0.6961501 0.3955187
0.7854898 0.7138388 0.4209888
0.8328723 0.7308078 0.4493987
0.1289612 0.5859470 0.3341163
0.1345181 0.6053080 0.3374306
0.1556823 0.6380187 0.3487554
0.3723036 0.6726578 0.3662265
0.5232356 0.7039075 0.3824707
0.6439754 0.7314930 0.4010630
0.7260808 0.7502264 0.4231410
0.7953606 0.7688361 0.4521114
0.8365605 0.7844183 0.4807490
0.1475523 0.6507210 0.3763122
0.1519373 0.6659989 0.3793495
0.2361437 0.6926485 0.3901971
0.4027752 0.7243623 0.4005206
0.5435006 0.7519230 0.4170291
0.6527753 0.7759707 0.4392709
0.7381250 0.7979005 0.4614030
0.7998925 0.8109034 0.4835354
0.8431160 0.8255465 0.5121303
0.0208300 0.0208300 0.1972180
0.0309969 0.0232354 0.2089679
0.1149313 0.0297356 0.2375417
0.2401740 0.0384741 0.2706936
0.3623934 0.0647981 0.3025100
0.4784860 0.0981183 0.3351492
0.5717822 0.1393671 0.3701500
0.6477614 0.1991012 0.4011407
0.7072989 0.2578760 0.4384346
0.0258605 0.0323804 0.2210076
0.0289870 0.0391779 0.2344502
0.1273030 0.0581196 0.2642696
0.2595653 0.0841841 0.2961011
0.3851593 0.1154310 0.3252918
0.5031343 0.1537128 0.3522860
0.5945545 0.2009640 0.3849004
0.6639155 0.2483886 0.4181807
0.7197471 0.2982151 0.4479904
0.0390870 0.1403010 0.2728454
0.0426457 0.1500581 0.2852116
0.1335909 0.1769647 0.3137756
0.2924350 0.2068114 0.3374765
0.4268793 0.2364490 0.3628370
0.5386674 0.2639330 0.3844942
0.6258679 0.2975608 0.4127962
0.6952751 0.3415931 0.4386950
0.7510684 0.3849628 0.4695980
0.0510303 0.2557396 0.3144247
0.0543734 0.2710979 0.3260723
0.1149261 0.3025969 0.3513594
0.3134292 0.3378935 0.3750412
0.4601560 0.3717211 0.3986421
0.5787287 0.4024835 0.4157185
0.6617852 0.4323066 0.4394814
0.7269350 0.4602583 0.4620871
0.7792390 0.4929018 0.4908586
0.0661955 0.3672622 0.3535868
0.0722778 0.3884539 0.3645444
0.0818348 0.4217519 0.3837948
0.3258148 0.4607180 0.4048428
0.4783227 0.4935411 0.4263172
0.6030229 0.5178459 0.4449882
0.6876114 0.5439082 0.4677934
0.7539068 0.5727711 0.4903438
0.8014203 0.5911984 0.5115609
0.0944870 0.4658338 0.3850074
0.0997551 0.4841889 0.3986773
0.1096164 0.5185468 0.4127868
0.3355050 0.5579469 0.4314480
0.4974797 0.5881504 0.4488689
0.6178684 0.6158540 0.4667466
0.7048676 0.6403126 0.4896452
0.7686546 0.6576121 0.5046976
0.8186409 0.6765969 0.5319067
0.1180668 0.5479892 0.4182335
0.1228914 0.5647987 0.4301988
0.1324637 0.5981501 0.4413974
0.3420988 0.6337432 0.4578868
0.5078749 0.6649321 0.4749786
0.6253206 0.6905128 0.4924798
0.7178723 0.7131775 0.5086533
0.7797215 0.7289788 0.5299554
0.8279328 0.7423056 0.5498065
0.1396128 0.6230587 0.4528178
0.1433254 0.6359938 0.4574381
0.1518949 0.6658510 0.4724126
0.3667048 0.6949608 0.4807968
0.5249618 0.7287322 0.5000799
0.6403829 0.7499816 0.5174326
0.7239255 0.7705885 0.5326125
0.7895324 0.7822645 0.5468323
0.8357317 0.7947453 0.5635090
0.1568953 0.6832734 0.4887806
0.1595625 0.6925660 0.4918796
0.2179567 0.7176872 0.4989668
0.3994329 0.7458711 0.5125005
0.5463823 0.7713804 0.5242620
0.6530299 0.7925754 0.5402171
0.7366091 0.8104376 0.5522820
0.7942516 0.8225591 0.5659499
0.8422191 0.8347728 0.5851607
0.0513676 0.0513676 0.3155999
0.0789588 0.0554849 0.3299452
0.1641427 0.0631096 0.3565108
0.2794015 0.0724397 0.3890180
0.4029425 0.0819271 0.4220734
0.5020518 0.1155071 0.4455935
0.5928301 0.1702736 0.4771310
0.6641458 0.2237774 0.5022442
0.7174899 0.2765070 0.5274224
0.0580312 0.0580312 0.3388169
0.0761237 0.0620343 0.3527642
0.1708335 0.0805986 0.3787847
0.2984708 0.1012764 0.4088879
0.4161530 0.1370664 0.4386860
0.5175486 0.1735530 0.4615220
0.6067597 0.2197059 0.4902095
0.6747552 0.2620575 0.5123806
0.7303245 0.3167239 0.5375130
0.0715546 0.1691466 0.3859342
0.0754597 0.1813830 0.3995402
0.1769230 0.1995449 0.4265529
0.3196187 0.2276603 0.4501151
0.4438471 0.2534439 0.4720998
0.5558388 0.2839507 0.4965374
0.6372555 0.3195596 0.5130139
0.7054357 0.3627913 0.5361943
0.7550047 0.4001774 0.5589681
0.0852748 0.2929780 0.4337373
0.0885218 0.3036903 0.4450502
0.1575036 0.3317100 0.4663776
0.3405433 0.3608099 0.4895968
0.4722164 0.3915447 0.5095826
0.5855053 0.4244892 0.5264722
0.6714367 0.4454107 0.5439384
0.7330813 0.4791294 0.5615113
0.7811767 0.5102623 0.5771170
0.0956563 0.4094370 0.4699080
0.0983021 0.4233706 0.4791265
0.1444045 0.4506181 0.4979787
0.3466528 0.4852373 0.5201923
0.4942687 0.5124673 0.5378159
0.6066099 0.5416922 0.5523778
0.6903521 0.5586655 0.5686047
0.7568310 0.5868078 0.5842032
0.8045586 0.6071486 0.5982360
0.1061632 0.5065156 0.4995277
0.1106365 0.5221010 0.5132405
0.1228334 0.5483783 0.5281308
0.3528165 0.5841045 0.5459281
0.5042351 0.6074456 0.5565386
0.6180652 0.6330168 0.5748208
0.7081472 0.6509796 0.5852943
0.7700339 0.6723977 0.5997386
0.8163592 0.6891372 0.6131258
0.1286934 0.5850137 0.5278112
0.1329354 0.5997936 0.5346799
0.1535324 0.6275092 0.5525973
0.3600954 0.6599355 0.5646556
0.5137563 0.6843997 0.5767051
0.6357043 0.7108691 0.5892362
0.7174236 0.7243715 0.6039482
0.7798613 0.7388452 0.6176326
0.8286007 0.7578812 0.6308022
0.1484905 0.6539899 0.5529774
0.1519124 0.6659120 0.5562260
0.1932109 0.6891011 0.5707723
0.3875829 0.7198527 0.5813007
0.5349261 0.7440494 0.5948737
0.6461551 0.7644742 0.6062057
0.7232220 0.7814826 0.6205151
0.7895243 0.7976093 0.6289608
0.8319221 0.8083895 0.6415215
0.1649309 0.7112704 0.5788008
0.1674394 0.7200106 0.5824745
0.2497907 0.7394695 0.5902625
0.4097798 0.7622719 0.6033567
0.5526639 0.7866175 0.6112732
0.6589780 0.8082346 0.6271416
0.7357749 0.8225559 0.6360952
0.7932392 0.8353180 0.6491011
0.8381435 0.8436644 0.6535172
0.1061631 0.0828245 0.4252000
0.1431396 0.0861340 0.4367310
0.2241879 0.0924174 0.4586230
0.3307136 0.0999035 0.4847057
0.4378568 0.1305476 0.5120859
0.5374078 0.1702882 0.5368385
0.6174179 0.2141233 0.5601023
0.6783630 0.2525416 0.5792888
0.7326047 0.3086986 0.6026141
0.1003811 0.0895179 0.4386587
0.1415792 0.0956291 0.4497498
0.2281905 0.1154417 0.4728382
0.3384775 0.1360848 0.4960272
0.4480502 0.1711076 0.5249062
0.5477335 0.2068140 0.5478925
0.6272629 0.2473856 0.5698318
0.6902213 0.2924997 0.5879800
0.7431546 0.3448949 0.6119982
0.0994424 0.2035859 0.4830991
0.1274817 0.2110309 0.4935940
0.2416805 0.2263124 0.5133369
0.3610590 0.2549379 0.5393618
0.4769059 0.2831011 0.5578444
0.5718511 0.3094583 0.5757324
0.6548292 0.3477613 0.5936100
0.7161999 0.3862934 0.6153085
0.7645227 0.4240430 0.6286783
0.1115225 0.3324756 0.5251878
0.1139966 0.3403498 0.5338082
0.2377030 0.3629188 0.5562528
0.3732015 0.3883803 0.5742526
0.5015681 0.4185850 0.5948016
0.6048114 0.4419031 0.6105900
0.6801668 0.4711091 0.6244556
0.7399923 0.4976285 0.6362690
0.7853363 0.5198914 0.6500238
0.1214012 0.4437396 0.5596067
0.1238372 0.4540198 0.5680943
0.2153080 0.4805040 0.5842214
0.3791531 0.5079833 0.6048695
0.5139235 0.5350586 0.6186077
0.6174573 0.5546902 0.6323764
0.7008024 0.5792297 0.6447810
0.7604527 0.5982571 0.6585466
0.8073632 0.6177585 0.6673602
0.1299483 0.5418072 0.5893860
0.1319717 0.5540090 0.5964361
0.2140685 0.5749753 0.6077965
0.3787357 0.6021845 0.6257719
0.5221589 0.6258891 0.6377701
0.6342889 0.6473110 0.6509941
0.7165750 0.6662819 0.6615545
0.7725777 0.6839706 0.6703307
0.8178192 0.6977305 0.6824793
0.1390896 0.6212358 0.6122216
0.1419987 0.6313715 0.6180840
0.2294814 0.6531683 0.6291686
0.3936532 0.6754202 0.6444990
0.5309575 0.7030409 0.6553147
0.6436512 0.7204385 0.6651662
0.7251160 0.7372239 0.6750352
0.7817572 0.7523788 0.6833358
0.8292728 0.7642337 0.6949860
0.1573338 0.6848012 0.6311048
0.1598309 0.6935012 0.6393883
0.2573284 0.7135171 0.6487157
0.4082626 0.7335197 0.6561089
0.5525298 0.7582124 0.6703557
0.6540013 0.7783203 0.6816108
0.7301161 0.7922527 0.6906156
0.7898172 0.8051807 0.6984032
0.8321540 0.8151258 0.7051238
0.1719301 0.7356565 0.6502195
0.1736617 0.7416899 0.6530839
0.2996602 0.7578789 0.6600093
0.4436592 0.7787609 0.6732054
0.5612872 0.8001559 0.6810099
0.6603613 0.8178520 0.6913080
0.7365036 0.8301241 0.6998706
0.7940279 0.8433798 0.7075055
0.8385106 0.8531488 0.7142741
0.1856971 0.1229352 0.5183086
0.2162245 0.1288930 0.5293707
0.2941143 0.1455093 0.5483074
0.3823808 0.1677246 0.5678920
0.4805252 0.1952087 0.5875757
0.5710036 0.2253216 0.6082139
0.6408530 0.2546977 0.6267038
0.6968126 0.2961033 0.6436427
0.7489352 0.3503661 0.6635408
0.1848219 0.1398212 0.5236847
0.2162829 0.1463089 0.5348178
0.2957695 0.1612106 0.5530033
0.3852867 0.1842255 0.5725703
0.4842035 0.2109941 0.5934916
0.5748979 0.2401675 0.6136834
0.6483740 0.2827065 0.6332736
0.7048935 0.3256995 0.6518778
0.7544186 0.3709301 0.6677643
0.1715269 0.2448449 0.5629126
0.2123413 0.2488658 0.5696462
0.3055418 0.2635315 0.5863047
0.4036674 0.2865833 0.6041523
0.5088553 0.3155321 0.6254259
0.5960376 0.3401837 0.6404534
0.6689888 0.3735916 0.6565087
0.7251510 0.4057399 0.6701491
0.7728331 0.4444593 0.6836854
0.1332544 0.3655669 0.6009051
0.2098758 0.3733598 0.6080676
0.3023155 0.3930232 0.6218263
0.4160041 0.4130888 0.6371875
0.5303911 0.4415316 0.6562045
0.6193861 0.4666955 0.6694538
0.6921815 0.4860012 0.6814203
0.7500613 0.5125748 0.6930141
0.7924566 0.5427731 0.7037429
0.1419152 0.4804996 0.6310806
0.1718378 0.4865724 0.6361935
0.2933384 0.5062547 0.6520312
0.4253642 0.5324395 0.6672252
0.5458612 0.5543745 0.6799402
0.6356184 0.5746002 0.6927909
0.7113853 0.5955955 0.7042354
0.7654983 0.6161159 0.7138298
0.8115568 0.6326454 0.7219548
0.1494888 0.5747312 0.6574680
0.1575252 0.5816463 0.6623165
0.2993220 0.5970530 0.6727554
0.4298543 0.6226740 0.6891128
0.5502949 0.6401421 0.6997601
0.6447693 0.6611049 0.7121627
0.7179068 0.6810182 0.7188880
0.7799071 0.6966724 0.7275802
0.8203124 0.7068994 0.7343588
0.1553059 0.6522368 0.6777354
0.1681109 0.6596349 0.6822529
0.3097054 0.6748452 0.6912434
0.4400434 0.6930498 0.7014993
0.5591769 0.7178609 0.7153974
0.6538192 0.7319205 0.7225530
0.7277332 0.7496499 0.7320262
0.7838308 0.7623543 0.7398052
0.8313923 0.7756985 0.7470706
0.1647687 0.7107052 0.6949267
0.2231779 0.7173775 0.6986148
0.3246884 0.7290958 0.7049273
0.4543573 0.7530448 0.7150288
0.5722839 0.7714072 0.7273096
0.6638581 0.7853640 0.7338154
0.7407979 0.8028427 0.7431093
0.7916281 0.8140346 0.7503089
0.8336494 0.8256113 0.7570205
0.2149163 0.7596855 0.7094940
0.2663226 0.7649453 0.7121819
0.3716218 0.7781153 0.7187420
0.4786666 0.7936668 0.7261786
0.5811952 0.8114173 0.7371747
0.6763623 0.8261397 0.7436290
0.7442731 0.8409858 0.7520404
0.7954040 0.8489252 0.7587708
0.8394057 0.8584403 0.7650586
0.2706968 0.1999792 0.5985044
0.3006378 0.2022202 0.6039807
0.3581546 0.2108175 0.6151379
0.4379378 0.2317428 0.6315666
0.5253599 0.2546539 0.6520139
0.6011198 0.2755581 0.6650444
0.6671219 0.3160453 0.6831825
0.7208537 0.3548293 0.6973118
0.7642283 0.3939764 0.7114034
0.2706968 0.1999792 0.5985044
0.3006378 0.2022202 0.6039807
0.3581546 0.2108175 0.6151379
0.4379378 0.2317428 0.6315666
0.5253599 0.2546539 0.6520139
0.6033467 0.2850309 0.6673669
0.6687483 0.3226889 0.6847141
0.7225615 0.3617144 0.6988045
0.7675430 0.4075192 0.7141586
0.2746367 0.2894577 0.6280146
0.3052547 0.2926434 0.6329212
0.3690657 0.3048888 0.6442490
0.4517053 0.3277913 0.6595044
0.5399426 0.3475226 0.6761593
0.6206042 0.3761922 0.6898249
0.6863281 0.4094145 0.7065191
0.7394158 0.4422852 0.7167332
0.7831169 0.4751544 0.7286674
0.2687850 0.4079957 0.6617522
0.3060524 0.4125039 0.6665685
0.3756545 0.4300826 0.6775661
0.4639775 0.4471410 0.6926596
0.5592907 0.4674285 0.7051976
0.6450675 0.4882272 0.7159923
0.7051052 0.5094011 0.7272557
0.7576106 0.5348434 0.7380377
0.8011237 0.5567149 0.7457623
0.2498449 0.5152804 0.6910846
0.2958245 0.5208473 0.6957864
0.3766834 0.5341608 0.7050341
0.4755557 0.5531234 0.7166539
0.5738481 0.5718582 0.7275301
0.6541508 0.5908860 0.7393623
0.7218556 0.6103296 0.7468277
0.7745506 0.6305416 0.7560159
0.8159713 0.6465557 0.7637201
0.2469559 0.6047911 0.7121450
0.2984014 0.6133190 0.7169283
0.3733639 0.6231786 0.7237613
0.4786601 0.6379059 0.7322380
0.5789592 0.6598623 0.7455139
0.6628968 0.6765385 0.7533956
0.7350480 0.6912734 0.7628828
0.7834112 0.7048345 0.7673997
0.8238882 0.7201169 0.7746075
0.2586509 0.6782258 0.7304131
0.2986561 0.6828938 0.7333505
0.3877340 0.6945843 0.7405492
0.4936152 0.7120515 0.7499108
0.5882629 0.7305331 0.7584409
0.6709068 0.7451265 0.7684501
0.7422590 0.7598080 0.7743288
0.7912509 0.7713495 0.7815065
0.8337882 0.7835311 0.7882447
0.2862714 0.7332687 0.7421566
0.3270111 0.7382182 0.7449892
0.4024881 0.7502479 0.7509248
0.5043755 0.7654434 0.7620968
0.6007101 0.7838215 0.7701347
0.6808956 0.7976387 0.7763609
0.7497280 0.8115141 0.7848562
0.7990881 0.8238693 0.7886987
0.8393518 0.8297513 0.7944453
0.3146294 0.7759643 0.7543107
0.3632016 0.7821399 0.7576182
0.4385259 0.7941459 0.7632930
0.5226641 0.8066319 0.7696266
0.6097804 0.8230273 0.7796155
0.6867909 0.8361422 0.7853162
0.7529361 0.8491403 0.7931761
0.8026720 0.8564062 0.7964439
0.8414719 0.8665152 0.8023576
0.3575996 0.2645842 0.6622559
0.3774615 0.2720346 0.6670133
0.4252820 0.2818045 0.6758928
0.4945097 0.2960008 0.6879252
0.5661250 0.3226226 0.7021354
0.6305721 0.3459338 0.7164574
0.6946717 0.3730936 0.7281086
0.7411984 0.4054227 0.7425016
0.7830335 0.4447945 0.7532138
0.3575996 0.2645842 0.6622559
0.3774615 0.2720346 0.6670133
0.4252820 0.2818045 0.6758928
0.4945097 0.2960008 0.6879252
0.5661250 0.3226226 0.7021354
0.6305721 0.3459338 0.7164574
0.6946717 0.3730936 0.7281086
0.7411984 0.4054227 0.7425016
0.7830335 0.4447945 0.7532138
0.3558055 0.3416717 0.6837013
0.3771125 0.3439428 0.6868721
0.4279615 0.3555141 0.6957106
0.5049649 0.3720618 0.7080445
0.5778669 0.3909530 0.7195419
0.6500552 0.4191188 0.7346693
0.7078947 0.4465328 0.7462400
0.7537199 0.4730891 0.7573146
0.7942889 0.5051482 0.7658848
0.3605246 0.4471478 0.7123559
0.3847919 0.4501660 0.7154835
0.4382080 0.4624610 0.7234579
0.5174637 0.4807540 0.7347146
0.5943282 0.4955673 0.7470204
0.6625732 0.5174186 0.7566190
0.7233181 0.5352341 0.7643456
0.7686104 0.5545251 0.7734212
0.8081113 0.5793524 0.7799913
0.3629484 0.5454962 0.7362126
0.3803801 0.5534927 0.7392670
0.4465539 0.5623904 0.7465478
0.5229113 0.5727692 0.7573653
0.6082411 0.5925786 0.7675233
0.6786973 0.6123165 0.7758971
0.7379912 0.6278121 0.7823663
0.7838594 0.6444502 0.7905020
0.8207868 0.6621104 0.7980178
0.3574482 0.6288598 0.7554978
0.3888867 0.6330870 0.7585413
0.4509729 0.6466819 0.7654658
0.5280378 0.6575814 0.7729489
0.6140231 0.6770581 0.7820635
0.6870074 0.6918693 0.7891334
0.7453773 0.7071659 0.7977029
0.7921147 0.7181514 0.8019971
0.8307098 0.7282066 0.8083421
0.3692729 0.7019485 0.7700694
0.3930815 0.7051744 0.7721194
0.4595536 0.7145346 0.7779762
0.5356511 0.7255958 0.7847293
0.6165991 0.7422104 0.7951177
0.6946959 0.7556984 0.8018541
0.7515858 0.7681950 0.8068376
0.7991753 0.7811300 0.8139489
0.8367532 0.7903302 0.8170892
0.3826399 0.7553558 0.7844831
0.4081751 0.7588438 0.7865302
0.4754921 0.7684299 0.7920676
0.5469539 0.7788352 0.7966071
0.6286278 0.7964549 0.8053088
0.6979370 0.8065569 0.8092913
0.7583688 0.8190844 0.8170613
0.8060546 0.8275917 0.8206450
0.8418452 0.8363624 0.8261999
0.4208691 0.7981729 0.7941227
0.4441212 0.8014574 0.7959196
0.4979835 0.8091365 0.7987334
0.5649035 0.8191531 0.8040078
0.6415338 0.8324170 0.8129057
0.7096325 0.8454403 0.8183048
0.7615827 0.8531000 0.8220395
0.8095617 0.8645584 0.8284783
0.8471516 0.8698797 0.8309835
