data/spectral_luts/vision3_250d_2383.cube
TITLE "vision3_250d_2383"
LUT_3D_SIZE 5
0.0065939 0.0054449 0.0051645
0.0778432 0.0123043 0.0058024
0.3349442 0.0569197 0.0569197
0.5576105 0.1208282 0.1208282
0.7031403 0.2363274 0.2128574
0.0036925 0.0676603 0.0102811
0.1117803 0.1041832 0.0093285
0.4053083 0.1841912 0.0771153
0.6235420 0.2684796 0.1397515
0.7462633 0.3581353 0.2299822
0.0383296 0.2701831 0.0383296
0.0583585 0.3187517 0.0522722
0.4660724 0.4276850 0.0945554
0.6856909 0.5033352 0.1575892
0.7978000 0.5594385 0.2622182
0.0938674 0.4636753 0.1389065
0.1005558 0.4869783 0.1407356
0.4723534 0.5993348 0.1676615
0.7079552 0.6674798 0.2382308
0.8160536 0.7085267 0.3295159
0.1390796 0.6212010 0.2743286
0.1390796 0.6212010 0.2743286
0.4614120 0.7113953 0.3010522
0.7094259 0.7665679 0.3524247
0.8218161 0.8034781 0.4217086
0.0074453 0.0098547 0.1005258
0.1072455 0.0194395 0.1269366
0.3633410 0.0650700 0.1795750
0.5693128 0.1277112 0.2514358
0.7109969 0.2522788 0.3369240
0.0132488 0.1077015 0.1538795
0.1209537 0.1479520 0.1844197
0.4246742 0.2192284 0.2289712
0.6291687 0.2906811 0.2884791
0.7511822 0.3780030 0.3645130
0.0557035 0.3307067 0.2242460
0.0709688 0.3838931 0.2439747
0.4693356 0.4711826 0.2837256
0.6881979 0.5349975 0.3389692
0.7973831 0.5824534 0.4042012
0.1053104 0.5035442 0.2866286
0.1139839 0.5337639 0.2944739
0.4634733 0.6298444 0.3299064
0.7013706 0.6870167 0.3744708
0.8159804 0.7235875 0.4410060
0.1441023 0.6387006 0.3539661
0.1444301 0.6398429 0.3601531
0.4596489 0.7269914 0.3845731
0.7041946 0.7791291 0.4303877
0.8188825 0.8116394 0.4839259
0.0732879 0.0553705 0.3295463
0.1896030 0.0649439 0.3629014
0.4295321 0.0850582 0.4218676
0.6143302 0.1756788 0.4787697
0.7317712 0.2856184 0.5325260
0.0741953 0.1565484 0.3951347
0.1941743 0.1897248 0.4270316
0.4701353 0.2506049 0.4768526
0.6554557 0.3227119 0.5191119
0.7629583 0.4046749 0.5661554
0.0974894 0.3996944 0.4762945
0.1072768 0.4457668 0.5103953
0.4998472 0.5163466 0.5453326
0.6958970 0.5653735 0.5769041
0.8031392 0.6049291 0.6066323
0.1244451 0.5702121 0.5330204
0.1332101 0.6007506 0.5525870
0.4870446 0.6753162 0.5868351
0.7023346 0.7183161 0.6116536
0.8141173 0.7511094 0.6377621
0.1592826 0.6915910 0.5820245
0.1600204 0.6941615 0.5875978
0.4724866 0.7669054 0.6155902
0.7034088 0.8107828 0.6409130
0.8171070 0.8334150 0.6560966
0.2213117 0.1129599 0.5270200
0.3147219 0.1331554 0.5477309
0.5187758 0.1936427 0.5933006
0.6599150 0.2666096 0.6285140
0.7633978 0.3662902 0.6667955
0.2046127 0.2232370 0.5642179
0.3197625 0.2502798 0.5863778
0.5367509 0.2975509 0.6234207
0.6807284 0.3646916 0.6589863
0.7809504 0.4449216 0.6861874
0.1447600 0.4733101 0.6409921
0.2801382 0.4964562 0.6584892
0.5520999 0.5507297 0.6906049
0.7168190 0.5893674 0.7099122
0.8112495 0.6210477 0.7271554
0.1557157 0.6208775 0.6791633
0.2006353 0.6484390 0.6954377
0.5465002 0.7034348 0.7207186
0.7205654 0.7405816 0.7399212
0.8192040 0.7653977 0.7549033
0.1688144 0.7248011 0.7108560
0.1737275 0.7419190 0.7195027
0.5462289 0.7967658 0.7442265
0.7207183 0.8280719 0.7591240
0.8187788 0.8475797 0.7729189
0.3924063 0.2686776 0.6774821
0.4589135 0.2811858 0.6883758
0.5976252 0.3243927 0.7154688
0.7091495 0.3831014 0.7388538
0.7935011 0.4510243 0.7638762
0.3818270 0.3132500 0.6893901
0.4631937 0.3285551 0.7020292
0.6055856 0.3748683 0.7288361
0.7173164 0.4279990 0.7499400
0.7990443 0.4897052 0.7727950
0.3593973 0.5338206 0.7490426
0.4485666 0.5510605 0.7593369
0.6225864 0.5819930 0.7774704
0.7426487 0.6129915 0.7930615
0.8222251 0.6489862 0.8059905
0.3154325 0.6789808 0.7803366
0.4335866 0.6993158 0.7905568
0.6143403 0.7279584 0.8055804
0.7452444 0.7576321 0.8195701
0.8290612 0.7798629 0.8292837
0.2843207 0.7667770 0.8006313
0.4242519 0.7844321 0.8099502
0.6065481 0.8155310 0.8237259
0.7452749 0.8408246 0.8365354
0.8281118 0.8572721 0.8436291
