data/spectral_luts/vision3_200t_2383.cube
TITLE "vision3_200t_2383"
LUT_3D_SIZE 33
0.0063331 0.0053035 0.0050949
0.0065815 0.0053428 0.0051062
0.0071060 0.0054237 0.0051287
0.0089635 0.0056916 0.0051965
0.0127837 0.0062816 0.0053533
0.0199152 0.0071439 0.0055157
0.0315735 0.0082304 0.0056334
0.0486827 0.0094990 0.0057130
0.0729101 0.0111136 0.0056611
0.1046200 0.0129622 0.0069476
0.1298391 0.0147630 0.0098794
0.1606690 0.0169129 0.0143060
0.1916372 0.0197409 0.0197409
0.2267639 0.0271739 0.0271739
0.2591879 0.0352924 0.0352924
0.2962612 0.0458171 0.0458171
0.3277204 0.0548464 0.0548464
0.3683889 0.0665189 0.0665189
0.3974891 0.0748710 0.0748710
0.4298739 0.0841659 0.0841659
0.4615972 0.0932710 0.0932710
0.4838072 0.0996456 0.0996456
0.5061982 0.1060721 0.1060721
0.5303454 0.1130028 0.1130028
0.5526721 0.1194109 0.1194109
0.5736628 0.1254355 0.1254355
0.5963512 0.1359232 0.1319474
0.6150380 0.1555320 0.1373108
0.6327765 0.1690837 0.1424020
0.6506962 0.1856030 0.1531354
0.6673414 0.2035257 0.1740530
0.6836221 0.2192013 0.1877862
0.7009507 0.2383719 0.2048193
0.0063758 0.0056002 0.0051980
0.0067116 0.0057038 0.0052238
0.0072515 0.0057897 0.0052463
0.0091996 0.0061392 0.0053275
0.0131772 0.0067215 0.0054364
0.0202067 0.0075565 0.0055832
0.0321637 0.0088251 0.0057692
0.0496270 0.0102999 0.0058566
0.0733455 0.0124345 0.0057736
0.1058025 0.0152489 0.0070718
0.1331825 0.0178684 0.0103138
0.1642410 0.0205015 0.0148812
0.1952209 0.0235209 0.0204363
0.2284663 0.0275696 0.0275696
0.2642055 0.0366602 0.0366602
0.3014781 0.0473145 0.0473145
0.3331808 0.0564136 0.0564136
0.3735725 0.0680066 0.0680066
0.4004861 0.0757312 0.0757312
0.4347754 0.0855727 0.0855727
0.4676217 0.0950001 0.0950001
0.4896903 0.1013341 0.1013341
0.5108215 0.1073991 0.1073991
0.5352579 0.1144127 0.1144127
0.5586134 0.1211161 0.1211161
0.5770209 0.1302775 0.1263993
0.6002098 0.1443079 0.1330549
0.6190366 0.1643385 0.1384584
0.6378258 0.1804386 0.1438512
0.6550572 0.1955489 0.1611920
0.6715837 0.2135548 0.1772804
0.6858991 0.2246466 0.1934220
0.7030212 0.2435309 0.2051568
0.0064442 0.0060761 0.0053023
0.0067989 0.0062622 0.0053435
0.0074492 0.0064356 0.0053822
0.0095228 0.0069186 0.0054800
0.0135651 0.0076659 0.0056450
0.0210152 0.0088380 0.0058288
0.0331491 0.0105541 0.0060413
0.0538628 0.0126875 0.0061038
0.0761406 0.0151301 0.0060671
0.1088349 0.0182826 0.0073961
0.1365686 0.0214794 0.0107648
0.1665815 0.0253513 0.0152654
0.1975193 0.0292057 0.0208898
0.2333354 0.0331800 0.0287198
0.2692221 0.0380582 0.0380582
0.3038227 0.0479874 0.0479874
0.3382494 0.0578684 0.0578684
0.3792400 0.0696333 0.0696333
0.4113176 0.0788400 0.0788400
0.4407599 0.0872904 0.0872904
0.4733062 0.0966317 0.0966317
0.4942280 0.1026365 0.1026365
0.5181050 0.1094896 0.1094896
0.5391203 0.1163261 0.1155213
0.5620070 0.1267830 0.1220901
0.5815508 0.1399243 0.1276995
0.6050926 0.1594918 0.1344563
0.6229343 0.1730297 0.1395771
0.6420323 0.1899746 0.1464321
0.6581470 0.2027620 0.1615745
0.6736569 0.2185203 0.1775660
0.6911632 0.2375657 0.1942305
0.7071895 0.2540251 0.2058005
0.0065454 0.0081472 0.0057329
0.0069850 0.0082355 0.0057492
0.0076891 0.0085706 0.0058568
0.0099329 0.0090783 0.0059347
0.0146118 0.0102623 0.0061342
0.0228719 0.0117597 0.0063008
0.0368079 0.0137626 0.0064615
0.0558933 0.0161182 0.0064939
0.0787379 0.0195613 0.0063558
0.1116506 0.0243059 0.0077048
0.1439003 0.0288313 0.0117802
0.1724733 0.0335624 0.0162577
0.2038190 0.0387209 0.0221624
0.2400383 0.0440117 0.0303483
0.2741986 0.0510960 0.0394753
0.3117452 0.0565688 0.0502613
0.3456876 0.0619726 0.0600032
0.3844292 0.0711227 0.0711227
0.4196002 0.0812172 0.0812172
0.4476476 0.0892673 0.0892673
0.4768043 0.0976356 0.0976356
0.5029812 0.1074804 0.1051488
0.5254835 0.1192445 0.1116073
0.5456237 0.1298377 0.1173878
0.5699267 0.1435579 0.1243632
0.5903718 0.1589058 0.1302312
0.6108624 0.1722252 0.1361123
0.6278723 0.1841376 0.1409944
0.6471245 0.2017442 0.1469099
0.6625575 0.2173758 0.1623514
0.6820879 0.2311956 0.1780804
0.6952812 0.2478268 0.1948085
0.7125758 0.2678349 0.2122411
0.0065035 0.0118743 0.0063728
0.0070016 0.0119975 0.0063874
0.0078779 0.0125705 0.0065110
0.0105826 0.0132023 0.0066297
0.0157348 0.0146123 0.0067962
0.0251929 0.0170326 0.0069645
0.0393387 0.0194490 0.0070058
0.0593929 0.0231356 0.0069950
0.0839284 0.0277319 0.0068892
0.1176183 0.0338280 0.0083837
0.1507328 0.0401969 0.0127748
0.1796554 0.0459142 0.0175170
0.2101054 0.0534817 0.0234764
0.2462610 0.0591885 0.0319073
0.2828656 0.0662510 0.0419724
0.3201859 0.0715292 0.0526839
0.3588552 0.0798809 0.0637825
0.3940997 0.0877863 0.0738982
0.4294572 0.0963219 0.0840464
0.4543420 0.1040780 0.0911887
0.4871049 0.1138159 0.1005921
0.5119185 0.1255227 0.1077140
0.5327078 0.1384122 0.1136808
0.5539016 0.1471722 0.1197637
0.5785307 0.1620044 0.1268326
0.5990328 0.1779391 0.1327170
0.6177285 0.1875917 0.1380830
0.6371325 0.2053579 0.1436522
0.6532547 0.2161374 0.1482795
0.6698074 0.2348800 0.1630037
0.6882810 0.2464575 0.1787495
0.7025361 0.2662770 0.1957002
0.7167027 0.2786261 0.2128166
0.0060928 0.0181130 0.0071817
0.0065951 0.0182687 0.0071915
0.0075430 0.0195538 0.0073515
0.0107290 0.0204624 0.0073884
0.0167422 0.0226948 0.0075305
0.0265609 0.0255666 0.0076147
0.0439612 0.0299529 0.0076620
0.0662650 0.0348475 0.0075693
0.0908765 0.0405074 0.0075237
0.1271178 0.0490301 0.0095339
0.1567607 0.0555980 0.0136916
0.1905056 0.0630118 0.0195242
0.2234027 0.0700299 0.0264024
0.2558456 0.0768494 0.0343981
0.2900394 0.0848409 0.0440314
0.3283748 0.0921742 0.0550342
0.3699120 0.1005694 0.0669560
0.4061365 0.1107721 0.0773530
0.4380561 0.1192352 0.0865143
0.4657905 0.1267270 0.0944745
0.4999458 0.1397876 0.1042776
0.5231223 0.1486327 0.1109296
0.5427282 0.1595168 0.1165568
0.5659484 0.1730818 0.1232213
0.5891449 0.1853693 0.1298791
0.6048247 0.1955227 0.1343794
0.6289918 0.2135512 0.1413157
0.6453233 0.2247004 0.1460031
0.6605825 0.2385076 0.1505829
0.6795855 0.2502644 0.1658820
0.6976290 0.2702011 0.1823228
0.7087736 0.2826091 0.1991422
0.7214445 0.2953308 0.2165257
0.0045118 0.0285781 0.0080623
0.0049901 0.0287692 0.0080658
0.0065188 0.0305424 0.0082027
0.0104155 0.0319375 0.0082044
0.0176724 0.0348558 0.0082698
0.0288648 0.0391831 0.0083128
0.0487954 0.0449960 0.0083027
0.0698235 0.0516932 0.0082826
0.0971067 0.0588207 0.0080428
0.1345777 0.0674935 0.0104982
0.1654911 0.0753206 0.0150857
0.1996918 0.0825411 0.0213237
0.2312629 0.0909127 0.0282269
0.2639204 0.0982454 0.0365817
0.3012099 0.1070963 0.0472375
0.3409484 0.1170364 0.0586430
0.3814302 0.1233412 0.0702619
0.4135062 0.1319438 0.0794682
0.4498875 0.1433050 0.0899101
0.4782806 0.1524345 0.0980594
0.5115741 0.1643045 0.1076151
0.5337824 0.1758801 0.1139892
0.5549173 0.1862274 0.1200552
0.5764801 0.1965951 0.1262441
0.5976538 0.2099708 0.1323212
0.6158605 0.2212655 0.1375468
0.6380191 0.2351097 0.1439067
0.6543751 0.2467533 0.1486011
0.6686819 0.2586994 0.1527073
0.6887611 0.2736326 0.1662664
0.7037910 0.2863437 0.1826909
0.7201248 0.3043218 0.1996297
0.7283467 0.3143536 0.2172641
0.0022882 0.0454868 0.0089361
0.0023038 0.0457725 0.0089316
0.0036931 0.0468153 0.0090517
0.0081199 0.0495981 0.0091574
0.0166750 0.0542096 0.0090380
0.0307944 0.0581544 0.0090697
0.0498341 0.0650858 0.0091260
0.0757909 0.0708066 0.0088648
0.1038328 0.0786983 0.0085098
0.1392087 0.0886628 0.0111243
0.1757237 0.0975716 0.0168208
0.2075523 0.1065618 0.0229374
0.2414682 0.1146561 0.0307025
0.2802664 0.1228871 0.0412264
0.3201443 0.1352665 0.0526719
0.3495461 0.1421323 0.0611107
0.3915251 0.1519335 0.0731593
0.4278193 0.1625884 0.0835763
0.4623540 0.1701631 0.0934882
0.4921867 0.1829035 0.1020506
0.5223198 0.1939393 0.1106993
0.5458373 0.2030810 0.1174491
0.5672516 0.2146095 0.1235954
0.5878336 0.2284443 0.1295027
0.6102834 0.2401944 0.1359461
0.6286808 0.2526850 0.1412264
0.6480116 0.2600015 0.1467747
0.6634755 0.2748530 0.1512130
0.6798862 0.2881027 0.1589375
0.6989158 0.3008940 0.1748346
0.7148128 0.3166747 0.1916867
0.7253931 0.3237218 0.2029980
0.7362332 0.3369775 0.2207850
0.0035209 0.0652531 0.0098307
0.0035559 0.0657495 0.0098064
0.0036445 0.0669934 0.0097386
0.0043192 0.0693396 0.0097588
0.0135772 0.0760646 0.0097987
0.0289600 0.0802940 0.0097183
0.0519530 0.0855364 0.0096593
0.0797387 0.0954004 0.0093434
0.1087474 0.1042857 0.0084411
0.1503187 0.1132033 0.0127132
0.1841338 0.1238976 0.0183301
0.2167355 0.1330219 0.0249102
0.2523681 0.1438084 0.0334817
0.2895379 0.1532688 0.0438875
0.3281995 0.1625079 0.0549839
0.3689953 0.1739871 0.0666929
0.4046269 0.1827715 0.0769197
0.4401150 0.1913805 0.0871053
0.4744091 0.2059679 0.0969482
0.5086761 0.2144005 0.1067833
0.5342583 0.2223562 0.1141258
0.5598094 0.2367754 0.1214593
0.5773605 0.2446426 0.1264968
0.5992396 0.2569442 0.1327764
0.6200967 0.2652658 0.1387627
0.6393759 0.2804504 0.1442961
0.6566908 0.2884255 0.1492658
0.6732373 0.3012077 0.1540148
0.6904045 0.3170165 0.1589421
0.7076120 0.3251631 0.1746384
0.7208564 0.3386895 0.1918026
0.7351882 0.3525566 0.2092666
0.7440367 0.3605030 0.2271539
0.0052338 0.0868499 0.0105960
0.0052875 0.0874547 0.0105441
0.0054228 0.0889621 0.0106253
0.0058083 0.0931411 0.0107641
0.0072308 0.0995435 0.0104465
0.0254290 0.1046151 0.0104704
0.0528789 0.1118517 0.0098474
0.0831307 0.1215769 0.0091324
0.1131949 0.1284267 0.0096992
0.1585524 0.1428059 0.0139713
0.1886338 0.1496795 0.0191689
0.2275073 0.1625478 0.0273462
0.2642010 0.1731550 0.0366590
0.2997624 0.1834605 0.0468220
0.3382029 0.1903198 0.0578550
0.3798157 0.2029196 0.0697985
0.4161597 0.2128908 0.0802298
0.4488308 0.2225953 0.0896068
0.4870264 0.2387142 0.1005696
0.5219231 0.2486198 0.1105854
0.5477424 0.2568264 0.1179960
0.5687554 0.2655905 0.1240270
0.5893982 0.2765000 0.1299518
0.6113008 0.2892579 0.1362381
0.6322892 0.2982429 0.1422621
0.6509010 0.3065148 0.1476040
0.6688960 0.3225265 0.1527688
0.6836489 0.3308096 0.1570031
0.7037965 0.3449829 0.1627858
0.7152756 0.3531708 0.1770895
0.7284129 0.3612763 0.1915005
0.7436572 0.3785940 0.2091452
0.7524066 0.3866833 0.2273673
0.0078040 0.1125409 0.0114776
0.0078618 0.1130565 0.0114117
0.0081085 0.1152344 0.0116873
0.0086343 0.1197499 0.0111524
0.0091526 0.1240465 0.0110192
0.0171840 0.1295247 0.0107815
0.0486018 0.1407014 0.0113306
0.0827870 0.1480549 0.0123794
0.1180208 0.1564957 0.0136506
0.1623736 0.1716024 0.0161087
0.1987552 0.1800387 0.0211360
0.2342081 0.1915494 0.0289289
0.2716806 0.2012721 0.0387545
0.3082468 0.2126150 0.0492572
0.3489931 0.2248353 0.0609520
0.3881075 0.2384550 0.0721784
0.4236362 0.2454091 0.0823756
0.4604732 0.2559573 0.0929484
0.4967914 0.2666082 0.1033723
0.5320131 0.2766953 0.1134814
0.5562000 0.2885729 0.1204234
0.5800432 0.2972095 0.1272667
0.5999969 0.3066034 0.1329937
0.6203415 0.3154356 0.1388330
0.6416299 0.3320938 0.1449430
0.6628597 0.3418968 0.1510363
0.6781097 0.3502369 0.1554133
0.6928964 0.3589493 0.1596573
0.7112554 0.3680896 0.1649266
0.7253228 0.3849039 0.1820903
0.7384665 0.3936243 0.1999379
0.7508261 0.4023977 0.2183232
0.7612433 0.4160701 0.2303027
0.0106977 0.1360701 0.0122641
0.0107371 0.1363634 0.0122152
0.0110585 0.1387293 0.0120988
0.0119445 0.1450516 0.0119445
0.0128813 0.1514456 0.0128813
0.0137748 0.1572954 0.0137748
0.0418915 0.1645215 0.0149270
0.0814769 0.1745321 0.0166131
0.1188439 0.1867246 0.0188103
0.1664515 0.1979041 0.0209662
0.2074990 0.2092430 0.0232935
0.2419863 0.2216037 0.0308315
0.2748452 0.2292370 0.0396617
0.3190493 0.2445765 0.0523577
0.3611645 0.2579464 0.0644453
0.3956541 0.2656932 0.0743444
0.4407904 0.2785920 0.0872992
0.4788650 0.2928733 0.0982271
0.5069003 0.2984999 0.1062737
0.5392271 0.3088394 0.1155519
0.5661761 0.3194507 0.1232867
0.5947863 0.3296340 0.1314982
0.6157718 0.3416496 0.1375214
0.6292799 0.3500451 0.1413984
0.6503486 0.3595478 0.1474454
0.6715596 0.3689961 0.1535333
0.6868390 0.3779497 0.1579187
0.7024530 0.3897213 0.1624002
0.7189471 0.3990387 0.1671342
0.7322598 0.4080608 0.1840983
0.7470838 0.4226038 0.1987386
0.7594488 0.4318388 0.2175467
0.7722241 0.4440822 0.2360854
0.0141217 0.1595072 0.0141217
0.0141217 0.1595072 0.0141217
0.0153498 0.1670913 0.0153498
0.0159887 0.1708975 0.0159887
0.0169688 0.1765670 0.0169688
0.0184200 0.1846219 0.0184200
0.0302863 0.1925716 0.0199209
0.0779018 0.2010375 0.0215951
0.1195071 0.2165668 0.0248732
0.1716519 0.2288578 0.0276610
0.2070130 0.2379061 0.0298246
0.2456107 0.2513636 0.0332197
0.2861556 0.2632134 0.0429167
0.3251115 0.2768643 0.0540976
0.3674091 0.2862325 0.0662376
0.4117335 0.3024663 0.0789594
0.4492524 0.3109395 0.0897278
0.4834430 0.3225327 0.0995411
0.5207513 0.3345244 0.1102491
0.5484025 0.3404440 0.1181854
0.5822203 0.3546014 0.1278916
0.6051989 0.3647467 0.1344868
0.6231125 0.3743192 0.1396283
0.6421937 0.3788416 0.1451048
0.6585711 0.3882899 0.1498054
0.6807024 0.4006785 0.1561574
0.6960008 0.4093304 0.1605483
0.7129048 0.4190772 0.1654000
0.7273655 0.4286732 0.1700041
0.7406427 0.4379742 0.1886424
0.7537155 0.4471812 0.2074071
0.7667356 0.4585235 0.2196586
0.7769425 0.4676488 0.2388084
0.0190203 0.1878454 0.0190203
0.0190203 0.1878454 0.0190203
0.0194953 0.1903541 0.0194953
0.0203329 0.1946922 0.0203329
0.0216742 0.2014278 0.0216742
0.0232569 0.2090699 0.0232569
0.0257837 0.2206659 0.0257837
0.0681076 0.2321193 0.0284300
0.1203266 0.2429751 0.0310784
0.1699119 0.2544467 0.0340277
0.2128737 0.2715485 0.0387169
0.2530644 0.2823877 0.0418352
0.2893397 0.2909701 0.0442985
0.3363115 0.3067637 0.0573121
0.3731985 0.3177834 0.0678993
0.4141147 0.3319292 0.0796428
0.4522517 0.3402698 0.0905887
0.4908627 0.3534006 0.1016706
0.5280976 0.3633614 0.1123576
0.5574725 0.3757617 0.1207886
0.5910029 0.3871044 0.1304123
0.6103931 0.3921953 0.1359776
0.6307200 0.4021273 0.1418117
0.6522097 0.4152174 0.1479796
0.6671338 0.4195966 0.1522630
0.6885386 0.4298754 0.1584065
0.7015085 0.4392462 0.1621291
0.7206995 0.4485778 0.1676372
0.7350951 0.4583323 0.1774594
0.7489955 0.4700339 0.1928231
0.7619696 0.4784639 0.2053172
0.7709118 0.4819458 0.2252019
0.7827749 0.4911308 0.2447592
0.0239592 0.2123639 0.0239592
0.0239592 0.2123639 0.0239592
0.0244713 0.2147300 0.0244713
0.0258222 0.2208372 0.0258222
0.0281027 0.2307377 0.0281027
0.0297529 0.2376126 0.0297529
0.0325762 0.2488768 0.0325762
0.0593751 0.2589644 0.0352322
0.1196270 0.2712372 0.0386284
0.1711554 0.2852575 0.0426589
0.2171076 0.3011639 0.0472243
0.2533543 0.3110657 0.0500663
0.2977084 0.3219873 0.0532009
0.3362089 0.3387490 0.0580118
0.3813111 0.3500205 0.0702277
0.4184479 0.3584794 0.0808865
0.4583185 0.3721921 0.0923300
0.4969942 0.3835088 0.1034305
0.5353367 0.3969654 0.1144353
0.5710738 0.4045354 0.1246924
0.5945821 0.4156327 0.1314396
0.6172874 0.4205087 0.1379564
0.6383358 0.4338436 0.1439976
0.6591249 0.4444195 0.1499644
0.6741799 0.4486146 0.1542854
0.6933324 0.4577981 0.1597824
0.7085047 0.4674760 0.1641371
0.7283506 0.4804589 0.1698331
0.7413267 0.4838040 0.1818054
0.7544962 0.4934281 0.2012629
0.7657043 0.5019573 0.2142195
0.7778132 0.5114731 0.2337774
0.7897061 0.5197690 0.2433440
0.0306416 0.2412231 0.0306416
0.0306416 0.2412231 0.0306416
0.0310123 0.2427111 0.0310123
0.0321921 0.2473787 0.0321921
0.0340424 0.2545023 0.0340424
0.0364756 0.2635345 0.0364756
0.0403933 0.2773668 0.0403933
0.0433841 0.2877843 0.0433841
0.1113656 0.3014811 0.0473153
0.1675594 0.3143939 0.0510215
0.2104752 0.3253162 0.0541563
0.2549383 0.3415990 0.0588297
0.2946825 0.3541044 0.0624190
0.3376633 0.3642829 0.0653404
0.3839316 0.3760950 0.0709798
0.4305227 0.3911922 0.0843522
0.4708062 0.4029131 0.0959141
0.5104456 0.4170459 0.1072912
0.5366774 0.4232433 0.1148201
0.5741428 0.4367909 0.1255732
0.6004025 0.4430448 0.1331102
0.6251388 0.4559785 0.1402098
0.6443692 0.4615619 0.1457293
0.6652278 0.4724586 0.1517160
0.6830367 0.4767005 0.1568274
0.6996619 0.4869206 0.1615991
0.7190817 0.4934704 0.1671728
0.7335635 0.5035374 0.1730001
0.7479334 0.5127167 0.1855348
0.7590853 0.5225350 0.2058243
0.7710198 0.5258344 0.2191957
0.7829065 0.5347451 0.2393429
0.7949583 0.5444759 0.2524396
0.0379821 0.2689517 0.0379821
0.0379821 0.2689517 0.0379821
0.0382734 0.2699844 0.0382734
0.0397667 0.2752087 0.0397667
0.0416946 0.2818978 0.0416946
0.0445974 0.2920114 0.0445974
0.0477253 0.3029095 0.0477253
0.0502153 0.3115850 0.0502153
0.1058955 0.3278724 0.0548900
0.1652456 0.3408849 0.0586248
0.2119411 0.3552096 0.0627362
0.2591886 0.3694095 0.0668118
0.3005128 0.3810942 0.0701655
0.3455010 0.3917672 0.0732288
0.3938584 0.4078646 0.0778490
0.4334061 0.4196903 0.0851797
0.4739940 0.4301185 0.0968291
0.5106317 0.4428341 0.1073446
0.5489021 0.4523411 0.1183288
0.5780566 0.4589616 0.1266966
0.6061102 0.4738687 0.1347484
0.6294073 0.4793775 0.1414350
0.6499764 0.4901717 0.1473386
0.6672536 0.4956052 0.1522974
0.6889108 0.5057762 0.1585134
0.7049342 0.5119668 0.1631123
0.7246892 0.5216944 0.1687823
0.7389591 0.5297375 0.1805209
0.7498010 0.5340610 0.2016524
0.7629589 0.5414997 0.2112566
0.7749527 0.5448847 0.2246524
0.7872117 0.5558492 0.2451187
0.7986849 0.5630339 0.2583946
0.0450772 0.2936831 0.0450772
0.0450772 0.2936831 0.0450772
0.0453025 0.2944680 0.0453025
0.0469871 0.3003375 0.0469871
0.0494817 0.3090292 0.0494817
0.0520993 0.3181492 0.0520993
0.0546371 0.3269913 0.0546371
0.0585719 0.3407006 0.0585719
0.0994528 0.3541776 0.0624400
0.1600780 0.3714314 0.0673921
0.2118840 0.3843874 0.0711107
0.2620883 0.3969376 0.0747128
0.3062879 0.4082866 0.0779701
0.3533617 0.4195192 0.0811940
0.3948552 0.4363368 0.0860209
0.4305953 0.4465366 0.0889484
0.4725033 0.4565389 0.0964012
0.5134174 0.4697722 0.1081441
0.5526564 0.4780600 0.1194063
0.5823734 0.4880250 0.1279355
0.6165425 0.4995084 0.1377426
0.6359565 0.5056822 0.1433147
0.6557052 0.5106829 0.1489828
0.6715358 0.5191507 0.1535265
0.6925995 0.5268212 0.1595721
0.7091033 0.5351626 0.1643089
0.7281703 0.5398485 0.1724039
0.7400608 0.5482773 0.1932221
0.7532460 0.5520522 0.2071134
0.7662950 0.5596087 0.2202573
0.7794785 0.5701967 0.2408096
0.7904280 0.5735117 0.2545637
0.8019249 0.5809186 0.2681681
0.0524664 0.3194283 0.0524664
0.0524664 0.3194283 0.0524664
0.0524664 0.3194283 0.0524664
0.0544713 0.3264135 0.0544713
0.0564572 0.3333328 0.0564572
0.0589574 0.3420437 0.0589574
0.0621146 0.3530440 0.0621146
0.0655041 0.3648535 0.0655041
0.1032027 0.3804301 0.0699749
0.1574709 0.3910511 0.0730232
0.2118458 0.4079303 0.0778678
0.2567676 0.4193552 0.0811469
0.3028542 0.4311386 0.0845289
0.3472953 0.4437925 0.0881608
0.3979013 0.4562182 0.0917272
0.4393688 0.4701500 0.0957258
0.4817542 0.4802986 0.0990564
0.5226242 0.4898252 0.1107866
0.5545461 0.4992847 0.1199487
0.5928980 0.5108934 0.1309562
0.6154750 0.5178454 0.1374362
0.6384957 0.5235751 0.1440435
0.6590783 0.5325390 0.1499510
0.6745453 0.5388593 0.1543902
0.6959760 0.5489902 0.1617947
0.7166022 0.5540699 0.1750938
0.7293863 0.5615328 0.1845729
0.7431114 0.5655212 0.1985542
0.7575933 0.5775249 0.2190097
0.7699099 0.5812118 0.2329190
0.7829494 0.5897133 0.2464842
0.7939491 0.5931247 0.2604049
0.8038803 0.6012405 0.2743440
0.0588225 0.3415737 0.0588225
0.0588225 0.3415737 0.0588225
0.0588225 0.3415737 0.0588225
0.0607435 0.3482667 0.0607435
0.0628906 0.3557476 0.0628906
0.0653725 0.3643948 0.0653725
0.0683614 0.3748086 0.0683614
0.0715304 0.3858497 0.0715304
0.0835401 0.4017612 0.0760972
0.1560078 0.4152536 0.0799697
0.2078776 0.4258859 0.0830213
0.2548183 0.4376145 0.0863876
0.3036347 0.4486795 0.0895634
0.3534501 0.4663477 0.0946345
0.3968713 0.4768029 0.0976353
0.4389651 0.4872815 0.1006428
0.4820110 0.4976670 0.1036236
0.5240985 0.5134771 0.1112098
0.5640662 0.5227748 0.1226811
0.5904630 0.5295282 0.1302574
0.6175453 0.5356092 0.1380304
0.6414822 0.5460232 0.1449006
0.6619433 0.5536564 0.1507733
0.6824582 0.5589711 0.1566614
0.6990028 0.5682136 0.1661923
0.7171704 0.5741169 0.1875621
0.7324359 0.5831661 0.2009267
0.7462572 0.5872416 0.2148809
0.7608891 0.5985051 0.2279252
0.7775369 0.6023850 0.2381150
0.7855309 0.6055125 0.2524438
0.7955521 0.6137139 0.2663424
0.8064802 0.6172097 0.2808067
0.0658706 0.3661303 0.0736776
0.0658706 0.3661303 0.0736776
0.0658706 0.3661303 0.0736776
0.0665050 0.3683408 0.0730580
0.0684868 0.3752455 0.0709440
0.0716223 0.3861701 0.0724391
0.0742715 0.3954002 0.0742943
0.0776306 0.4071038 0.0776306
0.0819463 0.4221403 0.0819463
0.1507144 0.4349194 0.0856141
0.2057396 0.4498519 0.0898999
0.2564894 0.4608272 0.0930500
0.3066231 0.4754243 0.0972396
0.3506696 0.4854634 0.1001209
0.4036183 0.4984012 0.1038343
0.4471313 0.5086392 0.1067727
0.4914617 0.5246485 0.1113677
0.5250937 0.5332257 0.1138294
0.5617547 0.5421341 0.1220177
0.5923011 0.5496607 0.1307849
0.6201664 0.5610580 0.1387827
0.6439874 0.5694711 0.1456197
0.6643995 0.5744300 0.1514842
0.6858101 0.5846421 0.1642028
0.6989481 0.5889042 0.1786428
0.7201775 0.5943250 0.1922133
0.7354780 0.6035456 0.2058629
0.7495991 0.6112295 0.2271651
0.7674371 0.6159452 0.2412059
0.7784207 0.6244809 0.2549061
0.7904575 0.6282594 0.2692764
0.7985433 0.6362325 0.2836934
0.8096143 0.6393163 0.2946153
0.0723517 0.3887114 0.0879059
0.0723517 0.3887114 0.0879059
0.0723517 0.3887114 0.0879059
0.0726859 0.3898757 0.0876301
0.0749431 0.3977402 0.0857795
0.0777496 0.4075183 0.0881766
0.0805717 0.4173509 0.0905987
0.0844956 0.4310224 0.0857526
0.0896506 0.4489832 0.0896506
0.1428089 0.4592579 0.0925996
0.2044057 0.4706393 0.0958662
0.2570410 0.4830636 0.0994322
0.3106910 0.4969190 0.1034089
0.3557528 0.5084454 0.1067171
0.4014822 0.5187275 0.1096682
0.4456830 0.5298327 0.1128556
0.4866829 0.5447972 0.1171506
0.5294191 0.5551448 0.1201206
0.5625003 0.5634568 0.1260392
0.6015591 0.5726135 0.1368738
0.6286995 0.5864496 0.1477861
0.6511557 0.5913413 0.1531300
0.6664079 0.5961735 0.1677177
0.6845909 0.6013587 0.1815709
0.7067107 0.6114469 0.1945059
0.7226754 0.6156168 0.2049718
0.7376407 0.6222916 0.2187102
0.7569372 0.6318597 0.2321332
0.7702786 0.6360004 0.2465490
0.7811953 0.6443082 0.2605961
0.7932891 0.6482061 0.2752948
0.8044646 0.6519235 0.2900989
0.8123561 0.6598663 0.3050166
0.0796244 0.4140505 0.1031767
0.0796244 0.4140505 0.1031767
0.0796244 0.4140505 0.1031767
0.0796244 0.4140505 0.1031767
0.0815079 0.4206130 0.1017743
0.0844696 0.4309318 0.1043736
0.0866943 0.4386831 0.1023229
0.0913983 0.4550723 0.1030996
0.0958809 0.4706905 0.1041144
0.1334383 0.4812281 0.1030686
0.2006290 0.4928832 0.1045805
0.2578130 0.5064817 0.1061535
0.3144974 0.5186865 0.1096565
0.3614235 0.5306053 0.1150855
0.4078732 0.5410297 0.1169498
0.4486098 0.5534888 0.1260519
0.4943267 0.5675421 0.1267252
0.5288841 0.5764484 0.1379343
0.5710613 0.5846738 0.1365082
0.6026978 0.5926372 0.1485571
0.6294942 0.6017883 0.1610838
0.6523327 0.6123781 0.1737610
0.6704122 0.6177190 0.1877939
0.6863746 0.6214820 0.1942344
0.7080420 0.6272494 0.2080785
0.7246172 0.6366212 0.2214833
0.7447844 0.6441268 0.2352938
0.7585072 0.6478671 0.2458529
0.7704017 0.6560203 0.2599516
0.7827676 0.6600636 0.2747338
0.7949165 0.6640223 0.2895834
0.8069826 0.6711228 0.2965021
0.8144636 0.6765609 0.3119033
0.0864066 0.4376805 0.1191554
0.0864066 0.4376805 0.1191554
0.0864066 0.4376805 0.1191554
0.0864066 0.4376805 0.1191554
0.0880222 0.4433096 0.1181553
0.0905053 0.4519613 0.1217123
0.0928763 0.4602221 0.1199529
0.0977720 0.4772792 0.1215340
0.1013429 0.4897208 0.1239981
0.1384197 0.5039338 0.1197692
0.1981265 0.5134200 0.1194673
0.2588427 0.5274769 0.1209380
0.3068696 0.5393137 0.1302197
0.3619188 0.5512444 0.1318665
0.4094367 0.5617929 0.1340517
0.4567305 0.5741857 0.1356880
0.4928358 0.5836251 0.1467404
0.5372567 0.5970055 0.1484681
0.5706881 0.6055955 0.1604747
0.6031316 0.6152056 0.1685610
0.6304399 0.6211481 0.1735756
0.6503164 0.6269490 0.1874759
0.6716263 0.6370054 0.2008002
0.6933038 0.6417311 0.2067206
0.7096147 0.6466844 0.2209257
0.7310356 0.6544853 0.2347133
0.7438913 0.6629899 0.2487240
0.7578272 0.6674040 0.2632859
0.7717919 0.6706504 0.2702532
0.7847829 0.6791039 0.2847825
0.7971130 0.6826206 0.2959925
0.8086479 0.6885496 0.3113078
0.8199708 0.6963713 0.3261892
0.0932585 0.4615537 0.1365543
0.0932585 0.4615537 0.1365543
0.0932585 0.4615537 0.1365543
0.0932585 0.4615537 0.1365543
0.0945586 0.4660834 0.1359077
0.0963948 0.4724810 0.1348783
